( This gcode generated by /home/mattvenn/.eagle/ulp/pcb-gcode.ulp )
( Copyright 2005 by John Johnson. See readme.txt for licensing terms. )

( This file generated from the board /home/mattvenn/eagle-circuit-designs/scentclock/scentclock_1.brd )
( This file generated 16/01/2012 15:23 )

G21

G90
G00 Z10.0000 
G00 X0 Y0
M03
G04 P3.000000
G00 Z2.0000 
G00 X1.0000 Y56.0000 
G01 Z-2.0000 F400.00 
G01 X111.0000 Y56.0000 
G01 X111.0000 Y31.0000 
G00 Z2.0000 
G00 X111.0000 Y28.0000 
G01 Z-2.0000 F400.00 
G01 X111.0000 Y-1.0000 
G01 X0.0000 Y-1.0000 
G01 X0.0000 Y26.0000 
G00 Z2.0000 
G00 X0.0000 Y29.0000 
G01 Z-2.0000 F400.00 
G01 X0.0000 Y56.0000 
(File Footer)
G00 Z10.0000 
M05
M02
