( This gcode generated by /home/mattvenn/.eagle/ulp/pcb-gcode.ulp )
( Copyright 2005 by John Johnson. See readme.txt for licensing terms. )

( This file generated from the board /home/mattvenn/eagle-circuit-designs/scentclock/scentclock_1.brd )
( This file generated 16/01/2012 15:23 )

( T01 0.609600 )
( T02 0.812800 )
( T03 1.016000 )
( T04 1.117600 )
( T05 1.193800 )
( T06 3.200000 )
G21

G90
M05
G00 X0.0000 Y0.0000 Z10.0000 
M06 T01  ; 0.6096 
G00 Z2.0000 
M03
G04 P3.000000
G82 X-45.3000 Y13.2400 Z-2.0000 F127.00 R2.0000 P0.100000
G82 X-45.3000 Y18.3200 
G82 X-72.0000 Y44.9600 
G82 X-72.0000 Y50.0400 
M05
G00 X0.0000 Y0.0000 Z10.0000 
M06 T02  ; 0.8128 
G00 Z2.0000 
M03
G04 P3.000000
G82 X-100.8100 Y36.0000 Z-2.0000 F127.00 R2.0000 P0.100000
G82 X-100.8100 Y39.0000 
G82 X-16.0900 Y23.4000 
G82 X-16.0900 Y28.4800 
G82 X-18.9500 Y16.1600 
G82 X-23.7100 Y39.4020 
G82 X-23.7100 Y42.9580 
G82 X-26.5700 Y16.1600 
G82 X-28.7900 Y36.1000 
G82 X-31.3300 Y41.4340 
G82 X-31.3300 Y43.4660 
G82 X-35.1400 Y14.5100 
G82 X-35.1400 Y18.3200 
G82 X-36.4100 Y36.1000 
G82 X-37.6800 Y41.4340 
G82 X-37.6800 Y43.4660 
G82 X-37.6800 Y46.5140 
G82 X-37.6800 Y48.5460 
G82 X-40.2200 Y14.5100 
G82 X-40.2200 Y18.3200 
G82 X-42.7600 Y44.9900 
G82 X-47.8400 Y24.6700 
G82 X-47.8400 Y29.7500 
G82 X-47.8400 Y44.9900 
G82 X-51.6500 Y9.4300 
G82 X-51.6500 Y11.9700 
G82 X-51.6500 Y14.5100 
G82 X-51.6500 Y17.0500 
G82 X-51.6500 Y19.5900 
G82 X-51.6500 Y22.1300 
G82 X-51.6500 Y24.6700 
G82 X-51.6500 Y27.2100 
G82 X-51.6500 Y29.7500 
G82 X-51.6500 Y32.2900 
G82 X-51.6500 Y34.8300 
G82 X-51.6500 Y37.3700 
G82 X-51.6500 Y39.9100 
G82 X-51.6500 Y42.4500 
G82 X-55.6900 Y5.5000 
G82 X-59.2700 Y9.4300 
G82 X-59.2700 Y11.9700 
G82 X-59.2700 Y14.5100 
G82 X-59.2700 Y17.0500 
G82 X-59.2700 Y19.5900 
G82 X-59.2700 Y22.1300 
G82 X-59.2700 Y24.6700 
G82 X-59.2700 Y27.2100 
G82 X-59.2700 Y29.7500 
G82 X-59.2700 Y32.2900 
G82 X-59.2700 Y34.8300 
G82 X-59.2700 Y37.3700 
G82 X-59.2700 Y39.9100 
G82 X-59.2700 Y42.4500 
G82 X-63.3100 Y5.5000 
G82 X-64.0000 Y42.6900 
G82 X-64.0000 Y50.3100 
G82 X-66.8000 Y10.8900 
G82 X-66.8000 Y18.5100 
G82 X-67.0000 Y28.6900 
G82 X-67.0000 Y36.3100 
G82 X-67.5000 Y40.1900 
G82 X-67.5000 Y47.8100 
G82 X-73.7300 Y26.4600 
G82 X-73.7300 Y29.0000 
G82 X-73.7300 Y31.5400 
G82 X-73.9900 Y16.4300 
G82 X-73.9900 Y18.9700 
G82 X-73.9900 Y21.5100 
G82 X-77.1900 Y41.1900 
G82 X-77.1900 Y43.7300 
G82 X-77.1900 Y46.2700 
G82 X-77.1900 Y48.8100 
G82 X-80.1900 Y24.0000 
G82 X-80.3200 Y17.8200 
G82 X-84.8100 Y41.1900 
G82 X-84.8100 Y43.7300 
G82 X-84.8100 Y46.2700 
G82 X-84.8100 Y48.8100 
G82 X-87.8100 Y24.0000 
G82 X-87.9400 Y17.8200 
G82 X-90.0000 Y43.4600 
G82 X-90.0000 Y48.5400 
G82 X-93.1900 Y36.0000 
G82 X-93.1900 Y39.0000 
M05
G00 X0.0000 Y0.0000 Z10.0000 
M06 T03  ; 1.0160 
G00 Z2.0000 
M03
G04 P3.000000
G82 X-11.0100 Y8.1600 Z-2.0000 F127.00 R2.0000 P0.100000
G82 X-11.0100 Y10.7000 
G82 X-11.0100 Y13.2400 
G82 X-11.0100 Y15.7800 
G82 X-11.0100 Y20.8600 
G82 X-11.0100 Y23.4000 
G82 X-11.0100 Y25.9400 
G82 X-11.0100 Y28.4800 
G82 X-11.0100 Y31.0200 
G82 X-11.0100 Y33.5600 
G82 X-19.1888 Y28.7594 
G82 X-19.1888 Y33.2806 
G82 X-25.6912 Y28.7594 
G82 X-25.6912 Y33.2806 
G82 X-44.0300 Y48.8000 
G82 X-46.5700 Y48.8000 
G82 X-49.1100 Y48.8000 
G82 X-79.9600 Y12.0400 
G82 X-80.4600 Y30.9600 
G82 X-82.5000 Y12.0400 
G82 X-83.0000 Y30.9600 
G82 X-85.0400 Y12.0400 
G82 X-85.5400 Y30.9600 
G82 X-94.0000 Y6.4600 
G82 X-94.0000 Y9.0000 
G82 X-94.0000 Y11.5400 
G82 X-94.5000 Y18.2300 
G82 X-94.5000 Y20.7700 
G82 X-94.5000 Y28.2300 
G82 X-94.5000 Y30.7700 
G82 X-94.5000 Y43.7300 
G82 X-94.5000 Y46.2700 
M05
G00 X0.0000 Y0.0000 Z10.0000 
M06 T04  ; 1.1176 
G00 Z2.0000 
M03
G04 P3.000000
G82 X-21.1700 Y48.8000 Z-2.0000 F127.00 R2.0000 P0.100000
G82 X-31.3300 Y48.8000 
M05
G00 X0.0000 Y0.0000 Z10.0000 
M06 T05  ; 1.1938 
G00 Z2.0000 
M03
G04 P3.000000
G82 X-12.2800 Y42.4900 Z-2.0000 F127.00 R2.0000 P0.100000
G82 X-12.2800 Y47.4900 
M05
G00 X0.0000 Y0.0000 Z10.0000 
M06 T06  ; 3.2000 
G00 Z2.0000 
M03
G04 P3.000000
G82 X-4.3500 Y4.3500 Z-2.0000 F127.00 R2.0000 P0.100000
G82 X-4.8500 Y51.5700 
G82 X-105.9500 Y51.8500 
G82 X-106.4500 Y4.5700 
(File Footer)
T01 
G00 Z10.0000 
M05
M02
