( This gcode generated by /home/mattvenn/.eagle/ulp/pcb-gcode.ulp )
( Copyright 2005 by John Johnson. See readme.txt for licensing terms. )

( This file generated from the board /home/mattvenn/eagle-circuit-designs/scentclock/scentclock_1.brd )
( This file generated 16/01/2012 13:51 )

G21

G90
G00 Z10.0000 
G00 X0 Y0
M03
G04 P3.000000
G00 Z2.0000 
G00 X-68.8549 Y40.7512 
G01 Z-0.1000 F400.00 
G01 X-68.0612 Y41.5449 
G01 X-66.9387 Y41.5449 
G01 X-66.1450 Y40.7512 
G01 X-66.1450 Y40.2997 
G01 X-60.5664 Y40.2997 
G01 X-60.5093 Y40.3851 
G01 X-60.4055 Y40.4889 
G01 X-60.2834 Y40.5705 
G01 X-60.1478 Y40.6267 
G01 X-60.0038 Y40.6553 
G01 X-58.5361 Y40.6553 
G01 X-58.3921 Y40.6267 
G01 X-58.2565 Y40.5705 
G01 X-58.1344 Y40.4889 
G01 X-58.0306 Y40.3851 
G01 X-57.9490 Y40.2630 
G01 X-57.8928 Y40.1274 
G01 X-57.8642 Y39.9834 
G01 X-57.8642 Y39.8365 
G01 X-57.8928 Y39.6925 
G01 X-57.9490 Y39.5569 
G01 X-58.0306 Y39.4348 
G01 X-58.1344 Y39.3310 
G01 X-58.2565 Y39.2494 
G01 X-58.3921 Y39.1932 
G01 X-58.5361 Y39.1646 
G01 X-60.0038 Y39.1646 
G01 X-60.1478 Y39.1932 
G01 X-60.2834 Y39.2494 
G01 X-60.4055 Y39.3310 
G01 X-60.5093 Y39.4348 
G01 X-60.5664 Y39.5202 
G01 X-66.2535 Y39.5202 
G01 X-66.9387 Y38.8350 
G01 X-68.0612 Y38.8350 
G01 X-68.7464 Y39.5202 
G01 X-71.6102 Y39.5202 
G01 X-71.6102 Y38.0513 
G01 X-71.6102 Y37.9486 
G01 X-71.6368 Y37.8495 
G01 X-71.6881 Y37.7606 
G01 X-71.7606 Y37.6881 
G01 X-71.8495 Y37.6368 
G01 X-71.9486 Y37.6102 
G01 X-84.7586 Y37.6102 
G01 X-84.8613 Y37.6102 
G01 X-84.9604 Y37.6368 
G01 X-85.0493 Y37.6881 
G01 X-85.1218 Y37.7606 
G01 X-85.1731 Y37.8495 
G01 X-85.1997 Y37.9486 
G01 X-85.1997 Y40.4446 
G01 X-85.5438 Y40.4446 
G01 X-85.6878 Y40.4732 
G01 X-85.8234 Y40.5294 
G01 X-85.9455 Y40.6110 
G01 X-86.0493 Y40.7148 
G01 X-86.1309 Y40.8369 
G01 X-86.1871 Y40.9725 
G01 X-86.2157 Y41.1165 
G01 X-86.2157 Y41.2634 
G01 X-86.1871 Y41.4074 
G01 X-86.1309 Y41.5430 
G01 X-86.0493 Y41.6651 
G01 X-85.9455 Y41.7689 
G01 X-85.8234 Y41.8505 
G01 X-85.6878 Y41.9067 
G01 X-85.5438 Y41.9353 
G01 X-84.0761 Y41.9353 
G01 X-83.9321 Y41.9067 
G01 X-83.7965 Y41.8505 
G01 X-83.6744 Y41.7689 
G01 X-83.5706 Y41.6651 
G01 X-83.4890 Y41.5430 
G01 X-83.4328 Y41.4074 
G01 X-83.4042 Y41.2634 
G01 X-83.4042 Y41.1165 
G01 X-83.4328 Y40.9725 
G01 X-83.4890 Y40.8369 
G01 X-83.5706 Y40.7148 
G01 X-83.6744 Y40.6110 
G01 X-83.7965 Y40.5294 
G01 X-83.9321 Y40.4732 
G01 X-84.0761 Y40.4446 
G01 X-84.4202 Y40.4446 
G01 X-84.4202 Y38.3897 
G01 X-72.3897 Y38.3897 
G01 X-72.3897 Y39.9613 
G01 X-72.3631 Y40.0604 
G01 X-72.3118 Y40.1493 
G01 X-72.2393 Y40.2218 
G01 X-72.1504 Y40.2731 
G01 X-72.0513 Y40.2997 
G01 X-71.9486 Y40.2997 
G01 X-68.8549 Y40.2997 
G01 X-68.8549 Y40.7512 
G00 Z2.0000 
G00 X-93.6545 Y29.9230 
G01 Z-0.1000 F400.00 
G01 X-95.3454 Y29.9230 
G01 X-95.5090 Y29.9555 
G01 X-95.6632 Y30.0194 
G01 X-95.8019 Y30.1121 
G01 X-95.9198 Y30.2300 
G01 X-95.9522 Y30.2786 
G01 X-97.5086 Y30.2786 
G01 X-97.5086 Y24.4913 
G01 X-89.1649 Y24.4913 
G01 X-89.1649 Y24.5612 
G01 X-88.3712 Y25.3549 
G01 X-87.2487 Y25.3549 
G01 X-86.4550 Y24.5612 
G01 X-86.4550 Y23.4387 
G01 X-87.2487 Y22.6450 
G01 X-87.3186 Y22.6450 
G01 X-87.3186 Y19.1148 
G01 X-86.5850 Y18.3812 
G01 X-86.5850 Y17.2587 
G01 X-87.3787 Y16.4650 
G01 X-88.5012 Y16.4650 
G01 X-89.2949 Y17.2587 
G01 X-89.2949 Y18.3812 
G01 X-88.5012 Y19.1749 
G01 X-88.3013 Y19.1749 
G01 X-88.3013 Y22.6450 
G01 X-88.3712 Y22.6450 
G01 X-89.1649 Y23.4387 
G01 X-89.1649 Y23.5086 
G01 X-97.5086 Y23.5086 
G01 X-97.5086 Y20.9913 
G01 X-96.0815 Y20.9913 
G01 X-96.0764 Y21.0170 
G01 X-96.0125 Y21.1712 
G01 X-95.9198 Y21.3099 
G01 X-95.8019 Y21.4278 
G01 X-95.6632 Y21.5205 
G01 X-95.5090 Y21.5844 
G01 X-95.3454 Y21.6169 
G01 X-93.6545 Y21.6169 
G01 X-93.4909 Y21.5844 
G01 X-93.3367 Y21.5205 
G01 X-93.1980 Y21.4278 
G01 X-93.0801 Y21.3099 
G01 X-92.9874 Y21.1712 
G01 X-92.9235 Y21.0170 
G01 X-92.8910 Y20.8534 
G01 X-92.8910 Y20.6865 
G01 X-92.9235 Y20.5229 
G01 X-92.9874 Y20.3687 
G01 X-93.0801 Y20.2300 
G01 X-93.1980 Y20.1121 
G01 X-93.3367 Y20.0194 
G01 X-93.4909 Y19.9555 
G01 X-93.6545 Y19.9230 
G01 X-95.3454 Y19.9230 
G01 X-95.5090 Y19.9555 
G01 X-95.6371 Y20.0086 
G01 X-98.0647 Y20.0086 
G01 X-98.1896 Y20.0421 
G01 X-98.3017 Y20.1068 
G01 X-98.3931 Y20.1982 
G01 X-98.4578 Y20.3103 
G01 X-98.4913 Y20.4352 
G01 X-98.4913 Y20.5647 
G01 X-98.4913 Y23.9352 
G01 X-98.4913 Y30.8347 
G01 X-98.4578 Y30.9596 
G01 X-98.3931 Y31.0717 
G01 X-98.3017 Y31.1631 
G01 X-98.1896 Y31.2278 
G01 X-98.0647 Y31.2613 
G01 X-97.9352 Y31.2613 
G01 X-95.9522 Y31.2613 
G01 X-95.9198 Y31.3099 
G01 X-95.8019 Y31.4278 
G01 X-95.7913 Y31.4348 
G01 X-95.7913 Y33.6352 
G01 X-95.7913 Y39.0647 
G01 X-95.7578 Y39.1896 
G01 X-95.6931 Y39.3017 
G01 X-95.6017 Y39.3931 
G01 X-95.4896 Y39.4578 
G01 X-95.3647 Y39.4913 
G01 X-95.2352 Y39.4913 
G01 X-94.5449 Y39.4913 
G01 X-94.5449 Y39.5612 
G01 X-93.7512 Y40.3549 
G01 X-92.6287 Y40.3549 
G01 X-91.8350 Y39.5612 
G01 X-91.8350 Y38.4387 
G01 X-92.6287 Y37.6450 
G01 X-93.7512 Y37.6450 
G01 X-94.5449 Y38.4387 
G01 X-94.5449 Y38.5086 
G01 X-94.8086 Y38.5086 
G01 X-94.8086 Y33.6352 
G01 X-94.8086 Y31.6169 
G01 X-93.6545 Y31.6169 
G01 X-93.4909 Y31.5844 
G01 X-93.3367 Y31.5205 
G01 X-93.1980 Y31.4278 
G01 X-93.0801 Y31.3099 
G01 X-92.9874 Y31.1712 
G01 X-92.9235 Y31.0170 
G01 X-92.8910 Y30.8534 
G01 X-92.8910 Y30.6865 
G01 X-92.9235 Y30.5229 
G01 X-92.9874 Y30.3687 
G01 X-93.0801 Y30.2300 
G01 X-93.1980 Y30.1121 
G01 X-93.3367 Y30.0194 
G01 X-93.4909 Y29.9555 
G01 X-93.6545 Y29.9230 
G00 Z2.0000 
G00 X-93.6545 Y42.8830 
G01 Z-0.1000 F400.00 
G01 X-95.3454 Y42.8830 
G01 X-95.5090 Y42.9155 
G01 X-95.6632 Y42.9794 
G01 X-95.7093 Y43.0102 
G01 X-96.1102 Y43.0102 
G01 X-96.1102 Y32.7513 
G01 X-96.1102 Y32.6486 
G01 X-96.1368 Y32.5495 
G01 X-96.1881 Y32.4606 
G01 X-96.2606 Y32.3881 
G01 X-96.3495 Y32.3368 
G01 X-96.4486 Y32.3102 
G01 X-99.1102 Y32.3102 
G01 X-99.1102 Y11.9297 
G01 X-95.5172 Y11.9297 
G01 X-95.5125 Y11.9412 
G01 X-95.4198 Y12.0799 
G01 X-95.3019 Y12.1978 
G01 X-95.1632 Y12.2905 
G01 X-95.0090 Y12.3544 
G01 X-94.8454 Y12.3869 
G01 X-93.1545 Y12.3869 
G01 X-92.9909 Y12.3544 
G01 X-92.8367 Y12.2905 
G01 X-92.6980 Y12.1978 
G01 X-92.5801 Y12.0799 
G01 X-92.4874 Y11.9412 
G01 X-92.4235 Y11.7870 
G01 X-92.3910 Y11.6234 
G01 X-92.3910 Y11.4565 
G01 X-92.4235 Y11.2929 
G01 X-92.4874 Y11.1387 
G01 X-92.5801 Y11.0000 
G01 X-92.6980 Y10.8821 
G01 X-92.8367 Y10.7894 
G01 X-92.9909 Y10.7255 
G01 X-93.1545 Y10.6930 
G01 X-94.8454 Y10.6930 
G01 X-95.0090 Y10.7255 
G01 X-95.1632 Y10.7894 
G01 X-95.3019 Y10.8821 
G01 X-95.4198 Y11.0000 
G01 X-95.5125 Y11.1387 
G01 X-95.5172 Y11.1502 
G01 X-99.4486 Y11.1502 
G01 X-99.5513 Y11.1502 
G01 X-99.6504 Y11.1768 
G01 X-99.7393 Y11.2281 
G01 X-99.8118 Y11.3006 
G01 X-99.8631 Y11.3895 
G01 X-99.8897 Y11.4886 
G01 X-99.8897 Y32.7513 
G01 X-99.8631 Y32.8504 
G01 X-99.8118 Y32.9393 
G01 X-99.7393 Y33.0118 
G01 X-99.6504 Y33.0631 
G01 X-99.5513 Y33.0897 
G01 X-99.4486 Y33.0897 
G01 X-96.8897 Y33.0897 
G01 X-96.8897 Y43.4513 
G01 X-96.8631 Y43.5504 
G01 X-96.8118 Y43.6393 
G01 X-96.7393 Y43.7118 
G01 X-96.6504 Y43.7631 
G01 X-96.5513 Y43.7897 
G01 X-96.4486 Y43.7897 
G01 X-96.1089 Y43.7897 
G01 X-96.1089 Y43.8134 
G01 X-96.0764 Y43.9770 
G01 X-96.0125 Y44.1312 
G01 X-95.9198 Y44.2699 
G01 X-95.8019 Y44.3878 
G01 X-95.6632 Y44.4805 
G01 X-95.5090 Y44.5444 
G01 X-95.3454 Y44.5769 
G01 X-93.6545 Y44.5769 
G01 X-93.4909 Y44.5444 
G01 X-93.3367 Y44.4805 
G01 X-93.1980 Y44.3878 
G01 X-93.0801 Y44.2699 
G01 X-92.9874 Y44.1312 
G01 X-92.9235 Y43.9770 
G01 X-92.8982 Y43.8497 
G01 X-91.3549 Y43.8497 
G01 X-91.3549 Y44.0212 
G01 X-90.5612 Y44.8149 
G01 X-89.4387 Y44.8149 
G01 X-88.6450 Y44.0212 
G01 X-88.6450 Y42.8987 
G01 X-88.6541 Y42.8897 
G01 X-81.9486 Y42.8897 
G01 X-81.8495 Y42.8631 
G01 X-81.7606 Y42.8118 
G01 X-81.6881 Y42.7393 
G01 X-81.6368 Y42.6504 
G01 X-81.6102 Y42.5513 
G01 X-81.6102 Y42.4486 
G01 X-81.6102 Y41.5797 
G01 X-78.4864 Y41.5797 
G01 X-78.4293 Y41.6651 
G01 X-78.3255 Y41.7689 
G01 X-78.2034 Y41.8505 
G01 X-78.0678 Y41.9067 
G01 X-77.9238 Y41.9353 
G01 X-76.4561 Y41.9353 
G01 X-76.3121 Y41.9067 
G01 X-76.1765 Y41.8505 
G01 X-76.0544 Y41.7689 
G01 X-75.9506 Y41.6651 
G01 X-75.8690 Y41.5430 
G01 X-75.8128 Y41.4074 
G01 X-75.7842 Y41.2634 
G01 X-75.7842 Y41.1165 
G01 X-75.8128 Y40.9725 
G01 X-75.8690 Y40.8369 
G01 X-75.9506 Y40.7148 
G01 X-76.0544 Y40.6110 
G01 X-76.1765 Y40.5294 
G01 X-76.3121 Y40.4732 
G01 X-76.4561 Y40.4446 
G01 X-77.9238 Y40.4446 
G01 X-78.0678 Y40.4732 
G01 X-78.2034 Y40.5294 
G01 X-78.3255 Y40.6110 
G01 X-78.4293 Y40.7148 
G01 X-78.4864 Y40.8002 
G01 X-81.9486 Y40.8002 
G01 X-82.0513 Y40.8002 
G01 X-82.1504 Y40.8268 
G01 X-82.2393 Y40.8781 
G01 X-82.3118 Y40.9506 
G01 X-82.3631 Y41.0395 
G01 X-82.3897 Y41.1386 
G01 X-82.3897 Y42.1102 
G01 X-89.4336 Y42.1102 
G01 X-89.4387 Y42.1050 
G01 X-89.5086 Y42.1050 
G01 X-89.5086 Y36.9913 
G01 X-70.9352 Y36.9913 
G01 X-70.8103 Y36.9578 
G01 X-70.6982 Y36.8931 
G01 X-70.6068 Y36.8017 
G01 X-70.5421 Y36.6896 
G01 X-70.5086 Y36.5647 
G01 X-70.5086 Y36.4352 
G01 X-70.5086 Y32.9913 
G01 X-63.9352 Y32.9913 
G01 X-63.8103 Y32.9578 
G01 X-63.6982 Y32.8931 
G01 X-63.6068 Y32.8017 
G01 X-63.5421 Y32.6896 
G01 X-63.5086 Y32.5647 
G01 X-63.5086 Y32.4352 
G01 X-63.5086 Y26.5247 
G01 X-63.5086 Y16.5647 
G01 X-63.5086 Y16.4352 
G01 X-63.5421 Y16.3103 
G01 X-63.6068 Y16.1982 
G01 X-63.6982 Y16.1068 
G01 X-63.8103 Y16.0421 
G01 X-63.9352 Y16.0086 
G01 X-72.3271 Y16.0086 
G01 X-72.3337 Y15.9926 
G01 X-72.4347 Y15.8415 
G01 X-72.5633 Y15.7129 
G01 X-72.7144 Y15.6119 
G01 X-72.8824 Y15.5423 
G01 X-73.0608 Y15.5068 
G01 X-73.4986 Y15.5068 
G01 X-73.4986 Y11.9752 
G01 X-73.5321 Y11.8503 
G01 X-73.5968 Y11.7382 
G01 X-73.6882 Y11.6468 
G01 X-73.8003 Y11.5821 
G01 X-73.9252 Y11.5486 
G01 X-74.0547 Y11.5486 
G01 X-79.1130 Y11.5486 
G01 X-79.1130 Y11.1945 
G01 X-79.1455 Y11.0309 
G01 X-79.2094 Y10.8767 
G01 X-79.3021 Y10.7380 
G01 X-79.4200 Y10.6201 
G01 X-79.5587 Y10.5274 
G01 X-79.7129 Y10.4635 
G01 X-79.8765 Y10.4310 
G01 X-80.0434 Y10.4310 
G01 X-80.2070 Y10.4635 
G01 X-80.3612 Y10.5274 
G01 X-80.4999 Y10.6201 
G01 X-80.6178 Y10.7380 
G01 X-80.7105 Y10.8767 
G01 X-80.7744 Y11.0309 
G01 X-80.8069 Y11.1945 
G01 X-80.8069 Y12.8854 
G01 X-80.7744 Y13.0490 
G01 X-80.7105 Y13.2032 
G01 X-80.6178 Y13.3419 
G01 X-80.4999 Y13.4598 
G01 X-80.3612 Y13.5525 
G01 X-80.2070 Y13.6164 
G01 X-80.0434 Y13.6489 
G01 X-79.8765 Y13.6489 
G01 X-79.7129 Y13.6164 
G01 X-79.5587 Y13.5525 
G01 X-79.4200 Y13.4598 
G01 X-79.3021 Y13.3419 
G01 X-79.2094 Y13.2032 
G01 X-79.1455 Y13.0490 
G01 X-79.1130 Y12.8854 
G01 X-79.1130 Y12.5313 
G01 X-74.4813 Y12.5313 
G01 X-74.4813 Y15.5068 
G01 X-74.9191 Y15.5068 
G01 X-75.0975 Y15.5423 
G01 X-75.2655 Y15.6119 
G01 X-75.4166 Y15.7129 
G01 X-75.5452 Y15.8415 
G01 X-75.6462 Y15.9926 
G01 X-75.7158 Y16.1606 
G01 X-75.7513 Y16.3390 
G01 X-75.7513 Y16.5209 
G01 X-75.7158 Y16.6993 
G01 X-75.6462 Y16.8673 
G01 X-75.5452 Y17.0184 
G01 X-75.4166 Y17.1470 
G01 X-75.2655 Y17.2480 
G01 X-75.0975 Y17.3176 
G01 X-74.9191 Y17.3531 
G01 X-73.0608 Y17.3531 
G01 X-72.8824 Y17.3176 
G01 X-72.7144 Y17.2480 
G01 X-72.5633 Y17.1470 
G01 X-72.4347 Y17.0184 
G01 X-72.4166 Y16.9913 
G01 X-64.4913 Y16.9913 
G01 X-64.4913 Y25.9686 
G01 X-72.1098 Y25.9686 
G01 X-72.1747 Y25.8715 
G01 X-72.3033 Y25.7429 
G01 X-72.4544 Y25.6419 
G01 X-72.6224 Y25.5723 
G01 X-72.8008 Y25.5368 
G01 X-74.6591 Y25.5368 
G01 X-74.8375 Y25.5723 
G01 X-75.0055 Y25.6419 
G01 X-75.1566 Y25.7429 
G01 X-75.2852 Y25.8715 
G01 X-75.3862 Y26.0226 
G01 X-75.4558 Y26.1906 
G01 X-75.4913 Y26.3690 
G01 X-75.4913 Y26.5509 
G01 X-75.4558 Y26.7293 
G01 X-75.3862 Y26.8973 
G01 X-75.2852 Y27.0484 
G01 X-75.1566 Y27.1770 
G01 X-75.0055 Y27.2780 
G01 X-74.8375 Y27.3476 
G01 X-74.6591 Y27.3831 
G01 X-72.8008 Y27.3831 
G01 X-72.6224 Y27.3476 
G01 X-72.4544 Y27.2780 
G01 X-72.3033 Y27.1770 
G01 X-72.1747 Y27.0484 
G01 X-72.1098 Y26.9513 
G01 X-64.4913 Y26.9513 
G01 X-64.4913 Y32.0086 
G01 X-70.9352 Y32.0086 
G01 X-71.0647 Y32.0086 
G01 X-71.1896 Y32.0421 
G01 X-71.3017 Y32.1068 
G01 X-71.3931 Y32.1982 
G01 X-71.4578 Y32.3103 
G01 X-71.4913 Y32.4352 
G01 X-71.4913 Y36.0086 
G01 X-89.5086 Y36.0086 
G01 X-89.5086 Y31.4513 
G01 X-86.3869 Y31.4513 
G01 X-86.3869 Y31.8054 
G01 X-86.3544 Y31.9690 
G01 X-86.2905 Y32.1232 
G01 X-86.1978 Y32.2619 
G01 X-86.0799 Y32.3798 
G01 X-85.9412 Y32.4725 
G01 X-85.7870 Y32.5364 
G01 X-85.6234 Y32.5689 
G01 X-85.4565 Y32.5689 
G01 X-85.2929 Y32.5364 
G01 X-85.1387 Y32.4725 
G01 X-85.0000 Y32.3798 
G01 X-84.8821 Y32.2619 
G01 X-84.7894 Y32.1232 
G01 X-84.7255 Y31.9690 
G01 X-84.6930 Y31.8054 
G01 X-84.6930 Y30.1145 
G01 X-84.7255 Y29.9509 
G01 X-84.7894 Y29.7967 
G01 X-84.8821 Y29.6580 
G01 X-85.0000 Y29.5401 
G01 X-85.1387 Y29.4474 
G01 X-85.2929 Y29.3835 
G01 X-85.4565 Y29.3510 
G01 X-85.6234 Y29.3510 
G01 X-85.7870 Y29.3835 
G01 X-85.9412 Y29.4474 
G01 X-86.0799 Y29.5401 
G01 X-86.1978 Y29.6580 
G01 X-86.2905 Y29.7967 
G01 X-86.3544 Y29.9509 
G01 X-86.3869 Y30.1145 
G01 X-86.3869 Y30.4686 
G01 X-89.9352 Y30.4686 
G01 X-90.0647 Y30.4686 
G01 X-90.1896 Y30.5021 
G01 X-90.3017 Y30.5668 
G01 X-90.3931 Y30.6582 
G01 X-90.4578 Y30.7703 
G01 X-90.4913 Y30.8952 
G01 X-90.4913 Y35.5086 
G01 X-91.8350 Y35.5086 
G01 X-91.8350 Y35.4387 
G01 X-92.6287 Y34.6450 
G01 X-93.7512 Y34.6450 
G01 X-94.5449 Y35.4387 
G01 X-94.5449 Y36.5612 
G01 X-93.7512 Y37.3549 
G01 X-92.6287 Y37.3549 
G01 X-91.8350 Y36.5612 
G01 X-91.8350 Y36.4913 
G01 X-90.4913 Y36.4913 
G01 X-90.4913 Y36.5647 
G01 X-90.4913 Y42.1050 
G01 X-90.5612 Y42.1050 
G01 X-91.3549 Y42.8987 
G01 X-91.3549 Y43.0702 
G01 X-93.2009 Y43.0702 
G01 X-93.3367 Y42.9794 
G01 X-93.4909 Y42.9155 
G01 X-93.6545 Y42.8830 
G00 Z2.0000 
G00 X-73.3549 Y44.3987 
G01 Z-0.1000 F400.00 
G01 X-73.3549 Y44.5702 
G01 X-73.9486 Y44.5702 
G01 X-74.0513 Y44.5702 
G01 X-74.1504 Y44.5968 
G01 X-74.2393 Y44.6481 
G01 X-74.3118 Y44.7206 
G01 X-74.3631 Y44.8095 
G01 X-74.3897 Y44.9086 
G01 X-74.3897 Y45.9102 
G01 X-75.8735 Y45.9102 
G01 X-75.9506 Y45.7948 
G01 X-76.0544 Y45.6910 
G01 X-76.1765 Y45.6094 
G01 X-76.3121 Y45.5532 
G01 X-76.4561 Y45.5246 
G01 X-77.9238 Y45.5246 
G01 X-78.0678 Y45.5532 
G01 X-78.2034 Y45.6094 
G01 X-78.3255 Y45.6910 
G01 X-78.4293 Y45.7948 
G01 X-78.5109 Y45.9169 
G01 X-78.5671 Y46.0525 
G01 X-78.5957 Y46.1965 
G01 X-78.5957 Y46.3434 
G01 X-78.5671 Y46.4874 
G01 X-78.5109 Y46.6230 
G01 X-78.4293 Y46.7451 
G01 X-78.3255 Y46.8489 
G01 X-78.2034 Y46.9305 
G01 X-78.0678 Y46.9867 
G01 X-77.9238 Y47.0153 
G01 X-76.4561 Y47.0153 
G01 X-76.3121 Y46.9867 
G01 X-76.1765 Y46.9305 
G01 X-76.0544 Y46.8489 
G01 X-75.9506 Y46.7451 
G01 X-75.9136 Y46.6897 
G01 X-73.9486 Y46.6897 
G01 X-73.8495 Y46.6631 
G01 X-73.7606 Y46.6118 
G01 X-73.6881 Y46.5393 
G01 X-73.6368 Y46.4504 
G01 X-73.6102 Y46.3513 
G01 X-73.6102 Y46.2486 
G01 X-73.6102 Y45.3497 
G01 X-73.3549 Y45.3497 
G01 X-73.3549 Y45.5212 
G01 X-72.5612 Y46.3149 
G01 X-71.4387 Y46.3149 
G01 X-70.6450 Y45.5212 
G01 X-70.6450 Y44.3987 
G01 X-71.4387 Y43.6050 
G01 X-72.5612 Y43.6050 
G01 X-73.3549 Y44.3987 
G00 Z2.0000 
G00 X-73.3549 Y49.4787 
G01 Z-0.1000 F400.00 
G01 X-73.3549 Y50.6012 
G01 X-72.5612 Y51.3949 
G01 X-71.4387 Y51.3949 
G01 X-70.6450 Y50.6012 
G01 X-70.6450 Y49.4787 
G01 X-71.4387 Y48.6850 
G01 X-71.6300 Y48.6850 
G01 X-71.6368 Y48.6595 
G01 X-71.6881 Y48.5706 
G01 X-71.7606 Y48.4981 
G01 X-71.8495 Y48.4468 
G01 X-71.9486 Y48.4202 
G01 X-75.8936 Y48.4202 
G01 X-75.9506 Y48.3348 
G01 X-76.0544 Y48.2310 
G01 X-76.1765 Y48.1494 
G01 X-76.3121 Y48.0932 
G01 X-76.4561 Y48.0646 
G01 X-77.9238 Y48.0646 
G01 X-78.0678 Y48.0932 
G01 X-78.2034 Y48.1494 
G01 X-78.3255 Y48.2310 
G01 X-78.4293 Y48.3348 
G01 X-78.5109 Y48.4569 
G01 X-78.5671 Y48.5925 
G01 X-78.5957 Y48.7365 
G01 X-78.5957 Y48.8834 
G01 X-78.5671 Y49.0274 
G01 X-78.5109 Y49.1630 
G01 X-78.4293 Y49.2851 
G01 X-78.3255 Y49.3889 
G01 X-78.2034 Y49.4705 
G01 X-78.0678 Y49.5267 
G01 X-77.9238 Y49.5553 
G01 X-76.4561 Y49.5553 
G01 X-76.3121 Y49.5267 
G01 X-76.1765 Y49.4705 
G01 X-76.0544 Y49.3889 
G01 X-75.9506 Y49.2851 
G01 X-75.8936 Y49.1997 
G01 X-73.0758 Y49.1997 
G01 X-73.3549 Y49.4787 
G00 Z2.0000 
G00 X-85.5438 Y44.4753 
G01 Z-0.1000 F400.00 
G01 X-84.0761 Y44.4753 
G01 X-83.9321 Y44.4467 
G01 X-83.7965 Y44.3905 
G01 X-83.6744 Y44.3089 
G01 X-83.5706 Y44.2051 
G01 X-83.5136 Y44.1197 
G01 X-81.0513 Y44.1197 
G01 X-80.9486 Y44.1197 
G01 X-80.8495 Y44.0931 
G01 X-80.7606 Y44.0418 
G01 X-80.6881 Y43.9693 
G01 X-80.6368 Y43.8804 
G01 X-80.6102 Y43.7813 
G01 X-80.6102 Y42.8897 
G01 X-65.3549 Y42.8897 
G01 X-65.3549 Y43.2512 
G01 X-64.5612 Y44.0449 
G01 X-63.4387 Y44.0449 
G01 X-62.6450 Y43.2512 
G01 X-62.6450 Y42.8397 
G01 X-60.5663 Y42.8397 
G01 X-60.5093 Y42.9251 
G01 X-60.4055 Y43.0289 
G01 X-60.2834 Y43.1105 
G01 X-60.1478 Y43.1667 
G01 X-60.0038 Y43.1953 
G01 X-58.5361 Y43.1953 
G01 X-58.3921 Y43.1667 
G01 X-58.2565 Y43.1105 
G01 X-58.1344 Y43.0289 
G01 X-58.0306 Y42.9251 
G01 X-57.9490 Y42.8030 
G01 X-57.8928 Y42.6674 
G01 X-57.8642 Y42.5234 
G01 X-57.8642 Y42.3765 
G01 X-57.8928 Y42.2325 
G01 X-57.9490 Y42.0969 
G01 X-58.0306 Y41.9748 
G01 X-58.1344 Y41.8710 
G01 X-58.2565 Y41.7894 
G01 X-58.3921 Y41.7332 
G01 X-58.5361 Y41.7046 
G01 X-60.0038 Y41.7046 
G01 X-60.1478 Y41.7332 
G01 X-60.2834 Y41.7894 
G01 X-60.4055 Y41.8710 
G01 X-60.5093 Y41.9748 
G01 X-60.5663 Y42.0602 
G01 X-62.7136 Y42.0602 
G01 X-63.4387 Y41.3350 
G01 X-64.5612 Y41.3350 
G01 X-65.3363 Y42.1102 
G01 X-81.0513 Y42.1102 
G01 X-81.1504 Y42.1368 
G01 X-81.2393 Y42.1881 
G01 X-81.3118 Y42.2606 
G01 X-81.3631 Y42.3495 
G01 X-81.3897 Y42.4486 
G01 X-81.3897 Y42.5513 
G01 X-81.3897 Y43.3402 
G01 X-83.5136 Y43.3402 
G01 X-83.5706 Y43.2548 
G01 X-83.6744 Y43.1510 
G01 X-83.7965 Y43.0694 
G01 X-83.9321 Y43.0132 
G01 X-84.0761 Y42.9846 
G01 X-85.5438 Y42.9846 
G01 X-85.6878 Y43.0132 
G01 X-85.8234 Y43.0694 
G01 X-85.9455 Y43.1510 
G01 X-86.0493 Y43.2548 
G01 X-86.1309 Y43.3769 
G01 X-86.1871 Y43.5125 
G01 X-86.2157 Y43.6565 
G01 X-86.2157 Y43.8034 
G01 X-86.1871 Y43.9474 
G01 X-86.1309 Y44.0830 
G01 X-86.0493 Y44.2051 
G01 X-85.9455 Y44.3089 
G01 X-85.8234 Y44.3905 
G01 X-85.6878 Y44.4467 
G01 X-85.5438 Y44.4753 
G00 Z2.0000 
G00 X-77.9238 Y44.4753 
G01 Z-0.1000 F400.00 
G01 X-76.4561 Y44.4753 
G01 X-76.3121 Y44.4467 
G01 X-76.1765 Y44.3905 
G01 X-76.0544 Y44.3089 
G01 X-75.9506 Y44.2051 
G01 X-75.8690 Y44.0830 
G01 X-75.8128 Y43.9474 
G01 X-75.7842 Y43.8034 
G01 X-75.7842 Y43.6565 
G01 X-75.8128 Y43.5125 
G01 X-75.8690 Y43.3769 
G01 X-75.9506 Y43.2548 
G01 X-76.0544 Y43.1510 
G01 X-76.1765 Y43.0694 
G01 X-76.3121 Y43.0132 
G01 X-76.4561 Y42.9846 
G01 X-77.9238 Y42.9846 
G01 X-78.0678 Y43.0132 
G01 X-78.2034 Y43.0694 
G01 X-78.3255 Y43.1510 
G01 X-78.4293 Y43.2548 
G01 X-78.4864 Y43.3402 
G01 X-79.4486 Y43.3402 
G01 X-79.5513 Y43.3402 
G01 X-79.6504 Y43.3668 
G01 X-79.7393 Y43.4181 
G01 X-79.8118 Y43.4906 
G01 X-79.8631 Y43.5795 
G01 X-79.8897 Y43.6786 
G01 X-79.8897 Y44.6102 
G01 X-87.4486 Y44.6102 
G01 X-87.5513 Y44.6102 
G01 X-87.6504 Y44.6368 
G01 X-87.7393 Y44.6881 
G01 X-87.8118 Y44.7606 
G01 X-87.8631 Y44.8495 
G01 X-87.8897 Y44.9486 
G01 X-87.8897 Y45.6102 
G01 X-93.2009 Y45.6102 
G01 X-93.3367 Y45.5194 
G01 X-93.4909 Y45.4555 
G01 X-93.6545 Y45.4230 
G01 X-95.3454 Y45.4230 
G01 X-95.5090 Y45.4555 
G01 X-95.6632 Y45.5194 
G01 X-95.8019 Y45.6121 
G01 X-95.9198 Y45.7300 
G01 X-96.0125 Y45.8687 
G01 X-96.0764 Y46.0229 
G01 X-96.1089 Y46.1865 
G01 X-96.1089 Y46.3534 
G01 X-96.0764 Y46.5170 
G01 X-96.0125 Y46.6712 
G01 X-95.9198 Y46.8099 
G01 X-95.8019 Y46.9278 
G01 X-95.6632 Y47.0205 
G01 X-95.5090 Y47.0844 
G01 X-95.3454 Y47.1169 
G01 X-93.6545 Y47.1169 
G01 X-93.4909 Y47.0844 
G01 X-93.3367 Y47.0205 
G01 X-93.1980 Y46.9278 
G01 X-93.0801 Y46.8099 
G01 X-92.9874 Y46.6712 
G01 X-92.9235 Y46.5170 
G01 X-92.8983 Y46.3897 
G01 X-87.4486 Y46.3897 
G01 X-87.3495 Y46.3631 
G01 X-87.2606 Y46.3118 
G01 X-87.1881 Y46.2393 
G01 X-87.1368 Y46.1504 
G01 X-87.1102 Y46.0513 
G01 X-87.1102 Y45.9486 
G01 X-87.1102 Y45.3897 
G01 X-79.4486 Y45.3897 
G01 X-79.3495 Y45.3631 
G01 X-79.2606 Y45.3118 
G01 X-79.1881 Y45.2393 
G01 X-79.1368 Y45.1504 
G01 X-79.1102 Y45.0513 
G01 X-79.1102 Y44.9486 
G01 X-79.1102 Y44.1197 
G01 X-78.4864 Y44.1197 
G01 X-78.4293 Y44.2051 
G01 X-78.3255 Y44.3089 
G01 X-78.2034 Y44.3905 
G01 X-78.0678 Y44.4467 
G01 X-77.9238 Y44.4753 
G00 Z2.0000 
G00 X-85.5438 Y47.0153 
G01 Z-0.1000 F400.00 
G01 X-84.0761 Y47.0153 
G01 X-83.9321 Y46.9867 
G01 X-83.7965 Y46.9305 
G01 X-83.6744 Y46.8489 
G01 X-83.5706 Y46.7451 
G01 X-83.4890 Y46.6230 
G01 X-83.4328 Y46.4874 
G01 X-83.4042 Y46.3434 
G01 X-83.4042 Y46.1965 
G01 X-83.4328 Y46.0525 
G01 X-83.4890 Y45.9169 
G01 X-83.5706 Y45.7948 
G01 X-83.6744 Y45.6910 
G01 X-83.7965 Y45.6094 
G01 X-83.9321 Y45.5532 
G01 X-84.0761 Y45.5246 
G01 X-85.5438 Y45.5246 
G01 X-85.6878 Y45.5532 
G01 X-85.8234 Y45.6094 
G01 X-85.9455 Y45.6910 
G01 X-86.0493 Y45.7948 
G01 X-86.1309 Y45.9169 
G01 X-86.1871 Y46.0525 
G01 X-86.2157 Y46.1965 
G01 X-86.2157 Y46.3434 
G01 X-86.1871 Y46.4874 
G01 X-86.1309 Y46.6230 
G01 X-86.0493 Y46.7451 
G01 X-85.9455 Y46.8489 
G01 X-85.8234 Y46.9305 
G01 X-85.6878 Y46.9867 
G01 X-85.5438 Y47.0153 
G00 Z2.0000 
G00 X-93.1545 Y5.6130 
G01 Z-0.1000 F400.00 
G01 X-94.8454 Y5.6130 
G01 X-95.0090 Y5.6455 
G01 X-95.1632 Y5.7094 
G01 X-95.3019 Y5.8021 
G01 X-95.4198 Y5.9200 
G01 X-95.5125 Y6.0587 
G01 X-95.5172 Y6.0702 
G01 X-101.0513 Y6.0702 
G01 X-101.1504 Y6.0968 
G01 X-101.2393 Y6.1481 
G01 X-101.3118 Y6.2206 
G01 X-101.3631 Y6.3095 
G01 X-101.3897 Y6.4086 
G01 X-101.3897 Y6.5113 
G01 X-101.3897 Y33.8486 
G01 X-101.3897 Y33.9513 
G01 X-101.3631 Y34.0504 
G01 X-101.3118 Y34.1393 
G01 X-101.2393 Y34.2118 
G01 X-101.1504 Y34.2631 
G01 X-101.0513 Y34.2897 
G01 X-97.8897 Y34.2897 
G01 X-97.8897 Y48.9486 
G01 X-97.8897 Y49.0513 
G01 X-97.8631 Y49.1504 
G01 X-97.8118 Y49.2393 
G01 X-97.7393 Y49.3118 
G01 X-97.6504 Y49.3631 
G01 X-97.5513 Y49.3897 
G01 X-91.0663 Y49.3897 
G01 X-90.5612 Y49.8949 
G01 X-89.4387 Y49.8949 
G01 X-88.7436 Y49.1997 
G01 X-86.1063 Y49.1997 
G01 X-86.0493 Y49.2851 
G01 X-85.9455 Y49.3889 
G01 X-85.8234 Y49.4705 
G01 X-85.6878 Y49.5267 
G01 X-85.5438 Y49.5553 
G01 X-84.0761 Y49.5553 
G01 X-83.9321 Y49.5267 
G01 X-83.7965 Y49.4705 
G01 X-83.6744 Y49.3889 
G01 X-83.5706 Y49.2851 
G01 X-83.4890 Y49.1630 
G01 X-83.4328 Y49.0274 
G01 X-83.4042 Y48.8834 
G01 X-83.4042 Y48.7365 
G01 X-83.4328 Y48.5925 
G01 X-83.4890 Y48.4569 
G01 X-83.5706 Y48.3348 
G01 X-83.6744 Y48.2310 
G01 X-83.7965 Y48.1494 
G01 X-83.9321 Y48.0932 
G01 X-84.0761 Y48.0646 
G01 X-84.4202 Y48.0646 
G01 X-84.4202 Y47.8897 
G01 X-74.8820 Y47.8897 
G01 X-74.8631 Y47.9604 
G01 X-74.8118 Y48.0493 
G01 X-74.7393 Y48.1218 
G01 X-74.6504 Y48.1731 
G01 X-74.5513 Y48.1997 
G01 X-68.8549 Y48.1997 
G01 X-68.8549 Y48.3712 
G01 X-68.0612 Y49.1649 
G01 X-67.8897 Y49.1649 
G01 X-67.8897 Y50.4486 
G01 X-67.8897 Y50.5513 
G01 X-67.8631 Y50.6504 
G01 X-67.8118 Y50.7393 
G01 X-67.7393 Y50.8118 
G01 X-67.6504 Y50.8631 
G01 X-67.5513 Y50.8897 
G01 X-65.3363 Y50.8897 
G01 X-64.5612 Y51.6649 
G01 X-63.4387 Y51.6649 
G01 X-62.6450 Y50.8712 
G01 X-62.6450 Y50.6997 
G01 X-49.0586 Y50.6997 
G01 X-48.9595 Y50.6731 
G01 X-48.8706 Y50.6218 
G01 X-48.7981 Y50.5493 
G01 X-48.7468 Y50.4604 
G01 X-48.7202 Y50.3613 
G01 X-48.7202 Y50.3172 
G01 X-48.7087 Y50.3125 
G01 X-48.5700 Y50.2198 
G01 X-48.4521 Y50.1019 
G01 X-48.3594 Y49.9632 
G01 X-48.2955 Y49.8090 
G01 X-48.2630 Y49.6454 
G01 X-48.2630 Y47.9545 
G01 X-48.2955 Y47.7909 
G01 X-48.3594 Y47.6367 
G01 X-48.3900 Y47.5909 
G01 X-48.3900 Y46.3449 
G01 X-47.2787 Y46.3449 
G01 X-46.4850 Y45.5512 
G01 X-46.4850 Y44.9519 
G01 X-43.8120 Y43.1699 
G01 X-40.2909 Y43.1699 
G01 X-40.1490 Y43.1699 
G01 X-40.0099 Y43.1422 
G01 X-39.8789 Y43.0880 
G01 X-39.7610 Y43.0092 
G01 X-39.6607 Y42.9089 
G01 X-39.5819 Y42.7910 
G01 X-39.5277 Y42.6600 
G01 X-39.5000 Y42.5209 
G01 X-39.5000 Y41.8999 
G01 X-38.5400 Y41.8999 
G01 X-38.4365 Y42.0548 
G01 X-38.3008 Y42.1905 
G01 X-38.1413 Y42.2971 
G01 X-37.9641 Y42.3705 
G01 X-37.7759 Y42.4079 
G01 X-37.5840 Y42.4079 
G01 X-37.3958 Y42.3705 
G01 X-37.2186 Y42.2971 
G01 X-37.0591 Y42.1905 
G01 X-37.0225 Y42.1539 
G01 X-31.9874 Y42.1539 
G01 X-31.9508 Y42.1905 
G01 X-31.7913 Y42.2971 
G01 X-31.6141 Y42.3705 
G01 X-31.4259 Y42.4079 
G01 X-31.2340 Y42.4079 
G01 X-31.0458 Y42.3705 
G01 X-30.8686 Y42.2971 
G01 X-30.7091 Y42.1905 
G01 X-30.5734 Y42.0548 
G01 X-30.4668 Y41.8953 
G01 X-30.3934 Y41.7181 
G01 X-30.3560 Y41.5299 
G01 X-30.3560 Y41.3380 
G01 X-30.3934 Y41.1498 
G01 X-30.4668 Y40.9726 
G01 X-30.5734 Y40.8131 
G01 X-30.6100 Y40.7765 
G01 X-30.6100 Y36.8199 
G01 X-29.9862 Y36.8199 
G01 X-29.3512 Y37.4549 
G01 X-28.2287 Y37.4549 
G01 X-27.4350 Y36.6612 
G01 X-27.4350 Y36.5913 
G01 X-22.5047 Y36.5913 
G01 X-22.3752 Y36.5913 
G01 X-22.2503 Y36.5578 
G01 X-22.1382 Y36.4931 
G01 X-22.0468 Y36.4017 
G01 X-21.9821 Y36.2896 
G01 X-21.9486 Y36.1647 
G01 X-21.9486 Y31.5113 
G01 X-13.6147 Y31.5113 
G01 X-13.4852 Y31.5113 
G01 X-13.3603 Y31.4778 
G01 X-13.2482 Y31.4131 
G01 X-13.1568 Y31.3217 
G01 X-13.0921 Y31.2096 
G01 X-13.0586 Y31.0847 
G01 X-13.0586 Y28.9713 
G01 X-12.7420 Y28.9713 
G01 X-12.6555 Y29.1008 
G01 X-12.5198 Y29.2365 
G01 X-12.3603 Y29.3431 
G01 X-12.1831 Y29.4165 
G01 X-11.9949 Y29.4539 
G01 X-10.0250 Y29.4539 
G01 X-9.8368 Y29.4165 
G01 X-9.6596 Y29.3431 
G01 X-9.5001 Y29.2365 
G01 X-9.3644 Y29.1008 
G01 X-9.2578 Y28.9413 
G01 X-9.1844 Y28.7641 
G01 X-9.1470 Y28.5759 
G01 X-9.1470 Y28.3840 
G01 X-9.1844 Y28.1958 
G01 X-9.2578 Y28.0186 
G01 X-9.3644 Y27.8591 
G01 X-9.5001 Y27.7234 
G01 X-9.6596 Y27.6168 
G01 X-9.8368 Y27.5434 
G01 X-10.0250 Y27.5060 
G01 X-11.9949 Y27.5060 
G01 X-12.1831 Y27.5434 
G01 X-12.3603 Y27.6168 
G01 X-12.5198 Y27.7234 
G01 X-12.6555 Y27.8591 
G01 X-12.7420 Y27.9886 
G01 X-13.6147 Y27.9886 
G01 X-13.7396 Y28.0221 
G01 X-13.8517 Y28.0868 
G01 X-13.9431 Y28.1782 
G01 X-14.0078 Y28.2903 
G01 X-14.0413 Y28.4152 
G01 X-14.0413 Y28.5447 
G01 X-14.0413 Y30.5286 
G01 X-22.5047 Y30.5286 
G01 X-22.6296 Y30.5621 
G01 X-22.7417 Y30.6268 
G01 X-22.8331 Y30.7182 
G01 X-22.8978 Y30.8303 
G01 X-22.9313 Y30.9552 
G01 X-22.9313 Y31.0847 
G01 X-22.9313 Y35.6086 
G01 X-27.4350 Y35.6086 
G01 X-27.4350 Y35.5387 
G01 X-28.2287 Y34.7450 
G01 X-29.3512 Y34.7450 
G01 X-29.9862 Y35.3800 
G01 X-31.4009 Y35.3800 
G01 X-31.5400 Y35.4077 
G01 X-31.6710 Y35.4619 
G01 X-31.7889 Y35.5407 
G01 X-31.8892 Y35.6410 
G01 X-31.9680 Y35.7589 
G01 X-32.0222 Y35.8899 
G01 X-32.0499 Y36.0290 
G01 X-32.0499 Y36.1709 
G01 X-32.0499 Y40.7140 
G01 X-37.0225 Y40.7140 
G01 X-37.0591 Y40.6774 
G01 X-37.2186 Y40.5708 
G01 X-37.3958 Y40.4974 
G01 X-37.5840 Y40.4600 
G01 X-37.7759 Y40.4600 
G01 X-40.2909 Y40.4600 
G01 X-40.4300 Y40.4877 
G01 X-40.5610 Y40.5419 
G01 X-40.6789 Y40.6207 
G01 X-40.7792 Y40.7210 
G01 X-40.8580 Y40.8389 
G01 X-40.9122 Y40.9699 
G01 X-40.9399 Y41.1090 
G01 X-40.9399 Y41.2509 
G01 X-40.9399 Y41.7300 
G01 X-44.0316 Y41.7300 
G01 X-44.1002 Y41.7299 
G01 X-44.1006 Y41.7300 
G01 X-44.1009 Y41.7300 
G01 X-44.1299 Y41.7358 
G01 X-44.2393 Y41.7574 
G01 X-44.3703 Y41.8116 
G01 X-44.3703 Y41.8117 
G01 X-44.3710 Y41.8119 
G01 X-44.4706 Y41.8785 
G01 X-47.2094 Y43.7044 
G01 X-47.2787 Y43.6350 
G01 X-48.4012 Y43.6350 
G01 X-49.0361 Y44.2700 
G01 X-49.0390 Y44.2700 
G01 X-49.1809 Y44.2700 
G01 X-49.3200 Y44.2977 
G01 X-49.4510 Y44.3519 
G01 X-49.5689 Y44.4307 
G01 X-49.6692 Y44.5310 
G01 X-49.7221 Y44.6102 
G01 X-54.6102 Y44.6102 
G01 X-54.6102 Y33.9515 
G01 X-48.4486 Y33.9515 
G01 X-48.3495 Y33.9249 
G01 X-48.2606 Y33.8736 
G01 X-48.1881 Y33.8011 
G01 X-48.1368 Y33.7122 
G01 X-48.1102 Y33.6131 
G01 X-48.1102 Y33.5104 
G01 X-48.1102 Y31.1049 
G01 X-47.2787 Y31.1049 
G01 X-46.4850 Y30.3112 
G01 X-46.4850 Y29.1887 
G01 X-47.1200 Y28.5538 
G01 X-47.1200 Y27.1390 
G01 X-47.1477 Y26.9999 
G01 X-47.2019 Y26.8689 
G01 X-47.2807 Y26.7510 
G01 X-47.3810 Y26.6507 
G01 X-47.4989 Y26.5719 
G01 X-47.6299 Y26.5177 
G01 X-47.7690 Y26.4900 
G01 X-47.9109 Y26.4900 
G01 X-50.7884 Y26.4900 
G01 X-50.9161 Y26.4646 
G01 X-52.3838 Y26.4646 
G01 X-52.5278 Y26.4932 
G01 X-52.6634 Y26.5494 
G01 X-52.7855 Y26.6310 
G01 X-52.8893 Y26.7348 
G01 X-52.9463 Y26.8202 
G01 X-55.1102 Y26.8202 
G01 X-55.1102 Y22.0513 
G01 X-55.1102 Y21.9486 
G01 X-55.1368 Y21.8495 
G01 X-55.1881 Y21.7606 
G01 X-55.2606 Y21.6881 
G01 X-55.3495 Y21.6368 
G01 X-55.4486 Y21.6102 
G01 X-58.0752 Y21.6102 
G01 X-58.1344 Y21.5510 
G01 X-58.2565 Y21.4694 
G01 X-58.3921 Y21.4132 
G01 X-58.5361 Y21.3846 
G01 X-60.0038 Y21.3846 
G01 X-60.1478 Y21.4132 
G01 X-60.2834 Y21.4694 
G01 X-60.4055 Y21.5510 
G01 X-60.5093 Y21.6548 
G01 X-60.5909 Y21.7769 
G01 X-60.6471 Y21.9125 
G01 X-60.6757 Y22.0565 
G01 X-60.6757 Y22.2034 
G01 X-60.6471 Y22.3474 
G01 X-60.5909 Y22.4830 
G01 X-60.5093 Y22.6051 
G01 X-60.4055 Y22.7089 
G01 X-60.2834 Y22.7905 
G01 X-60.1478 Y22.8467 
G01 X-60.0038 Y22.8753 
G01 X-58.5361 Y22.8753 
G01 X-58.3921 Y22.8467 
G01 X-58.2565 Y22.7905 
G01 X-58.1344 Y22.7089 
G01 X-58.0306 Y22.6051 
G01 X-57.9490 Y22.4830 
G01 X-57.9104 Y22.3897 
G01 X-55.8897 Y22.3897 
G01 X-55.8897 Y27.1585 
G01 X-55.8897 Y27.1586 
G01 X-55.8897 Y27.2613 
G01 X-55.8631 Y27.3604 
G01 X-55.8118 Y27.4493 
G01 X-55.7393 Y27.5218 
G01 X-55.6504 Y27.5731 
G01 X-55.5513 Y27.5997 
G01 X-52.9463 Y27.5997 
G01 X-52.8893 Y27.6851 
G01 X-52.7855 Y27.7889 
G01 X-52.6634 Y27.8705 
G01 X-52.5278 Y27.9267 
G01 X-52.3838 Y27.9553 
G01 X-50.9161 Y27.9553 
G01 X-50.7884 Y27.9299 
G01 X-48.5599 Y27.9299 
G01 X-48.5599 Y28.5538 
G01 X-49.1949 Y29.1887 
G01 X-49.1949 Y30.3112 
G01 X-48.8897 Y30.6163 
G01 X-48.8897 Y33.1720 
G01 X-54.9486 Y33.1720 
G01 X-55.0513 Y33.1720 
G01 X-55.1504 Y33.1986 
G01 X-55.2393 Y33.2499 
G01 X-55.3118 Y33.3224 
G01 X-55.3631 Y33.4113 
G01 X-55.3897 Y33.5104 
G01 X-55.3897 Y44.9486 
G01 X-55.3897 Y45.0513 
G01 X-55.3631 Y45.1504 
G01 X-55.3118 Y45.2393 
G01 X-55.2393 Y45.3118 
G01 X-55.1504 Y45.3631 
G01 X-55.0513 Y45.3897 
G01 X-49.8299 Y45.3897 
G01 X-49.8299 Y47.5909 
G01 X-49.8605 Y47.6367 
G01 X-49.9244 Y47.7909 
G01 X-49.9569 Y47.9545 
G01 X-49.9569 Y49.6454 
G01 X-49.9244 Y49.8090 
G01 X-49.8783 Y49.9202 
G01 X-62.6450 Y49.9202 
G01 X-62.6450 Y49.7487 
G01 X-63.4387 Y48.9550 
G01 X-64.5612 Y48.9550 
G01 X-65.3549 Y49.7487 
G01 X-65.3549 Y50.1102 
G01 X-67.1102 Y50.1102 
G01 X-67.1102 Y49.1649 
G01 X-66.9387 Y49.1649 
G01 X-66.1450 Y48.3712 
G01 X-66.1450 Y47.2487 
G01 X-66.9387 Y46.4550 
G01 X-68.0612 Y46.4550 
G01 X-68.8549 Y47.2487 
G01 X-68.8549 Y47.4202 
G01 X-74.1179 Y47.4202 
G01 X-74.1368 Y47.3495 
G01 X-74.1881 Y47.2606 
G01 X-74.2606 Y47.1881 
G01 X-74.3495 Y47.1368 
G01 X-74.4486 Y47.1102 
G01 X-84.7586 Y47.1102 
G01 X-84.8613 Y47.1102 
G01 X-84.9604 Y47.1368 
G01 X-85.0493 Y47.1881 
G01 X-85.1218 Y47.2606 
G01 X-85.1731 Y47.3495 
G01 X-85.1997 Y47.4486 
G01 X-85.1997 Y48.0646 
G01 X-85.5438 Y48.0646 
G01 X-85.6878 Y48.0932 
G01 X-85.8234 Y48.1494 
G01 X-85.9455 Y48.2310 
G01 X-86.0493 Y48.3348 
G01 X-86.1063 Y48.4202 
G01 X-88.6450 Y48.4202 
G01 X-88.6450 Y47.9787 
G01 X-89.4387 Y47.1850 
G01 X-90.5612 Y47.1850 
G01 X-91.3549 Y47.9787 
G01 X-91.3549 Y48.6102 
G01 X-97.1102 Y48.6102 
G01 X-97.1102 Y33.8486 
G01 X-97.1368 Y33.7495 
G01 X-97.1881 Y33.6606 
G01 X-97.2606 Y33.5881 
G01 X-97.3495 Y33.5368 
G01 X-97.4486 Y33.5102 
G01 X-97.5513 Y33.5102 
G01 X-100.6102 Y33.5102 
G01 X-100.6102 Y6.8497 
G01 X-95.5172 Y6.8497 
G01 X-95.5125 Y6.8612 
G01 X-95.4198 Y6.9999 
G01 X-95.3019 Y7.1178 
G01 X-95.1632 Y7.2105 
G01 X-95.0090 Y7.2744 
G01 X-94.8454 Y7.3069 
G01 X-93.1545 Y7.3069 
G01 X-92.9909 Y7.2744 
G01 X-92.8367 Y7.2105 
G01 X-92.6980 Y7.1178 
G01 X-92.5801 Y6.9999 
G01 X-92.4874 Y6.8612 
G01 X-92.4235 Y6.7070 
G01 X-92.3910 Y6.5434 
G01 X-92.3910 Y6.3765 
G01 X-92.4235 Y6.2129 
G01 X-92.4874 Y6.0587 
G01 X-92.5801 Y5.9200 
G01 X-92.6980 Y5.8021 
G01 X-92.8367 Y5.7094 
G01 X-92.9909 Y5.6455 
G01 X-93.1545 Y5.6130 
G00 Z2.0000 
G00 X-82.1530 Y31.8054 
G01 Z-0.1000 F400.00 
G01 X-82.1530 Y30.1145 
G01 X-82.1855 Y29.9509 
G01 X-82.2494 Y29.7967 
G01 X-82.3421 Y29.6580 
G01 X-82.4600 Y29.5401 
G01 X-82.5086 Y29.5076 
G01 X-82.5086 Y28.1652 
G01 X-82.5421 Y28.0403 
G01 X-82.6068 Y27.9282 
G01 X-82.6982 Y27.8368 
G01 X-82.8103 Y27.7721 
G01 X-82.9352 Y27.7386 
G01 X-83.0647 Y27.7386 
G01 X-93.0477 Y27.7386 
G01 X-93.0801 Y27.6900 
G01 X-93.1980 Y27.5721 
G01 X-93.3367 Y27.4794 
G01 X-93.4909 Y27.4155 
G01 X-93.6545 Y27.3830 
G01 X-95.3454 Y27.3830 
G01 X-95.5090 Y27.4155 
G01 X-95.6632 Y27.4794 
G01 X-95.8019 Y27.5721 
G01 X-95.9198 Y27.6900 
G01 X-96.0125 Y27.8287 
G01 X-96.0764 Y27.9829 
G01 X-96.1089 Y28.1465 
G01 X-96.1089 Y28.3134 
G01 X-96.0764 Y28.4770 
G01 X-96.0125 Y28.6312 
G01 X-95.9198 Y28.7699 
G01 X-95.8019 Y28.8878 
G01 X-95.6632 Y28.9805 
G01 X-95.5090 Y29.0444 
G01 X-95.3454 Y29.0769 
G01 X-93.6545 Y29.0769 
G01 X-93.4909 Y29.0444 
G01 X-93.3367 Y28.9805 
G01 X-93.1980 Y28.8878 
G01 X-93.0801 Y28.7699 
G01 X-93.0477 Y28.7213 
G01 X-83.4913 Y28.7213 
G01 X-83.4913 Y29.5076 
G01 X-83.5399 Y29.5401 
G01 X-83.6578 Y29.6580 
G01 X-83.7505 Y29.7967 
G01 X-83.8144 Y29.9509 
G01 X-83.8469 Y30.1145 
G01 X-83.8469 Y31.8054 
G01 X-83.8144 Y31.9690 
G01 X-83.7505 Y32.1232 
G01 X-83.6578 Y32.2619 
G01 X-83.5399 Y32.3798 
G01 X-83.4012 Y32.4725 
G01 X-83.2470 Y32.5364 
G01 X-83.0834 Y32.5689 
G01 X-82.9165 Y32.5689 
G01 X-82.7529 Y32.5364 
G01 X-82.5987 Y32.4725 
G01 X-82.4600 Y32.3798 
G01 X-82.3421 Y32.2619 
G01 X-82.2494 Y32.1232 
G01 X-82.1855 Y31.9690 
G01 X-82.1530 Y31.8054 
G00 Z2.0000 
G00 X-81.5449 Y23.4387 
G01 Z-0.1000 F400.00 
G01 X-81.5449 Y24.5612 
G01 X-80.9513 Y25.1548 
G01 X-80.9513 Y29.5076 
G01 X-80.9999 Y29.5401 
G01 X-81.1178 Y29.6580 
G01 X-81.2105 Y29.7967 
G01 X-81.2744 Y29.9509 
G01 X-81.3069 Y30.1145 
G01 X-81.3069 Y31.8054 
G01 X-81.2744 Y31.9690 
G01 X-81.2105 Y32.1232 
G01 X-81.1178 Y32.2619 
G01 X-80.9999 Y32.3798 
G01 X-80.8612 Y32.4725 
G01 X-80.7070 Y32.5364 
G01 X-80.5434 Y32.5689 
G01 X-80.3765 Y32.5689 
G01 X-80.2129 Y32.5364 
G01 X-80.0587 Y32.4725 
G01 X-79.9200 Y32.3798 
G01 X-79.8021 Y32.2619 
G01 X-79.7094 Y32.1232 
G01 X-79.6455 Y31.9690 
G01 X-79.6130 Y31.8054 
G01 X-79.6130 Y31.3497 
G01 X-75.4715 Y31.3497 
G01 X-75.4913 Y31.4490 
G01 X-75.4913 Y31.6309 
G01 X-75.4558 Y31.8093 
G01 X-75.3862 Y31.9773 
G01 X-75.2852 Y32.1284 
G01 X-75.1566 Y32.2570 
G01 X-75.0055 Y32.3580 
G01 X-74.8375 Y32.4276 
G01 X-74.6591 Y32.4631 
G01 X-72.8008 Y32.4631 
G01 X-72.6224 Y32.4276 
G01 X-72.4544 Y32.3580 
G01 X-72.3033 Y32.2570 
G01 X-72.1747 Y32.1284 
G01 X-72.0737 Y31.9773 
G01 X-72.0041 Y31.8093 
G01 X-71.9686 Y31.6309 
G01 X-71.9686 Y31.4490 
G01 X-72.0041 Y31.2706 
G01 X-72.0737 Y31.1026 
G01 X-72.1747 Y30.9515 
G01 X-72.3033 Y30.8229 
G01 X-72.4544 Y30.7219 
G01 X-72.6224 Y30.6523 
G01 X-72.8008 Y30.6168 
G01 X-73.5449 Y30.6168 
G01 X-73.5795 Y30.5968 
G01 X-73.6786 Y30.5702 
G01 X-79.6130 Y30.5702 
G01 X-79.6130 Y30.1145 
G01 X-79.6455 Y29.9509 
G01 X-79.7094 Y29.7967 
G01 X-79.8021 Y29.6580 
G01 X-79.9200 Y29.5401 
G01 X-79.9686 Y29.5076 
G01 X-79.9686 Y25.3549 
G01 X-79.6287 Y25.3549 
G01 X-78.8350 Y24.5612 
G01 X-78.8350 Y23.4387 
G01 X-79.6287 Y22.6450 
G01 X-80.7512 Y22.6450 
G01 X-81.5449 Y23.4387 
G00 Z2.0000 
G00 X-68.3549 Y35.7487 
G01 Z-0.1000 F400.00 
G01 X-68.3549 Y36.8712 
G01 X-67.5612 Y37.6649 
G01 X-66.4387 Y37.6649 
G01 X-65.6450 Y36.8712 
G01 X-65.6450 Y36.4897 
G01 X-56.9486 Y36.4897 
G01 X-56.8495 Y36.4631 
G01 X-56.7606 Y36.4118 
G01 X-56.6881 Y36.3393 
G01 X-56.6368 Y36.2504 
G01 X-56.6102 Y36.1513 
G01 X-56.6102 Y36.0486 
G01 X-56.6102 Y32.6797 
G01 X-52.9463 Y32.6797 
G01 X-52.8893 Y32.7651 
G01 X-52.7855 Y32.8689 
G01 X-52.6634 Y32.9505 
G01 X-52.5278 Y33.0067 
G01 X-52.3838 Y33.0353 
G01 X-50.9161 Y33.0353 
G01 X-50.7721 Y33.0067 
G01 X-50.6365 Y32.9505 
G01 X-50.5144 Y32.8689 
G01 X-50.4106 Y32.7651 
G01 X-50.3290 Y32.6430 
G01 X-50.2728 Y32.5074 
G01 X-50.2442 Y32.3634 
G01 X-50.2442 Y32.2165 
G01 X-50.2728 Y32.0725 
G01 X-50.3290 Y31.9369 
G01 X-50.4106 Y31.8148 
G01 X-50.5144 Y31.7110 
G01 X-50.6365 Y31.6294 
G01 X-50.7721 Y31.5732 
G01 X-50.9161 Y31.5446 
G01 X-52.3838 Y31.5446 
G01 X-52.5278 Y31.5732 
G01 X-52.6634 Y31.6294 
G01 X-52.7855 Y31.7110 
G01 X-52.8893 Y31.8148 
G01 X-52.9463 Y31.9002 
G01 X-56.9486 Y31.9002 
G01 X-57.0513 Y31.9002 
G01 X-57.1504 Y31.9268 
G01 X-57.2393 Y31.9781 
G01 X-57.3118 Y32.0506 
G01 X-57.3631 Y32.1395 
G01 X-57.3897 Y32.2386 
G01 X-57.3897 Y35.7102 
G01 X-65.6835 Y35.7102 
G01 X-66.4387 Y34.9550 
G01 X-67.5612 Y34.9550 
G01 X-68.3549 Y35.7487 
G00 Z2.0000 
G00 X-74.6591 Y29.9231 
G01 Z-0.1000 F400.00 
G01 X-72.8008 Y29.9231 
G01 X-72.6224 Y29.8876 
G01 X-72.4544 Y29.8180 
G01 X-72.3033 Y29.7170 
G01 X-72.1747 Y29.5884 
G01 X-72.0737 Y29.4373 
G01 X-72.0540 Y29.3897 
G01 X-68.2164 Y29.3897 
G01 X-67.5612 Y30.0449 
G01 X-66.4387 Y30.0449 
G01 X-65.6450 Y29.2512 
G01 X-65.6450 Y28.1287 
G01 X-66.4387 Y27.3350 
G01 X-67.5612 Y27.3350 
G01 X-68.3549 Y28.1287 
G01 X-68.3549 Y28.6102 
G01 X-72.0540 Y28.6102 
G01 X-72.0737 Y28.5626 
G01 X-72.1747 Y28.4115 
G01 X-72.3033 Y28.2829 
G01 X-72.4544 Y28.1819 
G01 X-72.6224 Y28.1123 
G01 X-72.8008 Y28.0768 
G01 X-74.6591 Y28.0768 
G01 X-74.8375 Y28.1123 
G01 X-75.0055 Y28.1819 
G01 X-75.1566 Y28.2829 
G01 X-75.2852 Y28.4115 
G01 X-75.3862 Y28.5626 
G01 X-75.4558 Y28.7306 
G01 X-75.4913 Y28.9090 
G01 X-75.4913 Y29.0909 
G01 X-75.4558 Y29.2693 
G01 X-75.3862 Y29.4373 
G01 X-75.2852 Y29.5884 
G01 X-75.1566 Y29.7170 
G01 X-75.0055 Y29.8180 
G01 X-74.8375 Y29.8876 
G01 X-74.6591 Y29.9231 
G00 Z2.0000 
G00 X-64.6649 Y4.9387 
G01 Z-0.1000 F400.00 
G01 X-64.6649 Y5.0086 
G01 X-82.9352 Y5.0086 
G01 X-83.0647 Y5.0086 
G01 X-83.1896 Y5.0421 
G01 X-83.3017 Y5.1068 
G01 X-83.3931 Y5.1982 
G01 X-83.4578 Y5.3103 
G01 X-83.4913 Y5.4352 
G01 X-83.4913 Y7.0086 
G01 X-88.5647 Y7.0086 
G01 X-88.6896 Y7.0421 
G01 X-88.8017 Y7.1068 
G01 X-88.8931 Y7.1982 
G01 X-88.9578 Y7.3103 
G01 X-88.9913 Y7.4352 
G01 X-88.9913 Y7.5647 
G01 X-88.9913 Y10.5086 
G01 X-90.5647 Y10.5086 
G01 X-90.6896 Y10.5421 
G01 X-90.8017 Y10.6068 
G01 X-90.8931 Y10.6982 
G01 X-90.9578 Y10.8103 
G01 X-90.9913 Y10.9352 
G01 X-90.9913 Y11.0647 
G01 X-90.9913 Y17.7386 
G01 X-93.0477 Y17.7386 
G01 X-93.0801 Y17.6900 
G01 X-93.1980 Y17.5721 
G01 X-93.3367 Y17.4794 
G01 X-93.4909 Y17.4155 
G01 X-93.6545 Y17.3830 
G01 X-95.3454 Y17.3830 
G01 X-95.5090 Y17.4155 
G01 X-95.6632 Y17.4794 
G01 X-95.8019 Y17.5721 
G01 X-95.9198 Y17.6900 
G01 X-96.0125 Y17.8287 
G01 X-96.0764 Y17.9829 
G01 X-96.1089 Y18.1465 
G01 X-96.1089 Y18.3134 
G01 X-96.0764 Y18.4770 
G01 X-96.0125 Y18.6312 
G01 X-95.9198 Y18.7699 
G01 X-95.8019 Y18.8878 
G01 X-95.6632 Y18.9805 
G01 X-95.5090 Y19.0444 
G01 X-95.3454 Y19.0769 
G01 X-93.6545 Y19.0769 
G01 X-93.4909 Y19.0444 
G01 X-93.3367 Y18.9805 
G01 X-93.1980 Y18.8878 
G01 X-93.0801 Y18.7699 
G01 X-93.0477 Y18.7213 
G01 X-90.5647 Y18.7213 
G01 X-90.4352 Y18.7213 
G01 X-90.3103 Y18.6878 
G01 X-90.1982 Y18.6231 
G01 X-90.1068 Y18.5317 
G01 X-90.0421 Y18.4196 
G01 X-90.0086 Y18.2947 
G01 X-90.0086 Y11.4913 
G01 X-88.5647 Y11.4913 
G01 X-88.4352 Y11.4913 
G01 X-88.3103 Y11.4578 
G01 X-88.1982 Y11.3931 
G01 X-88.1068 Y11.3017 
G01 X-88.0421 Y11.1896 
G01 X-88.0086 Y11.0647 
G01 X-88.0086 Y7.9913 
G01 X-83.0647 Y7.9913 
G01 X-82.9913 Y7.9913 
G01 X-82.9913 Y10.5877 
G01 X-83.0399 Y10.6201 
G01 X-83.1578 Y10.7380 
G01 X-83.2505 Y10.8767 
G01 X-83.3144 Y11.0309 
G01 X-83.3469 Y11.1945 
G01 X-83.3469 Y12.8854 
G01 X-83.3144 Y13.0490 
G01 X-83.2505 Y13.2032 
G01 X-83.1578 Y13.3419 
G01 X-83.0399 Y13.4598 
G01 X-82.9012 Y13.5525 
G01 X-82.7470 Y13.6164 
G01 X-82.5834 Y13.6489 
G01 X-82.4165 Y13.6489 
G01 X-82.2529 Y13.6164 
G01 X-82.0987 Y13.5525 
G01 X-81.9600 Y13.4598 
G01 X-81.8421 Y13.3419 
G01 X-81.7494 Y13.2032 
G01 X-81.6855 Y13.0490 
G01 X-81.6530 Y12.8854 
G01 X-81.6530 Y11.1945 
G01 X-81.6855 Y11.0309 
G01 X-81.7494 Y10.8767 
G01 X-81.8421 Y10.7380 
G01 X-81.9600 Y10.6201 
G01 X-82.0086 Y10.5877 
G01 X-82.0086 Y7.4352 
G01 X-82.0421 Y7.3103 
G01 X-82.1068 Y7.1982 
G01 X-82.1982 Y7.1068 
G01 X-82.3103 Y7.0421 
G01 X-82.4352 Y7.0086 
G01 X-82.5086 Y7.0086 
G01 X-82.5086 Y5.9913 
G01 X-64.6649 Y5.9913 
G01 X-64.6649 Y6.0612 
G01 X-63.8712 Y6.8549 
G01 X-62.7487 Y6.8549 
G01 X-61.9550 Y6.0612 
G01 X-61.9550 Y4.9387 
G01 X-62.7487 Y4.1450 
G01 X-63.8712 Y4.1450 
G01 X-64.6649 Y4.9387 
G00 Z2.0000 
G00 X-26.5366 Y29.6063 
G01 Z-0.1000 F400.00 
G01 X-24.8457 Y29.6063 
G01 X-24.6821 Y29.5738 
G01 X-24.5279 Y29.5099 
G01 X-24.3892 Y29.4172 
G01 X-24.2713 Y29.2993 
G01 X-24.1786 Y29.1606 
G01 X-24.1147 Y29.0064 
G01 X-24.0822 Y28.8428 
G01 X-24.0822 Y28.6759 
G01 X-24.1147 Y28.5123 
G01 X-24.1786 Y28.3581 
G01 X-24.2713 Y28.2194 
G01 X-24.3892 Y28.1015 
G01 X-24.5279 Y28.0088 
G01 X-24.6821 Y27.9449 
G01 X-24.8457 Y27.9124 
G01 X-26.5366 Y27.9124 
G01 X-26.7002 Y27.9449 
G01 X-26.8544 Y28.0088 
G01 X-26.9931 Y28.1015 
G01 X-27.1110 Y28.2194 
G01 X-27.2037 Y28.3581 
G01 X-27.2676 Y28.5123 
G01 X-27.3001 Y28.6759 
G01 X-27.3001 Y28.8428 
G01 X-27.2676 Y29.0064 
G01 X-27.2037 Y29.1606 
G01 X-27.1110 Y29.2993 
G01 X-26.9931 Y29.4172 
G01 X-26.8544 Y29.5099 
G01 X-26.7002 Y29.5738 
G01 X-26.5366 Y29.6063 
G00 Z2.0000 
G00 X-26.5366 Y34.1275 
G01 Z-0.1000 F400.00 
G01 X-24.8457 Y34.1275 
G01 X-24.6821 Y34.0950 
G01 X-24.5279 Y34.0311 
G01 X-24.3892 Y33.9384 
G01 X-24.2713 Y33.8205 
G01 X-24.1786 Y33.6818 
G01 X-24.1147 Y33.5276 
G01 X-24.0822 Y33.3640 
G01 X-24.0822 Y33.1971 
G01 X-24.1147 Y33.0335 
G01 X-24.1786 Y32.8793 
G01 X-24.2713 Y32.7406 
G01 X-24.3892 Y32.6227 
G01 X-24.5279 Y32.5300 
G01 X-24.6821 Y32.4661 
G01 X-24.8457 Y32.4336 
G01 X-26.5366 Y32.4336 
G01 X-26.7002 Y32.4661 
G01 X-26.8544 Y32.5300 
G01 X-26.9931 Y32.6227 
G01 X-27.1110 Y32.7406 
G01 X-27.2037 Y32.8793 
G01 X-27.2676 Y33.0335 
G01 X-27.3001 Y33.1971 
G01 X-27.3001 Y33.3640 
G01 X-27.2676 Y33.5276 
G01 X-27.2037 Y33.6818 
G01 X-27.1110 Y33.8205 
G01 X-26.9931 Y33.9384 
G01 X-26.8544 Y34.0311 
G01 X-26.7002 Y34.0950 
G01 X-26.5366 Y34.1275 
G00 Z2.0000 
G00 X-37.7759 Y49.5199 
G01 Z-0.1000 F400.00 
G01 X-37.5840 Y49.5199 
G01 X-32.4816 Y49.5199 
G01 X-32.3635 Y49.6827 
G01 X-32.2127 Y49.8335 
G01 X-32.0401 Y49.9588 
G01 X-31.8501 Y50.0556 
G01 X-31.6473 Y50.1215 
G01 X-31.4366 Y50.1549 
G01 X-31.2233 Y50.1549 
G01 X-31.0126 Y50.1215 
G01 X-30.8098 Y50.0556 
G01 X-30.6198 Y49.9588 
G01 X-30.4472 Y49.8335 
G01 X-30.2964 Y49.6827 
G01 X-30.1711 Y49.5101 
G01 X-30.0743 Y49.3201 
G01 X-30.0084 Y49.1173 
G01 X-29.9750 Y48.9066 
G01 X-29.9750 Y48.6933 
G01 X-30.0084 Y48.4826 
G01 X-30.0743 Y48.2798 
G01 X-30.1711 Y48.0898 
G01 X-30.2964 Y47.9172 
G01 X-30.4472 Y47.7664 
G01 X-30.6198 Y47.6411 
G01 X-30.8098 Y47.5443 
G01 X-31.0126 Y47.4784 
G01 X-31.2233 Y47.4450 
G01 X-31.4366 Y47.4450 
G01 X-31.6473 Y47.4784 
G01 X-31.8501 Y47.5443 
G01 X-32.0401 Y47.6411 
G01 X-32.2127 Y47.7664 
G01 X-32.3635 Y47.9172 
G01 X-32.4816 Y48.0800 
G01 X-36.8199 Y48.0800 
G01 X-36.9234 Y47.9251 
G01 X-37.0591 Y47.7894 
G01 X-37.2186 Y47.6828 
G01 X-37.3958 Y47.6094 
G01 X-37.5840 Y47.5720 
G01 X-37.7759 Y47.5720 
G01 X-37.9641 Y47.6094 
G01 X-38.1413 Y47.6828 
G01 X-38.3008 Y47.7894 
G01 X-38.4365 Y47.9251 
G01 X-38.5400 Y48.0800 
G01 X-43.1830 Y48.0800 
G01 X-43.1830 Y47.9545 
G01 X-43.2155 Y47.7909 
G01 X-43.2794 Y47.6367 
G01 X-43.3721 Y47.4980 
G01 X-43.4900 Y47.3801 
G01 X-43.6287 Y47.2874 
G01 X-43.7829 Y47.2235 
G01 X-43.9465 Y47.1910 
G01 X-44.1134 Y47.1910 
G01 X-44.2770 Y47.2235 
G01 X-44.4312 Y47.2874 
G01 X-44.5699 Y47.3801 
G01 X-44.6878 Y47.4980 
G01 X-44.7805 Y47.6367 
G01 X-44.8444 Y47.7909 
G01 X-44.8769 Y47.9545 
G01 X-44.8769 Y49.6454 
G01 X-44.8444 Y49.8090 
G01 X-44.7805 Y49.9632 
G01 X-44.6878 Y50.1019 
G01 X-44.5699 Y50.2198 
G01 X-44.4312 Y50.3125 
G01 X-44.2770 Y50.3764 
G01 X-44.1134 Y50.4089 
G01 X-43.9465 Y50.4089 
G01 X-43.7829 Y50.3764 
G01 X-43.6287 Y50.3125 
G01 X-43.4900 Y50.2198 
G01 X-43.3721 Y50.1019 
G01 X-43.2794 Y49.9632 
G01 X-43.2155 Y49.8090 
G01 X-43.1830 Y49.6454 
G01 X-43.1830 Y49.5199 
G01 X-37.7759 Y49.5199 
G00 Z2.0000 
G00 X-68.1549 Y10.3287 
G01 Z-0.1000 F400.00 
G01 X-68.1549 Y11.4512 
G01 X-67.3612 Y12.2449 
G01 X-66.2387 Y12.2449 
G01 X-65.4450 Y11.4512 
G01 X-65.4450 Y10.8897 
G01 X-63.3897 Y10.8897 
G01 X-63.3897 Y31.0513 
G01 X-63.3631 Y31.1504 
G01 X-63.3118 Y31.2393 
G01 X-63.2393 Y31.3118 
G01 X-63.1504 Y31.3631 
G01 X-63.0513 Y31.3897 
G01 X-62.9486 Y31.3897 
G01 X-56.9486 Y31.3897 
G01 X-56.8495 Y31.3631 
G01 X-56.7606 Y31.3118 
G01 X-56.6881 Y31.2393 
G01 X-56.6368 Y31.1504 
G01 X-56.6102 Y31.0513 
G01 X-56.6102 Y30.9486 
G01 X-56.6102 Y30.1397 
G01 X-52.9463 Y30.1397 
G01 X-52.8893 Y30.2251 
G01 X-52.7855 Y30.3289 
G01 X-52.6634 Y30.4105 
G01 X-52.5278 Y30.4667 
G01 X-52.3838 Y30.4953 
G01 X-50.9161 Y30.4953 
G01 X-50.7721 Y30.4667 
G01 X-50.6365 Y30.4105 
G01 X-50.5144 Y30.3289 
G01 X-50.4106 Y30.2251 
G01 X-50.3290 Y30.1030 
G01 X-50.2728 Y29.9674 
G01 X-50.2442 Y29.8234 
G01 X-50.2442 Y29.6765 
G01 X-50.2728 Y29.5325 
G01 X-50.3290 Y29.3969 
G01 X-50.4106 Y29.2748 
G01 X-50.5144 Y29.1710 
G01 X-50.6365 Y29.0894 
G01 X-50.7721 Y29.0332 
G01 X-50.9161 Y29.0046 
G01 X-52.3838 Y29.0046 
G01 X-52.5278 Y29.0332 
G01 X-52.6634 Y29.0894 
G01 X-52.7855 Y29.1710 
G01 X-52.8893 Y29.2748 
G01 X-52.9463 Y29.3602 
G01 X-56.9486 Y29.3602 
G01 X-57.0513 Y29.3602 
G01 X-57.1504 Y29.3868 
G01 X-57.2393 Y29.4381 
G01 X-57.3118 Y29.5106 
G01 X-57.3631 Y29.5995 
G01 X-57.3897 Y29.6986 
G01 X-57.3897 Y30.6102 
G01 X-62.6102 Y30.6102 
G01 X-62.6102 Y10.5513 
G01 X-62.6102 Y10.4486 
G01 X-62.6368 Y10.3495 
G01 X-62.6881 Y10.2606 
G01 X-62.7606 Y10.1881 
G01 X-62.8495 Y10.1368 
G01 X-62.9486 Y10.1102 
G01 X-65.6635 Y10.1102 
G01 X-66.2387 Y9.5350 
G01 X-67.3612 Y9.5350 
G01 X-68.1549 Y10.3287 
G00 Z2.0000 
G00 X-68.1549 Y17.9487 
G01 Z-0.1000 F400.00 
G01 X-68.1549 Y18.5802 
G01 X-72.3140 Y18.5802 
G01 X-72.3337 Y18.5326 
G01 X-72.4347 Y18.3815 
G01 X-72.5633 Y18.2529 
G01 X-72.7144 Y18.1519 
G01 X-72.8824 Y18.0823 
G01 X-73.0608 Y18.0468 
G01 X-74.9191 Y18.0468 
G01 X-75.0975 Y18.0823 
G01 X-75.2655 Y18.1519 
G01 X-75.4166 Y18.2529 
G01 X-75.5452 Y18.3815 
G01 X-75.6462 Y18.5326 
G01 X-75.7158 Y18.7006 
G01 X-75.7513 Y18.8790 
G01 X-75.7513 Y19.0609 
G01 X-75.7158 Y19.2393 
G01 X-75.6462 Y19.4073 
G01 X-75.5452 Y19.5584 
G01 X-75.4166 Y19.6870 
G01 X-75.2655 Y19.7880 
G01 X-75.0975 Y19.8576 
G01 X-74.9191 Y19.8931 
G01 X-73.0608 Y19.8931 
G01 X-72.8824 Y19.8576 
G01 X-72.7144 Y19.7880 
G01 X-72.5633 Y19.6870 
G01 X-72.4347 Y19.5584 
G01 X-72.3337 Y19.4073 
G01 X-72.3140 Y19.3597 
G01 X-67.8664 Y19.3597 
G01 X-67.3612 Y19.8649 
G01 X-66.2387 Y19.8649 
G01 X-65.4450 Y19.0712 
G01 X-65.4450 Y17.9487 
G01 X-66.2387 Y17.1550 
G01 X-67.3612 Y17.1550 
G01 X-68.1549 Y17.9487 
G00 Z2.0000 
G00 X-74.9191 Y22.4331 
G01 Z-0.1000 F400.00 
G01 X-73.0608 Y22.4331 
G01 X-72.8824 Y22.3976 
G01 X-72.7144 Y22.3280 
G01 X-72.5633 Y22.2270 
G01 X-72.4347 Y22.0984 
G01 X-72.3337 Y21.9473 
G01 X-72.2641 Y21.7793 
G01 X-72.2286 Y21.6009 
G01 X-72.2286 Y21.4190 
G01 X-72.2641 Y21.2406 
G01 X-72.3337 Y21.0726 
G01 X-72.4347 Y20.9215 
G01 X-72.5633 Y20.7929 
G01 X-72.7144 Y20.6919 
G01 X-72.8824 Y20.6223 
G01 X-73.0608 Y20.5868 
G01 X-74.9191 Y20.5868 
G01 X-75.0975 Y20.6223 
G01 X-75.2655 Y20.6919 
G01 X-75.4166 Y20.7929 
G01 X-75.5452 Y20.9215 
G01 X-75.6462 Y21.0726 
G01 X-75.6617 Y21.1102 
G01 X-77.1102 Y21.1102 
G01 X-77.1102 Y17.7686 
G01 X-77.1368 Y17.6695 
G01 X-77.1881 Y17.5806 
G01 X-77.2606 Y17.5081 
G01 X-77.3495 Y17.4568 
G01 X-77.4486 Y17.4302 
G01 X-77.5513 Y17.4302 
G01 X-78.9650 Y17.4302 
G01 X-78.9650 Y17.2587 
G01 X-79.7587 Y16.4650 
G01 X-80.8812 Y16.4650 
G01 X-81.6749 Y17.2587 
G01 X-81.6749 Y17.6102 
G01 X-84.1102 Y17.6102 
G01 X-84.1102 Y11.9886 
G01 X-84.1368 Y11.8895 
G01 X-84.1881 Y11.8006 
G01 X-84.1930 Y11.7957 
G01 X-84.1930 Y11.1945 
G01 X-84.2255 Y11.0309 
G01 X-84.2894 Y10.8767 
G01 X-84.3821 Y10.7380 
G01 X-84.5000 Y10.6201 
G01 X-84.6387 Y10.5274 
G01 X-84.7929 Y10.4635 
G01 X-84.9565 Y10.4310 
G01 X-85.1234 Y10.4310 
G01 X-85.2870 Y10.4635 
G01 X-85.4412 Y10.5274 
G01 X-85.5799 Y10.6201 
G01 X-85.6978 Y10.7380 
G01 X-85.7905 Y10.8767 
G01 X-85.8544 Y11.0309 
G01 X-85.8869 Y11.1945 
G01 X-85.8869 Y12.8854 
G01 X-85.8544 Y13.0490 
G01 X-85.7905 Y13.2032 
G01 X-85.6978 Y13.3419 
G01 X-85.5799 Y13.4598 
G01 X-85.4412 Y13.5525 
G01 X-85.2870 Y13.6164 
G01 X-85.1234 Y13.6489 
G01 X-84.9565 Y13.6489 
G01 X-84.8897 Y13.6356 
G01 X-84.8897 Y17.9486 
G01 X-84.8897 Y18.0513 
G01 X-84.8631 Y18.1504 
G01 X-84.8118 Y18.2393 
G01 X-84.7393 Y18.3118 
G01 X-84.6504 Y18.3631 
G01 X-84.5513 Y18.3897 
G01 X-81.6664 Y18.3897 
G01 X-80.8812 Y19.1749 
G01 X-79.7587 Y19.1749 
G01 X-78.9650 Y18.3812 
G01 X-78.9650 Y18.2097 
G01 X-77.8897 Y18.2097 
G01 X-77.8897 Y21.4486 
G01 X-77.8897 Y21.5513 
G01 X-77.8631 Y21.6504 
G01 X-77.8118 Y21.7393 
G01 X-77.7393 Y21.8118 
G01 X-77.6504 Y21.8631 
G01 X-77.5513 Y21.8897 
G01 X-75.6700 Y21.8897 
G01 X-75.6462 Y21.9473 
G01 X-75.5452 Y22.0984 
G01 X-75.4166 Y22.2270 
G01 X-75.2655 Y22.3280 
G01 X-75.0975 Y22.3976 
G01 X-74.9191 Y22.4331 
G00 Z2.0000 
G00 X-10.0250 Y7.1860 
G01 Z-0.1000 F400.00 
G01 X-10.6574 Y7.1860 
G01 X-10.6368 Y7.1504 
G01 X-10.6102 Y7.0513 
G01 X-10.6102 Y5.4486 
G01 X-10.6368 Y5.3495 
G01 X-10.6881 Y5.2606 
G01 X-10.7606 Y5.1881 
G01 X-10.8495 Y5.1368 
G01 X-10.9486 Y5.1102 
G01 X-11.0513 Y5.1102 
G01 X-54.3350 Y5.1102 
G01 X-54.3350 Y4.9387 
G01 X-55.1287 Y4.1450 
G01 X-56.2512 Y4.1450 
G01 X-57.0449 Y4.9387 
G01 X-57.0449 Y6.0612 
G01 X-56.2512 Y6.8549 
G01 X-55.1287 Y6.8549 
G01 X-54.3350 Y6.0612 
G01 X-54.3350 Y5.8897 
G01 X-11.3897 Y5.8897 
G01 X-11.3897 Y7.0513 
G01 X-11.3631 Y7.1504 
G01 X-11.3425 Y7.1860 
G01 X-11.9949 Y7.1860 
G01 X-12.1831 Y7.2234 
G01 X-12.3603 Y7.2968 
G01 X-12.5198 Y7.4034 
G01 X-12.6555 Y7.5391 
G01 X-12.7621 Y7.6986 
G01 X-12.8355 Y7.8758 
G01 X-12.8729 Y8.0640 
G01 X-12.8729 Y8.2559 
G01 X-12.8355 Y8.4441 
G01 X-12.7621 Y8.6213 
G01 X-12.6555 Y8.7808 
G01 X-12.5198 Y8.9165 
G01 X-12.3603 Y9.0231 
G01 X-12.1831 Y9.0965 
G01 X-11.9949 Y9.1339 
G01 X-10.0250 Y9.1339 
G01 X-9.8368 Y9.0965 
G01 X-9.6596 Y9.0231 
G01 X-9.5001 Y8.9165 
G01 X-9.3644 Y8.7808 
G01 X-9.2578 Y8.6213 
G01 X-9.1844 Y8.4441 
G01 X-9.1470 Y8.2559 
G01 X-9.1470 Y8.0640 
G01 X-9.1844 Y7.8758 
G01 X-9.2578 Y7.6986 
G01 X-9.3644 Y7.5391 
G01 X-9.5001 Y7.4034 
G01 X-9.6596 Y7.2968 
G01 X-9.8368 Y7.2234 
G01 X-10.0250 Y7.1860 
G00 Z2.0000 
G00 X-10.0250 Y9.7260 
G01 Z-0.1000 F400.00 
G01 X-11.9949 Y9.7260 
G01 X-12.1831 Y9.7634 
G01 X-12.3603 Y9.8368 
G01 X-12.5198 Y9.9434 
G01 X-12.6555 Y10.0791 
G01 X-12.7621 Y10.2386 
G01 X-12.8355 Y10.4158 
G01 X-12.8729 Y10.6040 
G01 X-12.8729 Y10.7959 
G01 X-12.8355 Y10.9841 
G01 X-12.7621 Y11.1613 
G01 X-12.6555 Y11.3208 
G01 X-12.5198 Y11.4565 
G01 X-12.3603 Y11.5631 
G01 X-12.1831 Y11.6365 
G01 X-11.9949 Y11.6739 
G01 X-10.0250 Y11.6739 
G01 X-9.8368 Y11.6365 
G01 X-9.6596 Y11.5631 
G01 X-9.5001 Y11.4565 
G01 X-9.3644 Y11.3208 
G01 X-9.2578 Y11.1613 
G01 X-9.2282 Y11.0897 
G01 X-5.3897 Y11.0897 
G01 X-5.3897 Y47.1102 
G01 X-10.0735 Y47.1102 
G01 X-10.0968 Y47.0381 
G01 X-10.1810 Y46.8730 
G01 X-10.2899 Y46.7231 
G01 X-10.4209 Y46.5921 
G01 X-10.5708 Y46.4832 
G01 X-10.7359 Y46.3990 
G01 X-10.9121 Y46.3418 
G01 X-11.0951 Y46.3128 
G01 X-13.4648 Y46.3128 
G01 X-13.6478 Y46.3418 
G01 X-13.8240 Y46.3990 
G01 X-13.9891 Y46.4832 
G01 X-14.1390 Y46.5921 
G01 X-14.2700 Y46.7231 
G01 X-14.3040 Y46.7700 
G01 X-17.9100 Y46.7700 
G01 X-17.9100 Y42.8870 
G01 X-17.9377 Y42.7479 
G01 X-17.9919 Y42.6169 
G01 X-18.0707 Y42.4990 
G01 X-18.1710 Y42.3987 
G01 X-18.2889 Y42.3199 
G01 X-18.4199 Y42.2657 
G01 X-18.5590 Y42.2380 
G01 X-18.7009 Y42.2380 
G01 X-22.5583 Y42.2380 
G01 X-22.6764 Y42.0752 
G01 X-22.8272 Y41.9244 
G01 X-22.9998 Y41.7991 
G01 X-23.1898 Y41.7023 
G01 X-23.3926 Y41.6364 
G01 X-23.6033 Y41.6030 
G01 X-23.8166 Y41.6030 
G01 X-24.0273 Y41.6364 
G01 X-24.2301 Y41.7023 
G01 X-24.4201 Y41.7991 
G01 X-24.5927 Y41.9244 
G01 X-24.7435 Y42.0752 
G01 X-24.8688 Y42.2478 
G01 X-24.9656 Y42.4378 
G01 X-25.0315 Y42.6406 
G01 X-25.0649 Y42.8513 
G01 X-25.0649 Y43.0646 
G01 X-25.0315 Y43.2753 
G01 X-24.9656 Y43.4781 
G01 X-24.8688 Y43.6681 
G01 X-24.7435 Y43.8407 
G01 X-24.5927 Y43.9915 
G01 X-24.4201 Y44.1168 
G01 X-24.2301 Y44.2136 
G01 X-24.0273 Y44.2795 
G01 X-23.8166 Y44.3129 
G01 X-23.6033 Y44.3129 
G01 X-23.3926 Y44.2795 
G01 X-23.1898 Y44.2136 
G01 X-22.9998 Y44.1168 
G01 X-22.8272 Y43.9915 
G01 X-22.6764 Y43.8407 
G01 X-22.5583 Y43.6779 
G01 X-19.3499 Y43.6779 
G01 X-19.3499 Y46.9986 
G01 X-20.6431 Y46.9986 
G01 X-20.7110 Y46.9307 
G01 X-20.8289 Y46.8519 
G01 X-20.9599 Y46.7977 
G01 X-21.0990 Y46.7700 
G01 X-21.2409 Y46.7700 
G01 X-21.3800 Y46.7977 
G01 X-21.5110 Y46.8519 
G01 X-21.6289 Y46.9307 
G01 X-21.7292 Y47.0310 
G01 X-21.8080 Y47.1489 
G01 X-21.8622 Y47.2799 
G01 X-21.8899 Y47.4190 
G01 X-21.8899 Y47.6482 
G01 X-22.0527 Y47.7664 
G01 X-22.2035 Y47.9172 
G01 X-22.3288 Y48.0898 
G01 X-22.4256 Y48.2798 
G01 X-22.4915 Y48.4826 
G01 X-22.5249 Y48.6933 
G01 X-22.5249 Y48.9066 
G01 X-22.4915 Y49.1173 
G01 X-22.4256 Y49.3201 
G01 X-22.3288 Y49.5101 
G01 X-22.2035 Y49.6827 
G01 X-22.0527 Y49.8335 
G01 X-21.8801 Y49.9588 
G01 X-21.6901 Y50.0556 
G01 X-21.6613 Y50.0649 
G01 X-21.6613 Y52.0086 
G01 X-99.0086 Y52.0086 
G01 X-99.0086 Y38.9352 
G01 X-99.0421 Y38.8103 
G01 X-99.1068 Y38.6982 
G01 X-99.1982 Y38.6068 
G01 X-99.3103 Y38.5421 
G01 X-99.4352 Y38.5086 
G01 X-99.4550 Y38.5086 
G01 X-99.4550 Y38.4387 
G01 X-100.2487 Y37.6450 
G01 X-101.3712 Y37.6450 
G01 X-102.1649 Y38.4387 
G01 X-102.1649 Y39.5612 
G01 X-101.3712 Y40.3549 
G01 X-100.2487 Y40.3549 
G01 X-99.9913 Y40.0974 
G01 X-99.9913 Y52.4352 
G01 X-99.9913 Y52.5647 
G01 X-99.9578 Y52.6896 
G01 X-99.8931 Y52.8017 
G01 X-99.8017 Y52.8931 
G01 X-99.6896 Y52.9578 
G01 X-99.5647 Y52.9913 
G01 X-21.2347 Y52.9913 
G01 X-21.1052 Y52.9913 
G01 X-20.9803 Y52.9578 
G01 X-20.8682 Y52.8931 
G01 X-20.7768 Y52.8017 
G01 X-20.7121 Y52.6896 
G01 X-20.6786 Y52.5647 
G01 X-20.6786 Y50.0649 
G01 X-20.6498 Y50.0556 
G01 X-20.4598 Y49.9588 
G01 X-20.2872 Y49.8335 
G01 X-20.1364 Y49.6827 
G01 X-20.0111 Y49.5101 
G01 X-19.9143 Y49.3201 
G01 X-19.8484 Y49.1173 
G01 X-19.8150 Y48.9066 
G01 X-19.8150 Y48.6933 
G01 X-19.8484 Y48.4826 
G01 X-19.9143 Y48.2798 
G01 X-20.0111 Y48.0898 
G01 X-20.0899 Y47.9813 
G01 X-19.1568 Y47.9813 
G01 X-19.0889 Y48.0492 
G01 X-18.9710 Y48.1280 
G01 X-18.8400 Y48.1822 
G01 X-18.7009 Y48.2099 
G01 X-18.5590 Y48.2099 
G01 X-14.3040 Y48.2099 
G01 X-14.2700 Y48.2568 
G01 X-14.1390 Y48.3878 
G01 X-13.9891 Y48.4967 
G01 X-13.8240 Y48.5809 
G01 X-13.6478 Y48.6381 
G01 X-13.4648 Y48.6671 
G01 X-11.0951 Y48.6671 
G01 X-10.9121 Y48.6381 
G01 X-10.7359 Y48.5809 
G01 X-10.5708 Y48.4967 
G01 X-10.4209 Y48.3878 
G01 X-10.2899 Y48.2568 
G01 X-10.1810 Y48.1069 
G01 X-10.0968 Y47.9418 
G01 X-10.0799 Y47.8897 
G01 X-4.9486 Y47.8897 
G01 X-4.8495 Y47.8631 
G01 X-4.7606 Y47.8118 
G01 X-4.6881 Y47.7393 
G01 X-4.6368 Y47.6504 
G01 X-4.6102 Y47.5513 
G01 X-4.6102 Y47.4486 
G01 X-4.6102 Y10.6486 
G01 X-4.6368 Y10.5495 
G01 X-4.6881 Y10.4606 
G01 X-4.7606 Y10.3881 
G01 X-4.8495 Y10.3368 
G01 X-4.9486 Y10.3102 
G01 X-5.0513 Y10.3102 
G01 X-9.2282 Y10.3102 
G01 X-9.2578 Y10.2386 
G01 X-9.3644 Y10.0791 
G01 X-9.5001 Y9.9434 
G01 X-9.6596 Y9.8368 
G01 X-9.8368 Y9.7634 
G01 X-10.0250 Y9.7260 
G00 Z2.0000 
G00 X-10.0250 Y21.8339 
G01 Z-0.1000 F400.00 
G01 X-9.8368 Y21.7965 
G01 X-9.6596 Y21.7231 
G01 X-9.5001 Y21.6165 
G01 X-9.3644 Y21.4808 
G01 X-9.2578 Y21.3213 
G01 X-9.1844 Y21.1441 
G01 X-9.1470 Y20.9559 
G01 X-9.1470 Y20.7640 
G01 X-9.1844 Y20.5758 
G01 X-9.2578 Y20.3986 
G01 X-9.3644 Y20.2391 
G01 X-9.5001 Y20.1034 
G01 X-9.6596 Y19.9968 
G01 X-9.8368 Y19.9234 
G01 X-10.0250 Y19.8860 
G01 X-11.9949 Y19.8860 
G01 X-12.1831 Y19.9234 
G01 X-12.3603 Y19.9968 
G01 X-12.5198 Y20.1034 
G01 X-12.6555 Y20.2391 
G01 X-12.7621 Y20.3986 
G01 X-12.8355 Y20.5758 
G01 X-12.8729 Y20.7640 
G01 X-12.8729 Y20.9559 
G01 X-12.8355 Y21.1441 
G01 X-12.8082 Y21.2098 
G01 X-15.1788 Y22.3950 
G01 X-15.5287 Y22.0450 
G01 X-16.6512 Y22.0450 
G01 X-17.4449 Y22.8387 
G01 X-17.4449 Y23.9612 
G01 X-16.6512 Y24.7549 
G01 X-15.5287 Y24.7549 
G01 X-14.7350 Y23.9612 
G01 X-14.7350 Y23.2718 
G01 X-11.8591 Y21.8339 
G01 X-10.0250 Y21.8339 
G00 Z2.0000 
G00 X-11.9949 Y24.3739 
G01 Z-0.1000 F400.00 
G01 X-10.0250 Y24.3739 
G01 X-9.8368 Y24.3365 
G01 X-9.6596 Y24.2631 
G01 X-9.5001 Y24.1565 
G01 X-9.3644 Y24.0208 
G01 X-9.2779 Y23.8913 
G01 X-8.5347 Y23.8913 
G01 X-8.4052 Y23.8913 
G01 X-8.2803 Y23.8578 
G01 X-8.1682 Y23.7931 
G01 X-8.0768 Y23.7017 
G01 X-8.0121 Y23.5896 
G01 X-7.9786 Y23.4647 
G01 X-7.9786 Y18.3847 
G01 X-7.9786 Y18.2552 
G01 X-8.0121 Y18.1303 
G01 X-8.0768 Y18.0182 
G01 X-8.1682 Y17.9268 
G01 X-8.2803 Y17.8621 
G01 X-8.4052 Y17.8286 
G01 X-12.2654 Y17.8286 
G01 X-12.3151 Y17.8256 
G01 X-12.3297 Y17.8286 
G01 X-12.3447 Y17.8286 
G01 X-12.3923 Y17.8414 
G01 X-12.4419 Y17.8515 
G01 X-12.4555 Y17.8584 
G01 X-12.4696 Y17.8621 
G01 X-12.5117 Y17.8864 
G01 X-22.5560 Y22.9086 
G01 X-27.4747 Y22.9086 
G01 X-27.4940 Y22.9050 
G01 X-27.5395 Y22.9086 
G01 X-27.5847 Y22.9086 
G01 X-27.6035 Y22.9137 
G01 X-27.6231 Y22.9152 
G01 X-27.6659 Y22.9304 
G01 X-27.7096 Y22.9421 
G01 X-27.7264 Y22.9519 
G01 X-27.7450 Y22.9584 
G01 X-27.7823 Y22.9841 
G01 X-27.8217 Y23.0068 
G01 X-27.8356 Y23.0207 
G01 X-47.9925 Y36.8786 
G01 X-50.4269 Y36.8786 
G01 X-50.5144 Y36.7910 
G01 X-50.6365 Y36.7094 
G01 X-50.7721 Y36.6532 
G01 X-50.9161 Y36.6246 
G01 X-52.3838 Y36.6246 
G01 X-52.5278 Y36.6532 
G01 X-52.6634 Y36.7094 
G01 X-52.7855 Y36.7910 
G01 X-52.8893 Y36.8948 
G01 X-52.9709 Y37.0169 
G01 X-53.0271 Y37.1525 
G01 X-53.0557 Y37.2965 
G01 X-53.0557 Y37.4434 
G01 X-53.0271 Y37.5874 
G01 X-52.9709 Y37.7230 
G01 X-52.8893 Y37.8451 
G01 X-52.7855 Y37.9489 
G01 X-52.6634 Y38.0305 
G01 X-52.5278 Y38.0867 
G01 X-52.3838 Y38.1153 
G01 X-50.9161 Y38.1153 
G01 X-50.7721 Y38.0867 
G01 X-50.6365 Y38.0305 
G01 X-50.5144 Y37.9489 
G01 X-50.4269 Y37.8613 
G01 X-47.8852 Y37.8613 
G01 X-47.8659 Y37.8649 
G01 X-47.8203 Y37.8613 
G01 X-47.7752 Y37.8613 
G01 X-47.7564 Y37.8562 
G01 X-47.7368 Y37.8547 
G01 X-47.6939 Y37.8395 
G01 X-47.6503 Y37.8278 
G01 X-47.6335 Y37.8180 
G01 X-47.6149 Y37.8115 
G01 X-47.5775 Y37.7857 
G01 X-47.5382 Y37.7631 
G01 X-47.5244 Y37.7492 
G01 X-27.3674 Y23.8913 
G01 X-22.4545 Y23.8913 
G01 X-22.4048 Y23.8943 
G01 X-22.3902 Y23.8913 
G01 X-22.3752 Y23.8913 
G01 X-22.3276 Y23.8785 
G01 X-22.2780 Y23.8684 
G01 X-22.2644 Y23.8615 
G01 X-22.2503 Y23.8578 
G01 X-22.2082 Y23.8335 
G01 X-12.1639 Y18.8113 
G01 X-8.9613 Y18.8113 
G01 X-8.9613 Y22.9086 
G01 X-9.2779 Y22.9086 
G01 X-9.3644 Y22.7791 
G01 X-9.5001 Y22.6434 
G01 X-9.6596 Y22.5368 
G01 X-9.8368 Y22.4634 
G01 X-10.0250 Y22.4260 
G01 X-11.9949 Y22.4260 
G01 X-12.1831 Y22.4634 
G01 X-12.3603 Y22.5368 
G01 X-12.5198 Y22.6434 
G01 X-12.6555 Y22.7791 
G01 X-12.7621 Y22.9386 
G01 X-12.8355 Y23.1158 
G01 X-12.8729 Y23.3040 
G01 X-12.8729 Y23.4959 
G01 X-12.8355 Y23.6841 
G01 X-12.7621 Y23.8613 
G01 X-12.6555 Y24.0208 
G01 X-12.5198 Y24.1565 
G01 X-12.3603 Y24.2631 
G01 X-12.1831 Y24.3365 
G01 X-11.9949 Y24.3739 
G00 Z2.0000 
G00 X-20.3049 Y15.5987 
G01 Z-0.1000 F400.00 
G01 X-20.3049 Y16.7212 
G01 X-19.5112 Y17.5149 
G01 X-18.3887 Y17.5149 
G01 X-17.5950 Y16.7212 
G01 X-17.5950 Y16.2713 
G01 X-12.7420 Y16.2713 
G01 X-12.6555 Y16.4008 
G01 X-12.5198 Y16.5365 
G01 X-12.3603 Y16.6431 
G01 X-12.1831 Y16.7165 
G01 X-11.9949 Y16.7539 
G01 X-10.0250 Y16.7539 
G01 X-9.8368 Y16.7165 
G01 X-9.6596 Y16.6431 
G01 X-9.5001 Y16.5365 
G01 X-9.3644 Y16.4008 
G01 X-9.2578 Y16.2413 
G01 X-9.1844 Y16.0641 
G01 X-9.1470 Y15.8759 
G01 X-9.1470 Y15.6840 
G01 X-9.1844 Y15.4958 
G01 X-9.2578 Y15.3186 
G01 X-9.3644 Y15.1591 
G01 X-9.5001 Y15.0234 
G01 X-9.6596 Y14.9168 
G01 X-9.8368 Y14.8434 
G01 X-10.0250 Y14.8060 
G01 X-11.9949 Y14.8060 
G01 X-12.1831 Y14.8434 
G01 X-12.3603 Y14.9168 
G01 X-12.5198 Y15.0234 
G01 X-12.6555 Y15.1591 
G01 X-12.7420 Y15.2886 
G01 X-17.9052 Y15.2886 
G01 X-18.3887 Y14.8050 
G01 X-19.5112 Y14.8050 
G01 X-20.3049 Y15.5987 
G00 Z2.0000 
G00 X-36.4949 Y17.7587 
G01 Z-0.1000 F400.00 
G01 X-36.4949 Y18.8812 
G01 X-35.7012 Y19.6749 
G01 X-35.6007 Y19.6749 
G01 X-35.5024 Y24.0153 
G01 X-46.4850 Y24.1607 
G01 X-46.4850 Y24.1087 
G01 X-47.2787 Y23.3150 
G01 X-48.4012 Y23.3150 
G01 X-49.1949 Y24.1087 
G01 X-49.1949 Y24.2802 
G01 X-50.3536 Y24.2802 
G01 X-50.4106 Y24.1948 
G01 X-50.5144 Y24.0910 
G01 X-50.6365 Y24.0094 
G01 X-50.7721 Y23.9532 
G01 X-50.9161 Y23.9246 
G01 X-52.3838 Y23.9246 
G01 X-52.5278 Y23.9532 
G01 X-52.6634 Y24.0094 
G01 X-52.7855 Y24.0910 
G01 X-52.8047 Y24.1102 
G01 X-53.6102 Y24.1102 
G01 X-53.6102 Y20.8060 
G01 X-53.6368 Y20.7069 
G01 X-53.6881 Y20.6180 
G01 X-53.7606 Y20.5455 
G01 X-53.8495 Y20.4942 
G01 X-53.9486 Y20.4676 
G01 X-54.0513 Y20.4676 
G01 X-61.5513 Y20.4676 
G01 X-61.6504 Y20.4942 
G01 X-61.7393 Y20.5455 
G01 X-61.8118 Y20.6180 
G01 X-61.8631 Y20.7069 
G01 X-61.8897 Y20.8060 
G01 X-61.8897 Y20.9087 
G01 X-61.8897 Y27.2613 
G01 X-61.8631 Y27.3604 
G01 X-61.8118 Y27.4493 
G01 X-61.7393 Y27.5218 
G01 X-61.6504 Y27.5731 
G01 X-61.5513 Y27.5997 
G01 X-61.4486 Y27.5997 
G01 X-60.5664 Y27.5997 
G01 X-60.5093 Y27.6851 
G01 X-60.4055 Y27.7889 
G01 X-60.2834 Y27.8705 
G01 X-60.1478 Y27.9267 
G01 X-60.0038 Y27.9553 
G01 X-58.5361 Y27.9553 
G01 X-58.3921 Y27.9267 
G01 X-58.2565 Y27.8705 
G01 X-58.1344 Y27.7889 
G01 X-58.0306 Y27.6851 
G01 X-57.9490 Y27.5630 
G01 X-57.8928 Y27.4274 
G01 X-57.8642 Y27.2834 
G01 X-57.8642 Y27.1365 
G01 X-57.8928 Y26.9925 
G01 X-57.9490 Y26.8569 
G01 X-58.0306 Y26.7348 
G01 X-58.1344 Y26.6310 
G01 X-58.2565 Y26.5494 
G01 X-58.3921 Y26.4932 
G01 X-58.5361 Y26.4646 
G01 X-60.0038 Y26.4646 
G01 X-60.1478 Y26.4932 
G01 X-60.2834 Y26.5494 
G01 X-60.4055 Y26.6310 
G01 X-60.5093 Y26.7348 
G01 X-60.5664 Y26.8202 
G01 X-61.1102 Y26.8202 
G01 X-61.1102 Y21.2471 
G01 X-54.3897 Y21.2471 
G01 X-54.3897 Y24.4486 
G01 X-54.3897 Y24.5513 
G01 X-54.3631 Y24.6504 
G01 X-54.3118 Y24.7393 
G01 X-54.2393 Y24.8118 
G01 X-54.1504 Y24.8631 
G01 X-54.0513 Y24.8897 
G01 X-53.0261 Y24.8897 
G01 X-52.9709 Y25.0230 
G01 X-52.8893 Y25.1451 
G01 X-52.7855 Y25.2489 
G01 X-52.6634 Y25.3305 
G01 X-52.5278 Y25.3867 
G01 X-52.3838 Y25.4153 
G01 X-50.9161 Y25.4153 
G01 X-50.7721 Y25.3867 
G01 X-50.6365 Y25.3305 
G01 X-50.5144 Y25.2489 
G01 X-50.4106 Y25.1451 
G01 X-50.3536 Y25.0597 
G01 X-49.1949 Y25.0597 
G01 X-49.1949 Y25.2312 
G01 X-48.4012 Y26.0249 
G01 X-47.2787 Y26.0249 
G01 X-46.4850 Y25.2312 
G01 X-46.4850 Y25.1433 
G01 X-35.0557 Y24.9920 
G01 X-35.0535 Y24.9926 
G01 X-34.9895 Y24.9912 
G01 X-34.9287 Y24.9904 
G01 X-34.9266 Y24.9897 
G01 X-34.9241 Y24.9897 
G01 X-34.8626 Y24.9717 
G01 X-34.8042 Y24.9553 
G01 X-34.8023 Y24.9541 
G01 X-34.7999 Y24.9534 
G01 X-34.7424 Y24.9184 
G01 X-34.6931 Y24.8891 
G01 X-34.6917 Y24.8876 
G01 X-34.6894 Y24.8862 
G01 X-34.6400 Y24.8345 
G01 X-34.6028 Y24.7964 
G01 X-34.6019 Y24.7946 
G01 X-34.6000 Y24.7927 
G01 X-34.5679 Y24.7340 
G01 X-34.5396 Y24.6836 
G01 X-34.5391 Y24.6813 
G01 X-34.5379 Y24.6792 
G01 X-34.5229 Y24.6177 
G01 X-34.5078 Y24.5582 
G01 X-34.5079 Y24.5558 
G01 X-34.5073 Y24.5535 
G01 X-34.5087 Y24.4903 
G01 X-34.5095 Y24.4287 
G01 X-34.5102 Y24.4265 
G01 X-34.6178 Y19.6749 
G01 X-34.5787 Y19.6749 
G01 X-33.7850 Y18.8812 
G01 X-33.7850 Y17.7587 
G01 X-34.5787 Y16.9650 
G01 X-34.6486 Y16.9650 
G01 X-34.6486 Y15.8649 
G01 X-34.5787 Y15.8649 
G01 X-33.7850 Y15.0712 
G01 X-33.7850 Y15.0013 
G01 X-32.9913 Y15.0013 
G01 X-32.9913 Y19.9352 
G01 X-32.9913 Y20.0647 
G01 X-32.9578 Y20.1896 
G01 X-32.8931 Y20.3017 
G01 X-32.8017 Y20.3931 
G01 X-32.6896 Y20.4578 
G01 X-32.5647 Y20.4913 
G01 X-22.0647 Y20.4913 
G01 X-21.9352 Y20.4913 
G01 X-21.8103 Y20.4578 
G01 X-21.6982 Y20.3931 
G01 X-21.6068 Y20.3017 
G01 X-21.5421 Y20.1896 
G01 X-21.5086 Y20.0647 
G01 X-21.5086 Y13.9913 
G01 X-12.5249 Y13.9913 
G01 X-12.5198 Y13.9965 
G01 X-12.3603 Y14.1031 
G01 X-12.1831 Y14.1765 
G01 X-11.9949 Y14.2139 
G01 X-10.0250 Y14.2139 
G01 X-9.8368 Y14.1765 
G01 X-9.6596 Y14.1031 
G01 X-9.5001 Y13.9965 
G01 X-9.3644 Y13.8608 
G01 X-9.2779 Y13.7313 
G01 X-7.4913 Y13.7313 
G01 X-7.4913 Y30.5086 
G01 X-9.2913 Y30.5086 
G01 X-9.3644 Y30.3991 
G01 X-9.5001 Y30.2634 
G01 X-9.6596 Y30.1568 
G01 X-9.8368 Y30.0834 
G01 X-10.0250 Y30.0460 
G01 X-11.9949 Y30.0460 
G01 X-12.1831 Y30.0834 
G01 X-12.3603 Y30.1568 
G01 X-12.5198 Y30.2634 
G01 X-12.6555 Y30.3991 
G01 X-12.7621 Y30.5586 
G01 X-12.8355 Y30.7358 
G01 X-12.8729 Y30.9240 
G01 X-12.8729 Y31.1159 
G01 X-12.8355 Y31.3041 
G01 X-12.7621 Y31.4813 
G01 X-12.6555 Y31.6408 
G01 X-12.5198 Y31.7765 
G01 X-12.3603 Y31.8831 
G01 X-12.1831 Y31.9565 
G01 X-11.9949 Y31.9939 
G01 X-11.7299 Y31.9939 
G01 X-11.7299 Y32.5860 
G01 X-11.9949 Y32.5860 
G01 X-12.1831 Y32.6234 
G01 X-12.3603 Y32.6968 
G01 X-12.5198 Y32.8034 
G01 X-12.6555 Y32.9391 
G01 X-12.6625 Y32.9497 
G01 X-12.7389 Y33.0007 
G01 X-12.8392 Y33.1010 
G01 X-12.9180 Y33.2189 
G01 X-12.9722 Y33.3499 
G01 X-12.9999 Y33.4890 
G01 X-12.9999 Y38.6820 
G01 X-18.1386 Y38.6820 
G01 X-18.1386 Y34.0779 
G01 X-18.0255 Y34.0311 
G01 X-17.8868 Y33.9384 
G01 X-17.7689 Y33.8205 
G01 X-17.6762 Y33.6818 
G01 X-17.6123 Y33.5276 
G01 X-17.5798 Y33.3640 
G01 X-17.5798 Y33.1971 
G01 X-17.6123 Y33.0335 
G01 X-17.6762 Y32.8793 
G01 X-17.7689 Y32.7406 
G01 X-17.8868 Y32.6227 
G01 X-18.0255 Y32.5300 
G01 X-18.1797 Y32.4661 
G01 X-18.3433 Y32.4336 
G01 X-20.0342 Y32.4336 
G01 X-20.1978 Y32.4661 
G01 X-20.3520 Y32.5300 
G01 X-20.4907 Y32.6227 
G01 X-20.6086 Y32.7406 
G01 X-20.7013 Y32.8793 
G01 X-20.7652 Y33.0335 
G01 X-20.7977 Y33.1971 
G01 X-20.7977 Y33.3640 
G01 X-20.7652 Y33.5276 
G01 X-20.7013 Y33.6818 
G01 X-20.6086 Y33.8205 
G01 X-20.4907 Y33.9384 
G01 X-20.3520 Y34.0311 
G01 X-20.1978 Y34.0950 
G01 X-20.0342 Y34.1275 
G01 X-19.1213 Y34.1275 
G01 X-19.1213 Y38.6820 
G01 X-22.5137 Y38.6820 
G01 X-23.1487 Y38.0470 
G01 X-24.2712 Y38.0470 
G01 X-24.9062 Y38.6820 
G01 X-27.4490 Y38.6820 
G01 X-27.5909 Y38.6820 
G01 X-27.7300 Y38.7097 
G01 X-27.8610 Y38.7639 
G01 X-27.9789 Y38.8427 
G01 X-28.0792 Y38.9430 
G01 X-28.1580 Y39.0609 
G01 X-28.2122 Y39.1919 
G01 X-28.2399 Y39.3310 
G01 X-28.2399 Y43.0000 
G01 X-30.4185 Y43.0000 
G01 X-30.9265 Y42.4920 
G01 X-31.7334 Y42.4920 
G01 X-31.9874 Y42.7460 
G01 X-37.0226 Y42.7460 
G01 X-37.2765 Y42.4920 
G01 X-38.0834 Y42.4920 
G01 X-38.6539 Y43.0625 
G01 X-38.6539 Y43.8694 
G01 X-38.3999 Y44.1233 
G01 X-38.3999 Y45.5400 
G01 X-40.7700 Y45.5400 
G01 X-40.7700 Y44.9190 
G01 X-40.7977 Y44.7799 
G01 X-40.8519 Y44.6489 
G01 X-40.9307 Y44.5310 
G01 X-41.0310 Y44.4307 
G01 X-41.1489 Y44.3519 
G01 X-41.2799 Y44.2977 
G01 X-41.4190 Y44.2700 
G01 X-41.5609 Y44.2700 
G01 X-41.5638 Y44.2700 
G01 X-42.1987 Y43.6350 
G01 X-43.3212 Y43.6350 
G01 X-43.9561 Y44.2700 
G01 X-43.9590 Y44.2700 
G01 X-44.1009 Y44.2700 
G01 X-44.2400 Y44.2977 
G01 X-44.3710 Y44.3519 
G01 X-44.4889 Y44.4307 
G01 X-47.0289 Y46.9707 
G01 X-47.1292 Y47.0710 
G01 X-47.2080 Y47.1889 
G01 X-47.2622 Y47.3199 
G01 X-47.2899 Y47.4590 
G01 X-47.2899 Y47.5910 
G01 X-47.3205 Y47.6367 
G01 X-47.3844 Y47.7909 
G01 X-47.4169 Y47.9545 
G01 X-47.4169 Y49.6454 
G01 X-47.3844 Y49.8090 
G01 X-47.3205 Y49.9632 
G01 X-47.2278 Y50.1019 
G01 X-47.1099 Y50.2198 
G01 X-46.9712 Y50.3125 
G01 X-46.8170 Y50.3764 
G01 X-46.6534 Y50.4089 
G01 X-46.4865 Y50.4089 
G01 X-46.3229 Y50.3764 
G01 X-46.1687 Y50.3125 
G01 X-46.0300 Y50.2198 
G01 X-45.9121 Y50.1019 
G01 X-45.8194 Y49.9632 
G01 X-45.7555 Y49.8090 
G01 X-45.7230 Y49.6454 
G01 X-45.7230 Y47.9545 
G01 X-45.7555 Y47.7909 
G01 X-45.7723 Y47.7505 
G01 X-43.8439 Y45.8221 
G01 X-43.3212 Y46.3449 
G01 X-42.2071 Y46.3449 
G01 X-42.1822 Y46.4700 
G01 X-42.1280 Y46.6010 
G01 X-42.0492 Y46.7189 
G01 X-41.9489 Y46.8192 
G01 X-41.8310 Y46.8980 
G01 X-41.7000 Y46.9522 
G01 X-41.5609 Y46.9799 
G01 X-38.5914 Y46.9799 
G01 X-38.0834 Y47.4879 
G01 X-37.2765 Y47.4879 
G01 X-36.7060 Y46.9174 
G01 X-36.7060 Y46.1105 
G01 X-36.9600 Y45.8565 
G01 X-36.9600 Y44.1859 
G01 X-31.9874 Y44.1859 
G01 X-31.7334 Y44.4399 
G01 X-30.9265 Y44.4399 
G01 X-27.4490 Y44.4399 
G01 X-27.3099 Y44.4122 
G01 X-27.1789 Y44.3580 
G01 X-27.0610 Y44.2792 
G01 X-26.9607 Y44.1789 
G01 X-26.8819 Y44.0610 
G01 X-26.8277 Y43.9300 
G01 X-26.8000 Y43.7909 
G01 X-26.8000 Y43.6490 
G01 X-26.8000 Y40.1219 
G01 X-24.9062 Y40.1219 
G01 X-24.2712 Y40.7569 
G01 X-23.1487 Y40.7569 
G01 X-22.5137 Y40.1219 
G01 X-18.5590 Y40.1219 
G01 X-12.9999 Y40.1219 
G01 X-12.9999 Y41.3128 
G01 X-13.4648 Y41.3128 
G01 X-13.6478 Y41.3418 
G01 X-13.8240 Y41.3990 
G01 X-13.9891 Y41.4832 
G01 X-14.1390 Y41.5921 
G01 X-14.2700 Y41.7231 
G01 X-14.3789 Y41.8730 
G01 X-14.4631 Y42.0381 
G01 X-14.5203 Y42.2143 
G01 X-14.5493 Y42.3973 
G01 X-14.5493 Y42.5826 
G01 X-14.5203 Y42.7656 
G01 X-14.4631 Y42.9418 
G01 X-14.3789 Y43.1069 
G01 X-14.2700 Y43.2568 
G01 X-14.1390 Y43.3878 
G01 X-13.9891 Y43.4967 
G01 X-13.8240 Y43.5809 
G01 X-13.6478 Y43.6381 
G01 X-13.4648 Y43.6671 
G01 X-11.0951 Y43.6671 
G01 X-10.9121 Y43.6381 
G01 X-10.7359 Y43.5809 
G01 X-10.5708 Y43.4967 
G01 X-10.4209 Y43.3878 
G01 X-10.2899 Y43.2568 
G01 X-10.1810 Y43.1069 
G01 X-10.0968 Y42.9418 
G01 X-10.0396 Y42.7656 
G01 X-10.0106 Y42.5826 
G01 X-10.0106 Y42.3973 
G01 X-10.0396 Y42.2143 
G01 X-10.0968 Y42.0381 
G01 X-10.1810 Y41.8730 
G01 X-10.2899 Y41.7231 
G01 X-10.4209 Y41.5921 
G01 X-10.5708 Y41.4832 
G01 X-10.7359 Y41.3990 
G01 X-10.9121 Y41.3418 
G01 X-11.0951 Y41.3128 
G01 X-11.5600 Y41.3128 
G01 X-11.5600 Y39.4729 
G01 X-11.5600 Y34.5339 
G01 X-10.0250 Y34.5339 
G01 X-9.8368 Y34.4965 
G01 X-9.6596 Y34.4231 
G01 X-9.5001 Y34.3165 
G01 X-9.3644 Y34.1808 
G01 X-9.2578 Y34.0213 
G01 X-9.1844 Y33.8441 
G01 X-9.1470 Y33.6559 
G01 X-9.1470 Y33.4640 
G01 X-9.1844 Y33.2758 
G01 X-9.2578 Y33.0986 
G01 X-9.3644 Y32.9391 
G01 X-9.5001 Y32.8034 
G01 X-9.6596 Y32.6968 
G01 X-9.8368 Y32.6234 
G01 X-10.0250 Y32.5860 
G01 X-10.2900 Y32.5860 
G01 X-10.2900 Y31.9939 
G01 X-10.0250 Y31.9939 
G01 X-9.8368 Y31.9565 
G01 X-9.6596 Y31.8831 
G01 X-9.5001 Y31.7765 
G01 X-9.3644 Y31.6408 
G01 X-9.2645 Y31.4913 
G01 X-6.9352 Y31.4913 
G01 X-6.8103 Y31.4578 
G01 X-6.6982 Y31.3931 
G01 X-6.6068 Y31.3017 
G01 X-6.5421 Y31.1896 
G01 X-6.5086 Y31.0647 
G01 X-6.5086 Y30.9352 
G01 X-6.5086 Y13.1752 
G01 X-6.5421 Y13.0503 
G01 X-6.6068 Y12.9382 
G01 X-6.6982 Y12.8468 
G01 X-6.8103 Y12.7821 
G01 X-6.9352 Y12.7486 
G01 X-7.0647 Y12.7486 
G01 X-9.2779 Y12.7486 
G01 X-9.3644 Y12.6191 
G01 X-9.5001 Y12.4834 
G01 X-9.6596 Y12.3768 
G01 X-9.8368 Y12.3034 
G01 X-10.0250 Y12.2660 
G01 X-11.9949 Y12.2660 
G01 X-12.1831 Y12.3034 
G01 X-12.3603 Y12.3768 
G01 X-12.5198 Y12.4834 
G01 X-12.6555 Y12.6191 
G01 X-12.7621 Y12.7786 
G01 X-12.8355 Y12.9558 
G01 X-12.8460 Y13.0086 
G01 X-21.5086 Y13.0086 
G01 X-21.5086 Y7.4352 
G01 X-21.5421 Y7.3103 
G01 X-21.6068 Y7.1982 
G01 X-21.6982 Y7.1068 
G01 X-21.8103 Y7.0421 
G01 X-21.9352 Y7.0086 
G01 X-22.0647 Y7.0086 
G01 X-58.0086 Y7.0086 
G01 X-58.0086 Y2.4352 
G01 X-58.0421 Y2.3103 
G01 X-58.1068 Y2.1982 
G01 X-58.1982 Y2.1068 
G01 X-58.3103 Y2.0421 
G01 X-58.4352 Y2.0086 
G01 X-58.5647 Y2.0086 
G01 X-102.5647 Y2.0086 
G01 X-102.6896 Y2.0421 
G01 X-102.8017 Y2.1068 
G01 X-102.8931 Y2.1982 
G01 X-102.9578 Y2.3103 
G01 X-102.9913 Y2.4352 
G01 X-102.9913 Y2.5647 
G01 X-102.9913 Y36.0647 
G01 X-102.9578 Y36.1896 
G01 X-102.8931 Y36.3017 
G01 X-102.8017 Y36.3931 
G01 X-102.6896 Y36.4578 
G01 X-102.5647 Y36.4913 
G01 X-102.4352 Y36.4913 
G01 X-102.1649 Y36.4913 
G01 X-102.1649 Y36.5612 
G01 X-101.3712 Y37.3549 
G01 X-100.2487 Y37.3549 
G01 X-99.4550 Y36.5612 
G01 X-99.4550 Y35.4387 
G01 X-100.2487 Y34.6450 
G01 X-101.3712 Y34.6450 
G01 X-102.0086 Y35.2825 
G01 X-102.0086 Y2.9913 
G01 X-58.9913 Y2.9913 
G01 X-58.9913 Y7.4352 
G01 X-58.9913 Y7.5647 
G01 X-58.9578 Y7.6896 
G01 X-58.8931 Y7.8017 
G01 X-58.8017 Y7.8931 
G01 X-58.6896 Y7.9578 
G01 X-58.5647 Y7.9913 
G01 X-22.4913 Y7.9913 
G01 X-22.4913 Y13.4352 
G01 X-22.4913 Y13.5647 
G01 X-22.4913 Y19.5086 
G01 X-32.0086 Y19.5086 
G01 X-32.0086 Y14.4452 
G01 X-32.0421 Y14.3203 
G01 X-32.1068 Y14.2082 
G01 X-32.1982 Y14.1168 
G01 X-32.3103 Y14.0521 
G01 X-32.4352 Y14.0186 
G01 X-32.5647 Y14.0186 
G01 X-33.7850 Y14.0186 
G01 X-33.7850 Y13.9487 
G01 X-34.5787 Y13.1550 
G01 X-35.7012 Y13.1550 
G01 X-36.4949 Y13.9487 
G01 X-36.4949 Y15.0712 
G01 X-35.7012 Y15.8649 
G01 X-35.6313 Y15.8649 
G01 X-35.6313 Y16.9650 
G01 X-35.7012 Y16.9650 
G01 X-36.4949 Y17.7587 
G00 Z2.0000 
G00 X-41.5749 Y13.9487 
G01 Z-0.1000 F400.00 
G01 X-41.5749 Y14.0186 
G01 X-42.6439 Y14.0186 
G01 X-43.9450 Y13.3680 
G01 X-43.9450 Y12.6787 
G01 X-44.7387 Y11.8850 
G01 X-45.8612 Y11.8850 
G01 X-46.6549 Y12.6787 
G01 X-46.6549 Y12.7486 
G01 X-47.9047 Y12.7486 
G01 X-48.0296 Y12.7821 
G01 X-48.1417 Y12.8468 
G01 X-48.2331 Y12.9382 
G01 X-48.2978 Y13.0503 
G01 X-48.3313 Y13.1752 
G01 X-48.3313 Y13.3047 
G01 X-48.3313 Y19.0986 
G01 X-50.4269 Y19.0986 
G01 X-50.5144 Y19.0110 
G01 X-50.6365 Y18.9294 
G01 X-50.7721 Y18.8732 
G01 X-50.9161 Y18.8446 
G01 X-52.3838 Y18.8446 
G01 X-52.5278 Y18.8732 
G01 X-52.6634 Y18.9294 
G01 X-52.7855 Y19.0110 
G01 X-52.8893 Y19.1148 
G01 X-52.9709 Y19.2369 
G01 X-53.0271 Y19.3725 
G01 X-53.0557 Y19.5165 
G01 X-53.0557 Y19.6634 
G01 X-53.0271 Y19.8074 
G01 X-52.9709 Y19.9430 
G01 X-52.8893 Y20.0651 
G01 X-52.7855 Y20.1689 
G01 X-52.6634 Y20.2505 
G01 X-52.5278 Y20.3067 
G01 X-52.3838 Y20.3353 
G01 X-50.9161 Y20.3353 
G01 X-50.7721 Y20.3067 
G01 X-50.6365 Y20.2505 
G01 X-50.5144 Y20.1689 
G01 X-50.4269 Y20.0813 
G01 X-47.9047 Y20.0813 
G01 X-47.7752 Y20.0813 
G01 X-47.6503 Y20.0478 
G01 X-47.5382 Y19.9831 
G01 X-47.4468 Y19.8917 
G01 X-47.3821 Y19.7796 
G01 X-47.3486 Y19.6547 
G01 X-47.3486 Y13.7313 
G01 X-46.6549 Y13.7313 
G01 X-46.6549 Y13.8012 
G01 X-45.8612 Y14.5949 
G01 X-44.7387 Y14.5949 
G01 X-44.3888 Y14.2449 
G01 X-42.9917 Y14.9435 
G01 X-42.9496 Y14.9678 
G01 X-42.9355 Y14.9715 
G01 X-42.9219 Y14.9784 
G01 X-42.8723 Y14.9885 
G01 X-42.8247 Y15.0013 
G01 X-42.8097 Y15.0013 
G01 X-42.7951 Y15.0043 
G01 X-42.7454 Y15.0013 
G01 X-41.5749 Y15.0013 
G01 X-41.5749 Y15.0712 
G01 X-40.7812 Y15.8649 
G01 X-39.6587 Y15.8649 
G01 X-38.8650 Y15.0712 
G01 X-38.8650 Y13.9487 
G01 X-39.6587 Y13.1550 
G01 X-40.7812 Y13.1550 
G01 X-41.5749 Y13.9487 
G00 Z2.0000 
G00 X-46.6549 Y17.7587 
G01 Z-0.1000 F400.00 
G01 X-46.6549 Y18.8812 
G01 X-45.8612 Y19.6749 
G01 X-45.7913 Y19.6749 
G01 X-45.7913 Y21.6386 
G01 X-50.4269 Y21.6386 
G01 X-50.5144 Y21.5510 
G01 X-50.6365 Y21.4694 
G01 X-50.7721 Y21.4132 
G01 X-50.9161 Y21.3846 
G01 X-52.3838 Y21.3846 
G01 X-52.5278 Y21.4132 
G01 X-52.6634 Y21.4694 
G01 X-52.7855 Y21.5510 
G01 X-52.8893 Y21.6548 
G01 X-52.9709 Y21.7769 
G01 X-53.0271 Y21.9125 
G01 X-53.0557 Y22.0565 
G01 X-53.0557 Y22.2034 
G01 X-53.0271 Y22.3474 
G01 X-52.9709 Y22.4830 
G01 X-52.8893 Y22.6051 
G01 X-52.7855 Y22.7089 
G01 X-52.6634 Y22.7905 
G01 X-52.5278 Y22.8467 
G01 X-52.3838 Y22.8753 
G01 X-50.9161 Y22.8753 
G01 X-50.7721 Y22.8467 
G01 X-50.6365 Y22.7905 
G01 X-50.5144 Y22.7089 
G01 X-50.4269 Y22.6213 
G01 X-45.2352 Y22.6213 
G01 X-45.1103 Y22.5878 
G01 X-44.9982 Y22.5231 
G01 X-44.9068 Y22.4317 
G01 X-44.8421 Y22.3196 
G01 X-44.8086 Y22.1947 
G01 X-44.8086 Y22.0652 
G01 X-44.8086 Y19.6749 
G01 X-44.7387 Y19.6749 
G01 X-43.9450 Y18.8812 
G01 X-43.9450 Y18.8113 
G01 X-41.5749 Y18.8113 
G01 X-41.5749 Y18.8812 
G01 X-40.7812 Y19.6749 
G01 X-39.6587 Y19.6749 
G01 X-38.8650 Y18.8812 
G01 X-38.8650 Y17.7587 
G01 X-39.6587 Y16.9650 
G01 X-40.7812 Y16.9650 
G01 X-41.5749 Y17.7587 
G01 X-41.5749 Y17.8286 
G01 X-43.9450 Y17.8286 
G01 X-43.9450 Y17.7587 
G01 X-44.7387 Y16.9650 
G01 X-45.8612 Y16.9650 
G01 X-46.6549 Y17.7587 
G00 Z2.0000 
G00 X-60.0038 Y38.1153 
G01 Z-0.1000 F400.00 
G01 X-58.5361 Y38.1153 
G01 X-58.3921 Y38.0867 
G01 X-58.2565 Y38.0305 
G01 X-58.1344 Y37.9489 
G01 X-58.0306 Y37.8451 
G01 X-57.9490 Y37.7230 
G01 X-57.8928 Y37.5874 
G01 X-57.8642 Y37.4434 
G01 X-57.8642 Y37.2965 
G01 X-57.8928 Y37.1525 
G01 X-57.9490 Y37.0169 
G01 X-58.0306 Y36.8948 
G01 X-58.1344 Y36.7910 
G01 X-58.2565 Y36.7094 
G01 X-58.3921 Y36.6532 
G01 X-58.5361 Y36.6246 
G01 X-60.0038 Y36.6246 
G01 X-60.1478 Y36.6532 
G01 X-60.2834 Y36.7094 
G01 X-60.4055 Y36.7910 
G01 X-60.5093 Y36.8948 
G01 X-60.5909 Y37.0169 
G01 X-60.6471 Y37.1525 
G01 X-60.6757 Y37.2965 
G01 X-60.6757 Y37.4434 
G01 X-60.6471 Y37.5874 
G01 X-60.5909 Y37.7230 
G01 X-60.5093 Y37.8451 
G01 X-60.4055 Y37.9489 
G01 X-60.2834 Y38.0305 
G01 X-60.1478 Y38.0867 
G01 X-60.0038 Y38.1153 
G00 Z2.0000 
G00 X-60.0038 Y35.5753 
G01 Z-0.1000 F400.00 
G01 X-58.5361 Y35.5753 
G01 X-58.3921 Y35.5467 
G01 X-58.2565 Y35.4905 
G01 X-58.1344 Y35.4089 
G01 X-58.0306 Y35.3051 
G01 X-57.9490 Y35.1830 
G01 X-57.8928 Y35.0474 
G01 X-57.8642 Y34.9034 
G01 X-57.8642 Y34.7565 
G01 X-57.8928 Y34.6125 
G01 X-57.9490 Y34.4769 
G01 X-58.0306 Y34.3548 
G01 X-58.1344 Y34.2510 
G01 X-58.2565 Y34.1694 
G01 X-58.3921 Y34.1132 
G01 X-58.5361 Y34.0846 
G01 X-60.0038 Y34.0846 
G01 X-60.1478 Y34.1132 
G01 X-60.2834 Y34.1694 
G01 X-60.4055 Y34.2510 
G01 X-60.5093 Y34.3548 
G01 X-60.5909 Y34.4769 
G01 X-60.6471 Y34.6125 
G01 X-60.6757 Y34.7565 
G01 X-60.6757 Y34.9034 
G01 X-60.6471 Y35.0474 
G01 X-60.5909 Y35.1830 
G01 X-60.5093 Y35.3051 
G01 X-60.4055 Y35.4089 
G01 X-60.2834 Y35.4905 
G01 X-60.1478 Y35.5467 
G01 X-60.0038 Y35.5753 
G00 Z2.0000 
G00 X-60.0038 Y33.0353 
G01 Z-0.1000 F400.00 
G01 X-58.5361 Y33.0353 
G01 X-58.3921 Y33.0067 
G01 X-58.2565 Y32.9505 
G01 X-58.1344 Y32.8689 
G01 X-58.0306 Y32.7651 
G01 X-57.9490 Y32.6430 
G01 X-57.8928 Y32.5074 
G01 X-57.8642 Y32.3634 
G01 X-57.8642 Y32.2165 
G01 X-57.8928 Y32.0725 
G01 X-57.9490 Y31.9369 
G01 X-58.0306 Y31.8148 
G01 X-58.1344 Y31.7110 
G01 X-58.2565 Y31.6294 
G01 X-58.3921 Y31.5732 
G01 X-58.5361 Y31.5446 
G01 X-60.0038 Y31.5446 
G01 X-60.1478 Y31.5732 
G01 X-60.2834 Y31.6294 
G01 X-60.4055 Y31.7110 
G01 X-60.5093 Y31.8148 
G01 X-60.5909 Y31.9369 
G01 X-60.6471 Y32.0725 
G01 X-60.6757 Y32.2165 
G01 X-60.6757 Y32.3634 
G01 X-60.6471 Y32.5074 
G01 X-60.5909 Y32.6430 
G01 X-60.5093 Y32.7651 
G01 X-60.4055 Y32.8689 
G01 X-60.2834 Y32.9505 
G01 X-60.1478 Y33.0067 
G01 X-60.0038 Y33.0353 
G00 Z2.0000 
G00 X-60.0038 Y30.4953 
G01 Z-0.1000 F400.00 
G01 X-58.5361 Y30.4953 
G01 X-58.3921 Y30.4667 
G01 X-58.2565 Y30.4105 
G01 X-58.1344 Y30.3289 
G01 X-58.0306 Y30.2251 
G01 X-57.9490 Y30.1030 
G01 X-57.8928 Y29.9674 
G01 X-57.8642 Y29.8234 
G01 X-57.8642 Y29.6765 
G01 X-57.8928 Y29.5325 
G01 X-57.9490 Y29.3969 
G01 X-58.0306 Y29.2748 
G01 X-58.1344 Y29.1710 
G01 X-58.2565 Y29.0894 
G01 X-58.3921 Y29.0332 
G01 X-58.5361 Y29.0046 
G01 X-60.0038 Y29.0046 
G01 X-60.1478 Y29.0332 
G01 X-60.2834 Y29.0894 
G01 X-60.4055 Y29.1710 
G01 X-60.5093 Y29.2748 
G01 X-60.5909 Y29.3969 
G01 X-60.6471 Y29.5325 
G01 X-60.6757 Y29.6765 
G01 X-60.6757 Y29.8234 
G01 X-60.6471 Y29.9674 
G01 X-60.5909 Y30.1030 
G01 X-60.5093 Y30.2251 
G01 X-60.4055 Y30.3289 
G01 X-60.2834 Y30.4105 
G01 X-60.1478 Y30.4667 
G01 X-60.0038 Y30.4953 
G00 Z2.0000 
G00 X-60.0038 Y25.4153 
G01 Z-0.1000 F400.00 
G01 X-58.5361 Y25.4153 
G01 X-58.3921 Y25.3867 
G01 X-58.2565 Y25.3305 
G01 X-58.1344 Y25.2489 
G01 X-58.0306 Y25.1451 
G01 X-57.9490 Y25.0230 
G01 X-57.8928 Y24.8874 
G01 X-57.8642 Y24.7434 
G01 X-57.8642 Y24.5965 
G01 X-57.8928 Y24.4525 
G01 X-57.9490 Y24.3169 
G01 X-58.0306 Y24.1948 
G01 X-58.1344 Y24.0910 
G01 X-58.2565 Y24.0094 
G01 X-58.3921 Y23.9532 
G01 X-58.5361 Y23.9246 
G01 X-60.0038 Y23.9246 
G01 X-60.1478 Y23.9532 
G01 X-60.2834 Y24.0094 
G01 X-60.4055 Y24.0910 
G01 X-60.5093 Y24.1948 
G01 X-60.5909 Y24.3169 
G01 X-60.6471 Y24.4525 
G01 X-60.6757 Y24.5965 
G01 X-60.6757 Y24.7434 
G01 X-60.6471 Y24.8874 
G01 X-60.5909 Y25.0230 
G01 X-60.5093 Y25.1451 
G01 X-60.4055 Y25.2489 
G01 X-60.2834 Y25.3305 
G01 X-60.1478 Y25.3867 
G01 X-60.0038 Y25.4153 
G00 Z2.0000 
G00 X-60.0038 Y20.3353 
G01 Z-0.1000 F400.00 
G01 X-58.5361 Y20.3353 
G01 X-58.3921 Y20.3067 
G01 X-58.2565 Y20.2505 
G01 X-58.1344 Y20.1689 
G01 X-58.0306 Y20.0651 
G01 X-57.9736 Y19.9797 
G01 X-55.0513 Y19.9797 
G01 X-54.9486 Y19.9797 
G01 X-54.8495 Y19.9531 
G01 X-54.7606 Y19.9018 
G01 X-54.6881 Y19.8293 
G01 X-54.6368 Y19.7404 
G01 X-54.6102 Y19.6413 
G01 X-54.6102 Y10.9881 
G01 X-27.0613 Y10.9881 
G01 X-27.0613 Y14.8050 
G01 X-27.1312 Y14.8050 
G01 X-27.9249 Y15.5987 
G01 X-27.9249 Y16.7212 
G01 X-27.1312 Y17.5149 
G01 X-26.0087 Y17.5149 
G01 X-25.2150 Y16.7212 
G01 X-25.2150 Y15.5987 
G01 X-26.0087 Y14.8050 
G01 X-26.0786 Y14.8050 
G01 X-26.0786 Y10.6352 
G01 X-26.1121 Y10.5103 
G01 X-26.1768 Y10.3982 
G01 X-26.2682 Y10.3068 
G01 X-26.3803 Y10.2421 
G01 X-26.5052 Y10.2086 
G01 X-26.6347 Y10.2086 
G01 X-26.7596 Y10.2421 
G01 X-26.8717 Y10.3068 
G01 X-26.9631 Y10.3982 
G01 X-26.9709 Y10.4118 
G01 X-54.7369 Y10.4118 
G01 X-54.7606 Y10.3881 
G01 X-54.8495 Y10.3368 
G01 X-54.9486 Y10.3102 
G01 X-55.0513 Y10.3102 
G01 X-55.1504 Y10.3368 
G01 X-55.2393 Y10.3881 
G01 X-55.3118 Y10.4606 
G01 X-55.3631 Y10.5495 
G01 X-55.3897 Y10.6486 
G01 X-55.3897 Y19.2002 
G01 X-57.9736 Y19.2002 
G01 X-58.0306 Y19.1148 
G01 X-58.1344 Y19.0110 
G01 X-58.2565 Y18.9294 
G01 X-58.3921 Y18.8732 
G01 X-58.5361 Y18.8446 
G01 X-60.0038 Y18.8446 
G01 X-60.1478 Y18.8732 
G01 X-60.2834 Y18.9294 
G01 X-60.4055 Y19.0110 
G01 X-60.5093 Y19.1148 
G01 X-60.5909 Y19.2369 
G01 X-60.6471 Y19.3725 
G01 X-60.6757 Y19.5165 
G01 X-60.6757 Y19.6634 
G01 X-60.6471 Y19.8074 
G01 X-60.5909 Y19.9430 
G01 X-60.5093 Y20.0651 
G01 X-60.4055 Y20.1689 
G01 X-60.2834 Y20.2505 
G01 X-60.1478 Y20.3067 
G01 X-60.0038 Y20.3353 
G00 Z2.0000 
G00 X-60.0038 Y17.7953 
G01 Z-0.1000 F400.00 
G01 X-58.5361 Y17.7953 
G01 X-58.3921 Y17.7667 
G01 X-58.2565 Y17.7105 
G01 X-58.1344 Y17.6289 
G01 X-58.0306 Y17.5251 
G01 X-57.9490 Y17.4030 
G01 X-57.8928 Y17.2674 
G01 X-57.8642 Y17.1234 
G01 X-57.8642 Y16.9765 
G01 X-57.8928 Y16.8325 
G01 X-57.9490 Y16.6969 
G01 X-58.0306 Y16.5748 
G01 X-58.1344 Y16.4710 
G01 X-58.2565 Y16.3894 
G01 X-58.3921 Y16.3332 
G01 X-58.5361 Y16.3046 
G01 X-60.0038 Y16.3046 
G01 X-60.1478 Y16.3332 
G01 X-60.2834 Y16.3894 
G01 X-60.4055 Y16.4710 
G01 X-60.5093 Y16.5748 
G01 X-60.5909 Y16.6969 
G01 X-60.6471 Y16.8325 
G01 X-60.6757 Y16.9765 
G01 X-60.6757 Y17.1234 
G01 X-60.6471 Y17.2674 
G01 X-60.5909 Y17.4030 
G01 X-60.5093 Y17.5251 
G01 X-60.4055 Y17.6289 
G01 X-60.2834 Y17.7105 
G01 X-60.1478 Y17.7667 
G01 X-60.0038 Y17.7953 
G00 Z2.0000 
G00 X-60.0038 Y15.2553 
G01 Z-0.1000 F400.00 
G01 X-58.5361 Y15.2553 
G01 X-58.3921 Y15.2267 
G01 X-58.2565 Y15.1705 
G01 X-58.1344 Y15.0889 
G01 X-58.0306 Y14.9851 
G01 X-57.9490 Y14.8630 
G01 X-57.8928 Y14.7274 
G01 X-57.8642 Y14.5834 
G01 X-57.8642 Y14.4365 
G01 X-57.8928 Y14.2925 
G01 X-57.9490 Y14.1569 
G01 X-58.0306 Y14.0348 
G01 X-58.1344 Y13.9310 
G01 X-58.2565 Y13.8494 
G01 X-58.3921 Y13.7932 
G01 X-58.5361 Y13.7646 
G01 X-60.0038 Y13.7646 
G01 X-60.1478 Y13.7932 
G01 X-60.2834 Y13.8494 
G01 X-60.4055 Y13.9310 
G01 X-60.5093 Y14.0348 
G01 X-60.5909 Y14.1569 
G01 X-60.6471 Y14.2925 
G01 X-60.6757 Y14.4365 
G01 X-60.6757 Y14.5834 
G01 X-60.6471 Y14.7274 
G01 X-60.5909 Y14.8630 
G01 X-60.5093 Y14.9851 
G01 X-60.4055 Y15.0889 
G01 X-60.2834 Y15.1705 
G01 X-60.1478 Y15.2267 
G01 X-60.0038 Y15.2553 
G00 Z2.0000 
G00 X-60.0038 Y12.7153 
G01 Z-0.1000 F400.00 
G01 X-58.5361 Y12.7153 
G01 X-58.3921 Y12.6867 
G01 X-58.2565 Y12.6305 
G01 X-58.1344 Y12.5489 
G01 X-58.0306 Y12.4451 
G01 X-57.9490 Y12.3230 
G01 X-57.8928 Y12.1874 
G01 X-57.8642 Y12.0434 
G01 X-57.8642 Y11.8965 
G01 X-57.8928 Y11.7525 
G01 X-57.9490 Y11.6169 
G01 X-58.0306 Y11.4948 
G01 X-58.1344 Y11.3910 
G01 X-58.2565 Y11.3094 
G01 X-58.3921 Y11.2532 
G01 X-58.5361 Y11.2246 
G01 X-60.0038 Y11.2246 
G01 X-60.1478 Y11.2532 
G01 X-60.2834 Y11.3094 
G01 X-60.4055 Y11.3910 
G01 X-60.5093 Y11.4948 
G01 X-60.5909 Y11.6169 
G01 X-60.6471 Y11.7525 
G01 X-60.6757 Y11.8965 
G01 X-60.6757 Y12.0434 
G01 X-60.6471 Y12.1874 
G01 X-60.5909 Y12.3230 
G01 X-60.5093 Y12.4451 
G01 X-60.4055 Y12.5489 
G01 X-60.2834 Y12.6305 
G01 X-60.1478 Y12.6867 
G01 X-60.0038 Y12.7153 
G00 Z2.0000 
G00 X-60.0038 Y10.1753 
G01 Z-0.1000 F400.00 
G01 X-58.5361 Y10.1753 
G01 X-58.3921 Y10.1467 
G01 X-58.2565 Y10.0905 
G01 X-58.1344 Y10.0089 
G01 X-58.0306 Y9.9051 
G01 X-57.9490 Y9.7830 
G01 X-57.8928 Y9.6474 
G01 X-57.8642 Y9.5034 
G01 X-57.8642 Y9.3565 
G01 X-57.8928 Y9.2125 
G01 X-57.9490 Y9.0769 
G01 X-58.0306 Y8.9548 
G01 X-58.1344 Y8.8510 
G01 X-58.2565 Y8.7694 
G01 X-58.3921 Y8.7132 
G01 X-58.5361 Y8.6846 
G01 X-59.6102 Y8.6846 
G01 X-59.6102 Y3.6513 
G01 X-59.6102 Y3.5486 
G01 X-59.6368 Y3.4495 
G01 X-59.6881 Y3.3606 
G01 X-59.7606 Y3.2881 
G01 X-59.8495 Y3.2368 
G01 X-59.9486 Y3.2102 
G01 X-90.4486 Y3.2102 
G01 X-90.5513 Y3.2102 
G01 X-90.6504 Y3.2368 
G01 X-90.7393 Y3.2881 
G01 X-90.8118 Y3.3606 
G01 X-90.8631 Y3.4495 
G01 X-90.8897 Y3.5486 
G01 X-90.8897 Y8.6102 
G01 X-92.4827 Y8.6102 
G01 X-92.4874 Y8.5987 
G01 X-92.5801 Y8.4600 
G01 X-92.6980 Y8.3421 
G01 X-92.8367 Y8.2494 
G01 X-92.9909 Y8.1855 
G01 X-93.1545 Y8.1530 
G01 X-94.8454 Y8.1530 
G01 X-95.0090 Y8.1855 
G01 X-95.1632 Y8.2494 
G01 X-95.3019 Y8.3421 
G01 X-95.4198 Y8.4600 
G01 X-95.5125 Y8.5987 
G01 X-95.5764 Y8.7529 
G01 X-95.6089 Y8.9165 
G01 X-95.6089 Y9.0834 
G01 X-95.5764 Y9.2470 
G01 X-95.5125 Y9.4012 
G01 X-95.4198 Y9.5399 
G01 X-95.3019 Y9.6578 
G01 X-95.1632 Y9.7505 
G01 X-95.0090 Y9.8144 
G01 X-94.8454 Y9.8469 
G01 X-93.1545 Y9.8469 
G01 X-92.9909 Y9.8144 
G01 X-92.8367 Y9.7505 
G01 X-92.6980 Y9.6578 
G01 X-92.5801 Y9.5399 
G01 X-92.4874 Y9.4012 
G01 X-92.4827 Y9.3897 
G01 X-90.4486 Y9.3897 
G01 X-90.3495 Y9.3631 
G01 X-90.2606 Y9.3118 
G01 X-90.1881 Y9.2393 
G01 X-90.1368 Y9.1504 
G01 X-90.1102 Y9.0513 
G01 X-90.1102 Y8.9486 
G01 X-90.1102 Y3.9897 
G01 X-60.3897 Y3.9897 
G01 X-60.3897 Y8.8405 
G01 X-60.4055 Y8.8510 
G01 X-60.5093 Y8.9548 
G01 X-60.5909 Y9.0769 
G01 X-60.6471 Y9.2125 
G01 X-60.6757 Y9.3565 
G01 X-60.6757 Y9.5034 
G01 X-60.6471 Y9.6474 
G01 X-60.5909 Y9.7830 
G01 X-60.5093 Y9.9051 
G01 X-60.4055 Y10.0089 
G01 X-60.2834 Y10.0905 
G01 X-60.1478 Y10.1467 
G01 X-60.0038 Y10.1753 
G00 Z2.0000 
G00 X-52.3838 Y10.1753 
G01 Z-0.1000 F400.00 
G01 X-50.9161 Y10.1753 
G01 X-50.7721 Y10.1467 
G01 X-50.6365 Y10.0905 
G01 X-50.5144 Y10.0089 
G01 X-50.4106 Y9.9051 
G01 X-50.3290 Y9.7830 
G01 X-50.2728 Y9.6474 
G01 X-50.2442 Y9.5034 
G01 X-50.2442 Y9.3565 
G01 X-50.2728 Y9.2125 
G01 X-50.3290 Y9.0769 
G01 X-50.4106 Y8.9548 
G01 X-50.5144 Y8.8510 
G01 X-50.6365 Y8.7694 
G01 X-50.7721 Y8.7132 
G01 X-50.9161 Y8.6846 
G01 X-52.3838 Y8.6846 
G01 X-52.5278 Y8.7132 
G01 X-52.6634 Y8.7694 
G01 X-52.7855 Y8.8510 
G01 X-52.8893 Y8.9548 
G01 X-52.9709 Y9.0769 
G01 X-53.0271 Y9.2125 
G01 X-53.0557 Y9.3565 
G01 X-53.0557 Y9.5034 
G01 X-53.0271 Y9.6474 
G01 X-52.9709 Y9.7830 
G01 X-52.8893 Y9.9051 
G01 X-52.7855 Y10.0089 
G01 X-52.6634 Y10.0905 
G01 X-52.5278 Y10.1467 
G01 X-52.3838 Y10.1753 
G00 Z2.0000 
G00 X-52.3838 Y12.7153 
G01 Z-0.1000 F400.00 
G01 X-50.9161 Y12.7153 
G01 X-50.7721 Y12.6867 
G01 X-50.6365 Y12.6305 
G01 X-50.5144 Y12.5489 
G01 X-50.4106 Y12.4451 
G01 X-50.3290 Y12.3230 
G01 X-50.2728 Y12.1874 
G01 X-50.2442 Y12.0434 
G01 X-50.2442 Y11.8965 
G01 X-50.2728 Y11.7525 
G01 X-50.3290 Y11.6169 
G01 X-50.4106 Y11.4948 
G01 X-50.5144 Y11.3910 
G01 X-50.6365 Y11.3094 
G01 X-50.7721 Y11.2532 
G01 X-50.9161 Y11.2246 
G01 X-52.3838 Y11.2246 
G01 X-52.5278 Y11.2532 
G01 X-52.6634 Y11.3094 
G01 X-52.7855 Y11.3910 
G01 X-52.8893 Y11.4948 
G01 X-52.9709 Y11.6169 
G01 X-53.0271 Y11.7525 
G01 X-53.0557 Y11.8965 
G01 X-53.0557 Y12.0434 
G01 X-53.0271 Y12.1874 
G01 X-52.9709 Y12.3230 
G01 X-52.8893 Y12.4451 
G01 X-52.7855 Y12.5489 
G01 X-52.6634 Y12.6305 
G01 X-52.5278 Y12.6867 
G01 X-52.3838 Y12.7153 
G00 Z2.0000 
G00 X-52.3838 Y15.2553 
G01 Z-0.1000 F400.00 
G01 X-50.9161 Y15.2553 
G01 X-50.7721 Y15.2267 
G01 X-50.6365 Y15.1705 
G01 X-50.5144 Y15.0889 
G01 X-50.4106 Y14.9851 
G01 X-50.3290 Y14.8630 
G01 X-50.2728 Y14.7274 
G01 X-50.2442 Y14.5834 
G01 X-50.2442 Y14.4365 
G01 X-50.2728 Y14.2925 
G01 X-50.3290 Y14.1569 
G01 X-50.4106 Y14.0348 
G01 X-50.5144 Y13.9310 
G01 X-50.6365 Y13.8494 
G01 X-50.7721 Y13.7932 
G01 X-50.9161 Y13.7646 
G01 X-52.3838 Y13.7646 
G01 X-52.5278 Y13.7932 
G01 X-52.6634 Y13.8494 
G01 X-52.7855 Y13.9310 
G01 X-52.8893 Y14.0348 
G01 X-52.9709 Y14.1569 
G01 X-53.0271 Y14.2925 
G01 X-53.0557 Y14.4365 
G01 X-53.0557 Y14.5834 
G01 X-53.0271 Y14.7274 
G01 X-52.9709 Y14.8630 
G01 X-52.8893 Y14.9851 
G01 X-52.7855 Y15.0889 
G01 X-52.6634 Y15.1705 
G01 X-52.5278 Y15.2267 
G01 X-52.3838 Y15.2553 
G00 Z2.0000 
G00 X-52.3838 Y17.7953 
G01 Z-0.1000 F400.00 
G01 X-50.9161 Y17.7953 
G01 X-50.7721 Y17.7667 
G01 X-50.6365 Y17.7105 
G01 X-50.5144 Y17.6289 
G01 X-50.4106 Y17.5251 
G01 X-50.3290 Y17.4030 
G01 X-50.2728 Y17.2674 
G01 X-50.2442 Y17.1234 
G01 X-50.2442 Y16.9765 
G01 X-50.2728 Y16.8325 
G01 X-50.3290 Y16.6969 
G01 X-50.4106 Y16.5748 
G01 X-50.5144 Y16.4710 
G01 X-50.6365 Y16.3894 
G01 X-50.7721 Y16.3332 
G01 X-50.9161 Y16.3046 
G01 X-52.3838 Y16.3046 
G01 X-52.5278 Y16.3332 
G01 X-52.6634 Y16.3894 
G01 X-52.7855 Y16.4710 
G01 X-52.8893 Y16.5748 
G01 X-52.9709 Y16.6969 
G01 X-53.0271 Y16.8325 
G01 X-53.0557 Y16.9765 
G01 X-53.0557 Y17.1234 
G01 X-53.0271 Y17.2674 
G01 X-52.9709 Y17.4030 
G01 X-52.8893 Y17.5251 
G01 X-52.7855 Y17.6289 
G01 X-52.6634 Y17.7105 
G01 X-52.5278 Y17.7667 
G01 X-52.3838 Y17.7953 
G00 Z2.0000 
G00 X-52.3838 Y35.5753 
G01 Z-0.1000 F400.00 
G01 X-50.9161 Y35.5753 
G01 X-50.7721 Y35.5467 
G01 X-50.6365 Y35.4905 
G01 X-50.5144 Y35.4089 
G01 X-50.4106 Y35.3051 
G01 X-50.3290 Y35.1830 
G01 X-50.2728 Y35.0474 
G01 X-50.2442 Y34.9034 
G01 X-50.2442 Y34.7565 
G01 X-50.2728 Y34.6125 
G01 X-50.3290 Y34.4769 
G01 X-50.4106 Y34.3548 
G01 X-50.5144 Y34.2510 
G01 X-50.6365 Y34.1694 
G01 X-50.7721 Y34.1132 
G01 X-50.9161 Y34.0846 
G01 X-52.3838 Y34.0846 
G01 X-52.5278 Y34.1132 
G01 X-52.6634 Y34.1694 
G01 X-52.7855 Y34.2510 
G01 X-52.8893 Y34.3548 
G01 X-52.9709 Y34.4769 
G01 X-53.0271 Y34.6125 
G01 X-53.0557 Y34.7565 
G01 X-53.0557 Y34.9034 
G01 X-53.0271 Y35.0474 
G01 X-52.9709 Y35.1830 
G01 X-52.8893 Y35.3051 
G01 X-52.7855 Y35.4089 
G01 X-52.6634 Y35.4905 
G01 X-52.5278 Y35.5467 
G01 X-52.3838 Y35.5753 
G00 Z2.0000 
G00 X-52.3838 Y40.6553 
G01 Z-0.1000 F400.00 
G01 X-50.9161 Y40.6553 
G01 X-50.7721 Y40.6267 
G01 X-50.6365 Y40.5705 
G01 X-50.5144 Y40.4889 
G01 X-50.4269 Y40.4013 
G01 X-47.8853 Y40.4013 
G01 X-47.8659 Y40.4049 
G01 X-47.8203 Y40.4013 
G01 X-47.7752 Y40.4013 
G01 X-47.7564 Y40.3962 
G01 X-47.7368 Y40.3947 
G01 X-47.6939 Y40.3795 
G01 X-47.6503 Y40.3678 
G01 X-47.6335 Y40.3581 
G01 X-47.6149 Y40.3515 
G01 X-47.5775 Y40.3257 
G01 X-47.5382 Y40.3031 
G01 X-47.5244 Y40.2892 
G01 X-27.3674 Y26.4313 
G01 X-12.7420 Y26.4313 
G01 X-12.6555 Y26.5608 
G01 X-12.5198 Y26.6965 
G01 X-12.3603 Y26.8031 
G01 X-12.1831 Y26.8765 
G01 X-11.9949 Y26.9139 
G01 X-10.0250 Y26.9139 
G01 X-9.8368 Y26.8765 
G01 X-9.6596 Y26.8031 
G01 X-9.5001 Y26.6965 
G01 X-9.3644 Y26.5608 
G01 X-9.2578 Y26.4013 
G01 X-9.1844 Y26.2241 
G01 X-9.1470 Y26.0359 
G01 X-9.1470 Y25.8440 
G01 X-9.1844 Y25.6558 
G01 X-9.2578 Y25.4786 
G01 X-9.3644 Y25.3191 
G01 X-9.5001 Y25.1834 
G01 X-9.6596 Y25.0768 
G01 X-9.8368 Y25.0034 
G01 X-10.0250 Y24.9660 
G01 X-11.9949 Y24.9660 
G01 X-12.1831 Y25.0034 
G01 X-12.3603 Y25.0768 
G01 X-12.5198 Y25.1834 
G01 X-12.6555 Y25.3191 
G01 X-12.7420 Y25.4486 
G01 X-27.4746 Y25.4486 
G01 X-27.4940 Y25.4450 
G01 X-27.5396 Y25.4486 
G01 X-27.5847 Y25.4486 
G01 X-27.6035 Y25.4537 
G01 X-27.6231 Y25.4552 
G01 X-27.6660 Y25.4704 
G01 X-27.7096 Y25.4821 
G01 X-27.7264 Y25.4919 
G01 X-27.7450 Y25.4984 
G01 X-27.7824 Y25.5242 
G01 X-27.8217 Y25.5468 
G01 X-27.8355 Y25.5607 
G01 X-47.9925 Y39.4186 
G01 X-50.4269 Y39.4186 
G01 X-50.5144 Y39.3310 
G01 X-50.6365 Y39.2494 
G01 X-50.7721 Y39.1932 
G01 X-50.9161 Y39.1646 
G01 X-52.3838 Y39.1646 
G01 X-52.5278 Y39.1932 
G01 X-52.6634 Y39.2494 
G01 X-52.7855 Y39.3310 
G01 X-52.8893 Y39.4348 
G01 X-52.9709 Y39.5569 
G01 X-53.0271 Y39.6925 
G01 X-53.0557 Y39.8365 
G01 X-53.0557 Y39.9834 
G01 X-53.0271 Y40.1274 
G01 X-52.9709 Y40.2630 
G01 X-52.8893 Y40.3851 
G01 X-52.7855 Y40.4889 
G01 X-52.6634 Y40.5705 
G01 X-52.5278 Y40.6267 
G01 X-52.3838 Y40.6553 
G00 Z2.0000 
G00 X-52.3838 Y43.1953 
G01 Z-0.1000 F400.00 
G01 X-50.9161 Y43.1953 
G01 X-50.7721 Y43.1667 
G01 X-50.6365 Y43.1105 
G01 X-50.5144 Y43.0289 
G01 X-50.4269 Y42.9413 
G01 X-47.8884 Y42.9413 
G01 X-47.8729 Y42.9444 
G01 X-47.8246 Y42.9413 
G01 X-47.7752 Y42.9413 
G01 X-47.7597 Y42.9371 
G01 X-47.7437 Y42.9361 
G01 X-47.6972 Y42.9203 
G01 X-47.6503 Y42.9078 
G01 X-47.6367 Y42.8999 
G01 X-47.6212 Y42.8947 
G01 X-47.5800 Y42.8671 
G01 X-47.5382 Y42.8431 
G01 X-47.5270 Y42.8318 
G01 X-40.0021 Y37.8152 
G01 X-37.4586 Y36.9674 
G01 X-36.9712 Y37.4549 
G01 X-35.8487 Y37.4549 
G01 X-35.0550 Y36.6612 
G01 X-35.0550 Y35.7872 
G01 X-28.6412 Y31.5113 
G01 X-26.3025 Y31.5113 
G01 X-26.2910 Y31.5138 
G01 X-26.2388 Y31.5113 
G01 X-26.1852 Y31.5113 
G01 X-26.1736 Y31.5081 
G01 X-26.1617 Y31.5076 
G01 X-26.1116 Y31.4915 
G01 X-26.0603 Y31.4778 
G01 X-26.0500 Y31.4718 
G01 X-20.1505 Y29.5831 
G01 X-20.0342 Y29.6063 
G01 X-18.3433 Y29.6063 
G01 X-18.1797 Y29.5738 
G01 X-18.0255 Y29.5099 
G01 X-17.8868 Y29.4172 
G01 X-17.7689 Y29.2993 
G01 X-17.6762 Y29.1606 
G01 X-17.6123 Y29.0064 
G01 X-17.6054 Y28.9713 
G01 X-17.4449 Y28.9713 
G01 X-17.4449 Y29.0412 
G01 X-16.6512 Y29.8349 
G01 X-15.5287 Y29.8349 
G01 X-14.7350 Y29.0412 
G01 X-14.7350 Y27.9187 
G01 X-15.5287 Y27.1250 
G01 X-16.6512 Y27.1250 
G01 X-17.4449 Y27.9187 
G01 X-17.4449 Y27.9886 
G01 X-18.0744 Y27.9886 
G01 X-18.1797 Y27.9449 
G01 X-18.3433 Y27.9124 
G01 X-20.0342 Y27.9124 
G01 X-20.1978 Y27.9449 
G01 X-20.3520 Y28.0088 
G01 X-20.4907 Y28.1015 
G01 X-20.6086 Y28.2194 
G01 X-20.7013 Y28.3581 
G01 X-20.7652 Y28.5123 
G01 X-20.7977 Y28.6759 
G01 X-20.7977 Y28.7586 
G01 X-26.3267 Y30.5286 
G01 X-28.7415 Y30.5286 
G01 X-28.7570 Y30.5255 
G01 X-28.8053 Y30.5286 
G01 X-28.8547 Y30.5286 
G01 X-28.8702 Y30.5328 
G01 X-28.8862 Y30.5338 
G01 X-28.9327 Y30.5496 
G01 X-28.9796 Y30.5621 
G01 X-28.9932 Y30.5700 
G01 X-29.0087 Y30.5752 
G01 X-29.0499 Y30.6028 
G01 X-29.0917 Y30.6268 
G01 X-29.1029 Y30.6381 
G01 X-35.6146 Y34.9792 
G01 X-35.8487 Y34.7450 
G01 X-36.9712 Y34.7450 
G01 X-37.7649 Y35.5387 
G01 X-37.7649 Y36.0337 
G01 X-40.3149 Y36.8838 
G01 X-40.3162 Y36.8838 
G01 X-40.3885 Y36.9083 
G01 X-40.4367 Y36.9243 
G01 X-40.4373 Y36.9248 
G01 X-40.4387 Y36.9252 
G01 X-40.4953 Y36.9630 
G01 X-40.5447 Y36.9955 
G01 X-40.5454 Y36.9964 
G01 X-47.9887 Y41.9586 
G01 X-50.4269 Y41.9586 
G01 X-50.5144 Y41.8710 
G01 X-50.6365 Y41.7894 
G01 X-50.7721 Y41.7332 
G01 X-50.9161 Y41.7046 
G01 X-52.3838 Y41.7046 
G01 X-52.5278 Y41.7332 
G01 X-52.6634 Y41.7894 
G01 X-52.7855 Y41.8710 
G01 X-52.8893 Y41.9748 
G01 X-52.9709 Y42.0969 
G01 X-53.0271 Y42.2325 
G01 X-53.0557 Y42.3765 
G01 X-53.0557 Y42.5234 
G01 X-53.0271 Y42.6674 
G01 X-52.9709 Y42.8030 
G01 X-52.8893 Y42.9251 
G01 X-52.7855 Y43.0289 
G01 X-52.6634 Y43.1105 
G01 X-52.5278 Y43.1667 
G01 X-52.3838 Y43.1953 
(File Footer)
G00 Z2.0000 
G00 Z10.0000 
M05
M02
