( This gcode generated by /home/mattvenn/.eagle/ulp/pcb-gcode.ulp )
( Copyright 2005 by John Johnson. See readme.txt for licensing terms. )

( This file generated from the board /home/mattvenn/eagle-circuit-designs/scentclock/scentclock_1.brd )
( This file generated 16/01/2012 15:23 )

G21

G90
G00 Z10.0000 
G00 X0 Y0
M03
G04 P3.000000
G00 Z2.0000 
G00 X11.0951 Y41.3128 
G01 Z-0.1000 F400.00 
G01 X13.4648 Y41.3128 
G01 X13.6478 Y41.3418 
G01 X13.8240 Y41.3990 
G01 X13.9891 Y41.4832 
G01 X14.1390 Y41.5921 
G01 X14.2700 Y41.7231 
G01 X14.3789 Y41.8730 
G01 X14.4631 Y42.0381 
G01 X14.5203 Y42.2143 
G01 X14.5493 Y42.3973 
G01 X14.5493 Y42.5826 
G01 X14.5203 Y42.7656 
G01 X14.4631 Y42.9418 
G01 X14.3789 Y43.1069 
G01 X14.2700 Y43.2568 
G01 X14.1390 Y43.3878 
G01 X13.9891 Y43.4967 
G01 X13.8240 Y43.5809 
G01 X13.6478 Y43.6381 
G01 X13.4648 Y43.6671 
G01 X11.0951 Y43.6671 
G01 X10.9121 Y43.6381 
G01 X10.7359 Y43.5809 
G01 X10.5708 Y43.4967 
G01 X10.4209 Y43.3878 
G01 X10.2899 Y43.2568 
G01 X10.1810 Y43.1069 
G01 X10.0968 Y42.9418 
G01 X10.0396 Y42.7656 
G01 X10.0106 Y42.5826 
G01 X10.0106 Y42.3973 
G01 X10.0396 Y42.2143 
G01 X10.0968 Y42.0381 
G01 X10.1810 Y41.8730 
G01 X10.2899 Y41.7231 
G01 X10.4209 Y41.5921 
G01 X10.5708 Y41.4832 
G01 X10.7359 Y41.3990 
G01 X10.9121 Y41.3418 
G01 X11.0951 Y41.3128 
G00 Z2.0000 
G00 X11.0951 Y46.3128 
G01 Z-0.1000 F400.00 
G01 X13.4648 Y46.3128 
G01 X13.6478 Y46.3418 
G01 X13.8240 Y46.3990 
G01 X13.9891 Y46.4832 
G01 X14.1390 Y46.5921 
G01 X14.2700 Y46.7231 
G01 X14.3789 Y46.8730 
G01 X14.4631 Y47.0381 
G01 X14.5203 Y47.2143 
G01 X14.5493 Y47.3973 
G01 X14.5493 Y47.5826 
G01 X14.5203 Y47.7656 
G01 X14.4631 Y47.9418 
G01 X14.3789 Y48.1069 
G01 X14.2700 Y48.2568 
G01 X14.1390 Y48.3878 
G01 X13.9891 Y48.4967 
G01 X13.8240 Y48.5809 
G01 X13.6478 Y48.6381 
G01 X13.4648 Y48.6671 
G01 X11.0951 Y48.6671 
G01 X10.9121 Y48.6381 
G01 X10.7359 Y48.5809 
G01 X10.5708 Y48.4967 
G01 X10.4209 Y48.3878 
G01 X10.2899 Y48.2568 
G01 X10.1810 Y48.1069 
G01 X10.0968 Y47.9418 
G01 X10.0396 Y47.7656 
G01 X10.0106 Y47.5826 
G01 X10.0106 Y47.3973 
G01 X10.0396 Y47.2143 
G01 X10.0968 Y47.0381 
G01 X10.1810 Y46.8730 
G01 X10.2899 Y46.7231 
G01 X10.4209 Y46.5921 
G01 X10.5708 Y46.4832 
G01 X10.7359 Y46.3990 
G01 X10.9121 Y46.3418 
G01 X11.0951 Y46.3128 
G00 Z2.0000 
G00 X37.7649 Y35.5387 
G01 Z-0.1000 F400.00 
G01 X37.7649 Y36.6612 
G01 X36.9712 Y37.4549 
G01 X35.8487 Y37.4549 
G01 X35.0550 Y36.6612 
G01 X35.0550 Y35.5387 
G01 X35.8487 Y34.7450 
G01 X36.9712 Y34.7450 
G01 X37.7649 Y35.5387 
G00 Z2.0000 
G00 X30.1449 Y35.5387 
G01 Z-0.1000 F400.00 
G01 X30.1449 Y36.6612 
G01 X29.3512 Y37.4549 
G01 X28.2287 Y37.4549 
G01 X27.4350 Y36.6612 
G01 X27.4350 Y35.5387 
G01 X28.2287 Y34.7450 
G01 X29.3512 Y34.7450 
G01 X30.1449 Y35.5387 
G00 Z2.0000 
G00 X52.3838 Y43.1953 
G01 Z-0.1000 F400.00 
G01 X50.9161 Y43.1953 
G01 X50.7721 Y43.1667 
G01 X50.6365 Y43.1105 
G01 X50.5144 Y43.0289 
G01 X50.4106 Y42.9251 
G01 X50.3290 Y42.8030 
G01 X50.2728 Y42.6674 
G01 X50.2442 Y42.5234 
G01 X50.2442 Y42.3765 
G01 X50.2728 Y42.2325 
G01 X50.3290 Y42.0969 
G01 X50.4106 Y41.9748 
G01 X50.5144 Y41.8710 
G01 X50.6365 Y41.7894 
G01 X50.7721 Y41.7332 
G01 X50.9161 Y41.7046 
G01 X52.3838 Y41.7046 
G01 X52.5278 Y41.7332 
G01 X52.6634 Y41.7894 
G01 X52.7855 Y41.8710 
G01 X52.8893 Y41.9748 
G01 X52.9709 Y42.0969 
G01 X53.0271 Y42.2325 
G01 X53.0557 Y42.3765 
G01 X53.0557 Y42.5234 
G01 X53.0271 Y42.6674 
G01 X52.9709 Y42.8030 
G01 X52.8893 Y42.9251 
G01 X52.7855 Y43.0289 
G01 X52.6634 Y43.1105 
G01 X52.5278 Y43.1667 
G01 X52.3838 Y43.1953 
G00 Z2.0000 
G00 X52.3838 Y40.6553 
G01 Z-0.1000 F400.00 
G01 X50.9161 Y40.6553 
G01 X50.7721 Y40.6267 
G01 X50.6365 Y40.5705 
G01 X50.5144 Y40.4889 
G01 X50.4106 Y40.3851 
G01 X50.3290 Y40.2630 
G01 X50.2728 Y40.1274 
G01 X50.2442 Y39.9834 
G01 X50.2442 Y39.8365 
G01 X50.2728 Y39.6925 
G01 X50.3290 Y39.5569 
G01 X50.4106 Y39.4348 
G01 X50.5144 Y39.3310 
G01 X50.6365 Y39.2494 
G01 X50.7721 Y39.1932 
G01 X50.9161 Y39.1646 
G01 X52.3838 Y39.1646 
G01 X52.5278 Y39.1932 
G01 X52.6634 Y39.2494 
G01 X52.7855 Y39.3310 
G01 X52.8893 Y39.4348 
G01 X52.9709 Y39.5569 
G01 X53.0271 Y39.6925 
G01 X53.0557 Y39.8365 
G01 X53.0557 Y39.9834 
G01 X53.0271 Y40.1274 
G01 X52.9709 Y40.2630 
G01 X52.8893 Y40.3851 
G01 X52.7855 Y40.4889 
G01 X52.6634 Y40.5705 
G01 X52.5278 Y40.6267 
G01 X52.3838 Y40.6553 
G00 Z2.0000 
G00 X52.3838 Y38.1153 
G01 Z-0.1000 F400.00 
G01 X50.9161 Y38.1153 
G01 X50.7721 Y38.0867 
G01 X50.6365 Y38.0305 
G01 X50.5144 Y37.9489 
G01 X50.4106 Y37.8451 
G01 X50.3290 Y37.7230 
G01 X50.2728 Y37.5874 
G01 X50.2442 Y37.4434 
G01 X50.2442 Y37.2965 
G01 X50.2728 Y37.1525 
G01 X50.3290 Y37.0169 
G01 X50.4106 Y36.8948 
G01 X50.5144 Y36.7910 
G01 X50.6365 Y36.7094 
G01 X50.7721 Y36.6532 
G01 X50.9161 Y36.6246 
G01 X52.3838 Y36.6246 
G01 X52.5278 Y36.6532 
G01 X52.6634 Y36.7094 
G01 X52.7855 Y36.7910 
G01 X52.8893 Y36.8948 
G01 X52.9709 Y37.0169 
G01 X53.0271 Y37.1525 
G01 X53.0557 Y37.2965 
G01 X53.0557 Y37.4434 
G01 X53.0271 Y37.5874 
G01 X52.9709 Y37.7230 
G01 X52.8893 Y37.8451 
G01 X52.7855 Y37.9489 
G01 X52.6634 Y38.0305 
G01 X52.5278 Y38.0867 
G01 X52.3838 Y38.1153 
G00 Z2.0000 
G00 X52.3838 Y35.5753 
G01 Z-0.1000 F400.00 
G01 X50.9161 Y35.5753 
G01 X50.7721 Y35.5467 
G01 X50.6365 Y35.4905 
G01 X50.5144 Y35.4089 
G01 X50.4106 Y35.3051 
G01 X50.3290 Y35.1830 
G01 X50.2728 Y35.0474 
G01 X50.2442 Y34.9034 
G01 X50.2442 Y34.7565 
G01 X50.2728 Y34.6125 
G01 X50.3290 Y34.4769 
G01 X50.4106 Y34.3548 
G01 X50.5144 Y34.2510 
G01 X50.6365 Y34.1694 
G01 X50.7721 Y34.1132 
G01 X50.9161 Y34.0846 
G01 X52.3838 Y34.0846 
G01 X52.5278 Y34.1132 
G01 X52.6634 Y34.1694 
G01 X52.7855 Y34.2510 
G01 X52.8893 Y34.3548 
G01 X52.9709 Y34.4769 
G01 X53.0271 Y34.6125 
G01 X53.0557 Y34.7565 
G01 X53.0557 Y34.9034 
G01 X53.0271 Y35.0474 
G01 X52.9709 Y35.1830 
G01 X52.8893 Y35.3051 
G01 X52.7855 Y35.4089 
G01 X52.6634 Y35.4905 
G01 X52.5278 Y35.5467 
G01 X52.3838 Y35.5753 
G00 Z2.0000 
G00 X52.3838 Y33.0353 
G01 Z-0.1000 F400.00 
G01 X50.9161 Y33.0353 
G01 X50.7721 Y33.0067 
G01 X50.6365 Y32.9505 
G01 X50.5144 Y32.8689 
G01 X50.4106 Y32.7651 
G01 X50.3290 Y32.6430 
G01 X50.2728 Y32.5074 
G01 X50.2442 Y32.3634 
G01 X50.2442 Y32.2165 
G01 X50.2728 Y32.0725 
G01 X50.3290 Y31.9369 
G01 X50.4106 Y31.8148 
G01 X50.5144 Y31.7110 
G01 X50.6365 Y31.6294 
G01 X50.7721 Y31.5732 
G01 X50.9161 Y31.5446 
G01 X52.3838 Y31.5446 
G01 X52.5278 Y31.5732 
G01 X52.6634 Y31.6294 
G01 X52.7855 Y31.7110 
G01 X52.8893 Y31.8148 
G01 X52.9709 Y31.9369 
G01 X53.0271 Y32.0725 
G01 X53.0557 Y32.2165 
G01 X53.0557 Y32.3634 
G01 X53.0271 Y32.5074 
G01 X52.9709 Y32.6430 
G01 X52.8893 Y32.7651 
G01 X52.7855 Y32.8689 
G01 X52.6634 Y32.9505 
G01 X52.5278 Y33.0067 
G01 X52.3838 Y33.0353 
G00 Z2.0000 
G00 X52.3838 Y30.4953 
G01 Z-0.1000 F400.00 
G01 X50.9161 Y30.4953 
G01 X50.7721 Y30.4667 
G01 X50.6365 Y30.4105 
G01 X50.5144 Y30.3289 
G01 X50.4106 Y30.2251 
G01 X50.3290 Y30.1030 
G01 X50.2728 Y29.9674 
G01 X50.2442 Y29.8234 
G01 X50.2442 Y29.6765 
G01 X50.2728 Y29.5325 
G01 X50.3290 Y29.3969 
G01 X50.4106 Y29.2748 
G01 X50.5144 Y29.1710 
G01 X50.6365 Y29.0894 
G01 X50.7721 Y29.0332 
G01 X50.9161 Y29.0046 
G01 X52.3838 Y29.0046 
G01 X52.5278 Y29.0332 
G01 X52.6634 Y29.0894 
G01 X52.7855 Y29.1710 
G01 X52.8893 Y29.2748 
G01 X52.9709 Y29.3969 
G01 X53.0271 Y29.5325 
G01 X53.0557 Y29.6765 
G01 X53.0557 Y29.8234 
G01 X53.0271 Y29.9674 
G01 X52.9709 Y30.1030 
G01 X52.8893 Y30.2251 
G01 X52.7855 Y30.3289 
G01 X52.6634 Y30.4105 
G01 X52.5278 Y30.4667 
G01 X52.3838 Y30.4953 
G00 Z2.0000 
G00 X52.3838 Y27.9553 
G01 Z-0.1000 F400.00 
G01 X50.9161 Y27.9553 
G01 X50.7721 Y27.9267 
G01 X50.6365 Y27.8705 
G01 X50.5144 Y27.7889 
G01 X50.4106 Y27.6851 
G01 X50.3290 Y27.5630 
G01 X50.2728 Y27.4274 
G01 X50.2442 Y27.2834 
G01 X50.2442 Y27.1365 
G01 X50.2728 Y26.9925 
G01 X50.3290 Y26.8569 
G01 X50.4106 Y26.7348 
G01 X50.5144 Y26.6310 
G01 X50.6365 Y26.5494 
G01 X50.7721 Y26.4932 
G01 X50.9161 Y26.4646 
G01 X52.3838 Y26.4646 
G01 X52.5278 Y26.4932 
G01 X52.6634 Y26.5494 
G01 X52.7855 Y26.6310 
G01 X52.8893 Y26.7348 
G01 X52.9709 Y26.8569 
G01 X53.0271 Y26.9925 
G01 X53.0557 Y27.1365 
G01 X53.0557 Y27.2834 
G01 X53.0271 Y27.4274 
G01 X52.9709 Y27.5630 
G01 X52.8893 Y27.6851 
G01 X52.7855 Y27.7889 
G01 X52.6634 Y27.8705 
G01 X52.5278 Y27.9267 
G01 X52.3838 Y27.9553 
G00 Z2.0000 
G00 X52.3838 Y25.4153 
G01 Z-0.1000 F400.00 
G01 X50.9161 Y25.4153 
G01 X50.7721 Y25.3867 
G01 X50.6365 Y25.3305 
G01 X50.5144 Y25.2489 
G01 X50.4106 Y25.1451 
G01 X50.3290 Y25.0230 
G01 X50.2728 Y24.8874 
G01 X50.2442 Y24.7434 
G01 X50.2442 Y24.5965 
G01 X50.2728 Y24.4525 
G01 X50.3290 Y24.3169 
G01 X50.4106 Y24.1948 
G01 X50.5144 Y24.0910 
G01 X50.6365 Y24.0094 
G01 X50.7721 Y23.9532 
G01 X50.9161 Y23.9246 
G01 X52.3838 Y23.9246 
G01 X52.5278 Y23.9532 
G01 X52.6634 Y24.0094 
G01 X52.7855 Y24.0910 
G01 X52.8893 Y24.1948 
G01 X52.9709 Y24.3169 
G01 X53.0271 Y24.4525 
G01 X53.0557 Y24.5965 
G01 X53.0557 Y24.7434 
G01 X53.0271 Y24.8874 
G01 X52.9709 Y25.0230 
G01 X52.8893 Y25.1451 
G01 X52.7855 Y25.2489 
G01 X52.6634 Y25.3305 
G01 X52.5278 Y25.3867 
G01 X52.3838 Y25.4153 
G00 Z2.0000 
G00 X52.3838 Y22.8753 
G01 Z-0.1000 F400.00 
G01 X50.9161 Y22.8753 
G01 X50.7721 Y22.8467 
G01 X50.6365 Y22.7905 
G01 X50.5144 Y22.7089 
G01 X50.4106 Y22.6051 
G01 X50.3290 Y22.4830 
G01 X50.2728 Y22.3474 
G01 X50.2442 Y22.2034 
G01 X50.2442 Y22.0565 
G01 X50.2728 Y21.9125 
G01 X50.3290 Y21.7769 
G01 X50.4106 Y21.6548 
G01 X50.5144 Y21.5510 
G01 X50.6365 Y21.4694 
G01 X50.7721 Y21.4132 
G01 X50.9161 Y21.3846 
G01 X52.3838 Y21.3846 
G01 X52.5278 Y21.4132 
G01 X52.6634 Y21.4694 
G01 X52.7855 Y21.5510 
G01 X52.8893 Y21.6548 
G01 X52.9709 Y21.7769 
G01 X53.0271 Y21.9125 
G01 X53.0557 Y22.0565 
G01 X53.0557 Y22.2034 
G01 X53.0271 Y22.3474 
G01 X52.9709 Y22.4830 
G01 X52.8893 Y22.6051 
G01 X52.7855 Y22.7089 
G01 X52.6634 Y22.7905 
G01 X52.5278 Y22.8467 
G01 X52.3838 Y22.8753 
G00 Z2.0000 
G00 X52.3838 Y20.3353 
G01 Z-0.1000 F400.00 
G01 X50.9161 Y20.3353 
G01 X50.7721 Y20.3067 
G01 X50.6365 Y20.2505 
G01 X50.5144 Y20.1689 
G01 X50.4106 Y20.0651 
G01 X50.3290 Y19.9430 
G01 X50.2728 Y19.8074 
G01 X50.2442 Y19.6634 
G01 X50.2442 Y19.5165 
G01 X50.2728 Y19.3725 
G01 X50.3290 Y19.2369 
G01 X50.4106 Y19.1148 
G01 X50.5144 Y19.0110 
G01 X50.6365 Y18.9294 
G01 X50.7721 Y18.8732 
G01 X50.9161 Y18.8446 
G01 X52.3838 Y18.8446 
G01 X52.5278 Y18.8732 
G01 X52.6634 Y18.9294 
G01 X52.7855 Y19.0110 
G01 X52.8893 Y19.1148 
G01 X52.9709 Y19.2369 
G01 X53.0271 Y19.3725 
G01 X53.0557 Y19.5165 
G01 X53.0557 Y19.6634 
G01 X53.0271 Y19.8074 
G01 X52.9709 Y19.9430 
G01 X52.8893 Y20.0651 
G01 X52.7855 Y20.1689 
G01 X52.6634 Y20.2505 
G01 X52.5278 Y20.3067 
G01 X52.3838 Y20.3353 
G00 Z2.0000 
G00 X52.3838 Y17.7953 
G01 Z-0.1000 F400.00 
G01 X50.9161 Y17.7953 
G01 X50.7721 Y17.7667 
G01 X50.6365 Y17.7105 
G01 X50.5144 Y17.6289 
G01 X50.4106 Y17.5251 
G01 X50.3290 Y17.4030 
G01 X50.2728 Y17.2674 
G01 X50.2442 Y17.1234 
G01 X50.2442 Y16.9765 
G01 X50.2728 Y16.8325 
G01 X50.3290 Y16.6969 
G01 X50.4106 Y16.5748 
G01 X50.5144 Y16.4710 
G01 X50.6365 Y16.3894 
G01 X50.7721 Y16.3332 
G01 X50.9161 Y16.3046 
G01 X52.3838 Y16.3046 
G01 X52.5278 Y16.3332 
G01 X52.6634 Y16.3894 
G01 X52.7855 Y16.4710 
G01 X52.8893 Y16.5748 
G01 X52.9709 Y16.6969 
G01 X53.0271 Y16.8325 
G01 X53.0557 Y16.9765 
G01 X53.0557 Y17.1234 
G01 X53.0271 Y17.2674 
G01 X52.9709 Y17.4030 
G01 X52.8893 Y17.5251 
G01 X52.7855 Y17.6289 
G01 X52.6634 Y17.7105 
G01 X52.5278 Y17.7667 
G01 X52.3838 Y17.7953 
G00 Z2.0000 
G00 X52.3838 Y15.2553 
G01 Z-0.1000 F400.00 
G01 X50.9161 Y15.2553 
G01 X50.7721 Y15.2267 
G01 X50.6365 Y15.1705 
G01 X50.5144 Y15.0889 
G01 X50.4106 Y14.9851 
G01 X50.3290 Y14.8630 
G01 X50.2728 Y14.7274 
G01 X50.2442 Y14.5834 
G01 X50.2442 Y14.4365 
G01 X50.2728 Y14.2925 
G01 X50.3290 Y14.1569 
G01 X50.4106 Y14.0348 
G01 X50.5144 Y13.9310 
G01 X50.6365 Y13.8494 
G01 X50.7721 Y13.7932 
G01 X50.9161 Y13.7646 
G01 X52.3838 Y13.7646 
G01 X52.5278 Y13.7932 
G01 X52.6634 Y13.8494 
G01 X52.7855 Y13.9310 
G01 X52.8893 Y14.0348 
G01 X52.9709 Y14.1569 
G01 X53.0271 Y14.2925 
G01 X53.0557 Y14.4365 
G01 X53.0557 Y14.5834 
G01 X53.0271 Y14.7274 
G01 X52.9709 Y14.8630 
G01 X52.8893 Y14.9851 
G01 X52.7855 Y15.0889 
G01 X52.6634 Y15.1705 
G01 X52.5278 Y15.2267 
G01 X52.3838 Y15.2553 
G00 Z2.0000 
G00 X52.3838 Y12.7153 
G01 Z-0.1000 F400.00 
G01 X50.9161 Y12.7153 
G01 X50.7721 Y12.6867 
G01 X50.6365 Y12.6305 
G01 X50.5144 Y12.5489 
G01 X50.4106 Y12.4451 
G01 X50.3290 Y12.3230 
G01 X50.2728 Y12.1874 
G01 X50.2442 Y12.0434 
G01 X50.2442 Y11.8965 
G01 X50.2728 Y11.7525 
G01 X50.3290 Y11.6169 
G01 X50.4106 Y11.4948 
G01 X50.5144 Y11.3910 
G01 X50.6365 Y11.3094 
G01 X50.7721 Y11.2532 
G01 X50.9161 Y11.2246 
G01 X52.3838 Y11.2246 
G01 X52.5278 Y11.2532 
G01 X52.6634 Y11.3094 
G01 X52.7855 Y11.3910 
G01 X52.8893 Y11.4948 
G01 X52.9709 Y11.6169 
G01 X53.0271 Y11.7525 
G01 X53.0557 Y11.8965 
G01 X53.0557 Y12.0434 
G01 X53.0271 Y12.1874 
G01 X52.9709 Y12.3230 
G01 X52.8893 Y12.4451 
G01 X52.7855 Y12.5489 
G01 X52.6634 Y12.6305 
G01 X52.5278 Y12.6867 
G01 X52.3838 Y12.7153 
G00 Z2.0000 
G00 X52.3838 Y10.1753 
G01 Z-0.1000 F400.00 
G01 X50.9161 Y10.1753 
G01 X50.7721 Y10.1467 
G01 X50.6365 Y10.0905 
G01 X50.5144 Y10.0089 
G01 X50.4106 Y9.9051 
G01 X50.3290 Y9.7830 
G01 X50.2728 Y9.6474 
G01 X50.2442 Y9.5034 
G01 X50.2442 Y9.3565 
G01 X50.2728 Y9.2125 
G01 X50.3290 Y9.0769 
G01 X50.4106 Y8.9548 
G01 X50.5144 Y8.8510 
G01 X50.6365 Y8.7694 
G01 X50.7721 Y8.7132 
G01 X50.9161 Y8.6846 
G01 X52.3838 Y8.6846 
G01 X52.5278 Y8.7132 
G01 X52.6634 Y8.7694 
G01 X52.7855 Y8.8510 
G01 X52.8893 Y8.9548 
G01 X52.9709 Y9.0769 
G01 X53.0271 Y9.2125 
G01 X53.0557 Y9.3565 
G01 X53.0557 Y9.5034 
G01 X53.0271 Y9.6474 
G01 X52.9709 Y9.7830 
G01 X52.8893 Y9.9051 
G01 X52.7855 Y10.0089 
G01 X52.6634 Y10.0905 
G01 X52.5278 Y10.1467 
G01 X52.3838 Y10.1753 
G00 Z2.0000 
G00 X60.0038 Y10.1753 
G01 Z-0.1000 F400.00 
G01 X58.5361 Y10.1753 
G01 X58.3921 Y10.1467 
G01 X58.2565 Y10.0905 
G01 X58.1344 Y10.0089 
G01 X58.0306 Y9.9051 
G01 X57.9490 Y9.7830 
G01 X57.8928 Y9.6474 
G01 X57.8642 Y9.5034 
G01 X57.8642 Y9.3565 
G01 X57.8928 Y9.2125 
G01 X57.9490 Y9.0769 
G01 X58.0306 Y8.9548 
G01 X58.1344 Y8.8510 
G01 X58.2565 Y8.7694 
G01 X58.3921 Y8.7132 
G01 X58.5361 Y8.6846 
G01 X60.0038 Y8.6846 
G01 X60.1478 Y8.7132 
G01 X60.2834 Y8.7694 
G01 X60.4055 Y8.8510 
G01 X60.5093 Y8.9548 
G01 X60.5909 Y9.0769 
G01 X60.6471 Y9.2125 
G01 X60.6757 Y9.3565 
G01 X60.6757 Y9.5034 
G01 X60.6471 Y9.6474 
G01 X60.5909 Y9.7830 
G01 X60.5093 Y9.9051 
G01 X60.4055 Y10.0089 
G01 X60.2834 Y10.0905 
G01 X60.1478 Y10.1467 
G01 X60.0038 Y10.1753 
G00 Z2.0000 
G00 X60.0038 Y12.7153 
G01 Z-0.1000 F400.00 
G01 X58.5361 Y12.7153 
G01 X58.3921 Y12.6867 
G01 X58.2565 Y12.6305 
G01 X58.1344 Y12.5489 
G01 X58.0306 Y12.4451 
G01 X57.9490 Y12.3230 
G01 X57.8928 Y12.1874 
G01 X57.8642 Y12.0434 
G01 X57.8642 Y11.8965 
G01 X57.8928 Y11.7525 
G01 X57.9490 Y11.6169 
G01 X58.0306 Y11.4948 
G01 X58.1344 Y11.3910 
G01 X58.2565 Y11.3094 
G01 X58.3921 Y11.2532 
G01 X58.5361 Y11.2246 
G01 X60.0038 Y11.2246 
G01 X60.1478 Y11.2532 
G01 X60.2834 Y11.3094 
G01 X60.4055 Y11.3910 
G01 X60.5093 Y11.4948 
G01 X60.5909 Y11.6169 
G01 X60.6471 Y11.7525 
G01 X60.6757 Y11.8965 
G01 X60.6757 Y12.0434 
G01 X60.6471 Y12.1874 
G01 X60.5909 Y12.3230 
G01 X60.5093 Y12.4451 
G01 X60.4055 Y12.5489 
G01 X60.2834 Y12.6305 
G01 X60.1478 Y12.6867 
G01 X60.0038 Y12.7153 
G00 Z2.0000 
G00 X60.0038 Y15.2553 
G01 Z-0.1000 F400.00 
G01 X58.5361 Y15.2553 
G01 X58.3921 Y15.2267 
G01 X58.2565 Y15.1705 
G01 X58.1344 Y15.0889 
G01 X58.0306 Y14.9851 
G01 X57.9490 Y14.8630 
G01 X57.8928 Y14.7274 
G01 X57.8642 Y14.5834 
G01 X57.8642 Y14.4365 
G01 X57.8928 Y14.2925 
G01 X57.9490 Y14.1569 
G01 X58.0306 Y14.0348 
G01 X58.1344 Y13.9310 
G01 X58.2565 Y13.8494 
G01 X58.3921 Y13.7932 
G01 X58.5361 Y13.7646 
G01 X60.0038 Y13.7646 
G01 X60.1478 Y13.7932 
G01 X60.2834 Y13.8494 
G01 X60.4055 Y13.9310 
G01 X60.5093 Y14.0348 
G01 X60.5909 Y14.1569 
G01 X60.6471 Y14.2925 
G01 X60.6757 Y14.4365 
G01 X60.6757 Y14.5834 
G01 X60.6471 Y14.7274 
G01 X60.5909 Y14.8630 
G01 X60.5093 Y14.9851 
G01 X60.4055 Y15.0889 
G01 X60.2834 Y15.1705 
G01 X60.1478 Y15.2267 
G01 X60.0038 Y15.2553 
G00 Z2.0000 
G00 X60.0038 Y17.7953 
G01 Z-0.1000 F400.00 
G01 X58.5361 Y17.7953 
G01 X58.3921 Y17.7667 
G01 X58.2565 Y17.7105 
G01 X58.1344 Y17.6289 
G01 X58.0306 Y17.5251 
G01 X57.9490 Y17.4030 
G01 X57.8928 Y17.2674 
G01 X57.8642 Y17.1234 
G01 X57.8642 Y16.9765 
G01 X57.8928 Y16.8325 
G01 X57.9490 Y16.6969 
G01 X58.0306 Y16.5748 
G01 X58.1344 Y16.4710 
G01 X58.2565 Y16.3894 
G01 X58.3921 Y16.3332 
G01 X58.5361 Y16.3046 
G01 X60.0038 Y16.3046 
G01 X60.1478 Y16.3332 
G01 X60.2834 Y16.3894 
G01 X60.4055 Y16.4710 
G01 X60.5093 Y16.5748 
G01 X60.5909 Y16.6969 
G01 X60.6471 Y16.8325 
G01 X60.6757 Y16.9765 
G01 X60.6757 Y17.1234 
G01 X60.6471 Y17.2674 
G01 X60.5909 Y17.4030 
G01 X60.5093 Y17.5251 
G01 X60.4055 Y17.6289 
G01 X60.2834 Y17.7105 
G01 X60.1478 Y17.7667 
G01 X60.0038 Y17.7953 
G00 Z2.0000 
G00 X60.0038 Y20.3353 
G01 Z-0.1000 F400.00 
G01 X58.5361 Y20.3353 
G01 X58.3921 Y20.3067 
G01 X58.2565 Y20.2505 
G01 X58.1344 Y20.1689 
G01 X58.0306 Y20.0651 
G01 X57.9490 Y19.9430 
G01 X57.8928 Y19.8074 
G01 X57.8642 Y19.6634 
G01 X57.8642 Y19.5165 
G01 X57.8928 Y19.3725 
G01 X57.9490 Y19.2369 
G01 X58.0306 Y19.1148 
G01 X58.1344 Y19.0110 
G01 X58.2565 Y18.9294 
G01 X58.3921 Y18.8732 
G01 X58.5361 Y18.8446 
G01 X60.0038 Y18.8446 
G01 X60.1478 Y18.8732 
G01 X60.2834 Y18.9294 
G01 X60.4055 Y19.0110 
G01 X60.5093 Y19.1148 
G01 X60.5909 Y19.2369 
G01 X60.6471 Y19.3725 
G01 X60.6757 Y19.5165 
G01 X60.6757 Y19.6634 
G01 X60.6471 Y19.8074 
G01 X60.5909 Y19.9430 
G01 X60.5093 Y20.0651 
G01 X60.4055 Y20.1689 
G01 X60.2834 Y20.2505 
G01 X60.1478 Y20.3067 
G01 X60.0038 Y20.3353 
G00 Z2.0000 
G00 X60.0038 Y22.8753 
G01 Z-0.1000 F400.00 
G01 X58.5361 Y22.8753 
G01 X58.3921 Y22.8467 
G01 X58.2565 Y22.7905 
G01 X58.1344 Y22.7089 
G01 X58.0306 Y22.6051 
G01 X57.9490 Y22.4830 
G01 X57.8928 Y22.3474 
G01 X57.8642 Y22.2034 
G01 X57.8642 Y22.0565 
G01 X57.8928 Y21.9125 
G01 X57.9490 Y21.7769 
G01 X58.0306 Y21.6548 
G01 X58.1344 Y21.5510 
G01 X58.2565 Y21.4694 
G01 X58.3921 Y21.4132 
G01 X58.5361 Y21.3846 
G01 X60.0038 Y21.3846 
G01 X60.1478 Y21.4132 
G01 X60.2834 Y21.4694 
G01 X60.4055 Y21.5510 
G01 X60.5093 Y21.6548 
G01 X60.5909 Y21.7769 
G01 X60.6471 Y21.9125 
G01 X60.6757 Y22.0565 
G01 X60.6757 Y22.2034 
G01 X60.6471 Y22.3474 
G01 X60.5909 Y22.4830 
G01 X60.5093 Y22.6051 
G01 X60.4055 Y22.7089 
G01 X60.2834 Y22.7905 
G01 X60.1478 Y22.8467 
G01 X60.0038 Y22.8753 
G00 Z2.0000 
G00 X60.0038 Y25.4153 
G01 Z-0.1000 F400.00 
G01 X58.5361 Y25.4153 
G01 X58.3921 Y25.3867 
G01 X58.2565 Y25.3305 
G01 X58.1344 Y25.2489 
G01 X58.0306 Y25.1451 
G01 X57.9490 Y25.0230 
G01 X57.8928 Y24.8874 
G01 X57.8642 Y24.7434 
G01 X57.8642 Y24.5965 
G01 X57.8928 Y24.4525 
G01 X57.9490 Y24.3169 
G01 X58.0306 Y24.1948 
G01 X58.1344 Y24.0910 
G01 X58.2565 Y24.0094 
G01 X58.3921 Y23.9532 
G01 X58.5361 Y23.9246 
G01 X60.0038 Y23.9246 
G01 X60.1478 Y23.9532 
G01 X60.2834 Y24.0094 
G01 X60.4055 Y24.0910 
G01 X60.5093 Y24.1948 
G01 X60.5909 Y24.3169 
G01 X60.6471 Y24.4525 
G01 X60.6757 Y24.5965 
G01 X60.6757 Y24.7434 
G01 X60.6471 Y24.8874 
G01 X60.5909 Y25.0230 
G01 X60.5093 Y25.1451 
G01 X60.4055 Y25.2489 
G01 X60.2834 Y25.3305 
G01 X60.1478 Y25.3867 
G01 X60.0038 Y25.4153 
G00 Z2.0000 
G00 X60.0038 Y27.9553 
G01 Z-0.1000 F400.00 
G01 X58.5361 Y27.9553 
G01 X58.3921 Y27.9267 
G01 X58.2565 Y27.8705 
G01 X58.1344 Y27.7889 
G01 X58.0306 Y27.6851 
G01 X57.9490 Y27.5630 
G01 X57.8928 Y27.4274 
G01 X57.8642 Y27.2834 
G01 X57.8642 Y27.1365 
G01 X57.8928 Y26.9925 
G01 X57.9490 Y26.8569 
G01 X58.0306 Y26.7348 
G01 X58.1344 Y26.6310 
G01 X58.2565 Y26.5494 
G01 X58.3921 Y26.4932 
G01 X58.5361 Y26.4646 
G01 X60.0038 Y26.4646 
G01 X60.1478 Y26.4932 
G01 X60.2834 Y26.5494 
G01 X60.4055 Y26.6310 
G01 X60.5093 Y26.7348 
G01 X60.5909 Y26.8569 
G01 X60.6471 Y26.9925 
G01 X60.6757 Y27.1365 
G01 X60.6757 Y27.2834 
G01 X60.6471 Y27.4274 
G01 X60.5909 Y27.5630 
G01 X60.5093 Y27.6851 
G01 X60.4055 Y27.7889 
G01 X60.2834 Y27.8705 
G01 X60.1478 Y27.9267 
G01 X60.0038 Y27.9553 
G00 Z2.0000 
G00 X60.0038 Y30.4953 
G01 Z-0.1000 F400.00 
G01 X58.5361 Y30.4953 
G01 X58.3921 Y30.4667 
G01 X58.2565 Y30.4105 
G01 X58.1344 Y30.3289 
G01 X58.0306 Y30.2251 
G01 X57.9490 Y30.1030 
G01 X57.8928 Y29.9674 
G01 X57.8642 Y29.8234 
G01 X57.8642 Y29.6765 
G01 X57.8928 Y29.5325 
G01 X57.9490 Y29.3969 
G01 X58.0306 Y29.2748 
G01 X58.1344 Y29.1710 
G01 X58.2565 Y29.0894 
G01 X58.3921 Y29.0332 
G01 X58.5361 Y29.0046 
G01 X60.0038 Y29.0046 
G01 X60.1478 Y29.0332 
G01 X60.2834 Y29.0894 
G01 X60.4055 Y29.1710 
G01 X60.5093 Y29.2748 
G01 X60.5909 Y29.3969 
G01 X60.6471 Y29.5325 
G01 X60.6757 Y29.6765 
G01 X60.6757 Y29.8234 
G01 X60.6471 Y29.9674 
G01 X60.5909 Y30.1030 
G01 X60.5093 Y30.2251 
G01 X60.4055 Y30.3289 
G01 X60.2834 Y30.4105 
G01 X60.1478 Y30.4667 
G01 X60.0038 Y30.4953 
G00 Z2.0000 
G00 X60.0038 Y33.0353 
G01 Z-0.1000 F400.00 
G01 X58.5361 Y33.0353 
G01 X58.3921 Y33.0067 
G01 X58.2565 Y32.9505 
G01 X58.1344 Y32.8689 
G01 X58.0306 Y32.7651 
G01 X57.9490 Y32.6430 
G01 X57.8928 Y32.5074 
G01 X57.8642 Y32.3634 
G01 X57.8642 Y32.2165 
G01 X57.8928 Y32.0725 
G01 X57.9490 Y31.9369 
G01 X58.0306 Y31.8148 
G01 X58.1344 Y31.7110 
G01 X58.2565 Y31.6294 
G01 X58.3921 Y31.5732 
G01 X58.5361 Y31.5446 
G01 X60.0038 Y31.5446 
G01 X60.1478 Y31.5732 
G01 X60.2834 Y31.6294 
G01 X60.4055 Y31.7110 
G01 X60.5093 Y31.8148 
G01 X60.5909 Y31.9369 
G01 X60.6471 Y32.0725 
G01 X60.6757 Y32.2165 
G01 X60.6757 Y32.3634 
G01 X60.6471 Y32.5074 
G01 X60.5909 Y32.6430 
G01 X60.5093 Y32.7651 
G01 X60.4055 Y32.8689 
G01 X60.2834 Y32.9505 
G01 X60.1478 Y33.0067 
G01 X60.0038 Y33.0353 
G00 Z2.0000 
G00 X60.0038 Y35.5753 
G01 Z-0.1000 F400.00 
G01 X58.5361 Y35.5753 
G01 X58.3921 Y35.5467 
G01 X58.2565 Y35.4905 
G01 X58.1344 Y35.4089 
G01 X58.0306 Y35.3051 
G01 X57.9490 Y35.1830 
G01 X57.8928 Y35.0474 
G01 X57.8642 Y34.9034 
G01 X57.8642 Y34.7565 
G01 X57.8928 Y34.6125 
G01 X57.9490 Y34.4769 
G01 X58.0306 Y34.3548 
G01 X58.1344 Y34.2510 
G01 X58.2565 Y34.1694 
G01 X58.3921 Y34.1132 
G01 X58.5361 Y34.0846 
G01 X60.0038 Y34.0846 
G01 X60.1478 Y34.1132 
G01 X60.2834 Y34.1694 
G01 X60.4055 Y34.2510 
G01 X60.5093 Y34.3548 
G01 X60.5909 Y34.4769 
G01 X60.6471 Y34.6125 
G01 X60.6757 Y34.7565 
G01 X60.6757 Y34.9034 
G01 X60.6471 Y35.0474 
G01 X60.5909 Y35.1830 
G01 X60.5093 Y35.3051 
G01 X60.4055 Y35.4089 
G01 X60.2834 Y35.4905 
G01 X60.1478 Y35.5467 
G01 X60.0038 Y35.5753 
G00 Z2.0000 
G00 X60.0038 Y38.1153 
G01 Z-0.1000 F400.00 
G01 X58.5361 Y38.1153 
G01 X58.3921 Y38.0867 
G01 X58.2565 Y38.0305 
G01 X58.1344 Y37.9489 
G01 X58.0306 Y37.8451 
G01 X57.9490 Y37.7230 
G01 X57.8928 Y37.5874 
G01 X57.8642 Y37.4434 
G01 X57.8642 Y37.2965 
G01 X57.8928 Y37.1525 
G01 X57.9490 Y37.0169 
G01 X58.0306 Y36.8948 
G01 X58.1344 Y36.7910 
G01 X58.2565 Y36.7094 
G01 X58.3921 Y36.6532 
G01 X58.5361 Y36.6246 
G01 X60.0038 Y36.6246 
G01 X60.1478 Y36.6532 
G01 X60.2834 Y36.7094 
G01 X60.4055 Y36.7910 
G01 X60.5093 Y36.8948 
G01 X60.5909 Y37.0169 
G01 X60.6471 Y37.1525 
G01 X60.6757 Y37.2965 
G01 X60.6757 Y37.4434 
G01 X60.6471 Y37.5874 
G01 X60.5909 Y37.7230 
G01 X60.5093 Y37.8451 
G01 X60.4055 Y37.9489 
G01 X60.2834 Y38.0305 
G01 X60.1478 Y38.0867 
G01 X60.0038 Y38.1153 
G00 Z2.0000 
G00 X60.0038 Y40.6553 
G01 Z-0.1000 F400.00 
G01 X58.5361 Y40.6553 
G01 X58.3921 Y40.6267 
G01 X58.2565 Y40.5705 
G01 X58.1344 Y40.4889 
G01 X58.0306 Y40.3851 
G01 X57.9490 Y40.2630 
G01 X57.8928 Y40.1274 
G01 X57.8642 Y39.9834 
G01 X57.8642 Y39.8365 
G01 X57.8928 Y39.6925 
G01 X57.9490 Y39.5569 
G01 X58.0306 Y39.4348 
G01 X58.1344 Y39.3310 
G01 X58.2565 Y39.2494 
G01 X58.3921 Y39.1932 
G01 X58.5361 Y39.1646 
G01 X60.0038 Y39.1646 
G01 X60.1478 Y39.1932 
G01 X60.2834 Y39.2494 
G01 X60.4055 Y39.3310 
G01 X60.5093 Y39.4348 
G01 X60.5909 Y39.5569 
G01 X60.6471 Y39.6925 
G01 X60.6757 Y39.8365 
G01 X60.6757 Y39.9834 
G01 X60.6471 Y40.1274 
G01 X60.5909 Y40.2630 
G01 X60.5093 Y40.3851 
G01 X60.4055 Y40.4889 
G01 X60.2834 Y40.5705 
G01 X60.1478 Y40.6267 
G01 X60.0038 Y40.6553 
G00 Z2.0000 
G00 X60.0038 Y43.1953 
G01 Z-0.1000 F400.00 
G01 X58.5361 Y43.1953 
G01 X58.3921 Y43.1667 
G01 X58.2565 Y43.1105 
G01 X58.1344 Y43.0289 
G01 X58.0306 Y42.9251 
G01 X57.9490 Y42.8030 
G01 X57.8928 Y42.6674 
G01 X57.8642 Y42.5234 
G01 X57.8642 Y42.3765 
G01 X57.8928 Y42.2325 
G01 X57.9490 Y42.0969 
G01 X58.0306 Y41.9748 
G01 X58.1344 Y41.8710 
G01 X58.2565 Y41.7894 
G01 X58.3921 Y41.7332 
G01 X58.5361 Y41.7046 
G01 X60.0038 Y41.7046 
G01 X60.1478 Y41.7332 
G01 X60.2834 Y41.7894 
G01 X60.4055 Y41.8710 
G01 X60.5093 Y41.9748 
G01 X60.5909 Y42.0969 
G01 X60.6471 Y42.2325 
G01 X60.6757 Y42.3765 
G01 X60.6757 Y42.5234 
G01 X60.6471 Y42.6674 
G01 X60.5909 Y42.8030 
G01 X60.5093 Y42.9251 
G01 X60.4055 Y43.0289 
G01 X60.2834 Y43.1105 
G01 X60.1478 Y43.1667 
G01 X60.0038 Y43.1953 
G00 Z2.0000 
G00 X46.6549 Y12.6787 
G01 Z-0.1000 F400.00 
G01 X46.6549 Y13.8012 
G01 X45.8612 Y14.5949 
G01 X44.7387 Y14.5949 
G01 X43.9450 Y13.8012 
G01 X43.9450 Y12.6787 
G01 X44.7387 Y11.8850 
G01 X45.8612 Y11.8850 
G01 X46.6549 Y12.6787 
G00 Z2.0000 
G00 X46.6549 Y17.7587 
G01 Z-0.1000 F400.00 
G01 X46.6549 Y18.8812 
G01 X45.8612 Y19.6749 
G01 X44.7387 Y19.6749 
G01 X43.9450 Y18.8812 
G01 X43.9450 Y17.7587 
G01 X44.7387 Y16.9650 
G01 X45.8612 Y16.9650 
G01 X46.6549 Y17.7587 
G00 Z2.0000 
G00 X41.5749 Y13.9487 
G01 Z-0.1000 F400.00 
G01 X41.5749 Y15.0712 
G01 X40.7812 Y15.8649 
G01 X39.6587 Y15.8649 
G01 X38.8650 Y15.0712 
G01 X38.8650 Y13.9487 
G01 X39.6587 Y13.1550 
G01 X40.7812 Y13.1550 
G01 X41.5749 Y13.9487 
G00 Z2.0000 
G00 X36.4949 Y13.9487 
G01 Z-0.1000 F400.00 
G01 X36.4949 Y15.0712 
G01 X35.7012 Y15.8649 
G01 X34.5787 Y15.8649 
G01 X33.7850 Y15.0712 
G01 X33.7850 Y13.9487 
G01 X34.5787 Y13.1550 
G01 X35.7012 Y13.1550 
G01 X36.4949 Y13.9487 
G00 Z2.0000 
G00 X41.5749 Y17.7587 
G01 Z-0.1000 F400.00 
G01 X41.5749 Y18.8812 
G01 X40.7812 Y19.6749 
G01 X39.6587 Y19.6749 
G01 X38.8650 Y18.8812 
G01 X38.8650 Y17.7587 
G01 X39.6587 Y16.9650 
G01 X40.7812 Y16.9650 
G01 X41.5749 Y17.7587 
G00 Z2.0000 
G00 X36.4949 Y17.7587 
G01 Z-0.1000 F400.00 
G01 X36.4949 Y18.8812 
G01 X35.7012 Y19.6749 
G01 X34.5787 Y19.6749 
G01 X33.7850 Y18.8812 
G01 X33.7850 Y17.7587 
G01 X34.5787 Y16.9650 
G01 X35.7012 Y16.9650 
G01 X36.4949 Y17.7587 
G00 Z2.0000 
G00 X49.1949 Y29.1887 
G01 Z-0.1000 F400.00 
G01 X49.1949 Y30.3112 
G01 X48.4012 Y31.1049 
G01 X47.2787 Y31.1049 
G01 X46.4850 Y30.3112 
G01 X46.4850 Y29.1887 
G01 X47.2787 Y28.3950 
G01 X48.4012 Y28.3950 
G01 X49.1949 Y29.1887 
G00 Z2.0000 
G00 X49.1949 Y24.1087 
G01 Z-0.1000 F400.00 
G01 X49.1949 Y25.2312 
G01 X48.4012 Y26.0249 
G01 X47.2787 Y26.0249 
G01 X46.4850 Y25.2312 
G01 X46.4850 Y24.1087 
G01 X47.2787 Y23.3150 
G01 X48.4012 Y23.3150 
G01 X49.1949 Y24.1087 
G00 Z2.0000 
G00 X20.3049 Y15.5987 
G01 Z-0.1000 F400.00 
G01 X20.3049 Y16.7212 
G01 X19.5112 Y17.5149 
G01 X18.3887 Y17.5149 
G01 X17.5950 Y16.7212 
G01 X17.5950 Y15.5987 
G01 X18.3887 Y14.8050 
G01 X19.5112 Y14.8050 
G01 X20.3049 Y15.5987 
G00 Z2.0000 
G00 X27.9249 Y15.5987 
G01 Z-0.1000 F400.00 
G01 X27.9249 Y16.7212 
G01 X27.1312 Y17.5149 
G01 X26.0087 Y17.5149 
G01 X25.2150 Y16.7212 
G01 X25.2150 Y15.5987 
G01 X26.0087 Y14.8050 
G01 X27.1312 Y14.8050 
G01 X27.9249 Y15.5987 
G00 Z2.0000 
G00 X11.9949 Y34.5339 
G01 Z-0.1000 F400.00 
G01 X10.0250 Y34.5339 
G01 X9.8368 Y34.4965 
G01 X9.6596 Y34.4231 
G01 X9.5001 Y34.3165 
G01 X9.3644 Y34.1808 
G01 X9.2578 Y34.0213 
G01 X9.1844 Y33.8441 
G01 X9.1470 Y33.6559 
G01 X9.1470 Y33.4640 
G01 X9.1844 Y33.2758 
G01 X9.2578 Y33.0986 
G01 X9.3644 Y32.9391 
G01 X9.5001 Y32.8034 
G01 X9.6596 Y32.6968 
G01 X9.8368 Y32.6234 
G01 X10.0250 Y32.5860 
G01 X11.9949 Y32.5860 
G01 X12.1831 Y32.6234 
G01 X12.3603 Y32.6968 
G01 X12.5198 Y32.8034 
G01 X12.6555 Y32.9391 
G01 X12.7621 Y33.0986 
G01 X12.8355 Y33.2758 
G01 X12.8729 Y33.4640 
G01 X12.8729 Y33.6559 
G01 X12.8355 Y33.8441 
G01 X12.7621 Y34.0213 
G01 X12.6555 Y34.1808 
G01 X12.5198 Y34.3165 
G01 X12.3603 Y34.4231 
G01 X12.1831 Y34.4965 
G01 X11.9949 Y34.5339 
G00 Z2.0000 
G00 X11.9949 Y31.9939 
G01 Z-0.1000 F400.00 
G01 X10.0250 Y31.9939 
G01 X9.8368 Y31.9565 
G01 X9.6596 Y31.8831 
G01 X9.5001 Y31.7765 
G01 X9.3644 Y31.6408 
G01 X9.2578 Y31.4813 
G01 X9.1844 Y31.3041 
G01 X9.1470 Y31.1159 
G01 X9.1470 Y30.9240 
G01 X9.1844 Y30.7358 
G01 X9.2578 Y30.5586 
G01 X9.3644 Y30.3991 
G01 X9.5001 Y30.2634 
G01 X9.6596 Y30.1568 
G01 X9.8368 Y30.0834 
G01 X10.0250 Y30.0460 
G01 X11.9949 Y30.0460 
G01 X12.1831 Y30.0834 
G01 X12.3603 Y30.1568 
G01 X12.5198 Y30.2634 
G01 X12.6555 Y30.3991 
G01 X12.7621 Y30.5586 
G01 X12.8355 Y30.7358 
G01 X12.8729 Y30.9240 
G01 X12.8729 Y31.1159 
G01 X12.8355 Y31.3041 
G01 X12.7621 Y31.4813 
G01 X12.6555 Y31.6408 
G01 X12.5198 Y31.7765 
G01 X12.3603 Y31.8831 
G01 X12.1831 Y31.9565 
G01 X11.9949 Y31.9939 
G00 Z2.0000 
G00 X11.9949 Y29.4539 
G01 Z-0.1000 F400.00 
G01 X10.0250 Y29.4539 
G01 X9.8368 Y29.4165 
G01 X9.6596 Y29.3431 
G01 X9.5001 Y29.2365 
G01 X9.3644 Y29.1008 
G01 X9.2578 Y28.9413 
G01 X9.1844 Y28.7641 
G01 X9.1470 Y28.5759 
G01 X9.1470 Y28.3840 
G01 X9.1844 Y28.1958 
G01 X9.2578 Y28.0186 
G01 X9.3644 Y27.8591 
G01 X9.5001 Y27.7234 
G01 X9.6596 Y27.6168 
G01 X9.8368 Y27.5434 
G01 X10.0250 Y27.5060 
G01 X11.9949 Y27.5060 
G01 X12.1831 Y27.5434 
G01 X12.3603 Y27.6168 
G01 X12.5198 Y27.7234 
G01 X12.6555 Y27.8591 
G01 X12.7621 Y28.0186 
G01 X12.8355 Y28.1958 
G01 X12.8729 Y28.3840 
G01 X12.8729 Y28.5759 
G01 X12.8355 Y28.7641 
G01 X12.7621 Y28.9413 
G01 X12.6555 Y29.1008 
G01 X12.5198 Y29.2365 
G01 X12.3603 Y29.3431 
G01 X12.1831 Y29.4165 
G01 X11.9949 Y29.4539 
G00 Z2.0000 
G00 X11.9949 Y26.9139 
G01 Z-0.1000 F400.00 
G01 X10.0250 Y26.9139 
G01 X9.8368 Y26.8765 
G01 X9.6596 Y26.8031 
G01 X9.5001 Y26.6965 
G01 X9.3644 Y26.5608 
G01 X9.2578 Y26.4013 
G01 X9.1844 Y26.2241 
G01 X9.1470 Y26.0359 
G01 X9.1470 Y25.8440 
G01 X9.1844 Y25.6558 
G01 X9.2578 Y25.4786 
G01 X9.3644 Y25.3191 
G01 X9.5001 Y25.1834 
G01 X9.6596 Y25.0768 
G01 X9.8368 Y25.0034 
G01 X10.0250 Y24.9660 
G01 X11.9949 Y24.9660 
G01 X12.1831 Y25.0034 
G01 X12.3603 Y25.0768 
G01 X12.5198 Y25.1834 
G01 X12.6555 Y25.3191 
G01 X12.7621 Y25.4786 
G01 X12.8355 Y25.6558 
G01 X12.8729 Y25.8440 
G01 X12.8729 Y26.0359 
G01 X12.8355 Y26.2241 
G01 X12.7621 Y26.4013 
G01 X12.6555 Y26.5608 
G01 X12.5198 Y26.6965 
G01 X12.3603 Y26.8031 
G01 X12.1831 Y26.8765 
G01 X11.9949 Y26.9139 
G00 Z2.0000 
G00 X11.9949 Y24.3739 
G01 Z-0.1000 F400.00 
G01 X10.0250 Y24.3739 
G01 X9.8368 Y24.3365 
G01 X9.6596 Y24.2631 
G01 X9.5001 Y24.1565 
G01 X9.3644 Y24.0208 
G01 X9.2578 Y23.8613 
G01 X9.1844 Y23.6841 
G01 X9.1470 Y23.4959 
G01 X9.1470 Y23.3040 
G01 X9.1844 Y23.1158 
G01 X9.2578 Y22.9386 
G01 X9.3644 Y22.7791 
G01 X9.5001 Y22.6434 
G01 X9.6596 Y22.5368 
G01 X9.8368 Y22.4634 
G01 X10.0250 Y22.4260 
G01 X11.9949 Y22.4260 
G01 X12.1831 Y22.4634 
G01 X12.3603 Y22.5368 
G01 X12.5198 Y22.6434 
G01 X12.6555 Y22.7791 
G01 X12.7621 Y22.9386 
G01 X12.8355 Y23.1158 
G01 X12.8729 Y23.3040 
G01 X12.8729 Y23.4959 
G01 X12.8355 Y23.6841 
G01 X12.7621 Y23.8613 
G01 X12.6555 Y24.0208 
G01 X12.5198 Y24.1565 
G01 X12.3603 Y24.2631 
G01 X12.1831 Y24.3365 
G01 X11.9949 Y24.3739 
G00 Z2.0000 
G00 X11.9949 Y21.8339 
G01 Z-0.1000 F400.00 
G01 X10.0250 Y21.8339 
G01 X9.8368 Y21.7965 
G01 X9.6596 Y21.7231 
G01 X9.5001 Y21.6165 
G01 X9.3644 Y21.4808 
G01 X9.2578 Y21.3213 
G01 X9.1844 Y21.1441 
G01 X9.1470 Y20.9559 
G01 X9.1470 Y20.7640 
G01 X9.1844 Y20.5758 
G01 X9.2578 Y20.3986 
G01 X9.3644 Y20.2391 
G01 X9.5001 Y20.1034 
G01 X9.6596 Y19.9968 
G01 X9.8368 Y19.9234 
G01 X10.0250 Y19.8860 
G01 X11.9949 Y19.8860 
G01 X12.1831 Y19.9234 
G01 X12.3603 Y19.9968 
G01 X12.5198 Y20.1034 
G01 X12.6555 Y20.2391 
G01 X12.7621 Y20.3986 
G01 X12.8355 Y20.5758 
G01 X12.8729 Y20.7640 
G01 X12.8729 Y20.9559 
G01 X12.8355 Y21.1441 
G01 X12.7621 Y21.3213 
G01 X12.6555 Y21.4808 
G01 X12.5198 Y21.6165 
G01 X12.3603 Y21.7231 
G01 X12.1831 Y21.7965 
G01 X11.9949 Y21.8339 
G00 Z2.0000 
G00 X17.4449 Y27.9187 
G01 Z-0.1000 F400.00 
G01 X17.4449 Y29.0412 
G01 X16.6512 Y29.8349 
G01 X15.5287 Y29.8349 
G01 X14.7350 Y29.0412 
G01 X14.7350 Y27.9187 
G01 X15.5287 Y27.1250 
G01 X16.6512 Y27.1250 
G01 X17.4449 Y27.9187 
G00 Z2.0000 
G00 X17.4449 Y22.8387 
G01 Z-0.1000 F400.00 
G01 X17.4449 Y23.9612 
G01 X16.6512 Y24.7549 
G01 X15.5287 Y24.7549 
G01 X14.7350 Y23.9612 
G01 X14.7350 Y22.8387 
G01 X15.5287 Y22.0450 
G01 X16.6512 Y22.0450 
G01 X17.4449 Y22.8387 
G00 Z2.0000 
G00 X43.1830 Y49.6454 
G01 Z-0.1000 F400.00 
G01 X43.1830 Y47.9545 
G01 X43.2155 Y47.7909 
G01 X43.2794 Y47.6367 
G01 X43.3721 Y47.4980 
G01 X43.4900 Y47.3801 
G01 X43.6287 Y47.2874 
G01 X43.7829 Y47.2235 
G01 X43.9465 Y47.1910 
G01 X44.1134 Y47.1910 
G01 X44.2770 Y47.2235 
G01 X44.4312 Y47.2874 
G01 X44.5699 Y47.3801 
G01 X44.6878 Y47.4980 
G01 X44.7805 Y47.6367 
G01 X44.8444 Y47.7909 
G01 X44.8769 Y47.9545 
G01 X44.8769 Y49.6454 
G01 X44.8444 Y49.8090 
G01 X44.7805 Y49.9632 
G01 X44.6878 Y50.1019 
G01 X44.5699 Y50.2198 
G01 X44.4312 Y50.3125 
G01 X44.2770 Y50.3764 
G01 X44.1134 Y50.4089 
G01 X43.9465 Y50.4089 
G01 X43.7829 Y50.3764 
G01 X43.6287 Y50.3125 
G01 X43.4900 Y50.2198 
G01 X43.3721 Y50.1019 
G01 X43.2794 Y49.9632 
G01 X43.2155 Y49.8090 
G01 X43.1830 Y49.6454 
G00 Z2.0000 
G00 X45.7230 Y49.6454 
G01 Z-0.1000 F400.00 
G01 X45.7230 Y47.9545 
G01 X45.7555 Y47.7909 
G01 X45.8194 Y47.6367 
G01 X45.9121 Y47.4980 
G01 X46.0300 Y47.3801 
G01 X46.1687 Y47.2874 
G01 X46.3229 Y47.2235 
G01 X46.4865 Y47.1910 
G01 X46.6534 Y47.1910 
G01 X46.8170 Y47.2235 
G01 X46.9712 Y47.2874 
G01 X47.1099 Y47.3801 
G01 X47.2278 Y47.4980 
G01 X47.3205 Y47.6367 
G01 X47.3844 Y47.7909 
G01 X47.4169 Y47.9545 
G01 X47.4169 Y49.6454 
G01 X47.3844 Y49.8090 
G01 X47.3205 Y49.9632 
G01 X47.2278 Y50.1019 
G01 X47.1099 Y50.2198 
G01 X46.9712 Y50.3125 
G01 X46.8170 Y50.3764 
G01 X46.6534 Y50.4089 
G01 X46.4865 Y50.4089 
G01 X46.3229 Y50.3764 
G01 X46.1687 Y50.3125 
G01 X46.0300 Y50.2198 
G01 X45.9121 Y50.1019 
G01 X45.8194 Y49.9632 
G01 X45.7555 Y49.8090 
G01 X45.7230 Y49.6454 
G00 Z2.0000 
G00 X48.2630 Y49.6454 
G01 Z-0.1000 F400.00 
G01 X48.2630 Y47.9545 
G01 X48.2955 Y47.7909 
G01 X48.3594 Y47.6367 
G01 X48.4521 Y47.4980 
G01 X48.5700 Y47.3801 
G01 X48.7087 Y47.2874 
G01 X48.8629 Y47.2235 
G01 X49.0265 Y47.1910 
G01 X49.1934 Y47.1910 
G01 X49.3570 Y47.2235 
G01 X49.5112 Y47.2874 
G01 X49.6499 Y47.3801 
G01 X49.7678 Y47.4980 
G01 X49.8605 Y47.6367 
G01 X49.9244 Y47.7909 
G01 X49.9569 Y47.9545 
G01 X49.9569 Y49.6454 
G01 X49.9244 Y49.8090 
G01 X49.8605 Y49.9632 
G01 X49.7678 Y50.1019 
G01 X49.6499 Y50.2198 
G01 X49.5112 Y50.3125 
G01 X49.3570 Y50.3764 
G01 X49.1934 Y50.4089 
G01 X49.0265 Y50.4089 
G01 X48.8629 Y50.3764 
G01 X48.7087 Y50.3125 
G01 X48.5700 Y50.2198 
G01 X48.4521 Y50.1019 
G01 X48.3594 Y49.9632 
G01 X48.2955 Y49.8090 
G01 X48.2630 Y49.6454 
G00 Z2.0000 
G00 X38.6539 Y43.0625 
G01 Z-0.1000 F400.00 
G01 X38.6539 Y43.8694 
G01 X38.0834 Y44.4399 
G01 X37.2765 Y44.4399 
G01 X36.7060 Y43.8694 
G01 X36.7060 Y43.0625 
G01 X37.2765 Y42.4920 
G01 X38.0834 Y42.4920 
G01 X38.6539 Y43.0625 
G00 Z2.0000 
G00 X38.6539 Y41.3380 
G01 Z-0.1000 F400.00 
G01 X38.6539 Y41.5299 
G01 X38.6165 Y41.7181 
G01 X38.5431 Y41.8953 
G01 X38.4365 Y42.0548 
G01 X38.3008 Y42.1905 
G01 X38.1413 Y42.2971 
G01 X37.9641 Y42.3705 
G01 X37.7759 Y42.4079 
G01 X37.5840 Y42.4079 
G01 X37.3958 Y42.3705 
G01 X37.2186 Y42.2971 
G01 X37.0591 Y42.1905 
G01 X36.9234 Y42.0548 
G01 X36.8168 Y41.8953 
G01 X36.7434 Y41.7181 
G01 X36.7060 Y41.5299 
G01 X36.7060 Y41.3380 
G01 X36.7434 Y41.1498 
G01 X36.8168 Y40.9726 
G01 X36.9234 Y40.8131 
G01 X37.0591 Y40.6774 
G01 X37.2186 Y40.5708 
G01 X37.3958 Y40.4974 
G01 X37.5840 Y40.4600 
G01 X37.7759 Y40.4600 
G01 X37.9641 Y40.4974 
G01 X38.1413 Y40.5708 
G01 X38.3008 Y40.6774 
G01 X38.4365 Y40.8131 
G01 X38.5431 Y40.9726 
G01 X38.6165 Y41.1498 
G01 X38.6539 Y41.3380 
G00 Z2.0000 
G00 X25.0649 Y38.8407 
G01 Z-0.1000 F400.00 
G01 X25.0649 Y39.9632 
G01 X24.2712 Y40.7569 
G01 X23.1487 Y40.7569 
G01 X22.3550 Y39.9632 
G01 X22.3550 Y38.8407 
G01 X23.1487 Y38.0470 
G01 X24.2712 Y38.0470 
G01 X25.0649 Y38.8407 
G00 Z2.0000 
G00 X25.0649 Y42.8513 
G01 Z-0.1000 F400.00 
G01 X25.0649 Y43.0646 
G01 X25.0315 Y43.2753 
G01 X24.9656 Y43.4781 
G01 X24.8688 Y43.6681 
G01 X24.7435 Y43.8407 
G01 X24.5927 Y43.9915 
G01 X24.4201 Y44.1168 
G01 X24.2301 Y44.2136 
G01 X24.0273 Y44.2795 
G01 X23.8166 Y44.3129 
G01 X23.6033 Y44.3129 
G01 X23.3926 Y44.2795 
G01 X23.1898 Y44.2136 
G01 X22.9998 Y44.1168 
G01 X22.8272 Y43.9915 
G01 X22.6764 Y43.8407 
G01 X22.5511 Y43.6681 
G01 X22.4543 Y43.4781 
G01 X22.3884 Y43.2753 
G01 X22.3550 Y43.0646 
G01 X22.3550 Y42.8513 
G01 X22.3884 Y42.6406 
G01 X22.4543 Y42.4378 
G01 X22.5511 Y42.2478 
G01 X22.6764 Y42.0752 
G01 X22.8272 Y41.9244 
G01 X22.9998 Y41.7991 
G01 X23.1898 Y41.7023 
G01 X23.3926 Y41.6364 
G01 X23.6033 Y41.6030 
G01 X23.8166 Y41.6030 
G01 X24.0273 Y41.6364 
G01 X24.2301 Y41.7023 
G01 X24.4201 Y41.7991 
G01 X24.5927 Y41.9244 
G01 X24.7435 Y42.0752 
G01 X24.8688 Y42.2478 
G01 X24.9656 Y42.4378 
G01 X25.0315 Y42.6406 
G01 X25.0649 Y42.8513 
G00 Z2.0000 
G00 X10.0250 Y14.8060 
G01 Z-0.1000 F400.00 
G01 X11.9949 Y14.8060 
G01 X12.1831 Y14.8434 
G01 X12.3603 Y14.9168 
G01 X12.5198 Y15.0234 
G01 X12.6555 Y15.1591 
G01 X12.7621 Y15.3186 
G01 X12.8355 Y15.4958 
G01 X12.8729 Y15.6840 
G01 X12.8729 Y15.8759 
G01 X12.8355 Y16.0641 
G01 X12.7621 Y16.2413 
G01 X12.6555 Y16.4008 
G01 X12.5198 Y16.5365 
G01 X12.3603 Y16.6431 
G01 X12.1831 Y16.7165 
G01 X11.9949 Y16.7539 
G01 X10.0250 Y16.7539 
G01 X9.8368 Y16.7165 
G01 X9.6596 Y16.6431 
G01 X9.5001 Y16.5365 
G01 X9.3644 Y16.4008 
G01 X9.2578 Y16.2413 
G01 X9.1844 Y16.0641 
G01 X9.1470 Y15.8759 
G01 X9.1470 Y15.6840 
G01 X9.1844 Y15.4958 
G01 X9.2578 Y15.3186 
G01 X9.3644 Y15.1591 
G01 X9.5001 Y15.0234 
G01 X9.6596 Y14.9168 
G01 X9.8368 Y14.8434 
G01 X10.0250 Y14.8060 
G00 Z2.0000 
G00 X10.0250 Y12.2660 
G01 Z-0.1000 F400.00 
G01 X11.9949 Y12.2660 
G01 X12.1831 Y12.3034 
G01 X12.3603 Y12.3768 
G01 X12.5198 Y12.4834 
G01 X12.6555 Y12.6191 
G01 X12.7621 Y12.7786 
G01 X12.8355 Y12.9558 
G01 X12.8729 Y13.1440 
G01 X12.8729 Y13.3359 
G01 X12.8355 Y13.5241 
G01 X12.7621 Y13.7013 
G01 X12.6555 Y13.8608 
G01 X12.5198 Y13.9965 
G01 X12.3603 Y14.1031 
G01 X12.1831 Y14.1765 
G01 X11.9949 Y14.2139 
G01 X10.0250 Y14.2139 
G01 X9.8368 Y14.1765 
G01 X9.6596 Y14.1031 
G01 X9.5001 Y13.9965 
G01 X9.3644 Y13.8608 
G01 X9.2578 Y13.7013 
G01 X9.1844 Y13.5241 
G01 X9.1470 Y13.3359 
G01 X9.1470 Y13.1440 
G01 X9.1844 Y12.9558 
G01 X9.2578 Y12.7786 
G01 X9.3644 Y12.6191 
G01 X9.5001 Y12.4834 
G01 X9.6596 Y12.3768 
G01 X9.8368 Y12.3034 
G01 X10.0250 Y12.2660 
G00 Z2.0000 
G00 X10.0250 Y9.7260 
G01 Z-0.1000 F400.00 
G01 X11.9949 Y9.7260 
G01 X12.1831 Y9.7634 
G01 X12.3603 Y9.8368 
G01 X12.5198 Y9.9434 
G01 X12.6555 Y10.0791 
G01 X12.7621 Y10.2386 
G01 X12.8355 Y10.4158 
G01 X12.8729 Y10.6040 
G01 X12.8729 Y10.7959 
G01 X12.8355 Y10.9841 
G01 X12.7621 Y11.1613 
G01 X12.6555 Y11.3208 
G01 X12.5198 Y11.4565 
G01 X12.3603 Y11.5631 
G01 X12.1831 Y11.6365 
G01 X11.9949 Y11.6739 
G01 X10.0250 Y11.6739 
G01 X9.8368 Y11.6365 
G01 X9.6596 Y11.5631 
G01 X9.5001 Y11.4565 
G01 X9.3644 Y11.3208 
G01 X9.2578 Y11.1613 
G01 X9.1844 Y10.9841 
G01 X9.1470 Y10.7959 
G01 X9.1470 Y10.6040 
G01 X9.1844 Y10.4158 
G01 X9.2578 Y10.2386 
G01 X9.3644 Y10.0791 
G01 X9.5001 Y9.9434 
G01 X9.6596 Y9.8368 
G01 X9.8368 Y9.7634 
G01 X10.0250 Y9.7260 
G00 Z2.0000 
G00 X10.0250 Y7.1860 
G01 Z-0.1000 F400.00 
G01 X11.9949 Y7.1860 
G01 X12.1831 Y7.2234 
G01 X12.3603 Y7.2968 
G01 X12.5198 Y7.4034 
G01 X12.6555 Y7.5391 
G01 X12.7621 Y7.6986 
G01 X12.8355 Y7.8758 
G01 X12.8729 Y8.0640 
G01 X12.8729 Y8.2559 
G01 X12.8355 Y8.4441 
G01 X12.7621 Y8.6213 
G01 X12.6555 Y8.7808 
G01 X12.5198 Y8.9165 
G01 X12.3603 Y9.0231 
G01 X12.1831 Y9.0965 
G01 X11.9949 Y9.1339 
G01 X10.0250 Y9.1339 
G01 X9.8368 Y9.0965 
G01 X9.6596 Y9.0231 
G01 X9.5001 Y8.9165 
G01 X9.3644 Y8.7808 
G01 X9.2578 Y8.6213 
G01 X9.1844 Y8.4441 
G01 X9.1470 Y8.2559 
G01 X9.1470 Y8.0640 
G01 X9.1844 Y7.8758 
G01 X9.2578 Y7.6986 
G01 X9.3644 Y7.5391 
G01 X9.5001 Y7.4034 
G01 X9.6596 Y7.2968 
G01 X9.8368 Y7.2234 
G01 X10.0250 Y7.1860 
G00 Z2.0000 
G00 X74.9191 Y22.4331 
G01 Z-0.1000 F400.00 
G01 X73.0608 Y22.4331 
G01 X72.8824 Y22.3976 
G01 X72.7144 Y22.3280 
G01 X72.5633 Y22.2270 
G01 X72.4347 Y22.0984 
G01 X72.3337 Y21.9473 
G01 X72.2641 Y21.7793 
G01 X72.2286 Y21.6009 
G01 X72.2286 Y21.4190 
G01 X72.2641 Y21.2406 
G01 X72.3337 Y21.0726 
G01 X72.4347 Y20.9215 
G01 X72.5633 Y20.7929 
G01 X72.7144 Y20.6919 
G01 X72.8824 Y20.6223 
G01 X73.0608 Y20.5868 
G01 X74.9191 Y20.5868 
G01 X75.0975 Y20.6223 
G01 X75.2655 Y20.6919 
G01 X75.4166 Y20.7929 
G01 X75.5452 Y20.9215 
G01 X75.6462 Y21.0726 
G01 X75.7158 Y21.2406 
G01 X75.7513 Y21.4190 
G01 X75.7513 Y21.6009 
G01 X75.7158 Y21.7793 
G01 X75.6462 Y21.9473 
G01 X75.5452 Y22.0984 
G01 X75.4166 Y22.2270 
G01 X75.2655 Y22.3280 
G01 X75.0975 Y22.3976 
G01 X74.9191 Y22.4331 
G00 Z2.0000 
G00 X74.9191 Y17.3531 
G01 Z-0.1000 F400.00 
G01 X73.0608 Y17.3531 
G01 X72.8824 Y17.3176 
G01 X72.7144 Y17.2480 
G01 X72.5633 Y17.1470 
G01 X72.4347 Y17.0184 
G01 X72.3337 Y16.8673 
G01 X72.2641 Y16.6993 
G01 X72.2286 Y16.5209 
G01 X72.2286 Y16.3390 
G01 X72.2641 Y16.1606 
G01 X72.3337 Y15.9926 
G01 X72.4347 Y15.8415 
G01 X72.5633 Y15.7129 
G01 X72.7144 Y15.6119 
G01 X72.8824 Y15.5423 
G01 X73.0608 Y15.5068 
G01 X74.9191 Y15.5068 
G01 X75.0975 Y15.5423 
G01 X75.2655 Y15.6119 
G01 X75.4166 Y15.7129 
G01 X75.5452 Y15.8415 
G01 X75.6462 Y15.9926 
G01 X75.7158 Y16.1606 
G01 X75.7513 Y16.3390 
G01 X75.7513 Y16.5209 
G01 X75.7158 Y16.6993 
G01 X75.6462 Y16.8673 
G01 X75.5452 Y17.0184 
G01 X75.4166 Y17.1470 
G01 X75.2655 Y17.2480 
G01 X75.0975 Y17.3176 
G01 X74.9191 Y17.3531 
G00 Z2.0000 
G00 X74.9191 Y19.8931 
G01 Z-0.1000 F400.00 
G01 X73.0608 Y19.8931 
G01 X72.8824 Y19.8576 
G01 X72.7144 Y19.7880 
G01 X72.5633 Y19.6870 
G01 X72.4347 Y19.5584 
G01 X72.3337 Y19.4073 
G01 X72.2641 Y19.2393 
G01 X72.2286 Y19.0609 
G01 X72.2286 Y18.8790 
G01 X72.2641 Y18.7006 
G01 X72.3337 Y18.5326 
G01 X72.4347 Y18.3815 
G01 X72.5633 Y18.2529 
G01 X72.7144 Y18.1519 
G01 X72.8824 Y18.0823 
G01 X73.0608 Y18.0468 
G01 X74.9191 Y18.0468 
G01 X75.0975 Y18.0823 
G01 X75.2655 Y18.1519 
G01 X75.4166 Y18.2529 
G01 X75.5452 Y18.3815 
G01 X75.6462 Y18.5326 
G01 X75.7158 Y18.7006 
G01 X75.7513 Y18.8790 
G01 X75.7513 Y19.0609 
G01 X75.7158 Y19.2393 
G01 X75.6462 Y19.4073 
G01 X75.5452 Y19.5584 
G01 X75.4166 Y19.6870 
G01 X75.2655 Y19.7880 
G01 X75.0975 Y19.8576 
G01 X74.9191 Y19.8931 
G00 Z2.0000 
G00 X68.1549 Y17.9487 
G01 Z-0.1000 F400.00 
G01 X68.1549 Y19.0712 
G01 X67.3612 Y19.8649 
G01 X66.2387 Y19.8649 
G01 X65.4450 Y19.0712 
G01 X65.4450 Y17.9487 
G01 X66.2387 Y17.1550 
G01 X67.3612 Y17.1550 
G01 X68.1549 Y17.9487 
G00 Z2.0000 
G00 X68.1549 Y10.3287 
G01 Z-0.1000 F400.00 
G01 X68.1549 Y11.4512 
G01 X67.3612 Y12.2449 
G01 X66.2387 Y12.2449 
G01 X65.4450 Y11.4512 
G01 X65.4450 Y10.3287 
G01 X66.2387 Y9.5350 
G01 X67.3612 Y9.5350 
G01 X68.1549 Y10.3287 
G00 Z2.0000 
G00 X81.6749 Y17.2587 
G01 Z-0.1000 F400.00 
G01 X81.6749 Y18.3812 
G01 X80.8812 Y19.1749 
G01 X79.7587 Y19.1749 
G01 X78.9650 Y18.3812 
G01 X78.9650 Y17.2587 
G01 X79.7587 Y16.4650 
G01 X80.8812 Y16.4650 
G01 X81.6749 Y17.2587 
G00 Z2.0000 
G00 X89.2949 Y17.2587 
G01 Z-0.1000 F400.00 
G01 X89.2949 Y18.3812 
G01 X88.5012 Y19.1749 
G01 X87.3787 Y19.1749 
G01 X86.5850 Y18.3812 
G01 X86.5850 Y17.2587 
G01 X87.3787 Y16.4650 
G01 X88.5012 Y16.4650 
G01 X89.2949 Y17.2587 
G00 Z2.0000 
G00 X32.3039 Y43.0625 
G01 Z-0.1000 F400.00 
G01 X32.3039 Y43.8694 
G01 X31.7334 Y44.4399 
G01 X30.9265 Y44.4399 
G01 X30.3560 Y43.8694 
G01 X30.3560 Y43.0625 
G01 X30.9265 Y42.4920 
G01 X31.7334 Y42.4920 
G01 X32.3039 Y43.0625 
G00 Z2.0000 
G00 X32.3039 Y41.3380 
G01 Z-0.1000 F400.00 
G01 X32.3039 Y41.5299 
G01 X32.2665 Y41.7181 
G01 X32.1931 Y41.8953 
G01 X32.0865 Y42.0548 
G01 X31.9508 Y42.1905 
G01 X31.7913 Y42.2971 
G01 X31.6141 Y42.3705 
G01 X31.4259 Y42.4079 
G01 X31.2340 Y42.4079 
G01 X31.0458 Y42.3705 
G01 X30.8686 Y42.2971 
G01 X30.7091 Y42.1905 
G01 X30.5734 Y42.0548 
G01 X30.4668 Y41.8953 
G01 X30.3934 Y41.7181 
G01 X30.3560 Y41.5299 
G01 X30.3560 Y41.3380 
G01 X30.3934 Y41.1498 
G01 X30.4668 Y40.9726 
G01 X30.5734 Y40.8131 
G01 X30.7091 Y40.6774 
G01 X30.8686 Y40.5708 
G01 X31.0458 Y40.4974 
G01 X31.2340 Y40.4600 
G01 X31.4259 Y40.4600 
G01 X31.6141 Y40.4974 
G01 X31.7913 Y40.5708 
G01 X31.9508 Y40.6774 
G01 X32.0865 Y40.8131 
G01 X32.1931 Y40.9726 
G01 X32.2665 Y41.1498 
G01 X32.3039 Y41.3380 
G00 Z2.0000 
G00 X38.6539 Y46.1105 
G01 Z-0.1000 F400.00 
G01 X38.6539 Y46.9174 
G01 X38.0834 Y47.4879 
G01 X37.2765 Y47.4879 
G01 X36.7060 Y46.9174 
G01 X36.7060 Y46.1105 
G01 X37.2765 Y45.5400 
G01 X38.0834 Y45.5400 
G01 X38.6539 Y46.1105 
G00 Z2.0000 
G00 X38.6539 Y48.4500 
G01 Z-0.1000 F400.00 
G01 X38.6539 Y48.6419 
G01 X38.6165 Y48.8301 
G01 X38.5431 Y49.0073 
G01 X38.4365 Y49.1668 
G01 X38.3008 Y49.3025 
G01 X38.1413 Y49.4091 
G01 X37.9641 Y49.4825 
G01 X37.7759 Y49.5199 
G01 X37.5840 Y49.5199 
G01 X37.3958 Y49.4825 
G01 X37.2186 Y49.4091 
G01 X37.0591 Y49.3025 
G01 X36.9234 Y49.1668 
G01 X36.8168 Y49.0073 
G01 X36.7434 Y48.8301 
G01 X36.7060 Y48.6419 
G01 X36.7060 Y48.4500 
G01 X36.7434 Y48.2618 
G01 X36.8168 Y48.0846 
G01 X36.9234 Y47.9251 
G01 X37.0591 Y47.7894 
G01 X37.2186 Y47.6828 
G01 X37.3958 Y47.6094 
G01 X37.5840 Y47.5720 
G01 X37.7759 Y47.5720 
G01 X37.9641 Y47.6094 
G01 X38.1413 Y47.6828 
G01 X38.3008 Y47.7894 
G01 X38.4365 Y47.9251 
G01 X38.5431 Y48.0846 
G01 X38.6165 Y48.2618 
G01 X38.6539 Y48.4500 
G00 Z2.0000 
G00 X22.5249 Y48.6933 
G01 Z-0.1000 F400.00 
G01 X22.5249 Y48.9066 
G01 X22.4915 Y49.1173 
G01 X22.4256 Y49.3201 
G01 X22.3288 Y49.5101 
G01 X22.2035 Y49.6827 
G01 X22.0527 Y49.8335 
G01 X21.8801 Y49.9588 
G01 X21.6901 Y50.0556 
G01 X21.4873 Y50.1215 
G01 X21.2766 Y50.1549 
G01 X21.0633 Y50.1549 
G01 X20.8526 Y50.1215 
G01 X20.6498 Y50.0556 
G01 X20.4598 Y49.9588 
G01 X20.2872 Y49.8335 
G01 X20.1364 Y49.6827 
G01 X20.0111 Y49.5101 
G01 X19.9143 Y49.3201 
G01 X19.8484 Y49.1173 
G01 X19.8150 Y48.9066 
G01 X19.8150 Y48.6933 
G01 X19.8484 Y48.4826 
G01 X19.9143 Y48.2798 
G01 X20.0111 Y48.0898 
G01 X20.1364 Y47.9172 
G01 X20.2872 Y47.7664 
G01 X20.4598 Y47.6411 
G01 X20.6498 Y47.5443 
G01 X20.8526 Y47.4784 
G01 X21.0633 Y47.4450 
G01 X21.2766 Y47.4450 
G01 X21.4873 Y47.4784 
G01 X21.6901 Y47.5443 
G01 X21.8801 Y47.6411 
G01 X22.0527 Y47.7664 
G01 X22.2035 Y47.9172 
G01 X22.3288 Y48.0898 
G01 X22.4256 Y48.2798 
G01 X22.4915 Y48.4826 
G01 X22.5249 Y48.6933 
G00 Z2.0000 
G00 X32.6849 Y48.6933 
G01 Z-0.1000 F400.00 
G01 X32.6849 Y48.9066 
G01 X32.6515 Y49.1173 
G01 X32.5856 Y49.3201 
G01 X32.4888 Y49.5101 
G01 X32.3635 Y49.6827 
G01 X32.2127 Y49.8335 
G01 X32.0401 Y49.9588 
G01 X31.8501 Y50.0556 
G01 X31.6473 Y50.1215 
G01 X31.4366 Y50.1549 
G01 X31.2233 Y50.1549 
G01 X31.0126 Y50.1215 
G01 X30.8098 Y50.0556 
G01 X30.6198 Y49.9588 
G01 X30.4472 Y49.8335 
G01 X30.2964 Y49.6827 
G01 X30.1711 Y49.5101 
G01 X30.0743 Y49.3201 
G01 X30.0084 Y49.1173 
G01 X29.9750 Y48.9066 
G01 X29.9750 Y48.6933 
G01 X30.0084 Y48.4826 
G01 X30.0743 Y48.2798 
G01 X30.1711 Y48.0898 
G01 X30.2964 Y47.9172 
G01 X30.4472 Y47.7664 
G01 X30.6198 Y47.6411 
G01 X30.8098 Y47.5443 
G01 X31.0126 Y47.4784 
G01 X31.2233 Y47.4450 
G01 X31.4366 Y47.4450 
G01 X31.6473 Y47.4784 
G01 X31.8501 Y47.5443 
G01 X32.0401 Y47.6411 
G01 X32.2127 Y47.7664 
G01 X32.3635 Y47.9172 
G01 X32.4888 Y48.0898 
G01 X32.5856 Y48.2798 
G01 X32.6515 Y48.4826 
G01 X32.6849 Y48.6933 
G00 Z2.0000 
G00 X49.1949 Y44.4287 
G01 Z-0.1000 F400.00 
G01 X49.1949 Y45.5512 
G01 X48.4012 Y46.3449 
G01 X47.2787 Y46.3449 
G01 X46.4850 Y45.5512 
G01 X46.4850 Y44.4287 
G01 X47.2787 Y43.6350 
G01 X48.4012 Y43.6350 
G01 X49.1949 Y44.4287 
G00 Z2.0000 
G00 X44.1149 Y44.4287 
G01 Z-0.1000 F400.00 
G01 X44.1149 Y45.5512 
G01 X43.3212 Y46.3449 
G01 X42.1987 Y46.3449 
G01 X41.4050 Y45.5512 
G01 X41.4050 Y44.4287 
G01 X42.1987 Y43.6350 
G01 X43.3212 Y43.6350 
G01 X44.1149 Y44.4287 
G00 Z2.0000 
G00 X20.0342 Y34.1275 
G01 Z-0.1000 F400.00 
G01 X18.3433 Y34.1275 
G01 X18.1797 Y34.0950 
G01 X18.0255 Y34.0311 
G01 X17.8868 Y33.9384 
G01 X17.7689 Y33.8205 
G01 X17.6762 Y33.6818 
G01 X17.6123 Y33.5276 
G01 X17.5798 Y33.3640 
G01 X17.5798 Y33.1971 
G01 X17.6123 Y33.0335 
G01 X17.6762 Y32.8793 
G01 X17.7689 Y32.7406 
G01 X17.8868 Y32.6227 
G01 X18.0255 Y32.5300 
G01 X18.1797 Y32.4661 
G01 X18.3433 Y32.4336 
G01 X20.0342 Y32.4336 
G01 X20.1978 Y32.4661 
G01 X20.3520 Y32.5300 
G01 X20.4907 Y32.6227 
G01 X20.6086 Y32.7406 
G01 X20.7013 Y32.8793 
G01 X20.7652 Y33.0335 
G01 X20.7977 Y33.1971 
G01 X20.7977 Y33.3640 
G01 X20.7652 Y33.5276 
G01 X20.7013 Y33.6818 
G01 X20.6086 Y33.8205 
G01 X20.4907 Y33.9384 
G01 X20.3520 Y34.0311 
G01 X20.1978 Y34.0950 
G01 X20.0342 Y34.1275 
G00 Z2.0000 
G00 X20.0342 Y29.6063 
G01 Z-0.1000 F400.00 
G01 X18.3433 Y29.6063 
G01 X18.1797 Y29.5738 
G01 X18.0255 Y29.5099 
G01 X17.8868 Y29.4172 
G01 X17.7689 Y29.2993 
G01 X17.6762 Y29.1606 
G01 X17.6123 Y29.0064 
G01 X17.5798 Y28.8428 
G01 X17.5798 Y28.6759 
G01 X17.6123 Y28.5123 
G01 X17.6762 Y28.3581 
G01 X17.7689 Y28.2194 
G01 X17.8868 Y28.1015 
G01 X18.0255 Y28.0088 
G01 X18.1797 Y27.9449 
G01 X18.3433 Y27.9124 
G01 X20.0342 Y27.9124 
G01 X20.1978 Y27.9449 
G01 X20.3520 Y28.0088 
G01 X20.4907 Y28.1015 
G01 X20.6086 Y28.2194 
G01 X20.7013 Y28.3581 
G01 X20.7652 Y28.5123 
G01 X20.7977 Y28.6759 
G01 X20.7977 Y28.8428 
G01 X20.7652 Y29.0064 
G01 X20.7013 Y29.1606 
G01 X20.6086 Y29.2993 
G01 X20.4907 Y29.4172 
G01 X20.3520 Y29.5099 
G01 X20.1978 Y29.5738 
G01 X20.0342 Y29.6063 
G00 Z2.0000 
G00 X26.5366 Y34.1275 
G01 Z-0.1000 F400.00 
G01 X24.8457 Y34.1275 
G01 X24.6821 Y34.0950 
G01 X24.5279 Y34.0311 
G01 X24.3892 Y33.9384 
G01 X24.2713 Y33.8205 
G01 X24.1786 Y33.6818 
G01 X24.1147 Y33.5276 
G01 X24.0822 Y33.3640 
G01 X24.0822 Y33.1971 
G01 X24.1147 Y33.0335 
G01 X24.1786 Y32.8793 
G01 X24.2713 Y32.7406 
G01 X24.3892 Y32.6227 
G01 X24.5279 Y32.5300 
G01 X24.6821 Y32.4661 
G01 X24.8457 Y32.4336 
G01 X26.5366 Y32.4336 
G01 X26.7002 Y32.4661 
G01 X26.8544 Y32.5300 
G01 X26.9931 Y32.6227 
G01 X27.1110 Y32.7406 
G01 X27.2037 Y32.8793 
G01 X27.2676 Y33.0335 
G01 X27.3001 Y33.1971 
G01 X27.3001 Y33.3640 
G01 X27.2676 Y33.5276 
G01 X27.2037 Y33.6818 
G01 X27.1110 Y33.8205 
G01 X26.9931 Y33.9384 
G01 X26.8544 Y34.0311 
G01 X26.7002 Y34.0950 
G01 X26.5366 Y34.1275 
G00 Z2.0000 
G00 X26.5366 Y29.6063 
G01 Z-0.1000 F400.00 
G01 X24.8457 Y29.6063 
G01 X24.6821 Y29.5738 
G01 X24.5279 Y29.5099 
G01 X24.3892 Y29.4172 
G01 X24.2713 Y29.2993 
G01 X24.1786 Y29.1606 
G01 X24.1147 Y29.0064 
G01 X24.0822 Y28.8428 
G01 X24.0822 Y28.6759 
G01 X24.1147 Y28.5123 
G01 X24.1786 Y28.3581 
G01 X24.2713 Y28.2194 
G01 X24.3892 Y28.1015 
G01 X24.5279 Y28.0088 
G01 X24.6821 Y27.9449 
G01 X24.8457 Y27.9124 
G01 X26.5366 Y27.9124 
G01 X26.7002 Y27.9449 
G01 X26.8544 Y28.0088 
G01 X26.9931 Y28.1015 
G01 X27.1110 Y28.2194 
G01 X27.2037 Y28.3581 
G01 X27.2676 Y28.5123 
G01 X27.3001 Y28.6759 
G01 X27.3001 Y28.8428 
G01 X27.2676 Y29.0064 
G01 X27.2037 Y29.1606 
G01 X27.1110 Y29.2993 
G01 X26.9931 Y29.4172 
G01 X26.8544 Y29.5099 
G01 X26.7002 Y29.5738 
G01 X26.5366 Y29.6063 
G00 Z2.0000 
G00 X85.8869 Y11.1945 
G01 Z-0.1000 F400.00 
G01 X85.8869 Y12.8854 
G01 X85.8544 Y13.0490 
G01 X85.7905 Y13.2032 
G01 X85.6978 Y13.3419 
G01 X85.5799 Y13.4598 
G01 X85.4412 Y13.5525 
G01 X85.2870 Y13.6164 
G01 X85.1234 Y13.6489 
G01 X84.9565 Y13.6489 
G01 X84.7929 Y13.6164 
G01 X84.6387 Y13.5525 
G01 X84.5000 Y13.4598 
G01 X84.3821 Y13.3419 
G01 X84.2894 Y13.2032 
G01 X84.2255 Y13.0490 
G01 X84.1930 Y12.8854 
G01 X84.1930 Y11.1945 
G01 X84.2255 Y11.0309 
G01 X84.2894 Y10.8767 
G01 X84.3821 Y10.7380 
G01 X84.5000 Y10.6201 
G01 X84.6387 Y10.5274 
G01 X84.7929 Y10.4635 
G01 X84.9565 Y10.4310 
G01 X85.1234 Y10.4310 
G01 X85.2870 Y10.4635 
G01 X85.4412 Y10.5274 
G01 X85.5799 Y10.6201 
G01 X85.6978 Y10.7380 
G01 X85.7905 Y10.8767 
G01 X85.8544 Y11.0309 
G01 X85.8869 Y11.1945 
G00 Z2.0000 
G00 X83.3469 Y11.1945 
G01 Z-0.1000 F400.00 
G01 X83.3469 Y12.8854 
G01 X83.3144 Y13.0490 
G01 X83.2505 Y13.2032 
G01 X83.1578 Y13.3419 
G01 X83.0399 Y13.4598 
G01 X82.9012 Y13.5525 
G01 X82.7470 Y13.6164 
G01 X82.5834 Y13.6489 
G01 X82.4165 Y13.6489 
G01 X82.2529 Y13.6164 
G01 X82.0987 Y13.5525 
G01 X81.9600 Y13.4598 
G01 X81.8421 Y13.3419 
G01 X81.7494 Y13.2032 
G01 X81.6855 Y13.0490 
G01 X81.6530 Y12.8854 
G01 X81.6530 Y11.1945 
G01 X81.6855 Y11.0309 
G01 X81.7494 Y10.8767 
G01 X81.8421 Y10.7380 
G01 X81.9600 Y10.6201 
G01 X82.0987 Y10.5274 
G01 X82.2529 Y10.4635 
G01 X82.4165 Y10.4310 
G01 X82.5834 Y10.4310 
G01 X82.7470 Y10.4635 
G01 X82.9012 Y10.5274 
G01 X83.0399 Y10.6201 
G01 X83.1578 Y10.7380 
G01 X83.2505 Y10.8767 
G01 X83.3144 Y11.0309 
G01 X83.3469 Y11.1945 
G00 Z2.0000 
G00 X80.8069 Y11.1945 
G01 Z-0.1000 F400.00 
G01 X80.8069 Y12.8854 
G01 X80.7744 Y13.0490 
G01 X80.7105 Y13.2032 
G01 X80.6178 Y13.3419 
G01 X80.4999 Y13.4598 
G01 X80.3612 Y13.5525 
G01 X80.2070 Y13.6164 
G01 X80.0434 Y13.6489 
G01 X79.8765 Y13.6489 
G01 X79.7129 Y13.6164 
G01 X79.5587 Y13.5525 
G01 X79.4200 Y13.4598 
G01 X79.3021 Y13.3419 
G01 X79.2094 Y13.2032 
G01 X79.1455 Y13.0490 
G01 X79.1130 Y12.8854 
G01 X79.1130 Y11.1945 
G01 X79.1455 Y11.0309 
G01 X79.2094 Y10.8767 
G01 X79.3021 Y10.7380 
G01 X79.4200 Y10.6201 
G01 X79.5587 Y10.5274 
G01 X79.7129 Y10.4635 
G01 X79.8765 Y10.4310 
G01 X80.0434 Y10.4310 
G01 X80.2070 Y10.4635 
G01 X80.3612 Y10.5274 
G01 X80.4999 Y10.6201 
G01 X80.6178 Y10.7380 
G01 X80.7105 Y10.8767 
G01 X80.7744 Y11.0309 
G01 X80.8069 Y11.1945 
G00 Z2.0000 
G00 X64.6649 Y4.9387 
G01 Z-0.1000 F400.00 
G01 X64.6649 Y6.0612 
G01 X63.8712 Y6.8549 
G01 X62.7487 Y6.8549 
G01 X61.9550 Y6.0612 
G01 X61.9550 Y4.9387 
G01 X62.7487 Y4.1450 
G01 X63.8712 Y4.1450 
G01 X64.6649 Y4.9387 
G00 Z2.0000 
G00 X57.0449 Y4.9387 
G01 Z-0.1000 F400.00 
G01 X57.0449 Y6.0612 
G01 X56.2512 Y6.8549 
G01 X55.1287 Y6.8549 
G01 X54.3350 Y6.0612 
G01 X54.3350 Y4.9387 
G01 X55.1287 Y4.1450 
G01 X56.2512 Y4.1450 
G01 X57.0449 Y4.9387 
G00 Z2.0000 
G00 X74.6591 Y32.4631 
G01 Z-0.1000 F400.00 
G01 X72.8008 Y32.4631 
G01 X72.6224 Y32.4276 
G01 X72.4544 Y32.3580 
G01 X72.3033 Y32.2570 
G01 X72.1747 Y32.1284 
G01 X72.0737 Y31.9773 
G01 X72.0041 Y31.8093 
G01 X71.9686 Y31.6309 
G01 X71.9686 Y31.4490 
G01 X72.0041 Y31.2706 
G01 X72.0737 Y31.1026 
G01 X72.1747 Y30.9515 
G01 X72.3033 Y30.8229 
G01 X72.4544 Y30.7219 
G01 X72.6224 Y30.6523 
G01 X72.8008 Y30.6168 
G01 X74.6591 Y30.6168 
G01 X74.8375 Y30.6523 
G01 X75.0055 Y30.7219 
G01 X75.1566 Y30.8229 
G01 X75.2852 Y30.9515 
G01 X75.3862 Y31.1026 
G01 X75.4558 Y31.2706 
G01 X75.4913 Y31.4490 
G01 X75.4913 Y31.6309 
G01 X75.4558 Y31.8093 
G01 X75.3862 Y31.9773 
G01 X75.2852 Y32.1284 
G01 X75.1566 Y32.2570 
G01 X75.0055 Y32.3580 
G01 X74.8375 Y32.4276 
G01 X74.6591 Y32.4631 
G00 Z2.0000 
G00 X74.6591 Y27.3831 
G01 Z-0.1000 F400.00 
G01 X72.8008 Y27.3831 
G01 X72.6224 Y27.3476 
G01 X72.4544 Y27.2780 
G01 X72.3033 Y27.1770 
G01 X72.1747 Y27.0484 
G01 X72.0737 Y26.8973 
G01 X72.0041 Y26.7293 
G01 X71.9686 Y26.5509 
G01 X71.9686 Y26.3690 
G01 X72.0041 Y26.1906 
G01 X72.0737 Y26.0226 
G01 X72.1747 Y25.8715 
G01 X72.3033 Y25.7429 
G01 X72.4544 Y25.6419 
G01 X72.6224 Y25.5723 
G01 X72.8008 Y25.5368 
G01 X74.6591 Y25.5368 
G01 X74.8375 Y25.5723 
G01 X75.0055 Y25.6419 
G01 X75.1566 Y25.7429 
G01 X75.2852 Y25.8715 
G01 X75.3862 Y26.0226 
G01 X75.4558 Y26.1906 
G01 X75.4913 Y26.3690 
G01 X75.4913 Y26.5509 
G01 X75.4558 Y26.7293 
G01 X75.3862 Y26.8973 
G01 X75.2852 Y27.0484 
G01 X75.1566 Y27.1770 
G01 X75.0055 Y27.2780 
G01 X74.8375 Y27.3476 
G01 X74.6591 Y27.3831 
G00 Z2.0000 
G00 X74.6591 Y29.9231 
G01 Z-0.1000 F400.00 
G01 X72.8008 Y29.9231 
G01 X72.6224 Y29.8876 
G01 X72.4544 Y29.8180 
G01 X72.3033 Y29.7170 
G01 X72.1747 Y29.5884 
G01 X72.0737 Y29.4373 
G01 X72.0041 Y29.2693 
G01 X71.9686 Y29.0909 
G01 X71.9686 Y28.9090 
G01 X72.0041 Y28.7306 
G01 X72.0737 Y28.5626 
G01 X72.1747 Y28.4115 
G01 X72.3033 Y28.2829 
G01 X72.4544 Y28.1819 
G01 X72.6224 Y28.1123 
G01 X72.8008 Y28.0768 
G01 X74.6591 Y28.0768 
G01 X74.8375 Y28.1123 
G01 X75.0055 Y28.1819 
G01 X75.1566 Y28.2829 
G01 X75.2852 Y28.4115 
G01 X75.3862 Y28.5626 
G01 X75.4558 Y28.7306 
G01 X75.4913 Y28.9090 
G01 X75.4913 Y29.0909 
G01 X75.4558 Y29.2693 
G01 X75.3862 Y29.4373 
G01 X75.2852 Y29.5884 
G01 X75.1566 Y29.7170 
G01 X75.0055 Y29.8180 
G01 X74.8375 Y29.8876 
G01 X74.6591 Y29.9231 
G00 Z2.0000 
G00 X68.3549 Y28.1287 
G01 Z-0.1000 F400.00 
G01 X68.3549 Y29.2512 
G01 X67.5612 Y30.0449 
G01 X66.4387 Y30.0449 
G01 X65.6450 Y29.2512 
G01 X65.6450 Y28.1287 
G01 X66.4387 Y27.3350 
G01 X67.5612 Y27.3350 
G01 X68.3549 Y28.1287 
G00 Z2.0000 
G00 X68.3549 Y35.7487 
G01 Z-0.1000 F400.00 
G01 X68.3549 Y36.8712 
G01 X67.5612 Y37.6649 
G01 X66.4387 Y37.6649 
G01 X65.6450 Y36.8712 
G01 X65.6450 Y35.7487 
G01 X66.4387 Y34.9550 
G01 X67.5612 Y34.9550 
G01 X68.3549 Y35.7487 
G00 Z2.0000 
G00 X81.5449 Y23.4387 
G01 Z-0.1000 F400.00 
G01 X81.5449 Y24.5612 
G01 X80.7512 Y25.3549 
G01 X79.6287 Y25.3549 
G01 X78.8350 Y24.5612 
G01 X78.8350 Y23.4387 
G01 X79.6287 Y22.6450 
G01 X80.7512 Y22.6450 
G01 X81.5449 Y23.4387 
G00 Z2.0000 
G00 X89.1649 Y23.4387 
G01 Z-0.1000 F400.00 
G01 X89.1649 Y24.5612 
G01 X88.3712 Y25.3549 
G01 X87.2487 Y25.3549 
G01 X86.4550 Y24.5612 
G01 X86.4550 Y23.4387 
G01 X87.2487 Y22.6450 
G01 X88.3712 Y22.6450 
G01 X89.1649 Y23.4387 
G00 Z2.0000 
G00 X79.6130 Y31.8054 
G01 Z-0.1000 F400.00 
G01 X79.6130 Y30.1145 
G01 X79.6455 Y29.9509 
G01 X79.7094 Y29.7967 
G01 X79.8021 Y29.6580 
G01 X79.9200 Y29.5401 
G01 X80.0587 Y29.4474 
G01 X80.2129 Y29.3835 
G01 X80.3765 Y29.3510 
G01 X80.5434 Y29.3510 
G01 X80.7070 Y29.3835 
G01 X80.8612 Y29.4474 
G01 X80.9999 Y29.5401 
G01 X81.1178 Y29.6580 
G01 X81.2105 Y29.7967 
G01 X81.2744 Y29.9509 
G01 X81.3069 Y30.1145 
G01 X81.3069 Y31.8054 
G01 X81.2744 Y31.9690 
G01 X81.2105 Y32.1232 
G01 X81.1178 Y32.2619 
G01 X80.9999 Y32.3798 
G01 X80.8612 Y32.4725 
G01 X80.7070 Y32.5364 
G01 X80.5434 Y32.5689 
G01 X80.3765 Y32.5689 
G01 X80.2129 Y32.5364 
G01 X80.0587 Y32.4725 
G01 X79.9200 Y32.3798 
G01 X79.8021 Y32.2619 
G01 X79.7094 Y32.1232 
G01 X79.6455 Y31.9690 
G01 X79.6130 Y31.8054 
G00 Z2.0000 
G00 X82.1530 Y31.8054 
G01 Z-0.1000 F400.00 
G01 X82.1530 Y30.1145 
G01 X82.1855 Y29.9509 
G01 X82.2494 Y29.7967 
G01 X82.3421 Y29.6580 
G01 X82.4600 Y29.5401 
G01 X82.5987 Y29.4474 
G01 X82.7529 Y29.3835 
G01 X82.9165 Y29.3510 
G01 X83.0834 Y29.3510 
G01 X83.2470 Y29.3835 
G01 X83.4012 Y29.4474 
G01 X83.5399 Y29.5401 
G01 X83.6578 Y29.6580 
G01 X83.7505 Y29.7967 
G01 X83.8144 Y29.9509 
G01 X83.8469 Y30.1145 
G01 X83.8469 Y31.8054 
G01 X83.8144 Y31.9690 
G01 X83.7505 Y32.1232 
G01 X83.6578 Y32.2619 
G01 X83.5399 Y32.3798 
G01 X83.4012 Y32.4725 
G01 X83.2470 Y32.5364 
G01 X83.0834 Y32.5689 
G01 X82.9165 Y32.5689 
G01 X82.7529 Y32.5364 
G01 X82.5987 Y32.4725 
G01 X82.4600 Y32.3798 
G01 X82.3421 Y32.2619 
G01 X82.2494 Y32.1232 
G01 X82.1855 Y31.9690 
G01 X82.1530 Y31.8054 
G00 Z2.0000 
G00 X84.6930 Y31.8054 
G01 Z-0.1000 F400.00 
G01 X84.6930 Y30.1145 
G01 X84.7255 Y29.9509 
G01 X84.7894 Y29.7967 
G01 X84.8821 Y29.6580 
G01 X85.0000 Y29.5401 
G01 X85.1387 Y29.4474 
G01 X85.2929 Y29.3835 
G01 X85.4565 Y29.3510 
G01 X85.6234 Y29.3510 
G01 X85.7870 Y29.3835 
G01 X85.9412 Y29.4474 
G01 X86.0799 Y29.5401 
G01 X86.1978 Y29.6580 
G01 X86.2905 Y29.7967 
G01 X86.3544 Y29.9509 
G01 X86.3869 Y30.1145 
G01 X86.3869 Y31.8054 
G01 X86.3544 Y31.9690 
G01 X86.2905 Y32.1232 
G01 X86.1978 Y32.2619 
G01 X86.0799 Y32.3798 
G01 X85.9412 Y32.4725 
G01 X85.7870 Y32.5364 
G01 X85.6234 Y32.5689 
G01 X85.4565 Y32.5689 
G01 X85.2929 Y32.5364 
G01 X85.1387 Y32.4725 
G01 X85.0000 Y32.3798 
G01 X84.8821 Y32.2619 
G01 X84.7894 Y32.1232 
G01 X84.7255 Y31.9690 
G01 X84.6930 Y31.8054 
G00 Z2.0000 
G00 X93.1545 Y5.6130 
G01 Z-0.1000 F400.00 
G01 X94.8454 Y5.6130 
G01 X95.0090 Y5.6455 
G01 X95.1632 Y5.7094 
G01 X95.3019 Y5.8021 
G01 X95.4198 Y5.9200 
G01 X95.5125 Y6.0587 
G01 X95.5764 Y6.2129 
G01 X95.6089 Y6.3765 
G01 X95.6089 Y6.5434 
G01 X95.5764 Y6.7070 
G01 X95.5125 Y6.8612 
G01 X95.4198 Y6.9999 
G01 X95.3019 Y7.1178 
G01 X95.1632 Y7.2105 
G01 X95.0090 Y7.2744 
G01 X94.8454 Y7.3069 
G01 X93.1545 Y7.3069 
G01 X92.9909 Y7.2744 
G01 X92.8367 Y7.2105 
G01 X92.6980 Y7.1178 
G01 X92.5801 Y6.9999 
G01 X92.4874 Y6.8612 
G01 X92.4235 Y6.7070 
G01 X92.3910 Y6.5434 
G01 X92.3910 Y6.3765 
G01 X92.4235 Y6.2129 
G01 X92.4874 Y6.0587 
G01 X92.5801 Y5.9200 
G01 X92.6980 Y5.8021 
G01 X92.8367 Y5.7094 
G01 X92.9909 Y5.6455 
G01 X93.1545 Y5.6130 
G00 Z2.0000 
G00 X93.1545 Y8.1530 
G01 Z-0.1000 F400.00 
G01 X94.8454 Y8.1530 
G01 X95.0090 Y8.1855 
G01 X95.1632 Y8.2494 
G01 X95.3019 Y8.3421 
G01 X95.4198 Y8.4600 
G01 X95.5125 Y8.5987 
G01 X95.5764 Y8.7529 
G01 X95.6089 Y8.9165 
G01 X95.6089 Y9.0834 
G01 X95.5764 Y9.2470 
G01 X95.5125 Y9.4012 
G01 X95.4198 Y9.5399 
G01 X95.3019 Y9.6578 
G01 X95.1632 Y9.7505 
G01 X95.0090 Y9.8144 
G01 X94.8454 Y9.8469 
G01 X93.1545 Y9.8469 
G01 X92.9909 Y9.8144 
G01 X92.8367 Y9.7505 
G01 X92.6980 Y9.6578 
G01 X92.5801 Y9.5399 
G01 X92.4874 Y9.4012 
G01 X92.4235 Y9.2470 
G01 X92.3910 Y9.0834 
G01 X92.3910 Y8.9165 
G01 X92.4235 Y8.7529 
G01 X92.4874 Y8.5987 
G01 X92.5801 Y8.4600 
G01 X92.6980 Y8.3421 
G01 X92.8367 Y8.2494 
G01 X92.9909 Y8.1855 
G01 X93.1545 Y8.1530 
G00 Z2.0000 
G00 X93.1545 Y10.6930 
G01 Z-0.1000 F400.00 
G01 X94.8454 Y10.6930 
G01 X95.0090 Y10.7255 
G01 X95.1632 Y10.7894 
G01 X95.3019 Y10.8821 
G01 X95.4198 Y11.0000 
G01 X95.5125 Y11.1387 
G01 X95.5764 Y11.2929 
G01 X95.6089 Y11.4565 
G01 X95.6089 Y11.6234 
G01 X95.5764 Y11.7870 
G01 X95.5125 Y11.9412 
G01 X95.4198 Y12.0799 
G01 X95.3019 Y12.1978 
G01 X95.1632 Y12.2905 
G01 X95.0090 Y12.3544 
G01 X94.8454 Y12.3869 
G01 X93.1545 Y12.3869 
G01 X92.9909 Y12.3544 
G01 X92.8367 Y12.2905 
G01 X92.6980 Y12.1978 
G01 X92.5801 Y12.0799 
G01 X92.4874 Y11.9412 
G01 X92.4235 Y11.7870 
G01 X92.3910 Y11.6234 
G01 X92.3910 Y11.4565 
G01 X92.4235 Y11.2929 
G01 X92.4874 Y11.1387 
G01 X92.5801 Y11.0000 
G01 X92.6980 Y10.8821 
G01 X92.8367 Y10.7894 
G01 X92.9909 Y10.7255 
G01 X93.1545 Y10.6930 
G00 Z2.0000 
G00 X77.9238 Y49.5553 
G01 Z-0.1000 F400.00 
G01 X76.4561 Y49.5553 
G01 X76.3121 Y49.5267 
G01 X76.1765 Y49.4705 
G01 X76.0544 Y49.3889 
G01 X75.9506 Y49.2851 
G01 X75.8690 Y49.1630 
G01 X75.8128 Y49.0274 
G01 X75.7842 Y48.8834 
G01 X75.7842 Y48.7365 
G01 X75.8128 Y48.5925 
G01 X75.8690 Y48.4569 
G01 X75.9506 Y48.3348 
G01 X76.0544 Y48.2310 
G01 X76.1765 Y48.1494 
G01 X76.3121 Y48.0932 
G01 X76.4561 Y48.0646 
G01 X77.9238 Y48.0646 
G01 X78.0678 Y48.0932 
G01 X78.2034 Y48.1494 
G01 X78.3255 Y48.2310 
G01 X78.4293 Y48.3348 
G01 X78.5109 Y48.4569 
G01 X78.5671 Y48.5925 
G01 X78.5957 Y48.7365 
G01 X78.5957 Y48.8834 
G01 X78.5671 Y49.0274 
G01 X78.5109 Y49.1630 
G01 X78.4293 Y49.2851 
G01 X78.3255 Y49.3889 
G01 X78.2034 Y49.4705 
G01 X78.0678 Y49.5267 
G01 X77.9238 Y49.5553 
G00 Z2.0000 
G00 X77.9238 Y47.0153 
G01 Z-0.1000 F400.00 
G01 X76.4561 Y47.0153 
G01 X76.3121 Y46.9867 
G01 X76.1765 Y46.9305 
G01 X76.0544 Y46.8489 
G01 X75.9506 Y46.7451 
G01 X75.8690 Y46.6230 
G01 X75.8128 Y46.4874 
G01 X75.7842 Y46.3434 
G01 X75.7842 Y46.1965 
G01 X75.8128 Y46.0525 
G01 X75.8690 Y45.9169 
G01 X75.9506 Y45.7948 
G01 X76.0544 Y45.6910 
G01 X76.1765 Y45.6094 
G01 X76.3121 Y45.5532 
G01 X76.4561 Y45.5246 
G01 X77.9238 Y45.5246 
G01 X78.0678 Y45.5532 
G01 X78.2034 Y45.6094 
G01 X78.3255 Y45.6910 
G01 X78.4293 Y45.7948 
G01 X78.5109 Y45.9169 
G01 X78.5671 Y46.0525 
G01 X78.5957 Y46.1965 
G01 X78.5957 Y46.3434 
G01 X78.5671 Y46.4874 
G01 X78.5109 Y46.6230 
G01 X78.4293 Y46.7451 
G01 X78.3255 Y46.8489 
G01 X78.2034 Y46.9305 
G01 X78.0678 Y46.9867 
G01 X77.9238 Y47.0153 
G00 Z2.0000 
G00 X85.5438 Y47.0153 
G01 Z-0.1000 F400.00 
G01 X84.0761 Y47.0153 
G01 X83.9321 Y46.9867 
G01 X83.7965 Y46.9305 
G01 X83.6744 Y46.8489 
G01 X83.5706 Y46.7451 
G01 X83.4890 Y46.6230 
G01 X83.4328 Y46.4874 
G01 X83.4042 Y46.3434 
G01 X83.4042 Y46.1965 
G01 X83.4328 Y46.0525 
G01 X83.4890 Y45.9169 
G01 X83.5706 Y45.7948 
G01 X83.6744 Y45.6910 
G01 X83.7965 Y45.6094 
G01 X83.9321 Y45.5532 
G01 X84.0761 Y45.5246 
G01 X85.5438 Y45.5246 
G01 X85.6878 Y45.5532 
G01 X85.8234 Y45.6094 
G01 X85.9455 Y45.6910 
G01 X86.0493 Y45.7948 
G01 X86.1309 Y45.9169 
G01 X86.1871 Y46.0525 
G01 X86.2157 Y46.1965 
G01 X86.2157 Y46.3434 
G01 X86.1871 Y46.4874 
G01 X86.1309 Y46.6230 
G01 X86.0493 Y46.7451 
G01 X85.9455 Y46.8489 
G01 X85.8234 Y46.9305 
G01 X85.6878 Y46.9867 
G01 X85.5438 Y47.0153 
G00 Z2.0000 
G00 X85.5438 Y49.5553 
G01 Z-0.1000 F400.00 
G01 X84.0761 Y49.5553 
G01 X83.9321 Y49.5267 
G01 X83.7965 Y49.4705 
G01 X83.6744 Y49.3889 
G01 X83.5706 Y49.2851 
G01 X83.4890 Y49.1630 
G01 X83.4328 Y49.0274 
G01 X83.4042 Y48.8834 
G01 X83.4042 Y48.7365 
G01 X83.4328 Y48.5925 
G01 X83.4890 Y48.4569 
G01 X83.5706 Y48.3348 
G01 X83.6744 Y48.2310 
G01 X83.7965 Y48.1494 
G01 X83.9321 Y48.0932 
G01 X84.0761 Y48.0646 
G01 X85.5438 Y48.0646 
G01 X85.6878 Y48.0932 
G01 X85.8234 Y48.1494 
G01 X85.9455 Y48.2310 
G01 X86.0493 Y48.3348 
G01 X86.1309 Y48.4569 
G01 X86.1871 Y48.5925 
G01 X86.2157 Y48.7365 
G01 X86.2157 Y48.8834 
G01 X86.1871 Y49.0274 
G01 X86.1309 Y49.1630 
G01 X86.0493 Y49.2851 
G01 X85.9455 Y49.3889 
G01 X85.8234 Y49.4705 
G01 X85.6878 Y49.5267 
G01 X85.5438 Y49.5553 
G00 Z2.0000 
G00 X77.9238 Y44.4753 
G01 Z-0.1000 F400.00 
G01 X76.4561 Y44.4753 
G01 X76.3121 Y44.4467 
G01 X76.1765 Y44.3905 
G01 X76.0544 Y44.3089 
G01 X75.9506 Y44.2051 
G01 X75.8690 Y44.0830 
G01 X75.8128 Y43.9474 
G01 X75.7842 Y43.8034 
G01 X75.7842 Y43.6565 
G01 X75.8128 Y43.5125 
G01 X75.8690 Y43.3769 
G01 X75.9506 Y43.2548 
G01 X76.0544 Y43.1510 
G01 X76.1765 Y43.0694 
G01 X76.3121 Y43.0132 
G01 X76.4561 Y42.9846 
G01 X77.9238 Y42.9846 
G01 X78.0678 Y43.0132 
G01 X78.2034 Y43.0694 
G01 X78.3255 Y43.1510 
G01 X78.4293 Y43.2548 
G01 X78.5109 Y43.3769 
G01 X78.5671 Y43.5125 
G01 X78.5957 Y43.6565 
G01 X78.5957 Y43.8034 
G01 X78.5671 Y43.9474 
G01 X78.5109 Y44.0830 
G01 X78.4293 Y44.2051 
G01 X78.3255 Y44.3089 
G01 X78.2034 Y44.3905 
G01 X78.0678 Y44.4467 
G01 X77.9238 Y44.4753 
G00 Z2.0000 
G00 X77.9238 Y41.9353 
G01 Z-0.1000 F400.00 
G01 X76.4561 Y41.9353 
G01 X76.3121 Y41.9067 
G01 X76.1765 Y41.8505 
G01 X76.0544 Y41.7689 
G01 X75.9506 Y41.6651 
G01 X75.8690 Y41.5430 
G01 X75.8128 Y41.4074 
G01 X75.7842 Y41.2634 
G01 X75.7842 Y41.1165 
G01 X75.8128 Y40.9725 
G01 X75.8690 Y40.8369 
G01 X75.9506 Y40.7148 
G01 X76.0544 Y40.6110 
G01 X76.1765 Y40.5294 
G01 X76.3121 Y40.4732 
G01 X76.4561 Y40.4446 
G01 X77.9238 Y40.4446 
G01 X78.0678 Y40.4732 
G01 X78.2034 Y40.5294 
G01 X78.3255 Y40.6110 
G01 X78.4293 Y40.7148 
G01 X78.5109 Y40.8369 
G01 X78.5671 Y40.9725 
G01 X78.5957 Y41.1165 
G01 X78.5957 Y41.2634 
G01 X78.5671 Y41.4074 
G01 X78.5109 Y41.5430 
G01 X78.4293 Y41.6651 
G01 X78.3255 Y41.7689 
G01 X78.2034 Y41.8505 
G01 X78.0678 Y41.9067 
G01 X77.9238 Y41.9353 
G00 Z2.0000 
G00 X85.5438 Y44.4753 
G01 Z-0.1000 F400.00 
G01 X84.0761 Y44.4753 
G01 X83.9321 Y44.4467 
G01 X83.7965 Y44.3905 
G01 X83.6744 Y44.3089 
G01 X83.5706 Y44.2051 
G01 X83.4890 Y44.0830 
G01 X83.4328 Y43.9474 
G01 X83.4042 Y43.8034 
G01 X83.4042 Y43.6565 
G01 X83.4328 Y43.5125 
G01 X83.4890 Y43.3769 
G01 X83.5706 Y43.2548 
G01 X83.6744 Y43.1510 
G01 X83.7965 Y43.0694 
G01 X83.9321 Y43.0132 
G01 X84.0761 Y42.9846 
G01 X85.5438 Y42.9846 
G01 X85.6878 Y43.0132 
G01 X85.8234 Y43.0694 
G01 X85.9455 Y43.1510 
G01 X86.0493 Y43.2548 
G01 X86.1309 Y43.3769 
G01 X86.1871 Y43.5125 
G01 X86.2157 Y43.6565 
G01 X86.2157 Y43.8034 
G01 X86.1871 Y43.9474 
G01 X86.1309 Y44.0830 
G01 X86.0493 Y44.2051 
G01 X85.9455 Y44.3089 
G01 X85.8234 Y44.3905 
G01 X85.6878 Y44.4467 
G01 X85.5438 Y44.4753 
G00 Z2.0000 
G00 X85.5438 Y41.9353 
G01 Z-0.1000 F400.00 
G01 X84.0761 Y41.9353 
G01 X83.9321 Y41.9067 
G01 X83.7965 Y41.8505 
G01 X83.6744 Y41.7689 
G01 X83.5706 Y41.6651 
G01 X83.4890 Y41.5430 
G01 X83.4328 Y41.4074 
G01 X83.4042 Y41.2634 
G01 X83.4042 Y41.1165 
G01 X83.4328 Y40.9725 
G01 X83.4890 Y40.8369 
G01 X83.5706 Y40.7148 
G01 X83.6744 Y40.6110 
G01 X83.7965 Y40.5294 
G01 X83.9321 Y40.4732 
G01 X84.0761 Y40.4446 
G01 X85.5438 Y40.4446 
G01 X85.6878 Y40.4732 
G01 X85.8234 Y40.5294 
G01 X85.9455 Y40.6110 
G01 X86.0493 Y40.7148 
G01 X86.1309 Y40.8369 
G01 X86.1871 Y40.9725 
G01 X86.2157 Y41.1165 
G01 X86.2157 Y41.2634 
G01 X86.1871 Y41.4074 
G01 X86.1309 Y41.5430 
G01 X86.0493 Y41.6651 
G01 X85.9455 Y41.7689 
G01 X85.8234 Y41.8505 
G01 X85.6878 Y41.9067 
G01 X85.5438 Y41.9353 
G00 Z2.0000 
G00 X73.3549 Y49.4787 
G01 Z-0.1000 F400.00 
G01 X73.3549 Y50.6012 
G01 X72.5612 Y51.3949 
G01 X71.4387 Y51.3949 
G01 X70.6450 Y50.6012 
G01 X70.6450 Y49.4787 
G01 X71.4387 Y48.6850 
G01 X72.5612 Y48.6850 
G01 X73.3549 Y49.4787 
G00 Z2.0000 
G00 X73.3549 Y44.3987 
G01 Z-0.1000 F400.00 
G01 X73.3549 Y45.5212 
G01 X72.5612 Y46.3149 
G01 X71.4387 Y46.3149 
G01 X70.6450 Y45.5212 
G01 X70.6450 Y44.3987 
G01 X71.4387 Y43.6050 
G01 X72.5612 Y43.6050 
G01 X73.3549 Y44.3987 
G00 Z2.0000 
G00 X93.6545 Y42.8830 
G01 Z-0.1000 F400.00 
G01 X95.3454 Y42.8830 
G01 X95.5090 Y42.9155 
G01 X95.6632 Y42.9794 
G01 X95.8019 Y43.0721 
G01 X95.9198 Y43.1900 
G01 X96.0125 Y43.3287 
G01 X96.0764 Y43.4829 
G01 X96.1089 Y43.6465 
G01 X96.1089 Y43.8134 
G01 X96.0764 Y43.9770 
G01 X96.0125 Y44.1312 
G01 X95.9198 Y44.2699 
G01 X95.8019 Y44.3878 
G01 X95.6632 Y44.4805 
G01 X95.5090 Y44.5444 
G01 X95.3454 Y44.5769 
G01 X93.6545 Y44.5769 
G01 X93.4909 Y44.5444 
G01 X93.3367 Y44.4805 
G01 X93.1980 Y44.3878 
G01 X93.0801 Y44.2699 
G01 X92.9874 Y44.1312 
G01 X92.9235 Y43.9770 
G01 X92.8910 Y43.8134 
G01 X92.8910 Y43.6465 
G01 X92.9235 Y43.4829 
G01 X92.9874 Y43.3287 
G01 X93.0801 Y43.1900 
G01 X93.1980 Y43.0721 
G01 X93.3367 Y42.9794 
G01 X93.4909 Y42.9155 
G01 X93.6545 Y42.8830 
G00 Z2.0000 
G00 X93.6545 Y45.4230 
G01 Z-0.1000 F400.00 
G01 X95.3454 Y45.4230 
G01 X95.5090 Y45.4555 
G01 X95.6632 Y45.5194 
G01 X95.8019 Y45.6121 
G01 X95.9198 Y45.7300 
G01 X96.0125 Y45.8687 
G01 X96.0764 Y46.0229 
G01 X96.1089 Y46.1865 
G01 X96.1089 Y46.3534 
G01 X96.0764 Y46.5170 
G01 X96.0125 Y46.6712 
G01 X95.9198 Y46.8099 
G01 X95.8019 Y46.9278 
G01 X95.6632 Y47.0205 
G01 X95.5090 Y47.0844 
G01 X95.3454 Y47.1169 
G01 X93.6545 Y47.1169 
G01 X93.4909 Y47.0844 
G01 X93.3367 Y47.0205 
G01 X93.1980 Y46.9278 
G01 X93.0801 Y46.8099 
G01 X92.9874 Y46.6712 
G01 X92.9235 Y46.5170 
G01 X92.8910 Y46.3534 
G01 X92.8910 Y46.1865 
G01 X92.9235 Y46.0229 
G01 X92.9874 Y45.8687 
G01 X93.0801 Y45.7300 
G01 X93.1980 Y45.6121 
G01 X93.3367 Y45.5194 
G01 X93.4909 Y45.4555 
G01 X93.6545 Y45.4230 
G00 Z2.0000 
G00 X91.3549 Y47.9787 
G01 Z-0.1000 F400.00 
G01 X91.3549 Y49.1012 
G01 X90.5612 Y49.8949 
G01 X89.4387 Y49.8949 
G01 X88.6450 Y49.1012 
G01 X88.6450 Y47.9787 
G01 X89.4387 Y47.1850 
G01 X90.5612 Y47.1850 
G01 X91.3549 Y47.9787 
G00 Z2.0000 
G00 X91.3549 Y42.8987 
G01 Z-0.1000 F400.00 
G01 X91.3549 Y44.0212 
G01 X90.5612 Y44.8149 
G01 X89.4387 Y44.8149 
G01 X88.6450 Y44.0212 
G01 X88.6450 Y42.8987 
G01 X89.4387 Y42.1050 
G01 X90.5612 Y42.1050 
G01 X91.3549 Y42.8987 
G00 Z2.0000 
G00 X93.6545 Y27.3830 
G01 Z-0.1000 F400.00 
G01 X95.3454 Y27.3830 
G01 X95.5090 Y27.4155 
G01 X95.6632 Y27.4794 
G01 X95.8019 Y27.5721 
G01 X95.9198 Y27.6900 
G01 X96.0125 Y27.8287 
G01 X96.0764 Y27.9829 
G01 X96.1089 Y28.1465 
G01 X96.1089 Y28.3134 
G01 X96.0764 Y28.4770 
G01 X96.0125 Y28.6312 
G01 X95.9198 Y28.7699 
G01 X95.8019 Y28.8878 
G01 X95.6632 Y28.9805 
G01 X95.5090 Y29.0444 
G01 X95.3454 Y29.0769 
G01 X93.6545 Y29.0769 
G01 X93.4909 Y29.0444 
G01 X93.3367 Y28.9805 
G01 X93.1980 Y28.8878 
G01 X93.0801 Y28.7699 
G01 X92.9874 Y28.6312 
G01 X92.9235 Y28.4770 
G01 X92.8910 Y28.3134 
G01 X92.8910 Y28.1465 
G01 X92.9235 Y27.9829 
G01 X92.9874 Y27.8287 
G01 X93.0801 Y27.6900 
G01 X93.1980 Y27.5721 
G01 X93.3367 Y27.4794 
G01 X93.4909 Y27.4155 
G01 X93.6545 Y27.3830 
G00 Z2.0000 
G00 X93.6545 Y29.9230 
G01 Z-0.1000 F400.00 
G01 X95.3454 Y29.9230 
G01 X95.5090 Y29.9555 
G01 X95.6632 Y30.0194 
G01 X95.8019 Y30.1121 
G01 X95.9198 Y30.2300 
G01 X96.0125 Y30.3687 
G01 X96.0764 Y30.5229 
G01 X96.1089 Y30.6865 
G01 X96.1089 Y30.8534 
G01 X96.0764 Y31.0170 
G01 X96.0125 Y31.1712 
G01 X95.9198 Y31.3099 
G01 X95.8019 Y31.4278 
G01 X95.6632 Y31.5205 
G01 X95.5090 Y31.5844 
G01 X95.3454 Y31.6169 
G01 X93.6545 Y31.6169 
G01 X93.4909 Y31.5844 
G01 X93.3367 Y31.5205 
G01 X93.1980 Y31.4278 
G01 X93.0801 Y31.3099 
G01 X92.9874 Y31.1712 
G01 X92.9235 Y31.0170 
G01 X92.8910 Y30.8534 
G01 X92.8910 Y30.6865 
G01 X92.9235 Y30.5229 
G01 X92.9874 Y30.3687 
G01 X93.0801 Y30.2300 
G01 X93.1980 Y30.1121 
G01 X93.3367 Y30.0194 
G01 X93.4909 Y29.9555 
G01 X93.6545 Y29.9230 
G00 Z2.0000 
G00 X93.6545 Y17.3830 
G01 Z-0.1000 F400.00 
G01 X95.3454 Y17.3830 
G01 X95.5090 Y17.4155 
G01 X95.6632 Y17.4794 
G01 X95.8019 Y17.5721 
G01 X95.9198 Y17.6900 
G01 X96.0125 Y17.8287 
G01 X96.0764 Y17.9829 
G01 X96.1089 Y18.1465 
G01 X96.1089 Y18.3134 
G01 X96.0764 Y18.4770 
G01 X96.0125 Y18.6312 
G01 X95.9198 Y18.7699 
G01 X95.8019 Y18.8878 
G01 X95.6632 Y18.9805 
G01 X95.5090 Y19.0444 
G01 X95.3454 Y19.0769 
G01 X93.6545 Y19.0769 
G01 X93.4909 Y19.0444 
G01 X93.3367 Y18.9805 
G01 X93.1980 Y18.8878 
G01 X93.0801 Y18.7699 
G01 X92.9874 Y18.6312 
G01 X92.9235 Y18.4770 
G01 X92.8910 Y18.3134 
G01 X92.8910 Y18.1465 
G01 X92.9235 Y17.9829 
G01 X92.9874 Y17.8287 
G01 X93.0801 Y17.6900 
G01 X93.1980 Y17.5721 
G01 X93.3367 Y17.4794 
G01 X93.4909 Y17.4155 
G01 X93.6545 Y17.3830 
G00 Z2.0000 
G00 X93.6545 Y19.9230 
G01 Z-0.1000 F400.00 
G01 X95.3454 Y19.9230 
G01 X95.5090 Y19.9555 
G01 X95.6632 Y20.0194 
G01 X95.8019 Y20.1121 
G01 X95.9198 Y20.2300 
G01 X96.0125 Y20.3687 
G01 X96.0764 Y20.5229 
G01 X96.1089 Y20.6865 
G01 X96.1089 Y20.8534 
G01 X96.0764 Y21.0170 
G01 X96.0125 Y21.1712 
G01 X95.9198 Y21.3099 
G01 X95.8019 Y21.4278 
G01 X95.6632 Y21.5205 
G01 X95.5090 Y21.5844 
G01 X95.3454 Y21.6169 
G01 X93.6545 Y21.6169 
G01 X93.4909 Y21.5844 
G01 X93.3367 Y21.5205 
G01 X93.1980 Y21.4278 
G01 X93.0801 Y21.3099 
G01 X92.9874 Y21.1712 
G01 X92.9235 Y21.0170 
G01 X92.8910 Y20.8534 
G01 X92.8910 Y20.6865 
G01 X92.9235 Y20.5229 
G01 X92.9874 Y20.3687 
G01 X93.0801 Y20.2300 
G01 X93.1980 Y20.1121 
G01 X93.3367 Y20.0194 
G01 X93.4909 Y19.9555 
G01 X93.6545 Y19.9230 
G00 Z2.0000 
G00 X65.3549 Y42.1287 
G01 Z-0.1000 F400.00 
G01 X65.3549 Y43.2512 
G01 X64.5612 Y44.0449 
G01 X63.4387 Y44.0449 
G01 X62.6450 Y43.2512 
G01 X62.6450 Y42.1287 
G01 X63.4387 Y41.3350 
G01 X64.5612 Y41.3350 
G01 X65.3549 Y42.1287 
G00 Z2.0000 
G00 X65.3549 Y49.7487 
G01 Z-0.1000 F400.00 
G01 X65.3549 Y50.8712 
G01 X64.5612 Y51.6649 
G01 X63.4387 Y51.6649 
G01 X62.6450 Y50.8712 
G01 X62.6450 Y49.7487 
G01 X63.4387 Y48.9550 
G01 X64.5612 Y48.9550 
G01 X65.3549 Y49.7487 
G00 Z2.0000 
G00 X68.8549 Y47.2487 
G01 Z-0.1000 F400.00 
G01 X68.8549 Y48.3712 
G01 X68.0612 Y49.1649 
G01 X66.9387 Y49.1649 
G01 X66.1450 Y48.3712 
G01 X66.1450 Y47.2487 
G01 X66.9387 Y46.4550 
G01 X68.0612 Y46.4550 
G01 X68.8549 Y47.2487 
G00 Z2.0000 
G00 X68.8549 Y39.6287 
G01 Z-0.1000 F400.00 
G01 X68.8549 Y40.7512 
G01 X68.0612 Y41.5449 
G01 X66.9387 Y41.5449 
G01 X66.1450 Y40.7512 
G01 X66.1450 Y39.6287 
G01 X66.9387 Y38.8350 
G01 X68.0612 Y38.8350 
G01 X68.8549 Y39.6287 
G00 Z2.0000 
G00 X94.5449 Y38.4387 
G01 Z-0.1000 F400.00 
G01 X94.5449 Y39.5612 
G01 X93.7512 Y40.3549 
G01 X92.6287 Y40.3549 
G01 X91.8350 Y39.5612 
G01 X91.8350 Y38.4387 
G01 X92.6287 Y37.6450 
G01 X93.7512 Y37.6450 
G01 X94.5449 Y38.4387 
G00 Z2.0000 
G00 X102.1649 Y38.4387 
G01 Z-0.1000 F400.00 
G01 X102.1649 Y39.5612 
G01 X101.3712 Y40.3549 
G01 X100.2487 Y40.3549 
G01 X99.4550 Y39.5612 
G01 X99.4550 Y38.4387 
G01 X100.2487 Y37.6450 
G01 X101.3712 Y37.6450 
G01 X102.1649 Y38.4387 
G00 Z2.0000 
G00 X94.5449 Y35.4387 
G01 Z-0.1000 F400.00 
G01 X94.5449 Y36.5612 
G01 X93.7512 Y37.3549 
G01 X92.6287 Y37.3549 
G01 X91.8350 Y36.5612 
G01 X91.8350 Y35.4387 
G01 X92.6287 Y34.6450 
G01 X93.7512 Y34.6450 
G01 X94.5449 Y35.4387 
G00 Z2.0000 
G00 X102.1649 Y35.4387 
G01 Z-0.1000 F400.00 
G01 X102.1649 Y36.5612 
G01 X101.3712 Y37.3549 
G01 X100.2487 Y37.3549 
G01 X99.4550 Y36.5612 
G01 X99.4550 Y35.4387 
G01 X100.2487 Y34.6450 
G01 X101.3712 Y34.6450 
G01 X102.1649 Y35.4387 
(File Footer)
G00 Z2.0000 
G00 Z10.0000 
M05
M02
