( This gcode generated by /home/mattvenn/.eagle/ulp/pcb-gcode.ulp )
( Copyright 2005 by John Johnson. See readme.txt for licensing terms. )

( This file generated from the board /home/mattvenn/eagle-circuit-designs/cvm/hymera2.brd )
( This file generated 07/02/2012 14:18 )

( T01 1.092200 )
( T02 1.320800 )
( T03 3.048000 )
( T04 3.200000 )
G21

G90
M05
G00 X0.0000 Y0.0000 Z30.0000 
M06 T01  ; 1.0922 
G00 Z2.0000 
M03
G04 P3.000000
G82 X27.1584 Y9.4764 Z-2.0000 F127.00 R2.0000 P0.100000
G82 X28.5427 Y6.6316 
G82 X29.9270 Y9.4764 
G82 X31.3113 Y6.6316 
G82 X32.6956 Y9.4764 
G82 X34.0799 Y6.6316 
G82 X35.4642 Y9.4764 
G82 X36.8485 Y6.6316 
G82 X38.2328 Y9.4764 
G82 X39.6171 Y6.6316 
G82 X41.0014 Y9.4764 
G82 X42.3857 Y6.6316 
G82 X43.7700 Y9.4764 
G82 X45.1543 Y6.6316 
G82 X46.5386 Y9.4764 
G82 X47.9229 Y6.6316 
G82 X49.3072 Y9.4764 
G82 X50.6915 Y6.6316 
G82 X52.0758 Y9.4764 
G82 X53.4601 Y6.6316 
G82 X54.8444 Y9.4764 
G82 X56.2287 Y6.6316 
G82 X57.6130 Y9.4764 
G82 X58.9973 Y6.6316 
G82 X60.3816 Y9.4764 
M05
G00 X0.0000 Y0.0000 Z30.0000 
M06 T02  ; 1.3208 
G00 Z2.0000 
M03
G04 P3.000000
G82 X6.5760 Y26.3040 Z-2.0000 F127.00 R2.0000 P0.100000
G82 X100.0980 Y26.3040 
G82 X10.8270 Y26.3040 
G82 X15.0780 Y26.3040 
G82 X19.3290 Y26.3040 
G82 X23.5800 Y26.3040 
G82 X27.8310 Y26.3040 
G82 X32.0820 Y26.3040 
G82 X36.3330 Y26.3040 
G82 X40.5840 Y26.3040 
G82 X44.8350 Y26.3040 
G82 X49.0860 Y26.3040 
G82 X53.3370 Y26.3040 
G82 X57.5880 Y26.3040 
G82 X61.8390 Y26.3040 
G82 X66.0900 Y26.3040 
G82 X70.3410 Y26.3040 
G82 X74.5920 Y26.3040 
G82 X78.8430 Y26.3040 
G82 X83.0940 Y26.3040 
G82 X87.3450 Y26.3040 
G82 X91.5960 Y26.3040 
G82 X95.8470 Y26.3040 
M05
G00 X0.0000 Y0.0000 Z30.0000 
M06 T03  ; 3.0480 
G00 Z2.0000 
M03
G04 P3.000000
G82 X20.2496 Y8.0540 Z-2.0000 F127.00 R2.0000 P0.100000
G82 X67.2904 Y8.0540 
M05
G00 X0.0000 Y0.0000 Z30.0000 
M06 T04  ; 3.2000 
G00 Z2.0000 
M03
G04 P3.000000
G82 X12.4000 Y8.0000 Z-2.0000 F127.00 R2.0000 P0.100000
G82 X54.4000 Y17.0000 
G82 X99.4000 Y8.0000 
(File Footer)
T01 
G00 Z10.0000 
M05
M02
