( This gcode generated by /home/mattvenn/.eagle/ulp/pcb-gcode.ulp )
( Copyright 2005 by John Johnson. See readme.txt for licensing terms. )

( This file generated from the board /home/mattvenn/eagle-circuit-designs/cvm/hymera.brd )
( This file generated 31/01/2012 16:32 )

G21

G90
G00 Z10.0000 
G00 X0 Y0
M03
G04 P3.000000
G00 Z2.0000 
G00 X5.9685 Y26.2294 
G01 Z-0.1000 F600.00 
G01 X5.9685 Y28.3785 
G01 X5.9422 Y28.5443 
G01 X5.8904 Y28.7040 
G01 X5.8142 Y28.8536 
G01 X5.7155 Y28.9894 
G01 X5.5968 Y29.1081 
G01 X5.4610 Y29.2068 
G01 X5.3114 Y29.2830 
G01 X5.1517 Y29.3348 
G01 X4.9859 Y29.3611 
G01 X4.8180 Y29.3611 
G01 X4.6522 Y29.3348 
G01 X4.4925 Y29.2830 
G01 X4.3429 Y29.2068 
G01 X4.2071 Y29.1081 
G01 X4.0884 Y28.9894 
G01 X3.9897 Y28.8536 
G01 X3.9135 Y28.7040 
G01 X3.8617 Y28.5443 
G01 X3.8354 Y28.3785 
G01 X3.8354 Y26.2294 
G01 X3.8617 Y26.0636 
G01 X3.9135 Y25.9039 
G01 X3.9897 Y25.7543 
G01 X4.0884 Y25.6185 
G01 X4.2071 Y25.4998 
G01 X4.3429 Y25.4011 
G01 X4.4925 Y25.3249 
G01 X4.6522 Y25.2731 
G01 X4.8180 Y25.2468 
G01 X4.9859 Y25.2468 
G01 X5.1517 Y25.2731 
G01 X5.3114 Y25.3249 
G01 X5.4610 Y25.4011 
G01 X5.5968 Y25.4998 
G01 X5.7155 Y25.6185 
G01 X5.8142 Y25.7543 
G01 X5.8904 Y25.9039 
G01 X5.9422 Y26.0636 
G01 X5.9685 Y26.2294 
G00 Z2.0000 
G00 X10.2195 Y26.2294 
G01 Z-0.1000 F600.00 
G01 X10.2195 Y28.3785 
G01 X10.1932 Y28.5443 
G01 X10.1414 Y28.7040 
G01 X10.0652 Y28.8536 
G01 X9.9665 Y28.9894 
G01 X9.8478 Y29.1081 
G01 X9.7120 Y29.2068 
G01 X9.5624 Y29.2830 
G01 X9.4027 Y29.3348 
G01 X9.2369 Y29.3611 
G01 X9.0690 Y29.3611 
G01 X8.9032 Y29.3348 
G01 X8.7435 Y29.2830 
G01 X8.5939 Y29.2068 
G01 X8.4581 Y29.1081 
G01 X8.3394 Y28.9894 
G01 X8.2407 Y28.8536 
G01 X8.1645 Y28.7040 
G01 X8.1127 Y28.5443 
G01 X8.0864 Y28.3785 
G01 X8.0864 Y26.2294 
G01 X8.1127 Y26.0636 
G01 X8.1645 Y25.9039 
G01 X8.2407 Y25.7543 
G01 X8.3394 Y25.6185 
G01 X8.4581 Y25.4998 
G01 X8.5939 Y25.4011 
G01 X8.7435 Y25.3249 
G01 X8.9032 Y25.2731 
G01 X9.0690 Y25.2468 
G01 X9.2369 Y25.2468 
G01 X9.4027 Y25.2731 
G01 X9.5624 Y25.3249 
G01 X9.7120 Y25.4011 
G01 X9.8478 Y25.4998 
G01 X9.9665 Y25.6185 
G01 X10.0652 Y25.7543 
G01 X10.1414 Y25.9039 
G01 X10.1932 Y26.0636 
G01 X10.2195 Y26.2294 
G00 Z2.0000 
G00 X14.4705 Y26.2294 
G01 Z-0.1000 F600.00 
G01 X14.4705 Y28.3785 
G01 X14.4442 Y28.5443 
G01 X14.3924 Y28.7040 
G01 X14.3162 Y28.8536 
G01 X14.2175 Y28.9894 
G01 X14.0988 Y29.1081 
G01 X13.9630 Y29.2068 
G01 X13.8134 Y29.2830 
G01 X13.6537 Y29.3348 
G01 X13.4879 Y29.3611 
G01 X13.3200 Y29.3611 
G01 X13.1542 Y29.3348 
G01 X12.9945 Y29.2830 
G01 X12.8449 Y29.2068 
G01 X12.7091 Y29.1081 
G01 X12.5904 Y28.9894 
G01 X12.4917 Y28.8536 
G01 X12.4155 Y28.7040 
G01 X12.3637 Y28.5443 
G01 X12.3374 Y28.3785 
G01 X12.3374 Y26.2294 
G01 X12.3637 Y26.0636 
G01 X12.4155 Y25.9039 
G01 X12.4917 Y25.7543 
G01 X12.5904 Y25.6185 
G01 X12.7091 Y25.4998 
G01 X12.8449 Y25.4011 
G01 X12.9945 Y25.3249 
G01 X13.1542 Y25.2731 
G01 X13.3200 Y25.2468 
G01 X13.4879 Y25.2468 
G01 X13.6537 Y25.2731 
G01 X13.8134 Y25.3249 
G01 X13.9630 Y25.4011 
G01 X14.0988 Y25.4998 
G01 X14.2175 Y25.6185 
G01 X14.3162 Y25.7543 
G01 X14.3924 Y25.9039 
G01 X14.4442 Y26.0636 
G01 X14.4705 Y26.2294 
G00 Z2.0000 
G00 X18.7215 Y26.2294 
G01 Z-0.1000 F600.00 
G01 X18.7215 Y28.3785 
G01 X18.6952 Y28.5443 
G01 X18.6434 Y28.7040 
G01 X18.5672 Y28.8536 
G01 X18.4685 Y28.9894 
G01 X18.3498 Y29.1081 
G01 X18.2140 Y29.2068 
G01 X18.0644 Y29.2830 
G01 X17.9047 Y29.3348 
G01 X17.7389 Y29.3611 
G01 X17.5710 Y29.3611 
G01 X17.4052 Y29.3348 
G01 X17.2455 Y29.2830 
G01 X17.0959 Y29.2068 
G01 X16.9601 Y29.1081 
G01 X16.8414 Y28.9894 
G01 X16.7427 Y28.8536 
G01 X16.6665 Y28.7040 
G01 X16.6147 Y28.5443 
G01 X16.5884 Y28.3785 
G01 X16.5884 Y26.2294 
G01 X16.6147 Y26.0636 
G01 X16.6665 Y25.9039 
G01 X16.7427 Y25.7543 
G01 X16.8414 Y25.6185 
G01 X16.9601 Y25.4998 
G01 X17.0959 Y25.4011 
G01 X17.2455 Y25.3249 
G01 X17.4052 Y25.2731 
G01 X17.5710 Y25.2468 
G01 X17.7389 Y25.2468 
G01 X17.9047 Y25.2731 
G01 X18.0644 Y25.3249 
G01 X18.2140 Y25.4011 
G01 X18.3498 Y25.4998 
G01 X18.4685 Y25.6185 
G01 X18.5672 Y25.7543 
G01 X18.6434 Y25.9039 
G01 X18.6952 Y26.0636 
G01 X18.7215 Y26.2294 
G00 Z2.0000 
G00 X22.9725 Y26.2294 
G01 Z-0.1000 F600.00 
G01 X22.9725 Y28.3785 
G01 X22.9462 Y28.5443 
G01 X22.8944 Y28.7040 
G01 X22.8182 Y28.8536 
G01 X22.7195 Y28.9894 
G01 X22.6008 Y29.1081 
G01 X22.4650 Y29.2068 
G01 X22.3154 Y29.2830 
G01 X22.1557 Y29.3348 
G01 X21.9899 Y29.3611 
G01 X21.8220 Y29.3611 
G01 X21.6562 Y29.3348 
G01 X21.4965 Y29.2830 
G01 X21.3469 Y29.2068 
G01 X21.2111 Y29.1081 
G01 X21.0924 Y28.9894 
G01 X20.9937 Y28.8536 
G01 X20.9175 Y28.7040 
G01 X20.8657 Y28.5443 
G01 X20.8394 Y28.3785 
G01 X20.8394 Y26.2294 
G01 X20.8657 Y26.0636 
G01 X20.9175 Y25.9039 
G01 X20.9937 Y25.7543 
G01 X21.0924 Y25.6185 
G01 X21.2111 Y25.4998 
G01 X21.3469 Y25.4011 
G01 X21.4965 Y25.3249 
G01 X21.6562 Y25.2731 
G01 X21.8220 Y25.2468 
G01 X21.9899 Y25.2468 
G01 X22.1557 Y25.2731 
G01 X22.3154 Y25.3249 
G01 X22.4650 Y25.4011 
G01 X22.6008 Y25.4998 
G01 X22.7195 Y25.6185 
G01 X22.8182 Y25.7543 
G01 X22.8944 Y25.9039 
G01 X22.9462 Y26.0636 
G01 X22.9725 Y26.2294 
G00 Z2.0000 
G00 X27.2235 Y26.2294 
G01 Z-0.1000 F600.00 
G01 X27.2235 Y28.3785 
G01 X27.1972 Y28.5443 
G01 X27.1454 Y28.7040 
G01 X27.0692 Y28.8536 
G01 X26.9705 Y28.9894 
G01 X26.8518 Y29.1081 
G01 X26.7160 Y29.2068 
G01 X26.5664 Y29.2830 
G01 X26.4067 Y29.3348 
G01 X26.2409 Y29.3611 
G01 X26.0730 Y29.3611 
G01 X25.9072 Y29.3348 
G01 X25.7475 Y29.2830 
G01 X25.5979 Y29.2068 
G01 X25.4621 Y29.1081 
G01 X25.3434 Y28.9894 
G01 X25.2447 Y28.8536 
G01 X25.1685 Y28.7040 
G01 X25.1167 Y28.5443 
G01 X25.0904 Y28.3785 
G01 X25.0904 Y26.2294 
G01 X25.1167 Y26.0636 
G01 X25.1685 Y25.9039 
G01 X25.2447 Y25.7543 
G01 X25.3434 Y25.6185 
G01 X25.4621 Y25.4998 
G01 X25.5979 Y25.4011 
G01 X25.7475 Y25.3249 
G01 X25.9072 Y25.2731 
G01 X26.0730 Y25.2468 
G01 X26.2409 Y25.2468 
G01 X26.4067 Y25.2731 
G01 X26.5664 Y25.3249 
G01 X26.7160 Y25.4011 
G01 X26.8518 Y25.4998 
G01 X26.9705 Y25.6185 
G01 X27.0692 Y25.7543 
G01 X27.1454 Y25.9039 
G01 X27.1972 Y26.0636 
G01 X27.2235 Y26.2294 
G00 Z2.0000 
G00 X31.4745 Y26.2294 
G01 Z-0.1000 F600.00 
G01 X31.4745 Y28.3785 
G01 X31.4482 Y28.5443 
G01 X31.3964 Y28.7040 
G01 X31.3202 Y28.8536 
G01 X31.2215 Y28.9894 
G01 X31.1028 Y29.1081 
G01 X30.9670 Y29.2068 
G01 X30.8174 Y29.2830 
G01 X30.6577 Y29.3348 
G01 X30.4919 Y29.3611 
G01 X30.3240 Y29.3611 
G01 X30.1582 Y29.3348 
G01 X29.9985 Y29.2830 
G01 X29.8489 Y29.2068 
G01 X29.7131 Y29.1081 
G01 X29.5944 Y28.9894 
G01 X29.4957 Y28.8536 
G01 X29.4195 Y28.7040 
G01 X29.3677 Y28.5443 
G01 X29.3414 Y28.3785 
G01 X29.3414 Y26.2294 
G01 X29.3677 Y26.0636 
G01 X29.4195 Y25.9039 
G01 X29.4957 Y25.7543 
G01 X29.5944 Y25.6185 
G01 X29.7131 Y25.4998 
G01 X29.8489 Y25.4011 
G01 X29.9985 Y25.3249 
G01 X30.1582 Y25.2731 
G01 X30.3240 Y25.2468 
G01 X30.4919 Y25.2468 
G01 X30.6577 Y25.2731 
G01 X30.8174 Y25.3249 
G01 X30.9670 Y25.4011 
G01 X31.1028 Y25.4998 
G01 X31.2215 Y25.6185 
G01 X31.3202 Y25.7543 
G01 X31.3964 Y25.9039 
G01 X31.4482 Y26.0636 
G01 X31.4745 Y26.2294 
G00 Z2.0000 
G00 X35.7255 Y26.2294 
G01 Z-0.1000 F600.00 
G01 X35.7255 Y28.3785 
G01 X35.6992 Y28.5443 
G01 X35.6474 Y28.7040 
G01 X35.5712 Y28.8536 
G01 X35.4725 Y28.9894 
G01 X35.3538 Y29.1081 
G01 X35.2180 Y29.2068 
G01 X35.0684 Y29.2830 
G01 X34.9087 Y29.3348 
G01 X34.7429 Y29.3611 
G01 X34.5750 Y29.3611 
G01 X34.4092 Y29.3348 
G01 X34.2495 Y29.2830 
G01 X34.0999 Y29.2068 
G01 X33.9641 Y29.1081 
G01 X33.8454 Y28.9894 
G01 X33.7467 Y28.8536 
G01 X33.6705 Y28.7040 
G01 X33.6187 Y28.5443 
G01 X33.5924 Y28.3785 
G01 X33.5924 Y26.2294 
G01 X33.6187 Y26.0636 
G01 X33.6705 Y25.9039 
G01 X33.7467 Y25.7543 
G01 X33.8454 Y25.6185 
G01 X33.9641 Y25.4998 
G01 X34.0999 Y25.4011 
G01 X34.2495 Y25.3249 
G01 X34.4092 Y25.2731 
G01 X34.5750 Y25.2468 
G01 X34.7429 Y25.2468 
G01 X34.9087 Y25.2731 
G01 X35.0684 Y25.3249 
G01 X35.2180 Y25.4011 
G01 X35.3538 Y25.4998 
G01 X35.4725 Y25.6185 
G01 X35.5712 Y25.7543 
G01 X35.6474 Y25.9039 
G01 X35.6992 Y26.0636 
G01 X35.7255 Y26.2294 
G00 Z2.0000 
G00 X39.9765 Y26.2294 
G01 Z-0.1000 F600.00 
G01 X39.9765 Y28.3785 
G01 X39.9502 Y28.5443 
G01 X39.8984 Y28.7040 
G01 X39.8222 Y28.8536 
G01 X39.7235 Y28.9894 
G01 X39.6048 Y29.1081 
G01 X39.4690 Y29.2068 
G01 X39.3194 Y29.2830 
G01 X39.1597 Y29.3348 
G01 X38.9939 Y29.3611 
G01 X38.8260 Y29.3611 
G01 X38.6602 Y29.3348 
G01 X38.5005 Y29.2830 
G01 X38.3509 Y29.2068 
G01 X38.2151 Y29.1081 
G01 X38.0964 Y28.9894 
G01 X37.9977 Y28.8536 
G01 X37.9215 Y28.7040 
G01 X37.8697 Y28.5443 
G01 X37.8434 Y28.3785 
G01 X37.8434 Y26.2294 
G01 X37.8697 Y26.0636 
G01 X37.9215 Y25.9039 
G01 X37.9977 Y25.7543 
G01 X38.0964 Y25.6185 
G01 X38.2151 Y25.4998 
G01 X38.3509 Y25.4011 
G01 X38.5005 Y25.3249 
G01 X38.6602 Y25.2731 
G01 X38.8260 Y25.2468 
G01 X38.9939 Y25.2468 
G01 X39.1597 Y25.2731 
G01 X39.3194 Y25.3249 
G01 X39.4690 Y25.4011 
G01 X39.6048 Y25.4998 
G01 X39.7235 Y25.6185 
G01 X39.8222 Y25.7543 
G01 X39.8984 Y25.9039 
G01 X39.9502 Y26.0636 
G01 X39.9765 Y26.2294 
G00 Z2.0000 
G00 X44.2275 Y26.2294 
G01 Z-0.1000 F600.00 
G01 X44.2275 Y28.3785 
G01 X44.2012 Y28.5443 
G01 X44.1494 Y28.7040 
G01 X44.0732 Y28.8536 
G01 X43.9745 Y28.9894 
G01 X43.8558 Y29.1081 
G01 X43.7200 Y29.2068 
G01 X43.5704 Y29.2830 
G01 X43.4107 Y29.3348 
G01 X43.2449 Y29.3611 
G01 X43.0770 Y29.3611 
G01 X42.9112 Y29.3348 
G01 X42.7515 Y29.2830 
G01 X42.6019 Y29.2068 
G01 X42.4661 Y29.1081 
G01 X42.3474 Y28.9894 
G01 X42.2487 Y28.8536 
G01 X42.1725 Y28.7040 
G01 X42.1207 Y28.5443 
G01 X42.0944 Y28.3785 
G01 X42.0944 Y26.2294 
G01 X42.1207 Y26.0636 
G01 X42.1725 Y25.9039 
G01 X42.2487 Y25.7543 
G01 X42.3474 Y25.6185 
G01 X42.4661 Y25.4998 
G01 X42.6019 Y25.4011 
G01 X42.7515 Y25.3249 
G01 X42.9112 Y25.2731 
G01 X43.0770 Y25.2468 
G01 X43.2449 Y25.2468 
G01 X43.4107 Y25.2731 
G01 X43.5704 Y25.3249 
G01 X43.7200 Y25.4011 
G01 X43.8558 Y25.4998 
G01 X43.9745 Y25.6185 
G01 X44.0732 Y25.7543 
G01 X44.1494 Y25.9039 
G01 X44.2012 Y26.0636 
G01 X44.2275 Y26.2294 
G00 Z2.0000 
G00 X23.0535 Y12.3881 
G01 Z-0.1000 F600.00 
G01 X23.0535 Y12.5646 
G01 X23.0191 Y12.7375 
G01 X22.9516 Y12.9004 
G01 X22.8537 Y13.0470 
G01 X22.7290 Y13.1717 
G01 X22.5824 Y13.2696 
G01 X22.4195 Y13.3371 
G01 X22.2466 Y13.3715 
G01 X22.0701 Y13.3715 
G01 X21.8972 Y13.3371 
G01 X21.7343 Y13.2696 
G01 X21.5877 Y13.1717 
G01 X21.4630 Y13.0470 
G01 X21.3651 Y12.9004 
G01 X21.2976 Y12.7375 
G01 X21.2632 Y12.5646 
G01 X21.2632 Y12.3881 
G01 X21.2976 Y12.2152 
G01 X21.3651 Y12.0523 
G01 X21.4630 Y11.9057 
G01 X21.5877 Y11.7810 
G01 X21.7343 Y11.6831 
G01 X21.8972 Y11.6156 
G01 X22.0701 Y11.5812 
G01 X22.2466 Y11.5812 
G01 X22.4195 Y11.6156 
G01 X22.5824 Y11.6831 
G01 X22.7290 Y11.7810 
G01 X22.8537 Y11.9057 
G01 X22.9516 Y12.0523 
G01 X23.0191 Y12.2152 
G01 X23.0535 Y12.3881 
G00 Z2.0000 
G00 X25.8221 Y12.3881 
G01 Z-0.1000 F600.00 
G01 X25.8221 Y12.5646 
G01 X25.7877 Y12.7375 
G01 X25.7202 Y12.9004 
G01 X25.6223 Y13.0470 
G01 X25.4976 Y13.1717 
G01 X25.3510 Y13.2696 
G01 X25.1881 Y13.3371 
G01 X25.0152 Y13.3715 
G01 X24.8387 Y13.3715 
G01 X24.6658 Y13.3371 
G01 X24.5029 Y13.2696 
G01 X24.3563 Y13.1717 
G01 X24.2316 Y13.0470 
G01 X24.1337 Y12.9004 
G01 X24.0662 Y12.7375 
G01 X24.0318 Y12.5646 
G01 X24.0318 Y12.3881 
G01 X24.0662 Y12.2152 
G01 X24.1337 Y12.0523 
G01 X24.2316 Y11.9057 
G01 X24.3563 Y11.7810 
G01 X24.5029 Y11.6831 
G01 X24.6658 Y11.6156 
G01 X24.8387 Y11.5812 
G01 X25.0152 Y11.5812 
G01 X25.1881 Y11.6156 
G01 X25.3510 Y11.6831 
G01 X25.4976 Y11.7810 
G01 X25.6223 Y11.9057 
G01 X25.7202 Y12.0523 
G01 X25.7877 Y12.2152 
G01 X25.8221 Y12.3881 
G00 Z2.0000 
G00 X28.5907 Y12.3881 
G01 Z-0.1000 F600.00 
G01 X28.5907 Y12.5646 
G01 X28.5563 Y12.7375 
G01 X28.4888 Y12.9004 
G01 X28.3909 Y13.0470 
G01 X28.2662 Y13.1717 
G01 X28.1196 Y13.2696 
G01 X27.9567 Y13.3371 
G01 X27.7838 Y13.3715 
G01 X27.6073 Y13.3715 
G01 X27.4344 Y13.3371 
G01 X27.2715 Y13.2696 
G01 X27.1249 Y13.1717 
G01 X27.0002 Y13.0470 
G01 X26.9023 Y12.9004 
G01 X26.8348 Y12.7375 
G01 X26.8004 Y12.5646 
G01 X26.8004 Y12.3881 
G01 X26.8348 Y12.2152 
G01 X26.9023 Y12.0523 
G01 X27.0002 Y11.9057 
G01 X27.1249 Y11.7810 
G01 X27.2715 Y11.6831 
G01 X27.4344 Y11.6156 
G01 X27.6073 Y11.5812 
G01 X27.7838 Y11.5812 
G01 X27.9567 Y11.6156 
G01 X28.1196 Y11.6831 
G01 X28.2662 Y11.7810 
G01 X28.3909 Y11.9057 
G01 X28.4888 Y12.0523 
G01 X28.5563 Y12.2152 
G01 X28.5907 Y12.3881 
G00 Z2.0000 
G00 X31.3593 Y12.3881 
G01 Z-0.1000 F600.00 
G01 X31.3593 Y12.5646 
G01 X31.3249 Y12.7375 
G01 X31.2574 Y12.9004 
G01 X31.1595 Y13.0470 
G01 X31.0348 Y13.1717 
G01 X30.8882 Y13.2696 
G01 X30.7253 Y13.3371 
G01 X30.5524 Y13.3715 
G01 X30.3759 Y13.3715 
G01 X30.2030 Y13.3371 
G01 X30.0401 Y13.2696 
G01 X29.8935 Y13.1717 
G01 X29.7688 Y13.0470 
G01 X29.6709 Y12.9004 
G01 X29.6034 Y12.7375 
G01 X29.5690 Y12.5646 
G01 X29.5690 Y12.3881 
G01 X29.6034 Y12.2152 
G01 X29.6709 Y12.0523 
G01 X29.7688 Y11.9057 
G01 X29.8935 Y11.7810 
G01 X30.0401 Y11.6831 
G01 X30.2030 Y11.6156 
G01 X30.3759 Y11.5812 
G01 X30.5524 Y11.5812 
G01 X30.7253 Y11.6156 
G01 X30.8882 Y11.6831 
G01 X31.0348 Y11.7810 
G01 X31.1595 Y11.9057 
G01 X31.2574 Y12.0523 
G01 X31.3249 Y12.2152 
G01 X31.3593 Y12.3881 
G00 Z2.0000 
G00 X34.1279 Y12.3881 
G01 Z-0.1000 F600.00 
G01 X34.1279 Y12.5646 
G01 X34.0935 Y12.7375 
G01 X34.0260 Y12.9004 
G01 X33.9281 Y13.0470 
G01 X33.8034 Y13.1717 
G01 X33.6568 Y13.2696 
G01 X33.4939 Y13.3371 
G01 X33.3210 Y13.3715 
G01 X33.1445 Y13.3715 
G01 X32.9716 Y13.3371 
G01 X32.8087 Y13.2696 
G01 X32.6621 Y13.1717 
G01 X32.5374 Y13.0470 
G01 X32.4395 Y12.9004 
G01 X32.3720 Y12.7375 
G01 X32.3376 Y12.5646 
G01 X32.3376 Y12.3881 
G01 X32.3720 Y12.2152 
G01 X32.4395 Y12.0523 
G01 X32.5374 Y11.9057 
G01 X32.6621 Y11.7810 
G01 X32.8087 Y11.6831 
G01 X32.9716 Y11.6156 
G01 X33.1445 Y11.5812 
G01 X33.3210 Y11.5812 
G01 X33.4939 Y11.6156 
G01 X33.6568 Y11.6831 
G01 X33.8034 Y11.7810 
G01 X33.9281 Y11.9057 
G01 X34.0260 Y12.0523 
G01 X34.0935 Y12.2152 
G01 X34.1279 Y12.3881 
G00 Z2.0000 
G00 X36.8965 Y12.3881 
G01 Z-0.1000 F600.00 
G01 X36.8965 Y12.5646 
G01 X36.8621 Y12.7375 
G01 X36.7946 Y12.9004 
G01 X36.6967 Y13.0470 
G01 X36.5720 Y13.1717 
G01 X36.4254 Y13.2696 
G01 X36.2625 Y13.3371 
G01 X36.0896 Y13.3715 
G01 X35.9131 Y13.3715 
G01 X35.7402 Y13.3371 
G01 X35.5773 Y13.2696 
G01 X35.4307 Y13.1717 
G01 X35.3060 Y13.0470 
G01 X35.2081 Y12.9004 
G01 X35.1406 Y12.7375 
G01 X35.1062 Y12.5646 
G01 X35.1062 Y12.3881 
G01 X35.1406 Y12.2152 
G01 X35.2081 Y12.0523 
G01 X35.3060 Y11.9057 
G01 X35.4307 Y11.7810 
G01 X35.5773 Y11.6831 
G01 X35.7402 Y11.6156 
G01 X35.9131 Y11.5812 
G01 X36.0896 Y11.5812 
G01 X36.2625 Y11.6156 
G01 X36.4254 Y11.6831 
G01 X36.5720 Y11.7810 
G01 X36.6967 Y11.9057 
G01 X36.7946 Y12.0523 
G01 X36.8621 Y12.2152 
G01 X36.8965 Y12.3881 
G00 Z2.0000 
G00 X39.6651 Y12.3881 
G01 Z-0.1000 F600.00 
G01 X39.6651 Y12.5646 
G01 X39.6307 Y12.7375 
G01 X39.5632 Y12.9004 
G01 X39.4653 Y13.0470 
G01 X39.3406 Y13.1717 
G01 X39.1940 Y13.2696 
G01 X39.0311 Y13.3371 
G01 X38.8582 Y13.3715 
G01 X38.6817 Y13.3715 
G01 X38.5088 Y13.3371 
G01 X38.3459 Y13.2696 
G01 X38.1993 Y13.1717 
G01 X38.0746 Y13.0470 
G01 X37.9767 Y12.9004 
G01 X37.9092 Y12.7375 
G01 X37.8748 Y12.5646 
G01 X37.8748 Y12.3881 
G01 X37.9092 Y12.2152 
G01 X37.9767 Y12.0523 
G01 X38.0746 Y11.9057 
G01 X38.1993 Y11.7810 
G01 X38.3459 Y11.6831 
G01 X38.5088 Y11.6156 
G01 X38.6817 Y11.5812 
G01 X38.8582 Y11.5812 
G01 X39.0311 Y11.6156 
G01 X39.1940 Y11.6831 
G01 X39.3406 Y11.7810 
G01 X39.4653 Y11.9057 
G01 X39.5632 Y12.0523 
G01 X39.6307 Y12.2152 
G01 X39.6651 Y12.3881 
G00 Z2.0000 
G00 X42.4337 Y12.3881 
G01 Z-0.1000 F600.00 
G01 X42.4337 Y12.5646 
G01 X42.3993 Y12.7375 
G01 X42.3318 Y12.9004 
G01 X42.2339 Y13.0470 
G01 X42.1092 Y13.1717 
G01 X41.9626 Y13.2696 
G01 X41.7997 Y13.3371 
G01 X41.6268 Y13.3715 
G01 X41.4503 Y13.3715 
G01 X41.2774 Y13.3371 
G01 X41.1145 Y13.2696 
G01 X40.9679 Y13.1717 
G01 X40.8432 Y13.0470 
G01 X40.7453 Y12.9004 
G01 X40.6778 Y12.7375 
G01 X40.6434 Y12.5646 
G01 X40.6434 Y12.3881 
G01 X40.6778 Y12.2152 
G01 X40.7453 Y12.0523 
G01 X40.8432 Y11.9057 
G01 X40.9679 Y11.7810 
G01 X41.1145 Y11.6831 
G01 X41.2774 Y11.6156 
G01 X41.4503 Y11.5812 
G01 X41.6268 Y11.5812 
G01 X41.7997 Y11.6156 
G01 X41.9626 Y11.6831 
G01 X42.1092 Y11.7810 
G01 X42.2339 Y11.9057 
G01 X42.3318 Y12.0523 
G01 X42.3993 Y12.2152 
G01 X42.4337 Y12.3881 
G00 Z2.0000 
G00 X45.2023 Y12.3881 
G01 Z-0.1000 F600.00 
G01 X45.2023 Y12.5646 
G01 X45.1679 Y12.7375 
G01 X45.1004 Y12.9004 
G01 X45.0025 Y13.0470 
G01 X44.8778 Y13.1717 
G01 X44.7312 Y13.2696 
G01 X44.5683 Y13.3371 
G01 X44.3954 Y13.3715 
G01 X44.2189 Y13.3715 
G01 X44.0460 Y13.3371 
G01 X43.8831 Y13.2696 
G01 X43.7365 Y13.1717 
G01 X43.6118 Y13.0470 
G01 X43.5139 Y12.9004 
G01 X43.4464 Y12.7375 
G01 X43.4120 Y12.5646 
G01 X43.4120 Y12.3881 
G01 X43.4464 Y12.2152 
G01 X43.5139 Y12.0523 
G01 X43.6118 Y11.9057 
G01 X43.7365 Y11.7810 
G01 X43.8831 Y11.6831 
G01 X44.0460 Y11.6156 
G01 X44.2189 Y11.5812 
G01 X44.3954 Y11.5812 
G01 X44.5683 Y11.6156 
G01 X44.7312 Y11.6831 
G01 X44.8778 Y11.7810 
G01 X45.0025 Y11.9057 
G01 X45.1004 Y12.0523 
G01 X45.1679 Y12.2152 
G01 X45.2023 Y12.3881 
G00 Z2.0000 
G00 X47.9709 Y12.3881 
G01 Z-0.1000 F600.00 
G01 X47.9709 Y12.5646 
G01 X47.9365 Y12.7375 
G01 X47.8690 Y12.9004 
G01 X47.7711 Y13.0470 
G01 X47.6464 Y13.1717 
G01 X47.4998 Y13.2696 
G01 X47.3369 Y13.3371 
G01 X47.1640 Y13.3715 
G01 X46.9875 Y13.3715 
G01 X46.8146 Y13.3371 
G01 X46.6517 Y13.2696 
G01 X46.5051 Y13.1717 
G01 X46.3804 Y13.0470 
G01 X46.2825 Y12.9004 
G01 X46.2150 Y12.7375 
G01 X46.1806 Y12.5646 
G01 X46.1806 Y12.3881 
G01 X46.2150 Y12.2152 
G01 X46.2825 Y12.0523 
G01 X46.3804 Y11.9057 
G01 X46.5051 Y11.7810 
G01 X46.6517 Y11.6831 
G01 X46.8146 Y11.6156 
G01 X46.9875 Y11.5812 
G01 X47.1640 Y11.5812 
G01 X47.3369 Y11.6156 
G01 X47.4998 Y11.6831 
G01 X47.6464 Y11.7810 
G01 X47.7711 Y11.9057 
G01 X47.8690 Y12.0523 
G01 X47.9365 Y12.2152 
G01 X47.9709 Y12.3881 
G00 Z2.0000 
G00 X50.7395 Y12.3881 
G01 Z-0.1000 F600.00 
G01 X50.7395 Y12.5646 
G01 X50.7051 Y12.7375 
G01 X50.6376 Y12.9004 
G01 X50.5397 Y13.0470 
G01 X50.4150 Y13.1717 
G01 X50.2684 Y13.2696 
G01 X50.1055 Y13.3371 
G01 X49.9326 Y13.3715 
G01 X49.7561 Y13.3715 
G01 X49.5832 Y13.3371 
G01 X49.4203 Y13.2696 
G01 X49.2737 Y13.1717 
G01 X49.1490 Y13.0470 
G01 X49.0511 Y12.9004 
G01 X48.9836 Y12.7375 
G01 X48.9492 Y12.5646 
G01 X48.9492 Y12.3881 
G01 X48.9836 Y12.2152 
G01 X49.0511 Y12.0523 
G01 X49.1490 Y11.9057 
G01 X49.2737 Y11.7810 
G01 X49.4203 Y11.6831 
G01 X49.5832 Y11.6156 
G01 X49.7561 Y11.5812 
G01 X49.9326 Y11.5812 
G01 X50.1055 Y11.6156 
G01 X50.2684 Y11.6831 
G01 X50.4150 Y11.7810 
G01 X50.5397 Y11.9057 
G01 X50.6376 Y12.0523 
G01 X50.7051 Y12.2152 
G01 X50.7395 Y12.3881 
G00 Z2.0000 
G00 X53.5081 Y12.3881 
G01 Z-0.1000 F600.00 
G01 X53.5081 Y12.5646 
G01 X53.4737 Y12.7375 
G01 X53.4062 Y12.9004 
G01 X53.3083 Y13.0470 
G01 X53.1836 Y13.1717 
G01 X53.0370 Y13.2696 
G01 X52.8741 Y13.3371 
G01 X52.7012 Y13.3715 
G01 X52.5247 Y13.3715 
G01 X52.3518 Y13.3371 
G01 X52.1889 Y13.2696 
G01 X52.0423 Y13.1717 
G01 X51.9176 Y13.0470 
G01 X51.8197 Y12.9004 
G01 X51.7522 Y12.7375 
G01 X51.7178 Y12.5646 
G01 X51.7178 Y12.3881 
G01 X51.7522 Y12.2152 
G01 X51.8197 Y12.0523 
G01 X51.9176 Y11.9057 
G01 X52.0423 Y11.7810 
G01 X52.1889 Y11.6831 
G01 X52.3518 Y11.6156 
G01 X52.5247 Y11.5812 
G01 X52.7012 Y11.5812 
G01 X52.8741 Y11.6156 
G01 X53.0370 Y11.6831 
G01 X53.1836 Y11.7810 
G01 X53.3083 Y11.9057 
G01 X53.4062 Y12.0523 
G01 X53.4737 Y12.2152 
G01 X53.5081 Y12.3881 
G00 Z2.0000 
G00 X56.2767 Y12.3881 
G01 Z-0.1000 F600.00 
G01 X56.2767 Y12.5646 
G01 X56.2423 Y12.7375 
G01 X56.1748 Y12.9004 
G01 X56.0769 Y13.0470 
G01 X55.9522 Y13.1717 
G01 X55.8056 Y13.2696 
G01 X55.6427 Y13.3371 
G01 X55.4698 Y13.3715 
G01 X55.2933 Y13.3715 
G01 X55.1204 Y13.3371 
G01 X54.9575 Y13.2696 
G01 X54.8109 Y13.1717 
G01 X54.6862 Y13.0470 
G01 X54.5883 Y12.9004 
G01 X54.5208 Y12.7375 
G01 X54.4864 Y12.5646 
G01 X54.4864 Y12.3881 
G01 X54.5208 Y12.2152 
G01 X54.5883 Y12.0523 
G01 X54.6862 Y11.9057 
G01 X54.8109 Y11.7810 
G01 X54.9575 Y11.6831 
G01 X55.1204 Y11.6156 
G01 X55.2933 Y11.5812 
G01 X55.4698 Y11.5812 
G01 X55.6427 Y11.6156 
G01 X55.8056 Y11.6831 
G01 X55.9522 Y11.7810 
G01 X56.0769 Y11.9057 
G01 X56.1748 Y12.0523 
G01 X56.2423 Y12.2152 
G01 X56.2767 Y12.3881 
G00 Z2.0000 
G00 X24.4378 Y9.5433 
G01 Z-0.1000 F600.00 
G01 X24.4378 Y9.7198 
G01 X24.4034 Y9.8927 
G01 X24.3359 Y10.0556 
G01 X24.2380 Y10.2022 
G01 X24.1133 Y10.3269 
G01 X23.9667 Y10.4248 
G01 X23.8038 Y10.4923 
G01 X23.6309 Y10.5267 
G01 X23.4544 Y10.5267 
G01 X23.2815 Y10.4923 
G01 X23.1186 Y10.4248 
G01 X22.9720 Y10.3269 
G01 X22.8473 Y10.2022 
G01 X22.7494 Y10.0556 
G01 X22.6819 Y9.8927 
G01 X22.6475 Y9.7198 
G01 X22.6475 Y9.5433 
G01 X22.6819 Y9.3704 
G01 X22.7494 Y9.2075 
G01 X22.8473 Y9.0609 
G01 X22.9720 Y8.9362 
G01 X23.1186 Y8.8383 
G01 X23.2815 Y8.7708 
G01 X23.4544 Y8.7364 
G01 X23.6309 Y8.7364 
G01 X23.8038 Y8.7708 
G01 X23.9667 Y8.8383 
G01 X24.1133 Y8.9362 
G01 X24.2380 Y9.0609 
G01 X24.3359 Y9.2075 
G01 X24.4034 Y9.3704 
G01 X24.4378 Y9.5433 
G00 Z2.0000 
G00 X27.2064 Y9.5433 
G01 Z-0.1000 F600.00 
G01 X27.2064 Y9.7198 
G01 X27.1720 Y9.8927 
G01 X27.1045 Y10.0556 
G01 X27.0066 Y10.2022 
G01 X26.8819 Y10.3269 
G01 X26.7353 Y10.4248 
G01 X26.5724 Y10.4923 
G01 X26.3995 Y10.5267 
G01 X26.2230 Y10.5267 
G01 X26.0501 Y10.4923 
G01 X25.8872 Y10.4248 
G01 X25.7406 Y10.3269 
G01 X25.6159 Y10.2022 
G01 X25.5180 Y10.0556 
G01 X25.4505 Y9.8927 
G01 X25.4161 Y9.7198 
G01 X25.4161 Y9.5433 
G01 X25.4505 Y9.3704 
G01 X25.5180 Y9.2075 
G01 X25.6159 Y9.0609 
G01 X25.7406 Y8.9362 
G01 X25.8872 Y8.8383 
G01 X26.0501 Y8.7708 
G01 X26.2230 Y8.7364 
G01 X26.3995 Y8.7364 
G01 X26.5724 Y8.7708 
G01 X26.7353 Y8.8383 
G01 X26.8819 Y8.9362 
G01 X27.0066 Y9.0609 
G01 X27.1045 Y9.2075 
G01 X27.1720 Y9.3704 
G01 X27.2064 Y9.5433 
G00 Z2.0000 
G00 X29.9750 Y9.5433 
G01 Z-0.1000 F600.00 
G01 X29.9750 Y9.7198 
G01 X29.9406 Y9.8927 
G01 X29.8731 Y10.0556 
G01 X29.7752 Y10.2022 
G01 X29.6505 Y10.3269 
G01 X29.5039 Y10.4248 
G01 X29.3410 Y10.4923 
G01 X29.1681 Y10.5267 
G01 X28.9916 Y10.5267 
G01 X28.8187 Y10.4923 
G01 X28.6558 Y10.4248 
G01 X28.5092 Y10.3269 
G01 X28.3845 Y10.2022 
G01 X28.2866 Y10.0556 
G01 X28.2191 Y9.8927 
G01 X28.1847 Y9.7198 
G01 X28.1847 Y9.5433 
G01 X28.2191 Y9.3704 
G01 X28.2866 Y9.2075 
G01 X28.3845 Y9.0609 
G01 X28.5092 Y8.9362 
G01 X28.6558 Y8.8383 
G01 X28.8187 Y8.7708 
G01 X28.9916 Y8.7364 
G01 X29.1681 Y8.7364 
G01 X29.3410 Y8.7708 
G01 X29.5039 Y8.8383 
G01 X29.6505 Y8.9362 
G01 X29.7752 Y9.0609 
G01 X29.8731 Y9.2075 
G01 X29.9406 Y9.3704 
G01 X29.9750 Y9.5433 
G00 Z2.0000 
G00 X32.7436 Y9.5433 
G01 Z-0.1000 F600.00 
G01 X32.7436 Y9.7198 
G01 X32.7092 Y9.8927 
G01 X32.6417 Y10.0556 
G01 X32.5438 Y10.2022 
G01 X32.4191 Y10.3269 
G01 X32.2725 Y10.4248 
G01 X32.1096 Y10.4923 
G01 X31.9367 Y10.5267 
G01 X31.7602 Y10.5267 
G01 X31.5873 Y10.4923 
G01 X31.4244 Y10.4248 
G01 X31.2778 Y10.3269 
G01 X31.1531 Y10.2022 
G01 X31.0552 Y10.0556 
G01 X30.9877 Y9.8927 
G01 X30.9533 Y9.7198 
G01 X30.9533 Y9.5433 
G01 X30.9877 Y9.3704 
G01 X31.0552 Y9.2075 
G01 X31.1531 Y9.0609 
G01 X31.2778 Y8.9362 
G01 X31.4244 Y8.8383 
G01 X31.5873 Y8.7708 
G01 X31.7602 Y8.7364 
G01 X31.9367 Y8.7364 
G01 X32.1096 Y8.7708 
G01 X32.2725 Y8.8383 
G01 X32.4191 Y8.9362 
G01 X32.5438 Y9.0609 
G01 X32.6417 Y9.2075 
G01 X32.7092 Y9.3704 
G01 X32.7436 Y9.5433 
G00 Z2.0000 
G00 X35.5122 Y9.5433 
G01 Z-0.1000 F600.00 
G01 X35.5122 Y9.7198 
G01 X35.4778 Y9.8927 
G01 X35.4103 Y10.0556 
G01 X35.3124 Y10.2022 
G01 X35.1877 Y10.3269 
G01 X35.0411 Y10.4248 
G01 X34.8782 Y10.4923 
G01 X34.7053 Y10.5267 
G01 X34.5288 Y10.5267 
G01 X34.3559 Y10.4923 
G01 X34.1930 Y10.4248 
G01 X34.0464 Y10.3269 
G01 X33.9217 Y10.2022 
G01 X33.8238 Y10.0556 
G01 X33.7563 Y9.8927 
G01 X33.7219 Y9.7198 
G01 X33.7219 Y9.5433 
G01 X33.7563 Y9.3704 
G01 X33.8238 Y9.2075 
G01 X33.9217 Y9.0609 
G01 X34.0464 Y8.9362 
G01 X34.1930 Y8.8383 
G01 X34.3559 Y8.7708 
G01 X34.5288 Y8.7364 
G01 X34.7053 Y8.7364 
G01 X34.8782 Y8.7708 
G01 X35.0411 Y8.8383 
G01 X35.1877 Y8.9362 
G01 X35.3124 Y9.0609 
G01 X35.4103 Y9.2075 
G01 X35.4778 Y9.3704 
G01 X35.5122 Y9.5433 
G00 Z2.0000 
G00 X38.2808 Y9.5433 
G01 Z-0.1000 F600.00 
G01 X38.2808 Y9.7198 
G01 X38.2464 Y9.8927 
G01 X38.1789 Y10.0556 
G01 X38.0810 Y10.2022 
G01 X37.9563 Y10.3269 
G01 X37.8097 Y10.4248 
G01 X37.6468 Y10.4923 
G01 X37.4739 Y10.5267 
G01 X37.2974 Y10.5267 
G01 X37.1245 Y10.4923 
G01 X36.9616 Y10.4248 
G01 X36.8150 Y10.3269 
G01 X36.6903 Y10.2022 
G01 X36.5924 Y10.0556 
G01 X36.5249 Y9.8927 
G01 X36.4905 Y9.7198 
G01 X36.4905 Y9.5433 
G01 X36.5249 Y9.3704 
G01 X36.5924 Y9.2075 
G01 X36.6903 Y9.0609 
G01 X36.8150 Y8.9362 
G01 X36.9616 Y8.8383 
G01 X37.1245 Y8.7708 
G01 X37.2974 Y8.7364 
G01 X37.4739 Y8.7364 
G01 X37.6468 Y8.7708 
G01 X37.8097 Y8.8383 
G01 X37.9563 Y8.9362 
G01 X38.0810 Y9.0609 
G01 X38.1789 Y9.2075 
G01 X38.2464 Y9.3704 
G01 X38.2808 Y9.5433 
G00 Z2.0000 
G00 X41.0494 Y9.5433 
G01 Z-0.1000 F600.00 
G01 X41.0494 Y9.7198 
G01 X41.0150 Y9.8927 
G01 X40.9475 Y10.0556 
G01 X40.8496 Y10.2022 
G01 X40.7249 Y10.3269 
G01 X40.5783 Y10.4248 
G01 X40.4154 Y10.4923 
G01 X40.2425 Y10.5267 
G01 X40.0660 Y10.5267 
G01 X39.8931 Y10.4923 
G01 X39.7302 Y10.4248 
G01 X39.5836 Y10.3269 
G01 X39.4589 Y10.2022 
G01 X39.3610 Y10.0556 
G01 X39.2935 Y9.8927 
G01 X39.2591 Y9.7198 
G01 X39.2591 Y9.5433 
G01 X39.2935 Y9.3704 
G01 X39.3610 Y9.2075 
G01 X39.4589 Y9.0609 
G01 X39.5836 Y8.9362 
G01 X39.7302 Y8.8383 
G01 X39.8931 Y8.7708 
G01 X40.0660 Y8.7364 
G01 X40.2425 Y8.7364 
G01 X40.4154 Y8.7708 
G01 X40.5783 Y8.8383 
G01 X40.7249 Y8.9362 
G01 X40.8496 Y9.0609 
G01 X40.9475 Y9.2075 
G01 X41.0150 Y9.3704 
G01 X41.0494 Y9.5433 
G00 Z2.0000 
G00 X43.8180 Y9.5433 
G01 Z-0.1000 F600.00 
G01 X43.8180 Y9.7198 
G01 X43.7836 Y9.8927 
G01 X43.7161 Y10.0556 
G01 X43.6182 Y10.2022 
G01 X43.4935 Y10.3269 
G01 X43.3469 Y10.4248 
G01 X43.1840 Y10.4923 
G01 X43.0111 Y10.5267 
G01 X42.8346 Y10.5267 
G01 X42.6617 Y10.4923 
G01 X42.4988 Y10.4248 
G01 X42.3522 Y10.3269 
G01 X42.2275 Y10.2022 
G01 X42.1296 Y10.0556 
G01 X42.0621 Y9.8927 
G01 X42.0277 Y9.7198 
G01 X42.0277 Y9.5433 
G01 X42.0621 Y9.3704 
G01 X42.1296 Y9.2075 
G01 X42.2275 Y9.0609 
G01 X42.3522 Y8.9362 
G01 X42.4988 Y8.8383 
G01 X42.6617 Y8.7708 
G01 X42.8346 Y8.7364 
G01 X43.0111 Y8.7364 
G01 X43.1840 Y8.7708 
G01 X43.3469 Y8.8383 
G01 X43.4935 Y8.9362 
G01 X43.6182 Y9.0609 
G01 X43.7161 Y9.2075 
G01 X43.7836 Y9.3704 
G01 X43.8180 Y9.5433 
G00 Z2.0000 
G00 X46.5866 Y9.5433 
G01 Z-0.1000 F600.00 
G01 X46.5866 Y9.7198 
G01 X46.5522 Y9.8927 
G01 X46.4847 Y10.0556 
G01 X46.3868 Y10.2022 
G01 X46.2621 Y10.3269 
G01 X46.1155 Y10.4248 
G01 X45.9526 Y10.4923 
G01 X45.7797 Y10.5267 
G01 X45.6032 Y10.5267 
G01 X45.4303 Y10.4923 
G01 X45.2674 Y10.4248 
G01 X45.1208 Y10.3269 
G01 X44.9961 Y10.2022 
G01 X44.8982 Y10.0556 
G01 X44.8307 Y9.8927 
G01 X44.7963 Y9.7198 
G01 X44.7963 Y9.5433 
G01 X44.8307 Y9.3704 
G01 X44.8982 Y9.2075 
G01 X44.9961 Y9.0609 
G01 X45.1208 Y8.9362 
G01 X45.2674 Y8.8383 
G01 X45.4303 Y8.7708 
G01 X45.6032 Y8.7364 
G01 X45.7797 Y8.7364 
G01 X45.9526 Y8.7708 
G01 X46.1155 Y8.8383 
G01 X46.2621 Y8.9362 
G01 X46.3868 Y9.0609 
G01 X46.4847 Y9.2075 
G01 X46.5522 Y9.3704 
G01 X46.5866 Y9.5433 
G00 Z2.0000 
G00 X49.3552 Y9.5433 
G01 Z-0.1000 F600.00 
G01 X49.3552 Y9.7198 
G01 X49.3208 Y9.8927 
G01 X49.2533 Y10.0556 
G01 X49.1554 Y10.2022 
G01 X49.0307 Y10.3269 
G01 X48.8841 Y10.4248 
G01 X48.7212 Y10.4923 
G01 X48.5483 Y10.5267 
G01 X48.3718 Y10.5267 
G01 X48.1989 Y10.4923 
G01 X48.0360 Y10.4248 
G01 X47.8894 Y10.3269 
G01 X47.7647 Y10.2022 
G01 X47.6668 Y10.0556 
G01 X47.5993 Y9.8927 
G01 X47.5649 Y9.7198 
G01 X47.5649 Y9.5433 
G01 X47.5993 Y9.3704 
G01 X47.6668 Y9.2075 
G01 X47.7647 Y9.0609 
G01 X47.8894 Y8.9362 
G01 X48.0360 Y8.8383 
G01 X48.1989 Y8.7708 
G01 X48.3718 Y8.7364 
G01 X48.5483 Y8.7364 
G01 X48.7212 Y8.7708 
G01 X48.8841 Y8.8383 
G01 X49.0307 Y8.9362 
G01 X49.1554 Y9.0609 
G01 X49.2533 Y9.2075 
G01 X49.3208 Y9.3704 
G01 X49.3552 Y9.5433 
G00 Z2.0000 
G00 X52.1238 Y9.5433 
G01 Z-0.1000 F600.00 
G01 X52.1238 Y9.7198 
G01 X52.0894 Y9.8927 
G01 X52.0219 Y10.0556 
G01 X51.9240 Y10.2022 
G01 X51.7993 Y10.3269 
G01 X51.6527 Y10.4248 
G01 X51.4898 Y10.4923 
G01 X51.3169 Y10.5267 
G01 X51.1404 Y10.5267 
G01 X50.9675 Y10.4923 
G01 X50.8046 Y10.4248 
G01 X50.6580 Y10.3269 
G01 X50.5333 Y10.2022 
G01 X50.4354 Y10.0556 
G01 X50.3679 Y9.8927 
G01 X50.3335 Y9.7198 
G01 X50.3335 Y9.5433 
G01 X50.3679 Y9.3704 
G01 X50.4354 Y9.2075 
G01 X50.5333 Y9.0609 
G01 X50.6580 Y8.9362 
G01 X50.8046 Y8.8383 
G01 X50.9675 Y8.7708 
G01 X51.1404 Y8.7364 
G01 X51.3169 Y8.7364 
G01 X51.4898 Y8.7708 
G01 X51.6527 Y8.8383 
G01 X51.7993 Y8.9362 
G01 X51.9240 Y9.0609 
G01 X52.0219 Y9.2075 
G01 X52.0894 Y9.3704 
G01 X52.1238 Y9.5433 
G00 Z2.0000 
G00 X54.8924 Y9.5433 
G01 Z-0.1000 F600.00 
G01 X54.8924 Y9.7198 
G01 X54.8580 Y9.8927 
G01 X54.7905 Y10.0556 
G01 X54.6926 Y10.2022 
G01 X54.5679 Y10.3269 
G01 X54.4213 Y10.4248 
G01 X54.2584 Y10.4923 
G01 X54.0855 Y10.5267 
G01 X53.9090 Y10.5267 
G01 X53.7361 Y10.4923 
G01 X53.5732 Y10.4248 
G01 X53.4266 Y10.3269 
G01 X53.3019 Y10.2022 
G01 X53.2040 Y10.0556 
G01 X53.1365 Y9.8927 
G01 X53.1021 Y9.7198 
G01 X53.1021 Y9.5433 
G01 X53.1365 Y9.3704 
G01 X53.2040 Y9.2075 
G01 X53.3019 Y9.0609 
G01 X53.4266 Y8.9362 
G01 X53.5732 Y8.8383 
G01 X53.7361 Y8.7708 
G01 X53.9090 Y8.7364 
G01 X54.0855 Y8.7364 
G01 X54.2584 Y8.7708 
G01 X54.4213 Y8.8383 
G01 X54.5679 Y8.9362 
G01 X54.6926 Y9.0609 
G01 X54.7905 Y9.2075 
G01 X54.8580 Y9.3704 
G01 X54.8924 Y9.5433 
G00 Z2.0000 
G00 X48.4785 Y26.2294 
G01 Z-0.1000 F600.00 
G01 X48.4785 Y28.3785 
G01 X48.4522 Y28.5443 
G01 X48.4004 Y28.7040 
G01 X48.3242 Y28.8536 
G01 X48.2255 Y28.9894 
G01 X48.1068 Y29.1081 
G01 X47.9710 Y29.2068 
G01 X47.8214 Y29.2830 
G01 X47.6617 Y29.3348 
G01 X47.4959 Y29.3611 
G01 X47.3280 Y29.3611 
G01 X47.1622 Y29.3348 
G01 X47.0025 Y29.2830 
G01 X46.8529 Y29.2068 
G01 X46.7171 Y29.1081 
G01 X46.5984 Y28.9894 
G01 X46.4997 Y28.8536 
G01 X46.4235 Y28.7040 
G01 X46.3717 Y28.5443 
G01 X46.3454 Y28.3785 
G01 X46.3454 Y26.2294 
G01 X46.3717 Y26.0636 
G01 X46.4235 Y25.9039 
G01 X46.4997 Y25.7543 
G01 X46.5984 Y25.6185 
G01 X46.7171 Y25.4998 
G01 X46.8529 Y25.4011 
G01 X47.0025 Y25.3249 
G01 X47.1622 Y25.2731 
G01 X47.3280 Y25.2468 
G01 X47.4959 Y25.2468 
G01 X47.6617 Y25.2731 
G01 X47.8214 Y25.3249 
G01 X47.9710 Y25.4011 
G01 X48.1068 Y25.4998 
G01 X48.2255 Y25.6185 
G01 X48.3242 Y25.7543 
G01 X48.4004 Y25.9039 
G01 X48.4522 Y26.0636 
G01 X48.4785 Y26.2294 
G00 Z2.0000 
G00 X52.7295 Y26.2294 
G01 Z-0.1000 F600.00 
G01 X52.7295 Y28.3785 
G01 X52.7032 Y28.5443 
G01 X52.6514 Y28.7040 
G01 X52.5752 Y28.8536 
G01 X52.4765 Y28.9894 
G01 X52.3578 Y29.1081 
G01 X52.2220 Y29.2068 
G01 X52.0724 Y29.2830 
G01 X51.9127 Y29.3348 
G01 X51.7469 Y29.3611 
G01 X51.5790 Y29.3611 
G01 X51.4132 Y29.3348 
G01 X51.2535 Y29.2830 
G01 X51.1039 Y29.2068 
G01 X50.9681 Y29.1081 
G01 X50.8494 Y28.9894 
G01 X50.7507 Y28.8536 
G01 X50.6745 Y28.7040 
G01 X50.6227 Y28.5443 
G01 X50.5964 Y28.3785 
G01 X50.5964 Y26.2294 
G01 X50.6227 Y26.0636 
G01 X50.6745 Y25.9039 
G01 X50.7507 Y25.7543 
G01 X50.8494 Y25.6185 
G01 X50.9681 Y25.4998 
G01 X51.1039 Y25.4011 
G01 X51.2535 Y25.3249 
G01 X51.4132 Y25.2731 
G01 X51.5790 Y25.2468 
G01 X51.7469 Y25.2468 
G01 X51.9127 Y25.2731 
G01 X52.0724 Y25.3249 
G01 X52.2220 Y25.4011 
G01 X52.3578 Y25.4998 
G01 X52.4765 Y25.6185 
G01 X52.5752 Y25.7543 
G01 X52.6514 Y25.9039 
G01 X52.7032 Y26.0636 
G01 X52.7295 Y26.2294 
G00 Z2.0000 
G00 X56.9805 Y26.2294 
G01 Z-0.1000 F600.00 
G01 X56.9805 Y28.3785 
G01 X56.9542 Y28.5443 
G01 X56.9024 Y28.7040 
G01 X56.8262 Y28.8536 
G01 X56.7275 Y28.9894 
G01 X56.6088 Y29.1081 
G01 X56.4730 Y29.2068 
G01 X56.3234 Y29.2830 
G01 X56.1637 Y29.3348 
G01 X55.9979 Y29.3611 
G01 X55.8300 Y29.3611 
G01 X55.6642 Y29.3348 
G01 X55.5045 Y29.2830 
G01 X55.3549 Y29.2068 
G01 X55.2191 Y29.1081 
G01 X55.1004 Y28.9894 
G01 X55.0017 Y28.8536 
G01 X54.9255 Y28.7040 
G01 X54.8737 Y28.5443 
G01 X54.8474 Y28.3785 
G01 X54.8474 Y26.2294 
G01 X54.8737 Y26.0636 
G01 X54.9255 Y25.9039 
G01 X55.0017 Y25.7543 
G01 X55.1004 Y25.6185 
G01 X55.2191 Y25.4998 
G01 X55.3549 Y25.4011 
G01 X55.5045 Y25.3249 
G01 X55.6642 Y25.2731 
G01 X55.8300 Y25.2468 
G01 X55.9979 Y25.2468 
G01 X56.1637 Y25.2731 
G01 X56.3234 Y25.3249 
G01 X56.4730 Y25.4011 
G01 X56.6088 Y25.4998 
G01 X56.7275 Y25.6185 
G01 X56.8262 Y25.7543 
G01 X56.9024 Y25.9039 
G01 X56.9542 Y26.0636 
G01 X56.9805 Y26.2294 
G00 Z2.0000 
G00 X61.2315 Y26.2294 
G01 Z-0.1000 F600.00 
G01 X61.2315 Y28.3785 
G01 X61.2052 Y28.5443 
G01 X61.1534 Y28.7040 
G01 X61.0772 Y28.8536 
G01 X60.9785 Y28.9894 
G01 X60.8598 Y29.1081 
G01 X60.7240 Y29.2068 
G01 X60.5744 Y29.2830 
G01 X60.4147 Y29.3348 
G01 X60.2489 Y29.3611 
G01 X60.0810 Y29.3611 
G01 X59.9152 Y29.3348 
G01 X59.7555 Y29.2830 
G01 X59.6059 Y29.2068 
G01 X59.4701 Y29.1081 
G01 X59.3514 Y28.9894 
G01 X59.2527 Y28.8536 
G01 X59.1765 Y28.7040 
G01 X59.1247 Y28.5443 
G01 X59.0984 Y28.3785 
G01 X59.0984 Y26.2294 
G01 X59.1247 Y26.0636 
G01 X59.1765 Y25.9039 
G01 X59.2527 Y25.7543 
G01 X59.3514 Y25.6185 
G01 X59.4701 Y25.4998 
G01 X59.6059 Y25.4011 
G01 X59.7555 Y25.3249 
G01 X59.9152 Y25.2731 
G01 X60.0810 Y25.2468 
G01 X60.2489 Y25.2468 
G01 X60.4147 Y25.2731 
G01 X60.5744 Y25.3249 
G01 X60.7240 Y25.4011 
G01 X60.8598 Y25.4998 
G01 X60.9785 Y25.6185 
G01 X61.0772 Y25.7543 
G01 X61.1534 Y25.9039 
G01 X61.2052 Y26.0636 
G01 X61.2315 Y26.2294 
G00 Z2.0000 
G00 X65.4825 Y26.2294 
G01 Z-0.1000 F600.00 
G01 X65.4825 Y28.3785 
G01 X65.4562 Y28.5443 
G01 X65.4044 Y28.7040 
G01 X65.3282 Y28.8536 
G01 X65.2295 Y28.9894 
G01 X65.1108 Y29.1081 
G01 X64.9750 Y29.2068 
G01 X64.8254 Y29.2830 
G01 X64.6657 Y29.3348 
G01 X64.4999 Y29.3611 
G01 X64.3320 Y29.3611 
G01 X64.1662 Y29.3348 
G01 X64.0065 Y29.2830 
G01 X63.8569 Y29.2068 
G01 X63.7211 Y29.1081 
G01 X63.6024 Y28.9894 
G01 X63.5037 Y28.8536 
G01 X63.4275 Y28.7040 
G01 X63.3757 Y28.5443 
G01 X63.3494 Y28.3785 
G01 X63.3494 Y26.2294 
G01 X63.3757 Y26.0636 
G01 X63.4275 Y25.9039 
G01 X63.5037 Y25.7543 
G01 X63.6024 Y25.6185 
G01 X63.7211 Y25.4998 
G01 X63.8569 Y25.4011 
G01 X64.0065 Y25.3249 
G01 X64.1662 Y25.2731 
G01 X64.3320 Y25.2468 
G01 X64.4999 Y25.2468 
G01 X64.6657 Y25.2731 
G01 X64.8254 Y25.3249 
G01 X64.9750 Y25.4011 
G01 X65.1108 Y25.4998 
G01 X65.2295 Y25.6185 
G01 X65.3282 Y25.7543 
G01 X65.4044 Y25.9039 
G01 X65.4562 Y26.0636 
G01 X65.4825 Y26.2294 
G00 Z2.0000 
G00 X69.7335 Y26.2294 
G01 Z-0.1000 F600.00 
G01 X69.7335 Y28.3785 
G01 X69.7072 Y28.5443 
G01 X69.6554 Y28.7040 
G01 X69.5792 Y28.8536 
G01 X69.4805 Y28.9894 
G01 X69.3618 Y29.1081 
G01 X69.2260 Y29.2068 
G01 X69.0764 Y29.2830 
G01 X68.9167 Y29.3348 
G01 X68.7509 Y29.3611 
G01 X68.5830 Y29.3611 
G01 X68.4172 Y29.3348 
G01 X68.2575 Y29.2830 
G01 X68.1079 Y29.2068 
G01 X67.9721 Y29.1081 
G01 X67.8534 Y28.9894 
G01 X67.7547 Y28.8536 
G01 X67.6785 Y28.7040 
G01 X67.6267 Y28.5443 
G01 X67.6004 Y28.3785 
G01 X67.6004 Y26.2294 
G01 X67.6267 Y26.0636 
G01 X67.6785 Y25.9039 
G01 X67.7547 Y25.7543 
G01 X67.8534 Y25.6185 
G01 X67.9721 Y25.4998 
G01 X68.1079 Y25.4011 
G01 X68.2575 Y25.3249 
G01 X68.4172 Y25.2731 
G01 X68.5830 Y25.2468 
G01 X68.7509 Y25.2468 
G01 X68.9167 Y25.2731 
G01 X69.0764 Y25.3249 
G01 X69.2260 Y25.4011 
G01 X69.3618 Y25.4998 
G01 X69.4805 Y25.6185 
G01 X69.5792 Y25.7543 
G01 X69.6554 Y25.9039 
G01 X69.7072 Y26.0636 
G01 X69.7335 Y26.2294 
G00 Z2.0000 
G00 X73.9845 Y26.2294 
G01 Z-0.1000 F600.00 
G01 X73.9845 Y28.3785 
G01 X73.9582 Y28.5443 
G01 X73.9064 Y28.7040 
G01 X73.8302 Y28.8536 
G01 X73.7315 Y28.9894 
G01 X73.6128 Y29.1081 
G01 X73.4770 Y29.2068 
G01 X73.3274 Y29.2830 
G01 X73.1677 Y29.3348 
G01 X73.0019 Y29.3611 
G01 X72.8340 Y29.3611 
G01 X72.6682 Y29.3348 
G01 X72.5085 Y29.2830 
G01 X72.3589 Y29.2068 
G01 X72.2231 Y29.1081 
G01 X72.1044 Y28.9894 
G01 X72.0057 Y28.8536 
G01 X71.9295 Y28.7040 
G01 X71.8777 Y28.5443 
G01 X71.8514 Y28.3785 
G01 X71.8514 Y26.2294 
G01 X71.8777 Y26.0636 
G01 X71.9295 Y25.9039 
G01 X72.0057 Y25.7543 
G01 X72.1044 Y25.6185 
G01 X72.2231 Y25.4998 
G01 X72.3589 Y25.4011 
G01 X72.5085 Y25.3249 
G01 X72.6682 Y25.2731 
G01 X72.8340 Y25.2468 
G01 X73.0019 Y25.2468 
G01 X73.1677 Y25.2731 
G01 X73.3274 Y25.3249 
G01 X73.4770 Y25.4011 
G01 X73.6128 Y25.4998 
G01 X73.7315 Y25.6185 
G01 X73.8302 Y25.7543 
G01 X73.9064 Y25.9039 
G01 X73.9582 Y26.0636 
G01 X73.9845 Y26.2294 
G00 Z2.0000 
G00 X78.2355 Y26.2294 
G01 Z-0.1000 F600.00 
G01 X78.2355 Y28.3785 
G01 X78.2092 Y28.5443 
G01 X78.1574 Y28.7040 
G01 X78.0812 Y28.8536 
G01 X77.9825 Y28.9894 
G01 X77.8638 Y29.1081 
G01 X77.7280 Y29.2068 
G01 X77.5784 Y29.2830 
G01 X77.4187 Y29.3348 
G01 X77.2529 Y29.3611 
G01 X77.0850 Y29.3611 
G01 X76.9192 Y29.3348 
G01 X76.7595 Y29.2830 
G01 X76.6099 Y29.2068 
G01 X76.4741 Y29.1081 
G01 X76.3554 Y28.9894 
G01 X76.2567 Y28.8536 
G01 X76.1805 Y28.7040 
G01 X76.1287 Y28.5443 
G01 X76.1024 Y28.3785 
G01 X76.1024 Y26.2294 
G01 X76.1287 Y26.0636 
G01 X76.1805 Y25.9039 
G01 X76.2567 Y25.7543 
G01 X76.3554 Y25.6185 
G01 X76.4741 Y25.4998 
G01 X76.6099 Y25.4011 
G01 X76.7595 Y25.3249 
G01 X76.9192 Y25.2731 
G01 X77.0850 Y25.2468 
G01 X77.2529 Y25.2468 
G01 X77.4187 Y25.2731 
G01 X77.5784 Y25.3249 
G01 X77.7280 Y25.4011 
G01 X77.8638 Y25.4998 
G01 X77.9825 Y25.6185 
G01 X78.0812 Y25.7543 
G01 X78.1574 Y25.9039 
G01 X78.2092 Y26.0636 
G01 X78.2355 Y26.2294 
G00 Z2.0000 
G00 X82.4865 Y26.2294 
G01 Z-0.1000 F600.00 
G01 X82.4865 Y28.3785 
G01 X82.4602 Y28.5443 
G01 X82.4084 Y28.7040 
G01 X82.3322 Y28.8536 
G01 X82.2335 Y28.9894 
G01 X82.1148 Y29.1081 
G01 X81.9790 Y29.2068 
G01 X81.8294 Y29.2830 
G01 X81.6697 Y29.3348 
G01 X81.5039 Y29.3611 
G01 X81.3360 Y29.3611 
G01 X81.1702 Y29.3348 
G01 X81.0105 Y29.2830 
G01 X80.8609 Y29.2068 
G01 X80.7251 Y29.1081 
G01 X80.6064 Y28.9894 
G01 X80.5077 Y28.8536 
G01 X80.4315 Y28.7040 
G01 X80.3797 Y28.5443 
G01 X80.3534 Y28.3785 
G01 X80.3534 Y26.2294 
G01 X80.3797 Y26.0636 
G01 X80.4315 Y25.9039 
G01 X80.5077 Y25.7543 
G01 X80.6064 Y25.6185 
G01 X80.7251 Y25.4998 
G01 X80.8609 Y25.4011 
G01 X81.0105 Y25.3249 
G01 X81.1702 Y25.2731 
G01 X81.3360 Y25.2468 
G01 X81.5039 Y25.2468 
G01 X81.6697 Y25.2731 
G01 X81.8294 Y25.3249 
G01 X81.9790 Y25.4011 
G01 X82.1148 Y25.4998 
G01 X82.2335 Y25.6185 
G01 X82.3322 Y25.7543 
G01 X82.4084 Y25.9039 
G01 X82.4602 Y26.0636 
G01 X82.4865 Y26.2294 
G00 Z2.0000 
G00 X86.7375 Y26.2294 
G01 Z-0.1000 F600.00 
G01 X86.7375 Y28.3785 
G01 X86.7112 Y28.5443 
G01 X86.6594 Y28.7040 
G01 X86.5832 Y28.8536 
G01 X86.4845 Y28.9894 
G01 X86.3658 Y29.1081 
G01 X86.2300 Y29.2068 
G01 X86.0804 Y29.2830 
G01 X85.9207 Y29.3348 
G01 X85.7549 Y29.3611 
G01 X85.5870 Y29.3611 
G01 X85.4212 Y29.3348 
G01 X85.2615 Y29.2830 
G01 X85.1119 Y29.2068 
G01 X84.9761 Y29.1081 
G01 X84.8574 Y28.9894 
G01 X84.7587 Y28.8536 
G01 X84.6825 Y28.7040 
G01 X84.6307 Y28.5443 
G01 X84.6044 Y28.3785 
G01 X84.6044 Y26.2294 
G01 X84.6307 Y26.0636 
G01 X84.6825 Y25.9039 
G01 X84.7587 Y25.7543 
G01 X84.8574 Y25.6185 
G01 X84.9761 Y25.4998 
G01 X85.1119 Y25.4011 
G01 X85.2615 Y25.3249 
G01 X85.4212 Y25.2731 
G01 X85.5870 Y25.2468 
G01 X85.7549 Y25.2468 
G01 X85.9207 Y25.2731 
G01 X86.0804 Y25.3249 
G01 X86.2300 Y25.4011 
G01 X86.3658 Y25.4998 
G01 X86.4845 Y25.6185 
G01 X86.5832 Y25.7543 
G01 X86.6594 Y25.9039 
G01 X86.7112 Y26.0636 
G01 X86.7375 Y26.2294 
G00 Z2.0000 
G00 X90.9885 Y26.2294 
G01 Z-0.1000 F600.00 
G01 X90.9885 Y28.3785 
G01 X90.9622 Y28.5443 
G01 X90.9104 Y28.7040 
G01 X90.8342 Y28.8536 
G01 X90.7355 Y28.9894 
G01 X90.6168 Y29.1081 
G01 X90.4810 Y29.2068 
G01 X90.3314 Y29.2830 
G01 X90.1717 Y29.3348 
G01 X90.0059 Y29.3611 
G01 X89.8380 Y29.3611 
G01 X89.6722 Y29.3348 
G01 X89.5125 Y29.2830 
G01 X89.3629 Y29.2068 
G01 X89.2271 Y29.1081 
G01 X89.1084 Y28.9894 
G01 X89.0097 Y28.8536 
G01 X88.9335 Y28.7040 
G01 X88.8817 Y28.5443 
G01 X88.8554 Y28.3785 
G01 X88.8554 Y26.2294 
G01 X88.8817 Y26.0636 
G01 X88.9335 Y25.9039 
G01 X89.0097 Y25.7543 
G01 X89.1084 Y25.6185 
G01 X89.2271 Y25.4998 
G01 X89.3629 Y25.4011 
G01 X89.5125 Y25.3249 
G01 X89.6722 Y25.2731 
G01 X89.8380 Y25.2468 
G01 X90.0059 Y25.2468 
G01 X90.1717 Y25.2731 
G01 X90.3314 Y25.3249 
G01 X90.4810 Y25.4011 
G01 X90.6168 Y25.4998 
G01 X90.7355 Y25.6185 
G01 X90.8342 Y25.7543 
G01 X90.9104 Y25.9039 
G01 X90.9622 Y26.0636 
G01 X90.9885 Y26.2294 
G00 Z2.0000 
G00 X95.2395 Y26.2294 
G01 Z-0.1000 F600.00 
G01 X95.2395 Y28.3785 
G01 X95.2132 Y28.5443 
G01 X95.1614 Y28.7040 
G01 X95.0852 Y28.8536 
G01 X94.9865 Y28.9894 
G01 X94.8678 Y29.1081 
G01 X94.7320 Y29.2068 
G01 X94.5824 Y29.2830 
G01 X94.4227 Y29.3348 
G01 X94.2569 Y29.3611 
G01 X94.0890 Y29.3611 
G01 X93.9232 Y29.3348 
G01 X93.7635 Y29.2830 
G01 X93.6139 Y29.2068 
G01 X93.4781 Y29.1081 
G01 X93.3594 Y28.9894 
G01 X93.2607 Y28.8536 
G01 X93.1845 Y28.7040 
G01 X93.1327 Y28.5443 
G01 X93.1064 Y28.3785 
G01 X93.1064 Y26.2294 
G01 X93.1327 Y26.0636 
G01 X93.1845 Y25.9039 
G01 X93.2607 Y25.7543 
G01 X93.3594 Y25.6185 
G01 X93.4781 Y25.4998 
G01 X93.6139 Y25.4011 
G01 X93.7635 Y25.3249 
G01 X93.9232 Y25.2731 
G01 X94.0890 Y25.2468 
G01 X94.2569 Y25.2468 
G01 X94.4227 Y25.2731 
G01 X94.5824 Y25.3249 
G01 X94.7320 Y25.4011 
G01 X94.8678 Y25.4998 
G01 X94.9865 Y25.6185 
G01 X95.0852 Y25.7543 
G01 X95.1614 Y25.9039 
G01 X95.2132 Y26.0636 
G01 X95.2395 Y26.2294 
G00 Z2.0000 
G00 X99.4905 Y26.2294 
G01 Z-0.1000 F600.00 
G01 X99.4905 Y28.3785 
G01 X99.4642 Y28.5443 
G01 X99.4124 Y28.7040 
G01 X99.3362 Y28.8536 
G01 X99.2375 Y28.9894 
G01 X99.1188 Y29.1081 
G01 X98.9830 Y29.2068 
G01 X98.8334 Y29.2830 
G01 X98.6737 Y29.3348 
G01 X98.5079 Y29.3611 
G01 X98.3400 Y29.3611 
G01 X98.1742 Y29.3348 
G01 X98.0145 Y29.2830 
G01 X97.8649 Y29.2068 
G01 X97.7291 Y29.1081 
G01 X97.6104 Y28.9894 
G01 X97.5117 Y28.8536 
G01 X97.4355 Y28.7040 
G01 X97.3837 Y28.5443 
G01 X97.3574 Y28.3785 
G01 X97.3574 Y26.2294 
G01 X97.3837 Y26.0636 
G01 X97.4355 Y25.9039 
G01 X97.5117 Y25.7543 
G01 X97.6104 Y25.6185 
G01 X97.7291 Y25.4998 
G01 X97.8649 Y25.4011 
G01 X98.0145 Y25.3249 
G01 X98.1742 Y25.2731 
G01 X98.3400 Y25.2468 
G01 X98.5079 Y25.2468 
G01 X98.6737 Y25.2731 
G01 X98.8334 Y25.3249 
G01 X98.9830 Y25.4011 
G01 X99.1188 Y25.4998 
G01 X99.2375 Y25.6185 
G01 X99.3362 Y25.7543 
G01 X99.4124 Y25.9039 
G01 X99.4642 Y26.0636 
G01 X99.4905 Y26.2294 
G00 Z2.0000 
G00 X101.6084 Y28.3785 
G01 Z-0.1000 F600.00 
G01 X101.6084 Y26.2294 
G01 X101.6347 Y26.0636 
G01 X101.6865 Y25.9039 
G01 X101.7627 Y25.7543 
G01 X101.8614 Y25.6185 
G01 X101.9801 Y25.4998 
G01 X102.1159 Y25.4011 
G01 X102.2655 Y25.3249 
G01 X102.4252 Y25.2731 
G01 X102.5910 Y25.2468 
G01 X102.7589 Y25.2468 
G01 X102.9247 Y25.2731 
G01 X103.0844 Y25.3249 
G01 X103.2340 Y25.4011 
G01 X103.3698 Y25.4998 
G01 X103.4885 Y25.6185 
G01 X103.5872 Y25.7543 
G01 X103.6634 Y25.9039 
G01 X103.7152 Y26.0636 
G01 X103.7415 Y26.2294 
G01 X103.7415 Y28.3785 
G01 X103.7152 Y28.5443 
G01 X103.6634 Y28.7040 
G01 X103.5872 Y28.8536 
G01 X103.4885 Y28.9894 
G01 X103.3698 Y29.1081 
G01 X103.2340 Y29.2068 
G01 X103.0844 Y29.2830 
G01 X102.9247 Y29.3348 
G01 X102.7589 Y29.3611 
G01 X102.5910 Y29.3611 
G01 X102.4252 Y29.3348 
G01 X102.2655 Y29.2830 
G01 X102.1159 Y29.2068 
G01 X101.9801 Y29.1081 
G01 X101.8614 Y28.9894 
G01 X101.7627 Y28.8536 
G01 X101.6865 Y28.7040 
G01 X101.6347 Y28.5443 
G01 X101.6084 Y28.3785 
G00 Z2.0000 
G00 X105.8594 Y28.3785 
G01 Z-0.1000 F600.00 
G01 X105.8594 Y26.2294 
G01 X105.8857 Y26.0636 
G01 X105.9375 Y25.9039 
G01 X106.0137 Y25.7543 
G01 X106.1124 Y25.6185 
G01 X106.2311 Y25.4998 
G01 X106.3669 Y25.4011 
G01 X106.5165 Y25.3249 
G01 X106.6762 Y25.2731 
G01 X106.8420 Y25.2468 
G01 X107.0099 Y25.2468 
G01 X107.1757 Y25.2731 
G01 X107.3354 Y25.3249 
G01 X107.4850 Y25.4011 
G01 X107.6208 Y25.4998 
G01 X107.7395 Y25.6185 
G01 X107.8382 Y25.7543 
G01 X107.9144 Y25.9039 
G01 X107.9662 Y26.0636 
G01 X107.9925 Y26.2294 
G01 X107.9925 Y28.3785 
G01 X107.9662 Y28.5443 
G01 X107.9144 Y28.7040 
G01 X107.8382 Y28.8536 
G01 X107.7395 Y28.9894 
G01 X107.6208 Y29.1081 
G01 X107.4850 Y29.2068 
G01 X107.3354 Y29.2830 
G01 X107.1757 Y29.3348 
G01 X107.0099 Y29.3611 
G01 X106.8420 Y29.3611 
G01 X106.6762 Y29.3348 
G01 X106.5165 Y29.2830 
G01 X106.3669 Y29.2068 
G01 X106.2311 Y29.1081 
G01 X106.1124 Y28.9894 
G01 X106.0137 Y28.8536 
G01 X105.9375 Y28.7040 
G01 X105.8857 Y28.5443 
G01 X105.8594 Y28.3785 
(File Footer)
G00 Z2.0000 
G00 Z10.0000 
M05
M02
