( This gcode generated by /home/mattvenn/.eagle/ulp/pcb-gcode.ulp )
( Copyright 2005 by John Johnson. See readme.txt for licensing terms. )

( This file generated from the board /home/mattvenn/eagle-circuit-designs/cvm/hymera.brd )
( This file generated 30/01/2012 17:15 )

( T01 1.092200 )
( T02 1.320800 )
( T03 3.048000 )
( T04 3.200000 )
G21

G90
M05
G00 X0.0000 Y0.0000 Z30.0000 
M06 T01  ; 1.0922 
G00 Z2.0000 
M03
G04 P3.000000
G82 X-123.0184 Y12.1236 Z-2.0000 F127.00 R2.0000 P0.100000
G82 X-124.4027 Y14.9684 
G82 X-125.7870 Y12.1236 
G82 X-127.1713 Y14.9684 
G82 X-128.5556 Y12.1236 
G82 X-129.9399 Y14.9684 
G82 X-131.3242 Y12.1236 
G82 X-132.7085 Y14.9684 
G82 X-134.0928 Y12.1236 
G82 X-135.4771 Y14.9684 
G82 X-136.8614 Y12.1236 
G82 X-138.2457 Y14.9684 
G82 X-139.6300 Y12.1236 
G82 X-141.0143 Y14.9684 
G82 X-142.3986 Y12.1236 
G82 X-143.7829 Y14.9684 
G82 X-145.1672 Y12.1236 
G82 X-146.5515 Y14.9684 
G82 X-147.9358 Y12.1236 
G82 X-149.3201 Y14.9684 
G82 X-150.7044 Y12.1236 
G82 X-152.0887 Y14.9684 
G82 X-153.4730 Y12.1236 
G82 X-154.8573 Y14.9684 
G82 X-156.2416 Y12.1236 
M05
G00 X0.0000 Y0.0000 Z30.0000 
M06 T02  ; 1.3208 
G00 Z2.0000 
M03
G04 P3.000000
G82 X-8.7530 Y13.5140 Z-2.0000 F127.00 R2.0000 P0.100000
G82 X-102.2750 Y13.5140 
G82 X-13.0040 Y13.5140 
G82 X-17.2550 Y13.5140 
G82 X-21.5060 Y13.5140 
G82 X-25.7570 Y13.5140 
G82 X-30.0080 Y13.5140 
G82 X-34.2590 Y13.5140 
G82 X-38.5100 Y13.5140 
G82 X-42.7610 Y13.5140 
G82 X-47.0120 Y13.5140 
G82 X-51.2630 Y13.5140 
G82 X-55.5140 Y13.5140 
G82 X-59.7650 Y13.5140 
G82 X-64.0160 Y13.5140 
G82 X-68.2670 Y13.5140 
G82 X-72.5180 Y13.5140 
G82 X-76.7690 Y13.5140 
G82 X-81.0200 Y13.5140 
G82 X-85.2710 Y13.5140 
G82 X-89.5220 Y13.5140 
G82 X-93.7730 Y13.5140 
G82 X-98.0240 Y13.5140 
M05
G00 X0.0000 Y0.0000 Z30.0000 
M06 T03  ; 3.0480 
G00 Z2.0000 
M03
G04 P3.000000
G82 X-116.1096 Y13.5460 Z-2.0000 F127.00 R2.0000 P0.100000
G82 X-163.1504 Y13.5460 
M05
G00 X0.0000 Y0.0000 Z30.0000 
M06 T04  ; 3.2000 
G00 Z2.0000 
M03
G04 P3.000000
G82 X-11.0000 Y29.0000 Z-2.0000 F127.00 R2.0000 P0.100000
G82 X-161.0000 Y29.0000 
G82 X-86.0000 Y29.0000 
(File Footer)
T01 
G00 Z10.0000 
M05
M02
