( This gcode generated by /home/mattvenn/.eagle/ulp/pcb-gcode.ulp )
( Copyright 2005 by John Johnson. See readme.txt for licensing terms. )

( This file generated from the board /home/mattvenn/eagle-circuit-designs/cvm/hymera.brd )
( This file generated 30/01/2012 17:15 )

G21

G90
G00 Z10.0000 
G00 X0 Y0
M03
G04 P3.000000
G00 Z2.0000 
G00 X-9.9084 Y13.0354 
G01 Z-0.1000 F600.00 
G01 X-9.9084 Y13.9925 
G01 X-9.2315 Y14.6694 
G01 X-8.9813 Y14.6694 
G01 X-8.9813 Y20.2716 
G01 X-149.2716 Y20.2716 
G01 X-149.2716 Y15.8635 
G01 X-149.2318 Y15.8635 
G01 X-149.0589 Y15.8291 
G01 X-148.8960 Y15.7616 
G01 X-148.7494 Y15.6637 
G01 X-148.6247 Y15.5390 
G01 X-148.5268 Y15.3924 
G01 X-148.4593 Y15.2295 
G01 X-148.4249 Y15.0566 
G01 X-148.4249 Y14.8801 
G01 X-148.4593 Y14.7072 
G01 X-148.5268 Y14.5443 
G01 X-148.6247 Y14.3977 
G01 X-148.7494 Y14.2730 
G01 X-148.8960 Y14.1751 
G01 X-149.0589 Y14.1076 
G01 X-149.2318 Y14.0732 
G01 X-149.4083 Y14.0732 
G01 X-149.5812 Y14.1076 
G01 X-149.7441 Y14.1751 
G01 X-149.8907 Y14.2730 
G01 X-150.0154 Y14.3977 
G01 X-150.1133 Y14.5443 
G01 X-150.1808 Y14.7072 
G01 X-150.2152 Y14.8801 
G01 X-150.2152 Y15.0566 
G01 X-150.1808 Y15.2295 
G01 X-150.1133 Y15.3924 
G01 X-150.0154 Y15.5390 
G01 X-149.8907 Y15.6637 
G01 X-149.7441 Y15.7616 
G01 X-149.7283 Y15.7681 
G01 X-149.7283 Y20.4545 
G01 X-149.7283 Y20.5454 
G01 X-149.6935 Y20.6293 
G01 X-149.6293 Y20.6935 
G01 X-149.5454 Y20.7283 
G01 X-8.7984 Y20.7283 
G01 X-8.7075 Y20.7283 
G01 X-8.6236 Y20.6935 
G01 X-8.5594 Y20.6293 
G01 X-8.5246 Y20.5454 
G01 X-8.5246 Y14.6694 
G01 X-8.2744 Y14.6694 
G01 X-7.5975 Y13.9925 
G01 X-7.5975 Y13.0354 
G01 X-8.2744 Y12.3585 
G01 X-9.2315 Y12.3585 
G01 X-9.9084 Y13.0354 
G00 Z2.0000 
G00 X-18.4104 Y13.0354 
G01 Z-0.1000 F600.00 
G01 X-18.4104 Y13.9925 
G01 X-17.7335 Y14.6694 
G01 X-17.4833 Y14.6694 
G01 X-17.4833 Y19.2716 
G01 X-143.7716 Y19.2716 
G01 X-143.7716 Y15.8635 
G01 X-143.6946 Y15.8635 
G01 X-143.5217 Y15.8291 
G01 X-143.3588 Y15.7616 
G01 X-143.2122 Y15.6637 
G01 X-143.0875 Y15.5390 
G01 X-142.9896 Y15.3924 
G01 X-142.9221 Y15.2295 
G01 X-142.8877 Y15.0566 
G01 X-142.8877 Y14.8801 
G01 X-142.9221 Y14.7072 
G01 X-142.9896 Y14.5443 
G01 X-143.0875 Y14.3977 
G01 X-143.2122 Y14.2730 
G01 X-143.3588 Y14.1751 
G01 X-143.5217 Y14.1076 
G01 X-143.6946 Y14.0732 
G01 X-143.8711 Y14.0732 
G01 X-144.0440 Y14.1076 
G01 X-144.2069 Y14.1751 
G01 X-144.3535 Y14.2730 
G01 X-144.4782 Y14.3977 
G01 X-144.5761 Y14.5443 
G01 X-144.6436 Y14.7072 
G01 X-144.6780 Y14.8801 
G01 X-144.6780 Y15.0566 
G01 X-144.6436 Y15.2295 
G01 X-144.5761 Y15.3924 
G01 X-144.4782 Y15.5390 
G01 X-144.3535 Y15.6637 
G01 X-144.2283 Y15.7473 
G01 X-144.2283 Y19.4545 
G01 X-144.2283 Y19.5454 
G01 X-144.1935 Y19.6293 
G01 X-144.1293 Y19.6935 
G01 X-144.0454 Y19.7283 
G01 X-17.3004 Y19.7283 
G01 X-17.2095 Y19.7283 
G01 X-17.1256 Y19.6935 
G01 X-17.0614 Y19.6293 
G01 X-17.0266 Y19.5454 
G01 X-17.0266 Y14.6694 
G01 X-16.7764 Y14.6694 
G01 X-16.0995 Y13.9925 
G01 X-16.0995 Y13.0354 
G01 X-16.7764 Y12.3585 
G01 X-17.7335 Y12.3585 
G01 X-18.4104 Y13.0354 
G00 Z2.0000 
G00 X-26.9124 Y13.0354 
G01 Z-0.1000 F600.00 
G01 X-26.9124 Y13.9925 
G01 X-26.2355 Y14.6694 
G01 X-25.9853 Y14.6694 
G01 X-25.9853 Y18.2716 
G01 X-138.2716 Y18.2716 
G01 X-138.2716 Y15.8635 
G01 X-138.1574 Y15.8635 
G01 X-137.9845 Y15.8291 
G01 X-137.8216 Y15.7616 
G01 X-137.6750 Y15.6637 
G01 X-137.5503 Y15.5390 
G01 X-137.4524 Y15.3924 
G01 X-137.3849 Y15.2295 
G01 X-137.3505 Y15.0566 
G01 X-137.3505 Y14.8801 
G01 X-137.3849 Y14.7072 
G01 X-137.4524 Y14.5443 
G01 X-137.5503 Y14.3977 
G01 X-137.6750 Y14.2730 
G01 X-137.8216 Y14.1751 
G01 X-137.9845 Y14.1076 
G01 X-138.1574 Y14.0732 
G01 X-138.3339 Y14.0732 
G01 X-138.5068 Y14.1076 
G01 X-138.6697 Y14.1751 
G01 X-138.8163 Y14.2730 
G01 X-138.9410 Y14.3977 
G01 X-139.0389 Y14.5443 
G01 X-139.1064 Y14.7072 
G01 X-139.1408 Y14.8801 
G01 X-139.1408 Y15.0566 
G01 X-139.1064 Y15.2295 
G01 X-139.0389 Y15.3924 
G01 X-138.9410 Y15.5390 
G01 X-138.8163 Y15.6637 
G01 X-138.7283 Y15.7224 
G01 X-138.7283 Y18.4545 
G01 X-138.7283 Y18.5454 
G01 X-138.6935 Y18.6293 
G01 X-138.6293 Y18.6935 
G01 X-138.5454 Y18.7283 
G01 X-25.8024 Y18.7283 
G01 X-25.7115 Y18.7283 
G01 X-25.6276 Y18.6935 
G01 X-25.5634 Y18.6293 
G01 X-25.5286 Y18.5454 
G01 X-25.5286 Y14.6694 
G01 X-25.2784 Y14.6694 
G01 X-24.6015 Y13.9925 
G01 X-24.6015 Y13.0354 
G01 X-25.2784 Y12.3585 
G01 X-26.2355 Y12.3585 
G01 X-26.9124 Y13.0354 
G00 Z2.0000 
G00 X-35.4144 Y13.0354 
G01 Z-0.1000 F600.00 
G01 X-35.4144 Y13.9925 
G01 X-34.7375 Y14.6694 
G01 X-34.4873 Y14.6694 
G01 X-34.4873 Y17.2716 
G01 X-132.7716 Y17.2716 
G01 X-132.7716 Y15.8635 
G01 X-132.6202 Y15.8635 
G01 X-132.4473 Y15.8291 
G01 X-132.2844 Y15.7616 
G01 X-132.1378 Y15.6637 
G01 X-132.0131 Y15.5390 
G01 X-131.9152 Y15.3924 
G01 X-131.8477 Y15.2295 
G01 X-131.8133 Y15.0566 
G01 X-131.8133 Y14.8801 
G01 X-131.8477 Y14.7072 
G01 X-131.9152 Y14.5443 
G01 X-132.0131 Y14.3977 
G01 X-132.1378 Y14.2730 
G01 X-132.2844 Y14.1751 
G01 X-132.4473 Y14.1076 
G01 X-132.6202 Y14.0732 
G01 X-132.7967 Y14.0732 
G01 X-132.9696 Y14.1076 
G01 X-133.1325 Y14.1751 
G01 X-133.2791 Y14.2730 
G01 X-133.4038 Y14.3977 
G01 X-133.5017 Y14.5443 
G01 X-133.5692 Y14.7072 
G01 X-133.6036 Y14.8801 
G01 X-133.6036 Y15.0566 
G01 X-133.5692 Y15.2295 
G01 X-133.5017 Y15.3924 
G01 X-133.4038 Y15.5390 
G01 X-133.2791 Y15.6637 
G01 X-133.2283 Y15.6976 
G01 X-133.2283 Y17.4545 
G01 X-133.2283 Y17.5454 
G01 X-133.1935 Y17.6293 
G01 X-133.1293 Y17.6935 
G01 X-133.0454 Y17.7283 
G01 X-34.3044 Y17.7283 
G01 X-34.2135 Y17.7283 
G01 X-34.1296 Y17.6935 
G01 X-34.0654 Y17.6293 
G01 X-34.0306 Y17.5454 
G01 X-34.0306 Y14.6694 
G01 X-33.7804 Y14.6694 
G01 X-33.1035 Y13.9925 
G01 X-33.1035 Y13.0354 
G01 X-33.7804 Y12.3585 
G01 X-34.7375 Y12.3585 
G01 X-35.4144 Y13.0354 
G00 Z2.0000 
G00 X-43.9164 Y13.0354 
G01 Z-0.1000 F600.00 
G01 X-43.9164 Y13.9925 
G01 X-43.2395 Y14.6694 
G01 X-42.9893 Y14.6694 
G01 X-42.9893 Y16.2716 
G01 X-126.7716 Y16.2716 
G01 X-126.7716 Y15.7717 
G01 X-126.7472 Y15.7616 
G01 X-126.6006 Y15.6637 
G01 X-126.4759 Y15.5390 
G01 X-126.3780 Y15.3924 
G01 X-126.3105 Y15.2295 
G01 X-126.2761 Y15.0566 
G01 X-126.2761 Y14.8801 
G01 X-126.3105 Y14.7072 
G01 X-126.3780 Y14.5443 
G01 X-126.4759 Y14.3977 
G01 X-126.6006 Y14.2730 
G01 X-126.7472 Y14.1751 
G01 X-126.9101 Y14.1076 
G01 X-127.0830 Y14.0732 
G01 X-127.2595 Y14.0732 
G01 X-127.4324 Y14.1076 
G01 X-127.5953 Y14.1751 
G01 X-127.7419 Y14.2730 
G01 X-127.8666 Y14.3977 
G01 X-127.9645 Y14.5443 
G01 X-128.0320 Y14.7072 
G01 X-128.0664 Y14.8801 
G01 X-128.0664 Y15.0566 
G01 X-128.0320 Y15.2295 
G01 X-127.9645 Y15.3924 
G01 X-127.8666 Y15.5390 
G01 X-127.7419 Y15.6637 
G01 X-127.5953 Y15.7616 
G01 X-127.4324 Y15.8291 
G01 X-127.2595 Y15.8635 
G01 X-127.2283 Y15.8635 
G01 X-127.2283 Y16.4545 
G01 X-127.2283 Y16.5454 
G01 X-127.1935 Y16.6293 
G01 X-127.1293 Y16.6935 
G01 X-127.0454 Y16.7283 
G01 X-42.8064 Y16.7283 
G01 X-42.7155 Y16.7283 
G01 X-42.6316 Y16.6935 
G01 X-42.5674 Y16.6293 
G01 X-42.5326 Y16.5454 
G01 X-42.5326 Y14.6694 
G01 X-42.2824 Y14.6694 
G01 X-41.6055 Y13.9925 
G01 X-41.6055 Y13.0354 
G01 X-42.2824 Y12.3585 
G01 X-43.2395 Y12.3585 
G01 X-43.9164 Y13.0354 
G00 Z2.0000 
G00 X-52.4184 Y13.0354 
G01 Z-0.1000 F600.00 
G01 X-52.4184 Y13.9925 
G01 X-51.7415 Y14.6694 
G01 X-50.7844 Y14.6694 
G01 X-50.1075 Y13.9925 
G01 X-50.1075 Y13.0354 
G01 X-50.7844 Y12.3585 
G01 X-51.0346 Y12.3585 
G01 X-51.0346 Y4.9545 
G01 X-51.0694 Y4.8706 
G01 X-51.1336 Y4.8064 
G01 X-51.2175 Y4.7716 
G01 X-51.3084 Y4.7716 
G01 X-156.0454 Y4.7716 
G01 X-156.1293 Y4.8064 
G01 X-156.1935 Y4.8706 
G01 X-156.2283 Y4.9545 
G01 X-156.2283 Y5.0454 
G01 X-156.2283 Y11.2284 
G01 X-156.3298 Y11.2284 
G01 X-156.5027 Y11.2628 
G01 X-156.6656 Y11.3303 
G01 X-156.8122 Y11.4282 
G01 X-156.9369 Y11.5529 
G01 X-157.0348 Y11.6995 
G01 X-157.1023 Y11.8624 
G01 X-157.1367 Y12.0353 
G01 X-157.1367 Y12.2118 
G01 X-157.1023 Y12.3847 
G01 X-157.0348 Y12.5476 
G01 X-156.9369 Y12.6942 
G01 X-156.8122 Y12.8189 
G01 X-156.6656 Y12.9168 
G01 X-156.5027 Y12.9843 
G01 X-156.3298 Y13.0187 
G01 X-156.1533 Y13.0187 
G01 X-155.9804 Y12.9843 
G01 X-155.8175 Y12.9168 
G01 X-155.6709 Y12.8189 
G01 X-155.5462 Y12.6942 
G01 X-155.4483 Y12.5476 
G01 X-155.3808 Y12.3847 
G01 X-155.3464 Y12.2118 
G01 X-155.3464 Y12.0353 
G01 X-155.3808 Y11.8624 
G01 X-155.4483 Y11.6995 
G01 X-155.5462 Y11.5529 
G01 X-155.6709 Y11.4282 
G01 X-155.7716 Y11.3610 
G01 X-155.7716 Y5.2283 
G01 X-51.4913 Y5.2283 
G01 X-51.4913 Y12.3585 
G01 X-51.7415 Y12.3585 
G01 X-52.4184 Y13.0354 
G00 Z2.0000 
G00 X-60.9204 Y13.0354 
G01 Z-0.1000 F600.00 
G01 X-60.9204 Y13.9925 
G01 X-60.2435 Y14.6694 
G01 X-59.2864 Y14.6694 
G01 X-58.6095 Y13.9925 
G01 X-58.6095 Y13.0354 
G01 X-59.2864 Y12.3585 
G01 X-59.5366 Y12.3585 
G01 X-59.5366 Y5.9545 
G01 X-59.5714 Y5.8706 
G01 X-59.6356 Y5.8064 
G01 X-59.7195 Y5.7716 
G01 X-59.8104 Y5.7716 
G01 X-150.5454 Y5.7716 
G01 X-150.6293 Y5.8064 
G01 X-150.6935 Y5.8706 
G01 X-150.7283 Y5.9545 
G01 X-150.7283 Y6.0454 
G01 X-150.7283 Y11.2284 
G01 X-150.7926 Y11.2284 
G01 X-150.9655 Y11.2628 
G01 X-151.1284 Y11.3303 
G01 X-151.2750 Y11.4282 
G01 X-151.3997 Y11.5529 
G01 X-151.4976 Y11.6995 
G01 X-151.5651 Y11.8624 
G01 X-151.5995 Y12.0353 
G01 X-151.5995 Y12.2118 
G01 X-151.5651 Y12.3847 
G01 X-151.4976 Y12.5476 
G01 X-151.3997 Y12.6942 
G01 X-151.2750 Y12.8189 
G01 X-151.1284 Y12.9168 
G01 X-150.9655 Y12.9843 
G01 X-150.7926 Y13.0187 
G01 X-150.6161 Y13.0187 
G01 X-150.4432 Y12.9843 
G01 X-150.2803 Y12.9168 
G01 X-150.1337 Y12.8189 
G01 X-150.0090 Y12.6942 
G01 X-149.9111 Y12.5476 
G01 X-149.8436 Y12.3847 
G01 X-149.8092 Y12.2118 
G01 X-149.8092 Y12.0353 
G01 X-149.8436 Y11.8624 
G01 X-149.9111 Y11.6995 
G01 X-150.0090 Y11.5529 
G01 X-150.1337 Y11.4282 
G01 X-150.2716 Y11.3361 
G01 X-150.2716 Y6.2283 
G01 X-59.9933 Y6.2283 
G01 X-59.9933 Y12.3585 
G01 X-60.2435 Y12.3585 
G01 X-60.9204 Y13.0354 
G00 Z2.0000 
G00 X-155.7524 Y14.8801 
G01 Z-0.1000 F600.00 
G01 X-155.7524 Y15.0566 
G01 X-155.7180 Y15.2295 
G01 X-155.6505 Y15.3924 
G01 X-155.5526 Y15.5390 
G01 X-155.4279 Y15.6637 
G01 X-155.2813 Y15.7616 
G01 X-155.1184 Y15.8291 
G01 X-154.9455 Y15.8635 
G01 X-154.7690 Y15.8635 
G01 X-154.5961 Y15.8291 
G01 X-154.4332 Y15.7616 
G01 X-154.2866 Y15.6637 
G01 X-154.1619 Y15.5390 
G01 X-154.0640 Y15.3924 
G01 X-153.9965 Y15.2295 
G01 X-153.9621 Y15.0566 
G01 X-153.9621 Y14.8801 
G01 X-153.9965 Y14.7072 
G01 X-154.0640 Y14.5443 
G01 X-154.1619 Y14.3977 
G01 X-154.2866 Y14.2730 
G01 X-154.4332 Y14.1751 
G01 X-154.5961 Y14.1076 
G01 X-154.7690 Y14.0732 
G01 X-154.9455 Y14.0732 
G01 X-155.1184 Y14.1076 
G01 X-155.2813 Y14.1751 
G01 X-155.4279 Y14.2730 
G01 X-155.5526 Y14.3977 
G01 X-155.6505 Y14.5443 
G01 X-155.7180 Y14.7072 
G01 X-155.7524 Y14.8801 
G00 Z2.0000 
G00 X-152.9838 Y14.8801 
G01 Z-0.1000 F600.00 
G01 X-152.9838 Y15.0566 
G01 X-152.9494 Y15.2295 
G01 X-152.8819 Y15.3924 
G01 X-152.7840 Y15.5390 
G01 X-152.6593 Y15.6637 
G01 X-152.5127 Y15.7616 
G01 X-152.3498 Y15.8291 
G01 X-152.1769 Y15.8635 
G01 X-152.0004 Y15.8635 
G01 X-151.8275 Y15.8291 
G01 X-151.6646 Y15.7616 
G01 X-151.5180 Y15.6637 
G01 X-151.3933 Y15.5390 
G01 X-151.2954 Y15.3924 
G01 X-151.2279 Y15.2295 
G01 X-151.1935 Y15.0566 
G01 X-151.1935 Y14.8801 
G01 X-151.2279 Y14.7072 
G01 X-151.2954 Y14.5443 
G01 X-151.3933 Y14.3977 
G01 X-151.5180 Y14.2730 
G01 X-151.6646 Y14.1751 
G01 X-151.8275 Y14.1076 
G01 X-152.0004 Y14.0732 
G01 X-152.1769 Y14.0732 
G01 X-152.3498 Y14.1076 
G01 X-152.5127 Y14.1751 
G01 X-152.6593 Y14.2730 
G01 X-152.7840 Y14.3977 
G01 X-152.8819 Y14.5443 
G01 X-152.9494 Y14.7072 
G01 X-152.9838 Y14.8801 
G00 Z2.0000 
G00 X-147.4466 Y14.8801 
G01 Z-0.1000 F600.00 
G01 X-147.4466 Y15.0566 
G01 X-147.4122 Y15.2295 
G01 X-147.3447 Y15.3924 
G01 X-147.2468 Y15.5390 
G01 X-147.1221 Y15.6637 
G01 X-146.9755 Y15.7616 
G01 X-146.8126 Y15.8291 
G01 X-146.7283 Y15.8459 
G01 X-146.7283 Y19.9545 
G01 X-146.7283 Y20.0454 
G01 X-146.6935 Y20.1293 
G01 X-146.6293 Y20.1935 
G01 X-146.5454 Y20.2283 
G01 X-13.0494 Y20.2283 
G01 X-12.9585 Y20.2283 
G01 X-12.8746 Y20.1935 
G01 X-12.8104 Y20.1293 
G01 X-12.7756 Y20.0454 
G01 X-12.7756 Y14.6694 
G01 X-12.5254 Y14.6694 
G01 X-11.8485 Y13.9925 
G01 X-11.8485 Y13.0354 
G01 X-12.5254 Y12.3585 
G01 X-13.4825 Y12.3585 
G01 X-14.1594 Y13.0354 
G01 X-14.1594 Y13.9925 
G01 X-13.4825 Y14.6694 
G01 X-13.2323 Y14.6694 
G01 X-13.2323 Y19.7716 
G01 X-146.2716 Y19.7716 
G01 X-146.2716 Y15.8213 
G01 X-146.1274 Y15.7616 
G01 X-145.9808 Y15.6637 
G01 X-145.8561 Y15.5390 
G01 X-145.7582 Y15.3924 
G01 X-145.6907 Y15.2295 
G01 X-145.6563 Y15.0566 
G01 X-145.6563 Y14.8801 
G01 X-145.6907 Y14.7072 
G01 X-145.7582 Y14.5443 
G01 X-145.8561 Y14.3977 
G01 X-145.9808 Y14.2730 
G01 X-146.1274 Y14.1751 
G01 X-146.2903 Y14.1076 
G01 X-146.4632 Y14.0732 
G01 X-146.6397 Y14.0732 
G01 X-146.8126 Y14.1076 
G01 X-146.9755 Y14.1751 
G01 X-147.1221 Y14.2730 
G01 X-147.2468 Y14.3977 
G01 X-147.3447 Y14.5443 
G01 X-147.4122 Y14.7072 
G01 X-147.4466 Y14.8801 
G00 Z2.0000 
G00 X-141.9094 Y14.8801 
G01 Z-0.1000 F600.00 
G01 X-141.9094 Y15.0566 
G01 X-141.8750 Y15.2295 
G01 X-141.8075 Y15.3924 
G01 X-141.7096 Y15.5390 
G01 X-141.5849 Y15.6637 
G01 X-141.4383 Y15.7616 
G01 X-141.2754 Y15.8291 
G01 X-141.2283 Y15.8384 
G01 X-141.2283 Y18.9545 
G01 X-141.2283 Y19.0454 
G01 X-141.1935 Y19.1293 
G01 X-141.1293 Y19.1935 
G01 X-141.0454 Y19.2283 
G01 X-21.5514 Y19.2283 
G01 X-21.4605 Y19.2283 
G01 X-21.3766 Y19.1935 
G01 X-21.3124 Y19.1293 
G01 X-21.2776 Y19.0454 
G01 X-21.2776 Y14.6694 
G01 X-21.0274 Y14.6694 
G01 X-20.3505 Y13.9925 
G01 X-20.3505 Y13.0354 
G01 X-21.0274 Y12.3585 
G01 X-21.9845 Y12.3585 
G01 X-22.6614 Y13.0354 
G01 X-22.6614 Y13.9925 
G01 X-21.9845 Y14.6694 
G01 X-21.7343 Y14.6694 
G01 X-21.7343 Y18.7716 
G01 X-140.7716 Y18.7716 
G01 X-140.7716 Y15.8328 
G01 X-140.7531 Y15.8291 
G01 X-140.5902 Y15.7616 
G01 X-140.4436 Y15.6637 
G01 X-140.3189 Y15.5390 
G01 X-140.2210 Y15.3924 
G01 X-140.1535 Y15.2295 
G01 X-140.1191 Y15.0566 
G01 X-140.1191 Y14.8801 
G01 X-140.1535 Y14.7072 
G01 X-140.2210 Y14.5443 
G01 X-140.3189 Y14.3977 
G01 X-140.4436 Y14.2730 
G01 X-140.5902 Y14.1751 
G01 X-140.7531 Y14.1076 
G01 X-140.9260 Y14.0732 
G01 X-141.1025 Y14.0732 
G01 X-141.2754 Y14.1076 
G01 X-141.4383 Y14.1751 
G01 X-141.5849 Y14.2730 
G01 X-141.7096 Y14.3977 
G01 X-141.8075 Y14.5443 
G01 X-141.8750 Y14.7072 
G01 X-141.9094 Y14.8801 
G00 Z2.0000 
G00 X-136.3722 Y14.8801 
G01 Z-0.1000 F600.00 
G01 X-136.3722 Y15.0566 
G01 X-136.3378 Y15.2295 
G01 X-136.2703 Y15.3924 
G01 X-136.1724 Y15.5390 
G01 X-136.0477 Y15.6637 
G01 X-135.9011 Y15.7616 
G01 X-135.7382 Y15.8291 
G01 X-135.7283 Y15.8310 
G01 X-135.7283 Y17.9545 
G01 X-135.7283 Y18.0454 
G01 X-135.6935 Y18.1293 
G01 X-135.6293 Y18.1935 
G01 X-135.5454 Y18.2283 
G01 X-30.0534 Y18.2283 
G01 X-29.9625 Y18.2283 
G01 X-29.8786 Y18.1935 
G01 X-29.8144 Y18.1293 
G01 X-29.7796 Y18.0454 
G01 X-29.7796 Y14.6694 
G01 X-29.5294 Y14.6694 
G01 X-28.8525 Y13.9925 
G01 X-28.8525 Y13.0354 
G01 X-29.5294 Y12.3585 
G01 X-30.4865 Y12.3585 
G01 X-31.1634 Y13.0354 
G01 X-31.1634 Y13.9925 
G01 X-30.4865 Y14.6694 
G01 X-30.2363 Y14.6694 
G01 X-30.2363 Y17.7716 
G01 X-135.2716 Y17.7716 
G01 X-135.2716 Y15.8402 
G01 X-135.2159 Y15.8291 
G01 X-135.0530 Y15.7616 
G01 X-134.9064 Y15.6637 
G01 X-134.7817 Y15.5390 
G01 X-134.6838 Y15.3924 
G01 X-134.6163 Y15.2295 
G01 X-134.5819 Y15.0566 
G01 X-134.5819 Y14.8801 
G01 X-134.6163 Y14.7072 
G01 X-134.6838 Y14.5443 
G01 X-134.7817 Y14.3977 
G01 X-134.9064 Y14.2730 
G01 X-135.0530 Y14.1751 
G01 X-135.2159 Y14.1076 
G01 X-135.3888 Y14.0732 
G01 X-135.5653 Y14.0732 
G01 X-135.7382 Y14.1076 
G01 X-135.9011 Y14.1751 
G01 X-136.0477 Y14.2730 
G01 X-136.1724 Y14.3977 
G01 X-136.2703 Y14.5443 
G01 X-136.3378 Y14.7072 
G01 X-136.3722 Y14.8801 
G00 Z2.0000 
G00 X-130.8350 Y14.8801 
G01 Z-0.1000 F600.00 
G01 X-130.8350 Y15.0566 
G01 X-130.8006 Y15.2295 
G01 X-130.7331 Y15.3924 
G01 X-130.6352 Y15.5390 
G01 X-130.5105 Y15.6637 
G01 X-130.3639 Y15.7616 
G01 X-130.2283 Y15.8178 
G01 X-130.2283 Y16.9545 
G01 X-130.2283 Y17.0454 
G01 X-130.1935 Y17.1293 
G01 X-130.1293 Y17.1935 
G01 X-130.0454 Y17.2283 
G01 X-38.5554 Y17.2283 
G01 X-38.4645 Y17.2283 
G01 X-38.3806 Y17.1935 
G01 X-38.3164 Y17.1293 
G01 X-38.2816 Y17.0454 
G01 X-38.2816 Y14.6694 
G01 X-38.0314 Y14.6694 
G01 X-37.3545 Y13.9925 
G01 X-37.3545 Y13.0354 
G01 X-38.0314 Y12.3585 
G01 X-38.9885 Y12.3585 
G01 X-39.6654 Y13.0354 
G01 X-39.6654 Y13.9925 
G01 X-38.9885 Y14.6694 
G01 X-38.7383 Y14.6694 
G01 X-38.7383 Y16.7716 
G01 X-129.7716 Y16.7716 
G01 X-129.7716 Y15.8476 
G01 X-129.6787 Y15.8291 
G01 X-129.5158 Y15.7616 
G01 X-129.3692 Y15.6637 
G01 X-129.2445 Y15.5390 
G01 X-129.1466 Y15.3924 
G01 X-129.0791 Y15.2295 
G01 X-129.0447 Y15.0566 
G01 X-129.0447 Y14.8801 
G01 X-129.0791 Y14.7072 
G01 X-129.1466 Y14.5443 
G01 X-129.2445 Y14.3977 
G01 X-129.3692 Y14.2730 
G01 X-129.5158 Y14.1751 
G01 X-129.6787 Y14.1076 
G01 X-129.8516 Y14.0732 
G01 X-130.0281 Y14.0732 
G01 X-130.2010 Y14.1076 
G01 X-130.3639 Y14.1751 
G01 X-130.5105 Y14.2730 
G01 X-130.6352 Y14.3977 
G01 X-130.7331 Y14.5443 
G01 X-130.8006 Y14.7072 
G01 X-130.8350 Y14.8801 
G00 Z2.0000 
G00 X-125.2978 Y14.8801 
G01 Z-0.1000 F600.00 
G01 X-125.2978 Y15.0566 
G01 X-125.2634 Y15.2295 
G01 X-125.1959 Y15.3924 
G01 X-125.0980 Y15.5390 
G01 X-124.9733 Y15.6637 
G01 X-124.8267 Y15.7616 
G01 X-124.7283 Y15.8023 
G01 X-124.7283 Y15.9545 
G01 X-124.7283 Y16.0454 
G01 X-124.6935 Y16.1293 
G01 X-124.6293 Y16.1935 
G01 X-124.5454 Y16.2283 
G01 X-47.0574 Y16.2283 
G01 X-46.9665 Y16.2283 
G01 X-46.8826 Y16.1935 
G01 X-46.8184 Y16.1293 
G01 X-46.7836 Y16.0454 
G01 X-46.7836 Y14.6694 
G01 X-46.5334 Y14.6694 
G01 X-45.8565 Y13.9925 
G01 X-45.8565 Y13.0354 
G01 X-46.5334 Y12.3585 
G01 X-47.4905 Y12.3585 
G01 X-48.1674 Y13.0354 
G01 X-48.1674 Y13.9925 
G01 X-47.4905 Y14.6694 
G01 X-47.2403 Y14.6694 
G01 X-47.2403 Y15.7716 
G01 X-124.0029 Y15.7716 
G01 X-123.9786 Y15.7616 
G01 X-123.8320 Y15.6637 
G01 X-123.7073 Y15.5390 
G01 X-123.6094 Y15.3924 
G01 X-123.5419 Y15.2295 
G01 X-123.5075 Y15.0566 
G01 X-123.5075 Y14.8801 
G01 X-123.5419 Y14.7072 
G01 X-123.6094 Y14.5443 
G01 X-123.7073 Y14.3977 
G01 X-123.8320 Y14.2730 
G01 X-123.9786 Y14.1751 
G01 X-124.1415 Y14.1076 
G01 X-124.3144 Y14.0732 
G01 X-124.4909 Y14.0732 
G01 X-124.6638 Y14.1076 
G01 X-124.8267 Y14.1751 
G01 X-124.9733 Y14.2730 
G01 X-125.0980 Y14.3977 
G01 X-125.1959 Y14.5443 
G01 X-125.2634 Y14.7072 
G01 X-125.2978 Y14.8801 
G00 Z2.0000 
G00 X-154.3681 Y12.0353 
G01 Z-0.1000 F600.00 
G01 X-154.3681 Y12.2118 
G01 X-154.3337 Y12.3847 
G01 X-154.2662 Y12.5476 
G01 X-154.1683 Y12.6942 
G01 X-154.0436 Y12.8189 
G01 X-153.8970 Y12.9168 
G01 X-153.7341 Y12.9843 
G01 X-153.5612 Y13.0187 
G01 X-153.3847 Y13.0187 
G01 X-153.2118 Y12.9843 
G01 X-153.0489 Y12.9168 
G01 X-152.9023 Y12.8189 
G01 X-152.7776 Y12.6942 
G01 X-152.6797 Y12.5476 
G01 X-152.6122 Y12.3847 
G01 X-152.5778 Y12.2118 
G01 X-152.5778 Y12.0353 
G01 X-152.6122 Y11.8624 
G01 X-152.6797 Y11.6995 
G01 X-152.7776 Y11.5529 
G01 X-152.9023 Y11.4282 
G01 X-153.0489 Y11.3303 
G01 X-153.2118 Y11.2628 
G01 X-153.2716 Y11.2509 
G01 X-153.2716 Y5.7283 
G01 X-55.7423 Y5.7283 
G01 X-55.7423 Y12.3585 
G01 X-55.9925 Y12.3585 
G01 X-56.6694 Y13.0354 
G01 X-56.6694 Y13.9925 
G01 X-55.9925 Y14.6694 
G01 X-55.0354 Y14.6694 
G01 X-54.3585 Y13.9925 
G01 X-54.3585 Y13.0354 
G01 X-55.0354 Y12.3585 
G01 X-55.2856 Y12.3585 
G01 X-55.2856 Y5.4545 
G01 X-55.3204 Y5.3706 
G01 X-55.3846 Y5.3064 
G01 X-55.4685 Y5.2716 
G01 X-55.5594 Y5.2716 
G01 X-153.5454 Y5.2716 
G01 X-153.6293 Y5.3064 
G01 X-153.6935 Y5.3706 
G01 X-153.7283 Y5.4545 
G01 X-153.7283 Y5.5454 
G01 X-153.7283 Y11.2617 
G01 X-153.7341 Y11.2628 
G01 X-153.8970 Y11.3303 
G01 X-154.0436 Y11.4282 
G01 X-154.1683 Y11.5529 
G01 X-154.2662 Y11.6995 
G01 X-154.3337 Y11.8624 
G01 X-154.3681 Y12.0353 
G00 Z2.0000 
G00 X-148.8309 Y12.0353 
G01 Z-0.1000 F600.00 
G01 X-148.8309 Y12.2118 
G01 X-148.7965 Y12.3847 
G01 X-148.7290 Y12.5476 
G01 X-148.6311 Y12.6942 
G01 X-148.5064 Y12.8189 
G01 X-148.3598 Y12.9168 
G01 X-148.1969 Y12.9843 
G01 X-148.0240 Y13.0187 
G01 X-147.8475 Y13.0187 
G01 X-147.6746 Y12.9843 
G01 X-147.5117 Y12.9168 
G01 X-147.3651 Y12.8189 
G01 X-147.2404 Y12.6942 
G01 X-147.1425 Y12.5476 
G01 X-147.0750 Y12.3847 
G01 X-147.0406 Y12.2118 
G01 X-147.0406 Y12.0353 
G01 X-147.0750 Y11.8624 
G01 X-147.1425 Y11.6995 
G01 X-147.2404 Y11.5529 
G01 X-147.2716 Y11.5217 
G01 X-147.2716 Y6.7283 
G01 X-64.2443 Y6.7283 
G01 X-64.2443 Y12.3585 
G01 X-64.4945 Y12.3585 
G01 X-65.1714 Y13.0354 
G01 X-65.1714 Y13.9925 
G01 X-64.4945 Y14.6694 
G01 X-63.5374 Y14.6694 
G01 X-62.8605 Y13.9925 
G01 X-62.8605 Y13.0354 
G01 X-63.5374 Y12.3585 
G01 X-63.7876 Y12.3585 
G01 X-63.7876 Y6.4545 
G01 X-63.8224 Y6.3706 
G01 X-63.8866 Y6.3064 
G01 X-63.9705 Y6.2716 
G01 X-64.0614 Y6.2716 
G01 X-147.5454 Y6.2716 
G01 X-147.6293 Y6.3064 
G01 X-147.6935 Y6.3706 
G01 X-147.7283 Y6.4545 
G01 X-147.7283 Y6.5454 
G01 X-147.7283 Y11.2522 
G01 X-147.8475 Y11.2284 
G01 X-148.0240 Y11.2284 
G01 X-148.1969 Y11.2628 
G01 X-148.3598 Y11.3303 
G01 X-148.5064 Y11.4282 
G01 X-148.6311 Y11.5529 
G01 X-148.7290 Y11.6995 
G01 X-148.7965 Y11.8624 
G01 X-148.8309 Y12.0353 
G00 Z2.0000 
G00 X-143.2937 Y12.0353 
G01 Z-0.1000 F600.00 
G01 X-143.2937 Y12.2118 
G01 X-143.2593 Y12.3847 
G01 X-143.1918 Y12.5476 
G01 X-143.0939 Y12.6942 
G01 X-142.9692 Y12.8189 
G01 X-142.8226 Y12.9168 
G01 X-142.6597 Y12.9843 
G01 X-142.4868 Y13.0187 
G01 X-142.3103 Y13.0187 
G01 X-142.1374 Y12.9843 
G01 X-141.9745 Y12.9168 
G01 X-141.8279 Y12.8189 
G01 X-141.7032 Y12.6942 
G01 X-141.6053 Y12.5476 
G01 X-141.5378 Y12.3847 
G01 X-141.5034 Y12.2118 
G01 X-141.5034 Y12.0353 
G01 X-141.5378 Y11.8624 
G01 X-141.6053 Y11.6995 
G01 X-141.7032 Y11.5529 
G01 X-141.8279 Y11.4282 
G01 X-141.9745 Y11.3303 
G01 X-142.1374 Y11.2628 
G01 X-142.2716 Y11.2361 
G01 X-142.2716 Y7.7283 
G01 X-72.7463 Y7.7283 
G01 X-72.7463 Y12.3585 
G01 X-72.9965 Y12.3585 
G01 X-73.6734 Y13.0354 
G01 X-73.6734 Y13.9925 
G01 X-72.9965 Y14.6694 
G01 X-72.0394 Y14.6694 
G01 X-71.3625 Y13.9925 
G01 X-71.3625 Y13.0354 
G01 X-72.0394 Y12.3585 
G01 X-72.2896 Y12.3585 
G01 X-72.2896 Y7.4545 
G01 X-72.3244 Y7.3706 
G01 X-72.3886 Y7.3064 
G01 X-72.4725 Y7.2716 
G01 X-72.5634 Y7.2716 
G01 X-142.5454 Y7.2716 
G01 X-142.6293 Y7.3064 
G01 X-142.6935 Y7.3706 
G01 X-142.7283 Y7.4545 
G01 X-142.7283 Y7.5454 
G01 X-142.7283 Y11.2913 
G01 X-142.8226 Y11.3303 
G01 X-142.9692 Y11.4282 
G01 X-143.0939 Y11.5529 
G01 X-143.1918 Y11.6995 
G01 X-143.2593 Y11.8624 
G01 X-143.2937 Y12.0353 
G00 Z2.0000 
G00 X-137.7565 Y12.0353 
G01 Z-0.1000 F600.00 
G01 X-137.7565 Y12.2118 
G01 X-137.7221 Y12.3847 
G01 X-137.6546 Y12.5476 
G01 X-137.5567 Y12.6942 
G01 X-137.4320 Y12.8189 
G01 X-137.2854 Y12.9168 
G01 X-137.1225 Y12.9843 
G01 X-136.9496 Y13.0187 
G01 X-136.7731 Y13.0187 
G01 X-136.6002 Y12.9843 
G01 X-136.4373 Y12.9168 
G01 X-136.2907 Y12.8189 
G01 X-136.1660 Y12.6942 
G01 X-136.0681 Y12.5476 
G01 X-136.0006 Y12.3847 
G01 X-135.9662 Y12.2118 
G01 X-135.9662 Y12.0353 
G01 X-136.0006 Y11.8624 
G01 X-136.0681 Y11.6995 
G01 X-136.1660 Y11.5529 
G01 X-136.2907 Y11.4282 
G01 X-136.4373 Y11.3303 
G01 X-136.6002 Y11.2628 
G01 X-136.6330 Y11.2563 
G01 X-136.6330 Y8.7283 
G01 X-81.2283 Y8.7283 
G01 X-81.2283 Y12.3585 
G01 X-81.4985 Y12.3585 
G01 X-82.1754 Y13.0354 
G01 X-82.1754 Y13.9925 
G01 X-81.4985 Y14.6694 
G01 X-80.5414 Y14.6694 
G01 X-79.8645 Y13.9925 
G01 X-79.8645 Y13.0354 
G01 X-80.5414 Y12.3585 
G01 X-80.7716 Y12.3585 
G01 X-80.7716 Y8.5454 
G01 X-80.7716 Y8.4545 
G01 X-80.8064 Y8.3706 
G01 X-80.8706 Y8.3064 
G01 X-80.9545 Y8.2716 
G01 X-136.8159 Y8.2716 
G01 X-136.9068 Y8.2716 
G01 X-136.9907 Y8.3064 
G01 X-137.0549 Y8.3706 
G01 X-137.0897 Y8.4545 
G01 X-137.0897 Y11.2563 
G01 X-137.1225 Y11.2628 
G01 X-137.2854 Y11.3303 
G01 X-137.4320 Y11.4282 
G01 X-137.5567 Y11.5529 
G01 X-137.6546 Y11.6995 
G01 X-137.7221 Y11.8624 
G01 X-137.7565 Y12.0353 
G00 Z2.0000 
G00 X-132.2193 Y12.0353 
G01 Z-0.1000 F600.00 
G01 X-132.2193 Y12.2118 
G01 X-132.1849 Y12.3847 
G01 X-132.1174 Y12.5476 
G01 X-132.0195 Y12.6942 
G01 X-131.8948 Y12.8189 
G01 X-131.7482 Y12.9168 
G01 X-131.5853 Y12.9843 
G01 X-131.4124 Y13.0187 
G01 X-131.2359 Y13.0187 
G01 X-131.0630 Y12.9843 
G01 X-130.9001 Y12.9168 
G01 X-130.7535 Y12.8189 
G01 X-130.6288 Y12.6942 
G01 X-130.5309 Y12.5476 
G01 X-130.4634 Y12.3847 
G01 X-130.4290 Y12.2118 
G01 X-130.4290 Y12.0353 
G01 X-130.4634 Y11.8624 
G01 X-130.5309 Y11.6995 
G01 X-130.6288 Y11.5529 
G01 X-130.7535 Y11.4282 
G01 X-130.9001 Y11.3303 
G01 X-131.0630 Y11.2628 
G01 X-131.2359 Y11.2284 
G01 X-131.2716 Y11.2284 
G01 X-131.2716 Y9.7283 
G01 X-89.7503 Y9.7283 
G01 X-89.7503 Y12.3585 
G01 X-90.0005 Y12.3585 
G01 X-90.6774 Y13.0354 
G01 X-90.6774 Y13.9925 
G01 X-90.0005 Y14.6694 
G01 X-89.0434 Y14.6694 
G01 X-88.3665 Y13.9925 
G01 X-88.3665 Y13.0354 
G01 X-89.0434 Y12.3585 
G01 X-89.2936 Y12.3585 
G01 X-89.2936 Y9.4545 
G01 X-89.3284 Y9.3706 
G01 X-89.3926 Y9.3064 
G01 X-89.4765 Y9.2716 
G01 X-89.5674 Y9.2716 
G01 X-131.5454 Y9.2716 
G01 X-131.6293 Y9.3064 
G01 X-131.6935 Y9.3706 
G01 X-131.7283 Y9.4545 
G01 X-131.7283 Y9.5454 
G01 X-131.7283 Y11.3221 
G01 X-131.7482 Y11.3303 
G01 X-131.8948 Y11.4282 
G01 X-132.0195 Y11.5529 
G01 X-132.1174 Y11.6995 
G01 X-132.1849 Y11.8624 
G01 X-132.2193 Y12.0353 
G00 Z2.0000 
G00 X-123.9135 Y12.0353 
G01 Z-0.1000 F600.00 
G01 X-123.9135 Y12.2118 
G01 X-123.8791 Y12.3847 
G01 X-123.8116 Y12.5476 
G01 X-123.7137 Y12.6942 
G01 X-123.5890 Y12.8189 
G01 X-123.4424 Y12.9168 
G01 X-123.2795 Y12.9843 
G01 X-123.1066 Y13.0187 
G01 X-122.9301 Y13.0187 
G01 X-122.7572 Y12.9843 
G01 X-122.5943 Y12.9168 
G01 X-122.4477 Y12.8189 
G01 X-122.3230 Y12.6942 
G01 X-122.2251 Y12.5476 
G01 X-122.1576 Y12.3847 
G01 X-122.1232 Y12.2118 
G01 X-122.1232 Y12.0353 
G01 X-122.1576 Y11.8624 
G01 X-122.2251 Y11.6995 
G01 X-122.3230 Y11.5529 
G01 X-122.4477 Y11.4282 
G01 X-122.5943 Y11.3303 
G01 X-122.7572 Y11.2628 
G01 X-122.7716 Y11.2600 
G01 X-122.7716 Y11.2283 
G01 X-102.5033 Y11.2283 
G01 X-102.5033 Y12.3585 
G01 X-102.7535 Y12.3585 
G01 X-103.4304 Y13.0354 
G01 X-103.4304 Y13.9925 
G01 X-102.7535 Y14.6694 
G01 X-101.7964 Y14.6694 
G01 X-101.1195 Y13.9925 
G01 X-101.1195 Y13.0354 
G01 X-101.7964 Y12.3585 
G01 X-102.0466 Y12.3585 
G01 X-102.0466 Y10.9545 
G01 X-102.0814 Y10.8706 
G01 X-102.1456 Y10.8064 
G01 X-102.2295 Y10.7716 
G01 X-102.3204 Y10.7716 
G01 X-123.0454 Y10.7716 
G01 X-123.1293 Y10.8064 
G01 X-123.1935 Y10.8706 
G01 X-123.2283 Y10.9545 
G01 X-123.2283 Y11.0454 
G01 X-123.2283 Y11.2527 
G01 X-123.2795 Y11.2628 
G01 X-123.4424 Y11.3303 
G01 X-123.5890 Y11.4282 
G01 X-123.7137 Y11.5529 
G01 X-123.8116 Y11.6995 
G01 X-123.8791 Y11.8624 
G01 X-123.9135 Y12.0353 
G00 Z2.0000 
G00 X-69.4224 Y13.0354 
G01 Z-0.1000 F600.00 
G01 X-69.4224 Y13.9925 
G01 X-68.7455 Y14.6694 
G01 X-67.7884 Y14.6694 
G01 X-67.1115 Y13.9925 
G01 X-67.1115 Y13.0354 
G01 X-67.7884 Y12.3585 
G01 X-68.0386 Y12.3585 
G01 X-68.0386 Y6.9545 
G01 X-68.0734 Y6.8706 
G01 X-68.1376 Y6.8064 
G01 X-68.2215 Y6.7716 
G01 X-68.3124 Y6.7716 
G01 X-145.5454 Y6.7716 
G01 X-145.6293 Y6.8064 
G01 X-145.6935 Y6.8706 
G01 X-145.7283 Y6.9545 
G01 X-145.7283 Y7.0454 
G01 X-145.7283 Y11.4219 
G01 X-145.7378 Y11.4282 
G01 X-145.8625 Y11.5529 
G01 X-145.9604 Y11.6995 
G01 X-146.0279 Y11.8624 
G01 X-146.0623 Y12.0353 
G01 X-146.0623 Y12.2118 
G01 X-146.0279 Y12.3847 
G01 X-145.9604 Y12.5476 
G01 X-145.8625 Y12.6942 
G01 X-145.7378 Y12.8189 
G01 X-145.5912 Y12.9168 
G01 X-145.4283 Y12.9843 
G01 X-145.2554 Y13.0187 
G01 X-145.0789 Y13.0187 
G01 X-144.9060 Y12.9843 
G01 X-144.7431 Y12.9168 
G01 X-144.5965 Y12.8189 
G01 X-144.4718 Y12.6942 
G01 X-144.3739 Y12.5476 
G01 X-144.3064 Y12.3847 
G01 X-144.2720 Y12.2118 
G01 X-144.2720 Y12.0353 
G01 X-144.3064 Y11.8624 
G01 X-144.3739 Y11.6995 
G01 X-144.4718 Y11.5529 
G01 X-144.5965 Y11.4282 
G01 X-144.7431 Y11.3303 
G01 X-144.9060 Y11.2628 
G01 X-145.0789 Y11.2284 
G01 X-145.2554 Y11.2284 
G01 X-145.2716 Y11.2317 
G01 X-145.2716 Y7.2283 
G01 X-68.4953 Y7.2283 
G01 X-68.4953 Y12.3585 
G01 X-68.7455 Y12.3585 
G01 X-69.4224 Y13.0354 
G00 Z2.0000 
G00 X-77.9244 Y13.0354 
G01 Z-0.1000 F600.00 
G01 X-77.9244 Y13.9925 
G01 X-77.2475 Y14.6694 
G01 X-76.2904 Y14.6694 
G01 X-75.6135 Y13.9925 
G01 X-75.6135 Y13.0354 
G01 X-76.2904 Y12.3585 
G01 X-76.5406 Y12.3585 
G01 X-76.5406 Y7.9545 
G01 X-76.5754 Y7.8706 
G01 X-76.6396 Y7.8064 
G01 X-76.7235 Y7.7716 
G01 X-76.8144 Y7.7716 
G01 X-139.5454 Y7.7716 
G01 X-139.6293 Y7.8064 
G01 X-139.6935 Y7.8706 
G01 X-139.7283 Y7.9545 
G01 X-139.7283 Y8.0454 
G01 X-139.7283 Y11.2304 
G01 X-139.8911 Y11.2628 
G01 X-140.0540 Y11.3303 
G01 X-140.2006 Y11.4282 
G01 X-140.3253 Y11.5529 
G01 X-140.4232 Y11.6995 
G01 X-140.4907 Y11.8624 
G01 X-140.5251 Y12.0353 
G01 X-140.5251 Y12.2118 
G01 X-140.4907 Y12.3847 
G01 X-140.4232 Y12.5476 
G01 X-140.3253 Y12.6942 
G01 X-140.2006 Y12.8189 
G01 X-140.0540 Y12.9168 
G01 X-139.8911 Y12.9843 
G01 X-139.7182 Y13.0187 
G01 X-139.5417 Y13.0187 
G01 X-139.3688 Y12.9843 
G01 X-139.2059 Y12.9168 
G01 X-139.0593 Y12.8189 
G01 X-138.9346 Y12.6942 
G01 X-138.8367 Y12.5476 
G01 X-138.7692 Y12.3847 
G01 X-138.7348 Y12.2118 
G01 X-138.7348 Y12.0353 
G01 X-138.7692 Y11.8624 
G01 X-138.8367 Y11.6995 
G01 X-138.9346 Y11.5529 
G01 X-139.0593 Y11.4282 
G01 X-139.2059 Y11.3303 
G01 X-139.2716 Y11.3031 
G01 X-139.2716 Y8.2283 
G01 X-76.9973 Y8.2283 
G01 X-76.9973 Y12.3585 
G01 X-77.2475 Y12.3585 
G01 X-77.9244 Y13.0354 
G00 Z2.0000 
G00 X-86.4264 Y13.0354 
G01 Z-0.1000 F600.00 
G01 X-86.4264 Y13.9925 
G01 X-85.7495 Y14.6694 
G01 X-84.7924 Y14.6694 
G01 X-84.1155 Y13.9925 
G01 X-84.1155 Y13.0354 
G01 X-84.7924 Y12.3585 
G01 X-85.0426 Y12.3585 
G01 X-85.0426 Y8.9545 
G01 X-85.0774 Y8.8706 
G01 X-85.1416 Y8.8064 
G01 X-85.2255 Y8.7716 
G01 X-85.3164 Y8.7716 
G01 X-134.5454 Y8.7716 
G01 X-134.6293 Y8.8064 
G01 X-134.6935 Y8.8706 
G01 X-134.7283 Y8.9545 
G01 X-134.7283 Y9.0454 
G01 X-134.7283 Y11.4932 
G01 X-134.7881 Y11.5529 
G01 X-134.8860 Y11.6995 
G01 X-134.9535 Y11.8624 
G01 X-134.9879 Y12.0353 
G01 X-134.9879 Y12.2118 
G01 X-134.9535 Y12.3847 
G01 X-134.8860 Y12.5476 
G01 X-134.7881 Y12.6942 
G01 X-134.6634 Y12.8189 
G01 X-134.5168 Y12.9168 
G01 X-134.3539 Y12.9843 
G01 X-134.1810 Y13.0187 
G01 X-134.0045 Y13.0187 
G01 X-133.8316 Y12.9843 
G01 X-133.6687 Y12.9168 
G01 X-133.5221 Y12.8189 
G01 X-133.3974 Y12.6942 
G01 X-133.2995 Y12.5476 
G01 X-133.2320 Y12.3847 
G01 X-133.1976 Y12.2118 
G01 X-133.1976 Y12.0353 
G01 X-133.2320 Y11.8624 
G01 X-133.2995 Y11.6995 
G01 X-133.3974 Y11.5529 
G01 X-133.5221 Y11.4282 
G01 X-133.6687 Y11.3303 
G01 X-133.8316 Y11.2628 
G01 X-134.0045 Y11.2284 
G01 X-134.1810 Y11.2284 
G01 X-134.2716 Y11.2465 
G01 X-134.2716 Y9.2283 
G01 X-85.4993 Y9.2283 
G01 X-85.4993 Y12.3585 
G01 X-85.7495 Y12.3585 
G01 X-86.4264 Y13.0354 
G00 Z2.0000 
G00 X-94.9284 Y13.0354 
G01 Z-0.1000 F600.00 
G01 X-94.9284 Y13.9925 
G01 X-94.2515 Y14.6694 
G01 X-93.2944 Y14.6694 
G01 X-92.6175 Y13.9925 
G01 X-92.6175 Y13.0354 
G01 X-93.2944 Y12.3585 
G01 X-93.5446 Y12.3585 
G01 X-93.5446 Y9.9545 
G01 X-93.5794 Y9.8706 
G01 X-93.6436 Y9.8064 
G01 X-93.7275 Y9.7716 
G01 X-93.8184 Y9.7716 
G01 X-128.5454 Y9.7716 
G01 X-128.6293 Y9.8064 
G01 X-128.6935 Y9.8706 
G01 X-128.7283 Y9.9545 
G01 X-128.7283 Y10.0454 
G01 X-128.7283 Y11.2453 
G01 X-128.8167 Y11.2628 
G01 X-128.9796 Y11.3303 
G01 X-129.1262 Y11.4282 
G01 X-129.2509 Y11.5529 
G01 X-129.3488 Y11.6995 
G01 X-129.4163 Y11.8624 
G01 X-129.4507 Y12.0353 
G01 X-129.4507 Y12.2118 
G01 X-129.4163 Y12.3847 
G01 X-129.3488 Y12.5476 
G01 X-129.2509 Y12.6942 
G01 X-129.1262 Y12.8189 
G01 X-128.9796 Y12.9168 
G01 X-128.8167 Y12.9843 
G01 X-128.6438 Y13.0187 
G01 X-128.4673 Y13.0187 
G01 X-128.2944 Y12.9843 
G01 X-128.1315 Y12.9168 
G01 X-127.9849 Y12.8189 
G01 X-127.8602 Y12.6942 
G01 X-127.7623 Y12.5476 
G01 X-127.6948 Y12.3847 
G01 X-127.6604 Y12.2118 
G01 X-127.6604 Y12.0353 
G01 X-127.6948 Y11.8624 
G01 X-127.7623 Y11.6995 
G01 X-127.8602 Y11.5529 
G01 X-127.9849 Y11.4282 
G01 X-128.1315 Y11.3303 
G01 X-128.2716 Y11.2723 
G01 X-128.2716 Y10.2283 
G01 X-94.0013 Y10.2283 
G01 X-94.0013 Y12.3585 
G01 X-94.2515 Y12.3585 
G01 X-94.9284 Y13.0354 
G00 Z2.0000 
G00 X-99.1794 Y13.0354 
G01 Z-0.1000 F600.00 
G01 X-99.1794 Y13.9925 
G01 X-98.5025 Y14.6694 
G01 X-97.5454 Y14.6694 
G01 X-96.8685 Y13.9925 
G01 X-96.8685 Y13.0354 
G01 X-97.5454 Y12.3585 
G01 X-97.7716 Y12.3585 
G01 X-97.7716 Y10.5454 
G01 X-97.7716 Y10.4545 
G01 X-97.8064 Y10.3706 
G01 X-97.8706 Y10.3064 
G01 X-97.9545 Y10.2716 
G01 X-125.7415 Y10.2716 
G01 X-125.8324 Y10.2716 
G01 X-125.9163 Y10.3064 
G01 X-125.9805 Y10.3706 
G01 X-126.0153 Y10.4545 
G01 X-126.0153 Y11.2563 
G01 X-126.0481 Y11.2628 
G01 X-126.2110 Y11.3303 
G01 X-126.3576 Y11.4282 
G01 X-126.4823 Y11.5529 
G01 X-126.5802 Y11.6995 
G01 X-126.6477 Y11.8624 
G01 X-126.6821 Y12.0353 
G01 X-126.6821 Y12.2118 
G01 X-126.6477 Y12.3847 
G01 X-126.5802 Y12.5476 
G01 X-126.4823 Y12.6942 
G01 X-126.3576 Y12.8189 
G01 X-126.2110 Y12.9168 
G01 X-126.0481 Y12.9843 
G01 X-125.8752 Y13.0187 
G01 X-125.6987 Y13.0187 
G01 X-125.5258 Y12.9843 
G01 X-125.3629 Y12.9168 
G01 X-125.2163 Y12.8189 
G01 X-125.0916 Y12.6942 
G01 X-124.9937 Y12.5476 
G01 X-124.9262 Y12.3847 
G01 X-124.8918 Y12.2118 
G01 X-124.8918 Y12.0353 
G01 X-124.9262 Y11.8624 
G01 X-124.9937 Y11.6995 
G01 X-125.0916 Y11.5529 
G01 X-125.2163 Y11.4282 
G01 X-125.3629 Y11.3303 
G01 X-125.5258 Y11.2628 
G01 X-125.5586 Y11.2563 
G01 X-125.5586 Y10.7283 
G01 X-98.2283 Y10.7283 
G01 X-98.2283 Y12.3585 
G01 X-98.5025 Y12.3585 
G01 X-99.1794 Y13.0354 
(File Footer)
G00 Z2.0000 
G00 Z10.0000 
M05
M02
