( This gcode generated by /home/mattvenn/.eagle/ulp/pcb-gcode.ulp )
( Copyright 2005 by John Johnson. See readme.txt for licensing terms. )

( This file generated from the board /home/mattvenn/eagle-circuit-designs/cvm/hymera.brd )
( This file generated 31/01/2012 16:32 )

G21

G90
G00 Z10.0000 
G00 X0 Y0
M03
G04 P3.000000
G00 Z2.0000 
G00 X-105.8594 Y28.3785 
G01 Z-0.1000 F600.00 
G01 X-105.8594 Y26.6103 
G01 X-101.2005 Y19.8807 
G01 X-71.2959 Y19.8807 
G01 X-66.9807 Y25.9221 
G01 X-66.9807 Y28.8501 
G01 X-66.9548 Y28.9469 
G01 X-66.9046 Y29.0338 
G01 X-66.8338 Y29.1046 
G01 X-65.3338 Y30.6046 
G01 X-65.2469 Y30.6548 
G01 X-65.1501 Y30.6807 
G01 X-65.0498 Y30.6807 
G01 X-63.9272 Y30.6807 
G01 X-63.9042 Y30.6840 
G01 X-63.8768 Y30.6807 
G01 X-63.8498 Y30.6807 
G01 X-63.8277 Y30.6748 
G01 X-63.8046 Y30.6720 
G01 X-63.7794 Y30.6618 
G01 X-63.7530 Y30.6548 
G01 X-63.7328 Y30.6431 
G01 X-63.7116 Y30.6346 
G01 X-63.6901 Y30.6184 
G01 X-63.6661 Y30.6046 
G01 X-63.6496 Y30.5881 
G01 X-62.4898 Y29.7182 
G01 X-62.4661 Y29.7046 
G01 X-62.4498 Y29.6883 
G01 X-62.4314 Y29.6745 
G01 X-62.4147 Y29.6531 
G01 X-62.3953 Y29.6338 
G01 X-62.3837 Y29.6136 
G01 X-62.3695 Y29.5956 
G01 X-62.3589 Y29.5707 
G01 X-62.3451 Y29.5469 
G01 X-62.3392 Y29.5246 
G01 X-62.3301 Y29.5035 
G01 X-62.3262 Y29.4762 
G01 X-62.3192 Y29.4501 
G01 X-62.3192 Y29.4272 
G01 X-62.3159 Y29.4042 
G01 X-62.3192 Y29.3768 
G01 X-62.3192 Y18.4467 
G01 X-54.9310 Y10.2807 
G01 X-54.6141 Y10.2807 
G01 X-54.5679 Y10.3269 
G01 X-54.4213 Y10.4248 
G01 X-54.2584 Y10.4923 
G01 X-54.0855 Y10.5267 
G01 X-53.9090 Y10.5267 
G01 X-53.7361 Y10.4923 
G01 X-53.5732 Y10.4248 
G01 X-53.4266 Y10.3269 
G01 X-53.3019 Y10.2022 
G01 X-53.2040 Y10.0556 
G01 X-53.1365 Y9.8927 
G01 X-53.1021 Y9.7198 
G01 X-53.1021 Y9.5433 
G01 X-53.1365 Y9.3704 
G01 X-53.2040 Y9.2075 
G01 X-53.3019 Y9.0609 
G01 X-53.4266 Y8.9362 
G01 X-53.5732 Y8.8383 
G01 X-53.7361 Y8.7708 
G01 X-53.9090 Y8.7364 
G01 X-54.0855 Y8.7364 
G01 X-54.2584 Y8.7708 
G01 X-54.4213 Y8.8383 
G01 X-54.5679 Y8.9362 
G01 X-54.6926 Y9.0609 
G01 X-54.7905 Y9.2075 
G01 X-54.8580 Y9.3704 
G01 X-54.8876 Y9.5192 
G01 X-55.0596 Y9.5192 
G01 X-55.0689 Y9.5172 
G01 X-55.1090 Y9.5192 
G01 X-55.1501 Y9.5192 
G01 X-55.1595 Y9.5217 
G01 X-55.1691 Y9.5222 
G01 X-55.2075 Y9.5346 
G01 X-55.2469 Y9.5451 
G01 X-55.2552 Y9.5499 
G01 X-55.2645 Y9.5529 
G01 X-55.2991 Y9.5753 
G01 X-55.3338 Y9.5953 
G01 X-55.3405 Y9.6020 
G01 X-55.3487 Y9.6073 
G01 X-55.3762 Y9.6378 
G01 X-55.4046 Y9.6661 
G01 X-55.4093 Y9.6744 
G01 X-62.9760 Y18.0375 
G01 X-63.0046 Y18.0661 
G01 X-63.0094 Y18.0745 
G01 X-63.0159 Y18.0816 
G01 X-63.0344 Y18.1178 
G01 X-63.0548 Y18.1530 
G01 X-63.0573 Y18.1623 
G01 X-63.0617 Y18.1709 
G01 X-63.0702 Y18.2105 
G01 X-63.0807 Y18.2498 
G01 X-63.0807 Y18.2596 
G01 X-63.0827 Y18.2689 
G01 X-63.0807 Y18.3090 
G01 X-63.0807 Y29.2096 
G01 X-64.0269 Y29.9192 
G01 X-64.9422 Y29.9192 
G01 X-66.2192 Y28.6422 
G01 X-66.2192 Y25.8316 
G01 X-66.2161 Y25.8131 
G01 X-66.2192 Y25.7812 
G01 X-66.2192 Y25.7498 
G01 X-66.2240 Y25.7319 
G01 X-66.2258 Y25.7133 
G01 X-66.2369 Y25.6838 
G01 X-66.2451 Y25.6530 
G01 X-66.2545 Y25.6367 
G01 X-66.2610 Y25.6194 
G01 X-66.2794 Y25.5937 
G01 X-66.2953 Y25.5661 
G01 X-66.3085 Y25.5529 
G01 X-70.7797 Y19.2931 
G01 X-70.7953 Y19.2661 
G01 X-70.8082 Y19.2532 
G01 X-70.8192 Y19.2378 
G01 X-70.8441 Y19.2174 
G01 X-70.8661 Y19.1953 
G01 X-70.8820 Y19.1861 
G01 X-70.8966 Y19.1741 
G01 X-70.9257 Y19.1609 
G01 X-70.9530 Y19.1451 
G01 X-70.9710 Y19.1403 
G01 X-70.9879 Y19.1326 
G01 X-71.0193 Y19.1274 
G01 X-71.0498 Y19.1192 
G01 X-71.0683 Y19.1192 
G01 X-71.0868 Y19.1161 
G01 X-71.1187 Y19.1192 
G01 X-101.3851 Y19.1192 
G01 X-101.4188 Y19.1164 
G01 X-101.4340 Y19.1192 
G01 X-101.4501 Y19.1192 
G01 X-101.4840 Y19.1283 
G01 X-101.5174 Y19.1343 
G01 X-101.5313 Y19.1409 
G01 X-101.5469 Y19.1451 
G01 X-101.5777 Y19.1629 
G01 X-101.6080 Y19.1772 
G01 X-101.6196 Y19.1872 
G01 X-101.6338 Y19.1953 
G01 X-101.6587 Y19.2202 
G01 X-101.6845 Y19.2420 
G01 X-101.6933 Y19.2549 
G01 X-101.7046 Y19.2661 
G01 X-101.7220 Y19.2963 
G01 X-106.1055 Y25.6281 
G01 X-106.1124 Y25.6185 
G01 X-106.2311 Y25.4998 
G01 X-106.3669 Y25.4011 
G01 X-106.5165 Y25.3249 
G01 X-106.6762 Y25.2731 
G01 X-106.8420 Y25.2468 
G01 X-107.0099 Y25.2468 
G01 X-107.1757 Y25.2731 
G01 X-107.3354 Y25.3249 
G01 X-107.4850 Y25.4011 
G01 X-107.6208 Y25.4998 
G01 X-107.7395 Y25.6185 
G01 X-107.8382 Y25.7543 
G01 X-107.9144 Y25.9039 
G01 X-107.9662 Y26.0636 
G01 X-107.9925 Y26.2294 
G01 X-107.9925 Y28.3785 
G01 X-107.9662 Y28.5443 
G01 X-107.9144 Y28.7040 
G01 X-107.8382 Y28.8536 
G01 X-107.7395 Y28.9894 
G01 X-107.6208 Y29.1081 
G01 X-107.4850 Y29.2068 
G01 X-107.3354 Y29.2830 
G01 X-107.1757 Y29.3348 
G01 X-107.0099 Y29.3611 
G01 X-106.8420 Y29.3611 
G01 X-106.6762 Y29.3348 
G01 X-106.5165 Y29.2830 
G01 X-106.3669 Y29.2068 
G01 X-106.2311 Y29.1081 
G01 X-106.1124 Y28.9894 
G01 X-106.0137 Y28.8536 
G01 X-105.9375 Y28.7040 
G01 X-105.8857 Y28.5443 
G01 X-105.8594 Y28.3785 
G00 Z2.0000 
G00 X-101.6084 Y26.2294 
G01 Z-0.1000 F600.00 
G01 X-101.6347 Y26.0636 
G01 X-101.6865 Y25.9039 
G01 X-101.7627 Y25.7543 
G01 X-101.8614 Y25.6185 
G01 X-101.9801 Y25.4998 
G01 X-102.1159 Y25.4011 
G01 X-102.2655 Y25.3249 
G01 X-102.4252 Y25.2731 
G01 X-102.5910 Y25.2468 
G01 X-102.7589 Y25.2468 
G01 X-102.9247 Y25.2731 
G01 X-103.0844 Y25.3249 
G01 X-103.2340 Y25.4011 
G01 X-103.3698 Y25.4998 
G01 X-103.4885 Y25.6185 
G01 X-103.5872 Y25.7543 
G01 X-103.6634 Y25.9039 
G01 X-103.7152 Y26.0636 
G01 X-103.7415 Y26.2294 
G01 X-103.7415 Y28.3785 
G01 X-103.7152 Y28.5443 
G01 X-103.6634 Y28.7040 
G01 X-103.5872 Y28.8536 
G01 X-103.4885 Y28.9894 
G01 X-103.3698 Y29.1081 
G01 X-103.2340 Y29.2068 
G01 X-103.0844 Y29.2830 
G01 X-102.9247 Y29.3348 
G01 X-102.7589 Y29.3611 
G01 X-102.5910 Y29.3611 
G01 X-102.4252 Y29.3348 
G01 X-102.2655 Y29.2830 
G01 X-102.1159 Y29.2068 
G01 X-101.9801 Y29.1081 
G01 X-101.9545 Y29.0824 
G01 X-95.4178 Y37.7108 
G01 X-95.4046 Y37.7338 
G01 X-95.3876 Y37.7508 
G01 X-95.3732 Y37.7698 
G01 X-95.3525 Y37.7859 
G01 X-95.3338 Y37.8046 
G01 X-95.3130 Y37.8166 
G01 X-95.2940 Y37.8314 
G01 X-95.2696 Y37.8417 
G01 X-95.2469 Y37.8548 
G01 X-95.2238 Y37.8609 
G01 X-95.2017 Y37.8703 
G01 X-95.1754 Y37.8739 
G01 X-95.1501 Y37.8807 
G01 X-95.1263 Y37.8807 
G01 X-95.1024 Y37.8840 
G01 X-95.0761 Y37.8807 
G01 X-26.7279 Y37.8807 
G01 X-26.7062 Y37.8839 
G01 X-26.6784 Y37.8807 
G01 X-26.6498 Y37.8807 
G01 X-26.6281 Y37.8749 
G01 X-26.6065 Y37.8724 
G01 X-26.5807 Y37.8622 
G01 X-26.5530 Y37.8548 
G01 X-26.5338 Y37.8436 
G01 X-26.5133 Y37.8356 
G01 X-26.4907 Y37.8188 
G01 X-26.4661 Y37.8046 
G01 X-26.4503 Y37.7888 
G01 X-26.4328 Y37.7758 
G01 X-26.4156 Y37.7540 
G01 X-26.3953 Y37.7338 
G01 X-26.3841 Y37.7143 
G01 X-19.5154 Y29.0538 
G01 X-19.4953 Y29.0338 
G01 X-19.4842 Y29.0145 
G01 X-19.4705 Y28.9973 
G01 X-19.4593 Y28.9715 
G01 X-19.4451 Y28.9469 
G01 X-19.4394 Y28.9255 
G01 X-19.4306 Y28.9053 
G01 X-19.4265 Y28.8772 
G01 X-19.4192 Y28.8501 
G01 X-19.4192 Y28.8279 
G01 X-19.4160 Y28.8062 
G01 X-19.4192 Y28.7784 
G01 X-19.4192 Y25.7498 
G01 X-19.4451 Y25.6530 
G01 X-19.4953 Y25.5661 
G01 X-19.5661 Y25.4953 
G01 X-21.0661 Y23.9953 
G01 X-21.1530 Y23.9451 
G01 X-21.2498 Y23.9192 
G01 X-21.3501 Y23.9192 
G01 X-21.7491 Y23.9192 
G01 X-31.4192 Y14.8352 
G01 X-31.4192 Y11.9666 
G01 X-30.2731 Y10.9086 
G01 X-30.2661 Y10.9046 
G01 X-30.2349 Y10.8733 
G01 X-30.2049 Y10.8457 
G01 X-30.2010 Y10.8394 
G01 X-30.1953 Y10.8338 
G01 X-30.1737 Y10.7963 
G01 X-30.1513 Y10.7610 
G01 X-30.1491 Y10.7536 
G01 X-30.1451 Y10.7469 
G01 X-30.1341 Y10.7056 
G01 X-30.1215 Y10.6653 
G01 X-30.1212 Y10.6575 
G01 X-30.1192 Y10.6501 
G01 X-30.1192 Y10.6077 
G01 X-30.1175 Y10.5650 
G01 X-30.1192 Y10.5575 
G01 X-30.1192 Y9.0295 
G01 X-30.1160 Y9.0090 
G01 X-30.1192 Y8.9794 
G01 X-30.1192 Y8.9498 
G01 X-30.1246 Y8.9297 
G01 X-30.1268 Y8.9092 
G01 X-30.1374 Y8.8820 
G01 X-30.1451 Y8.8530 
G01 X-30.1556 Y8.8349 
G01 X-30.1630 Y8.8157 
G01 X-30.1804 Y8.7919 
G01 X-30.1953 Y8.7661 
G01 X-30.2100 Y8.7515 
G01 X-32.0805 Y6.1918 
G01 X-32.0953 Y6.1661 
G01 X-32.1099 Y6.1516 
G01 X-32.1221 Y6.1348 
G01 X-32.1453 Y6.1162 
G01 X-32.1661 Y6.0953 
G01 X-32.1840 Y6.0850 
G01 X-32.2002 Y6.0719 
G01 X-32.2275 Y6.0599 
G01 X-32.2530 Y6.0451 
G01 X-32.2730 Y6.0398 
G01 X-32.2919 Y6.0314 
G01 X-32.3213 Y6.0269 
G01 X-32.3498 Y6.0192 
G01 X-32.3704 Y6.0192 
G01 X-32.3909 Y6.0160 
G01 X-32.4205 Y6.0192 
G01 X-51.3501 Y6.0192 
G01 X-51.4469 Y6.0451 
G01 X-51.5338 Y6.0953 
G01 X-51.6046 Y6.1661 
G01 X-51.6548 Y6.2530 
G01 X-51.6807 Y6.3498 
G01 X-51.6807 Y6.4501 
G01 X-51.6807 Y8.8570 
G01 X-51.7993 Y8.9362 
G01 X-51.9240 Y9.0609 
G01 X-52.0219 Y9.2075 
G01 X-52.0894 Y9.3704 
G01 X-52.1238 Y9.5433 
G01 X-52.1238 Y9.7198 
G01 X-52.0894 Y9.8927 
G01 X-52.0219 Y10.0556 
G01 X-51.9240 Y10.2022 
G01 X-51.7993 Y10.3269 
G01 X-51.6527 Y10.4248 
G01 X-51.4898 Y10.4923 
G01 X-51.3169 Y10.5267 
G01 X-51.1404 Y10.5267 
G01 X-50.9675 Y10.4923 
G01 X-50.8046 Y10.4248 
G01 X-50.6580 Y10.3269 
G01 X-50.5333 Y10.2022 
G01 X-50.4354 Y10.0556 
G01 X-50.3679 Y9.8927 
G01 X-50.3335 Y9.7198 
G01 X-50.3335 Y9.5433 
G01 X-50.3679 Y9.3704 
G01 X-50.4354 Y9.2075 
G01 X-50.5333 Y9.0609 
G01 X-50.6580 Y8.9362 
G01 X-50.8046 Y8.8383 
G01 X-50.9192 Y8.7908 
G01 X-50.9192 Y6.7807 
G01 X-32.5933 Y6.7807 
G01 X-30.8807 Y9.1242 
G01 X-30.8807 Y10.4333 
G01 X-32.0268 Y11.4913 
G01 X-32.0338 Y11.4953 
G01 X-32.0651 Y11.5266 
G01 X-32.0950 Y11.5542 
G01 X-32.0989 Y11.5605 
G01 X-32.1046 Y11.5661 
G01 X-32.1263 Y11.6037 
G01 X-32.1486 Y11.6389 
G01 X-32.1508 Y11.6462 
G01 X-32.1548 Y11.6530 
G01 X-32.1658 Y11.6944 
G01 X-32.1784 Y11.7346 
G01 X-32.1787 Y11.7424 
G01 X-32.1807 Y11.7498 
G01 X-32.1807 Y11.7923 
G01 X-32.1824 Y11.8349 
G01 X-32.1807 Y11.8424 
G01 X-32.1807 Y14.9558 
G01 X-32.1821 Y14.9617 
G01 X-32.1807 Y15.0056 
G01 X-32.1807 Y15.0501 
G01 X-32.1791 Y15.0561 
G01 X-32.1789 Y15.0620 
G01 X-32.1664 Y15.1033 
G01 X-32.1548 Y15.1469 
G01 X-32.1517 Y15.1521 
G01 X-32.1500 Y15.1580 
G01 X-32.1262 Y15.1963 
G01 X-32.1046 Y15.2338 
G01 X-32.1004 Y15.2379 
G01 X-32.0972 Y15.2432 
G01 X-32.0641 Y15.2742 
G01 X-32.0338 Y15.3046 
G01 X-32.0287 Y15.3075 
G01 X-22.1653 Y24.5730 
G01 X-22.1338 Y24.6046 
G01 X-22.1285 Y24.6076 
G01 X-22.1241 Y24.6118 
G01 X-22.0850 Y24.6327 
G01 X-22.0469 Y24.6548 
G01 X-22.0411 Y24.6563 
G01 X-22.0358 Y24.6592 
G01 X-21.9924 Y24.6694 
G01 X-21.9501 Y24.6807 
G01 X-21.9441 Y24.6807 
G01 X-21.9382 Y24.6821 
G01 X-21.8943 Y24.6807 
G01 X-21.4577 Y24.6807 
G01 X-20.1807 Y25.9577 
G01 X-20.1807 Y28.6674 
G01 X-26.8839 Y37.1192 
G01 X-94.9108 Y37.1192 
G01 X-101.6084 Y28.2783 
G01 X-101.6084 Y26.2294 
G00 Z2.0000 
G00 X-86.7375 Y26.2294 
G01 Z-0.1000 F600.00 
G01 X-86.7375 Y28.3785 
G01 X-86.7112 Y28.5443 
G01 X-86.6594 Y28.7040 
G01 X-86.5832 Y28.8536 
G01 X-86.4845 Y28.9894 
G01 X-86.3658 Y29.1081 
G01 X-86.2300 Y29.2068 
G01 X-86.0804 Y29.2830 
G01 X-85.9207 Y29.3348 
G01 X-85.7549 Y29.3611 
G01 X-85.5870 Y29.3611 
G01 X-85.4212 Y29.3348 
G01 X-85.2615 Y29.2830 
G01 X-85.1119 Y29.2068 
G01 X-84.9761 Y29.1081 
G01 X-84.9262 Y29.0581 
G01 X-81.3201 Y34.1068 
G01 X-81.3046 Y34.1338 
G01 X-81.2917 Y34.1467 
G01 X-81.2807 Y34.1621 
G01 X-81.2558 Y34.1825 
G01 X-81.2338 Y34.2046 
G01 X-81.2179 Y34.2137 
G01 X-81.2033 Y34.2258 
G01 X-81.1742 Y34.2390 
G01 X-81.1469 Y34.2548 
G01 X-81.1289 Y34.2596 
G01 X-81.1120 Y34.2673 
G01 X-81.0805 Y34.2725 
G01 X-81.0501 Y34.2807 
G01 X-81.0316 Y34.2807 
G01 X-81.0131 Y34.2838 
G01 X-80.9812 Y34.2807 
G01 X-40.8248 Y34.2807 
G01 X-40.7993 Y34.2840 
G01 X-40.7747 Y34.2807 
G01 X-40.7498 Y34.2807 
G01 X-40.7250 Y34.2740 
G01 X-40.6999 Y34.2707 
G01 X-40.6774 Y34.2613 
G01 X-40.6530 Y34.2548 
G01 X-40.6306 Y34.2418 
G01 X-40.6074 Y34.2322 
G01 X-40.5878 Y34.2171 
G01 X-40.5661 Y34.2046 
G01 X-40.5482 Y34.1867 
G01 X-40.5279 Y34.1711 
G01 X-40.5127 Y34.1511 
G01 X-40.4953 Y34.1338 
G01 X-40.4827 Y34.1119 
G01 X-36.6129 Y29.0513 
G01 X-36.5953 Y29.0338 
G01 X-36.5826 Y29.0117 
G01 X-36.5670 Y28.9914 
G01 X-36.5575 Y28.9683 
G01 X-36.5451 Y28.9469 
G01 X-36.5386 Y28.9224 
G01 X-36.5288 Y28.8988 
G01 X-36.5256 Y28.8738 
G01 X-36.5192 Y28.8501 
G01 X-36.5192 Y28.8248 
G01 X-36.5159 Y28.7993 
G01 X-36.5192 Y28.7747 
G01 X-36.5192 Y25.8050 
G01 X-36.5181 Y25.7591 
G01 X-36.5192 Y25.7546 
G01 X-36.5192 Y25.7498 
G01 X-36.5313 Y25.7047 
G01 X-36.5417 Y25.6616 
G01 X-36.5439 Y25.6577 
G01 X-36.5451 Y25.6530 
G01 X-36.5683 Y25.6129 
G01 X-36.5897 Y25.5736 
G01 X-36.5930 Y25.5703 
G01 X-36.5953 Y25.5661 
G01 X-36.6278 Y25.5337 
G01 X-42.5192 Y19.3477 
G01 X-42.5192 Y11.8576 
G01 X-40.8553 Y10.1937 
G01 X-40.8496 Y10.2022 
G01 X-40.7249 Y10.3269 
G01 X-40.5783 Y10.4248 
G01 X-40.4154 Y10.4923 
G01 X-40.2425 Y10.5267 
G01 X-40.0660 Y10.5267 
G01 X-39.8931 Y10.4923 
G01 X-39.7302 Y10.4248 
G01 X-39.5836 Y10.3269 
G01 X-39.4589 Y10.2022 
G01 X-39.3610 Y10.0556 
G01 X-39.2935 Y9.8927 
G01 X-39.2591 Y9.7198 
G01 X-39.2591 Y9.5433 
G01 X-39.2935 Y9.3704 
G01 X-39.3610 Y9.2075 
G01 X-39.4589 Y9.0609 
G01 X-39.5836 Y8.9362 
G01 X-39.7302 Y8.8383 
G01 X-39.8931 Y8.7708 
G01 X-40.0660 Y8.7364 
G01 X-40.2425 Y8.7364 
G01 X-40.4154 Y8.7708 
G01 X-40.5783 Y8.8383 
G01 X-40.7249 Y8.9362 
G01 X-40.8496 Y9.0609 
G01 X-40.9475 Y9.2075 
G01 X-40.9668 Y9.2543 
G01 X-40.9679 Y9.2546 
G01 X-41.0006 Y9.2762 
G01 X-41.0338 Y9.2953 
G01 X-41.0417 Y9.3033 
G01 X-41.0516 Y9.3098 
G01 X-41.0778 Y9.3394 
G01 X-43.1337 Y11.3953 
G01 X-43.1338 Y11.3953 
G01 X-43.2046 Y11.4661 
G01 X-43.2548 Y11.5530 
G01 X-43.2807 Y11.6498 
G01 X-43.2807 Y19.4948 
G01 X-43.2818 Y19.5408 
G01 X-43.2807 Y19.5453 
G01 X-43.2807 Y19.5501 
G01 X-43.2686 Y19.5951 
G01 X-43.2582 Y19.6383 
G01 X-43.2560 Y19.6422 
G01 X-43.2548 Y19.6469 
G01 X-43.2316 Y19.6869 
G01 X-43.2102 Y19.7263 
G01 X-43.2069 Y19.7296 
G01 X-43.2046 Y19.7338 
G01 X-43.1722 Y19.7661 
G01 X-37.2807 Y25.9522 
G01 X-37.2807 Y28.6710 
G01 X-40.9881 Y33.5192 
G01 X-80.8040 Y33.5192 
G01 X-84.6044 Y28.1986 
G01 X-84.6044 Y26.2294 
G01 X-84.6307 Y26.0636 
G01 X-84.6825 Y25.9039 
G01 X-84.7587 Y25.7543 
G01 X-84.8574 Y25.6185 
G01 X-84.9761 Y25.4998 
G01 X-85.1119 Y25.4011 
G01 X-85.2615 Y25.3249 
G01 X-85.4212 Y25.2731 
G01 X-85.5870 Y25.2468 
G01 X-85.7549 Y25.2468 
G01 X-85.9207 Y25.2731 
G01 X-86.0804 Y25.3249 
G01 X-86.2300 Y25.4011 
G01 X-86.3658 Y25.4998 
G01 X-86.4845 Y25.6185 
G01 X-86.5832 Y25.7543 
G01 X-86.6594 Y25.9039 
G01 X-86.7112 Y26.0636 
G01 X-86.7375 Y26.2294 
G00 Z2.0000 
G00 X-82.4865 Y28.3785 
G01 Z-0.1000 F600.00 
G01 X-82.4602 Y28.5443 
G01 X-82.4084 Y28.7040 
G01 X-82.3322 Y28.8536 
G01 X-82.2335 Y28.9894 
G01 X-82.1148 Y29.1081 
G01 X-81.9790 Y29.2068 
G01 X-81.8294 Y29.2830 
G01 X-81.6697 Y29.3348 
G01 X-81.5039 Y29.3611 
G01 X-81.3360 Y29.3611 
G01 X-81.1702 Y29.3348 
G01 X-81.0105 Y29.2830 
G01 X-80.8609 Y29.2068 
G01 X-80.7251 Y29.1081 
G01 X-80.6064 Y28.9894 
G01 X-80.5077 Y28.8536 
G01 X-80.4315 Y28.7040 
G01 X-80.3797 Y28.5443 
G01 X-80.3534 Y28.3785 
G01 X-80.3534 Y26.2294 
G01 X-80.3797 Y26.0636 
G01 X-80.4315 Y25.9039 
G01 X-80.5077 Y25.7543 
G01 X-80.6064 Y25.6185 
G01 X-80.7251 Y25.4998 
G01 X-80.8609 Y25.4011 
G01 X-81.0105 Y25.3249 
G01 X-81.1702 Y25.2731 
G01 X-81.3360 Y25.2468 
G01 X-81.5039 Y25.2468 
G01 X-81.6697 Y25.2731 
G01 X-81.8294 Y25.3249 
G01 X-81.9790 Y25.4011 
G01 X-82.1148 Y25.4998 
G01 X-82.2335 Y25.6185 
G01 X-82.3322 Y25.7543 
G01 X-82.3386 Y25.7671 
G01 X-83.6848 Y24.0843 
G01 X-83.6953 Y24.0661 
G01 X-83.7155 Y24.0459 
G01 X-83.7339 Y24.0229 
G01 X-83.7513 Y24.0101 
G01 X-83.7661 Y23.9953 
G01 X-83.7911 Y23.9809 
G01 X-83.8147 Y23.9635 
G01 X-83.8346 Y23.9558 
G01 X-83.8530 Y23.9451 
G01 X-83.8812 Y23.9376 
G01 X-83.9080 Y23.9271 
G01 X-83.9291 Y23.9248 
G01 X-83.9498 Y23.9192 
G01 X-83.9790 Y23.9192 
G01 X-84.0078 Y23.9160 
G01 X-84.0288 Y23.9192 
G01 X-86.3712 Y23.9192 
G01 X-86.3921 Y23.9160 
G01 X-86.4209 Y23.9192 
G01 X-86.4501 Y23.9192 
G01 X-86.4708 Y23.9248 
G01 X-86.4919 Y23.9271 
G01 X-86.5186 Y23.9376 
G01 X-86.5469 Y23.9451 
G01 X-86.5653 Y23.9558 
G01 X-86.5852 Y23.9635 
G01 X-86.6088 Y23.9809 
G01 X-86.6338 Y23.9953 
G01 X-86.6486 Y24.0102 
G01 X-86.6660 Y24.0229 
G01 X-86.6844 Y24.0459 
G01 X-86.7046 Y24.0661 
G01 X-86.7151 Y24.0843 
G01 X-87.8842 Y25.5457 
G01 X-87.9046 Y25.5661 
G01 X-87.9152 Y25.5845 
G01 X-87.9286 Y25.6012 
G01 X-87.9403 Y25.6279 
G01 X-87.9548 Y25.6530 
G01 X-87.9603 Y25.6737 
G01 X-87.9688 Y25.6930 
G01 X-87.9731 Y25.7217 
G01 X-87.9807 Y25.7498 
G01 X-87.9807 Y25.7711 
G01 X-87.9839 Y25.7921 
G01 X-87.9807 Y25.8209 
G01 X-87.9807 Y28.7667 
G01 X-87.9836 Y28.7831 
G01 X-87.9807 Y28.8164 
G01 X-87.9807 Y28.8501 
G01 X-87.9763 Y28.8663 
G01 X-87.9749 Y28.8831 
G01 X-87.9635 Y28.9144 
G01 X-87.9548 Y28.9469 
G01 X-87.9463 Y28.9615 
G01 X-87.9406 Y28.9773 
G01 X-87.9213 Y29.0047 
G01 X-87.9046 Y29.0338 
G01 X-87.8927 Y29.0456 
G01 X-83.7215 Y35.0045 
G01 X-83.7046 Y35.0338 
G01 X-83.6926 Y35.0457 
G01 X-83.6831 Y35.0594 
G01 X-83.6575 Y35.0808 
G01 X-83.6338 Y35.1046 
G01 X-83.6192 Y35.1130 
G01 X-83.6064 Y35.1238 
G01 X-83.5760 Y35.1379 
G01 X-83.5469 Y35.1548 
G01 X-83.5305 Y35.1591 
G01 X-83.5155 Y35.1662 
G01 X-83.4826 Y35.1720 
G01 X-83.4501 Y35.1807 
G01 X-83.4332 Y35.1807 
G01 X-83.4168 Y35.1836 
G01 X-83.3834 Y35.1807 
G01 X-36.9212 Y35.1807 
G01 X-36.8924 Y35.1839 
G01 X-36.8713 Y35.1807 
G01 X-36.8498 Y35.1807 
G01 X-36.8219 Y35.1732 
G01 X-36.7933 Y35.1689 
G01 X-36.7739 Y35.1604 
G01 X-36.7530 Y35.1548 
G01 X-36.7276 Y35.1401 
G01 X-36.7015 Y35.1287 
G01 X-36.6849 Y35.1154 
G01 X-36.6661 Y35.1046 
G01 X-36.6458 Y35.0842 
G01 X-36.6231 Y35.0662 
G01 X-36.6103 Y35.0487 
G01 X-36.5953 Y35.0338 
G01 X-36.5811 Y35.0091 
G01 X-32.4105 Y29.3489 
G01 X-32.3953 Y29.3338 
G01 X-32.3809 Y29.3087 
G01 X-32.3637 Y29.2855 
G01 X-32.3559 Y29.2656 
G01 X-32.3451 Y29.2469 
G01 X-32.3376 Y29.2189 
G01 X-32.3271 Y29.1921 
G01 X-32.3247 Y29.1707 
G01 X-32.3192 Y29.1501 
G01 X-32.3192 Y29.1212 
G01 X-32.3160 Y29.0924 
G01 X-32.3192 Y29.0713 
G01 X-32.3192 Y25.5459 
G01 X-32.3183 Y25.5423 
G01 X-32.3192 Y25.4972 
G01 X-32.3192 Y25.4498 
G01 X-32.3202 Y25.4460 
G01 X-32.3203 Y25.4420 
G01 X-32.3332 Y25.3976 
G01 X-32.3451 Y25.3530 
G01 X-32.3471 Y25.3496 
G01 X-32.3482 Y25.3457 
G01 X-32.3724 Y25.3058 
G01 X-32.3953 Y25.2661 
G01 X-32.3981 Y25.2633 
G01 X-32.4001 Y25.2600 
G01 X-32.4326 Y25.2289 
G01 X-32.4661 Y25.1953 
G01 X-32.4696 Y25.1933 
G01 X-39.8192 Y18.1377 
G01 X-39.8192 Y12.1577 
G01 X-37.9724 Y10.3108 
G01 X-37.9563 Y10.3269 
G01 X-37.8097 Y10.4248 
G01 X-37.6468 Y10.4923 
G01 X-37.4739 Y10.5267 
G01 X-37.2974 Y10.5267 
G01 X-37.1245 Y10.4923 
G01 X-36.9616 Y10.4248 
G01 X-36.8150 Y10.3269 
G01 X-36.6903 Y10.2022 
G01 X-36.5924 Y10.0556 
G01 X-36.5249 Y9.8927 
G01 X-36.4905 Y9.7198 
G01 X-36.4905 Y9.5433 
G01 X-36.5249 Y9.3704 
G01 X-36.5924 Y9.2075 
G01 X-36.6903 Y9.0609 
G01 X-36.8150 Y8.9362 
G01 X-36.9616 Y8.8383 
G01 X-37.1245 Y8.7708 
G01 X-37.2974 Y8.7364 
G01 X-37.4739 Y8.7364 
G01 X-37.6468 Y8.7708 
G01 X-37.8097 Y8.8383 
G01 X-37.9563 Y8.9362 
G01 X-38.0810 Y9.0609 
G01 X-38.1789 Y9.2075 
G01 X-38.2464 Y9.3704 
G01 X-38.2808 Y9.5433 
G01 X-38.2808 Y9.5647 
G01 X-38.3338 Y9.5953 
G01 X-40.4338 Y11.6953 
G01 X-40.5046 Y11.7661 
G01 X-40.5548 Y11.8530 
G01 X-40.5807 Y11.9498 
G01 X-40.5807 Y18.2540 
G01 X-40.5816 Y18.2576 
G01 X-40.5807 Y18.3028 
G01 X-40.5807 Y18.3501 
G01 X-40.5797 Y18.3539 
G01 X-40.5796 Y18.3579 
G01 X-40.5667 Y18.4025 
G01 X-40.5548 Y18.4469 
G01 X-40.5528 Y18.4503 
G01 X-40.5517 Y18.4542 
G01 X-40.5274 Y18.4942 
G01 X-40.5046 Y18.5338 
G01 X-40.5018 Y18.5366 
G01 X-40.4998 Y18.5399 
G01 X-40.4672 Y18.5711 
G01 X-40.4338 Y18.6046 
G01 X-40.4303 Y18.6066 
G01 X-33.0807 Y25.6622 
G01 X-33.0807 Y28.9747 
G01 X-37.0923 Y34.4192 
G01 X-83.2017 Y34.4192 
G01 X-87.2192 Y28.6800 
G01 X-87.2192 Y25.9336 
G01 X-86.2169 Y24.6807 
G01 X-84.1830 Y24.6807 
G01 X-82.4865 Y26.8014 
G01 X-82.4865 Y28.3785 
G00 Z2.0000 
G00 X-69.7335 Y28.3785 
G01 Z-0.1000 F600.00 
G01 X-69.7072 Y28.5443 
G01 X-69.6554 Y28.7040 
G01 X-69.5792 Y28.8536 
G01 X-69.4805 Y28.9894 
G01 X-69.3618 Y29.1081 
G01 X-69.2260 Y29.2068 
G01 X-69.0764 Y29.2830 
G01 X-68.9167 Y29.3348 
G01 X-68.7509 Y29.3611 
G01 X-68.5830 Y29.3611 
G01 X-68.4172 Y29.3348 
G01 X-68.2575 Y29.2830 
G01 X-68.1079 Y29.2068 
G01 X-67.9721 Y29.1081 
G01 X-67.8534 Y28.9894 
G01 X-67.7547 Y28.8536 
G01 X-67.6785 Y28.7040 
G01 X-67.6267 Y28.5443 
G01 X-67.6004 Y28.3785 
G01 X-67.6004 Y26.2294 
G01 X-67.6267 Y26.0636 
G01 X-67.6785 Y25.9039 
G01 X-67.7547 Y25.7543 
G01 X-67.8534 Y25.6185 
G01 X-67.9721 Y25.4998 
G01 X-68.1079 Y25.4011 
G01 X-68.2575 Y25.3249 
G01 X-68.4172 Y25.2731 
G01 X-68.5830 Y25.2468 
G01 X-68.7509 Y25.2468 
G01 X-68.9167 Y25.2731 
G01 X-69.0764 Y25.3249 
G01 X-69.2260 Y25.4011 
G01 X-69.3618 Y25.4998 
G01 X-69.4365 Y25.5745 
G01 X-73.1781 Y20.1959 
G01 X-73.1953 Y20.1661 
G01 X-73.2069 Y20.1546 
G01 X-73.2160 Y20.1414 
G01 X-73.2418 Y20.1197 
G01 X-73.2661 Y20.0953 
G01 X-73.2803 Y20.0871 
G01 X-73.2926 Y20.0767 
G01 X-73.3234 Y20.0622 
G01 X-73.3530 Y20.0451 
G01 X-73.3686 Y20.0410 
G01 X-73.3833 Y20.0340 
G01 X-73.4173 Y20.0279 
G01 X-73.4498 Y20.0192 
G01 X-73.4659 Y20.0192 
G01 X-73.4820 Y20.0163 
G01 X-73.5161 Y20.0192 
G01 X-100.7808 Y20.0192 
G01 X-100.8111 Y20.0161 
G01 X-100.8303 Y20.0192 
G01 X-100.8501 Y20.0192 
G01 X-100.8796 Y20.0271 
G01 X-100.9101 Y20.0320 
G01 X-100.9280 Y20.0401 
G01 X-100.9469 Y20.0451 
G01 X-100.9736 Y20.0605 
G01 X-101.0016 Y20.0731 
G01 X-101.0167 Y20.0855 
G01 X-101.0338 Y20.0953 
G01 X-101.0555 Y20.1171 
G01 X-101.0793 Y20.1364 
G01 X-101.0907 Y20.1523 
G01 X-101.1046 Y20.1661 
G01 X-101.1200 Y20.1928 
G01 X-104.9909 Y25.5525 
G01 X-105.0046 Y25.5661 
G01 X-105.0197 Y25.5924 
G01 X-105.0380 Y25.6176 
G01 X-105.0450 Y25.6361 
G01 X-105.0548 Y25.6530 
G01 X-105.0628 Y25.6828 
G01 X-105.0736 Y25.7113 
G01 X-105.0756 Y25.7307 
G01 X-105.0807 Y25.7498 
G01 X-105.0807 Y25.7807 
G01 X-105.0838 Y25.8111 
G01 X-105.0807 Y25.8304 
G01 X-105.0807 Y28.7763 
G01 X-105.0840 Y28.8033 
G01 X-105.0807 Y28.8267 
G01 X-105.0807 Y28.8501 
G01 X-105.0737 Y28.8761 
G01 X-105.0700 Y28.9026 
G01 X-105.0609 Y28.9240 
G01 X-105.0548 Y28.9469 
G01 X-105.0414 Y28.9700 
G01 X-105.0309 Y28.9949 
G01 X-105.0162 Y29.0137 
G01 X-105.0046 Y29.0338 
G01 X-104.9859 Y29.0525 
G01 X-97.5164 Y38.6133 
G01 X-97.5046 Y38.6338 
G01 X-97.4855 Y38.6528 
G01 X-97.4691 Y38.6739 
G01 X-97.4504 Y38.6880 
G01 X-97.4338 Y38.7046 
G01 X-97.4105 Y38.7180 
G01 X-97.3891 Y38.7342 
G01 X-97.3672 Y38.7430 
G01 X-97.3469 Y38.7548 
G01 X-97.3212 Y38.7616 
G01 X-97.2962 Y38.7718 
G01 X-97.2725 Y38.7747 
G01 X-97.2501 Y38.7807 
G01 X-97.2236 Y38.7807 
G01 X-97.1966 Y38.7840 
G01 X-97.1732 Y38.7807 
G01 X-23.1267 Y38.7807 
G01 X-23.1033 Y38.7840 
G01 X-23.0763 Y38.7807 
G01 X-23.0498 Y38.7807 
G01 X-23.0274 Y38.7747 
G01 X-23.0037 Y38.7718 
G01 X-22.9787 Y38.7616 
G01 X-22.9530 Y38.7548 
G01 X-22.9327 Y38.7430 
G01 X-22.9108 Y38.7342 
G01 X-22.8894 Y38.7180 
G01 X-22.8661 Y38.7046 
G01 X-22.8495 Y38.6879 
G01 X-22.8308 Y38.6739 
G01 X-22.8144 Y38.6528 
G01 X-22.7953 Y38.6338 
G01 X-22.7835 Y38.6133 
G01 X-15.3140 Y29.0525 
G01 X-15.2953 Y29.0338 
G01 X-15.2837 Y29.0137 
G01 X-15.2690 Y28.9949 
G01 X-15.2585 Y28.9700 
G01 X-15.2451 Y28.9469 
G01 X-15.2390 Y28.9240 
G01 X-15.2299 Y28.9026 
G01 X-15.2262 Y28.8761 
G01 X-15.2192 Y28.8501 
G01 X-15.2192 Y28.8267 
G01 X-15.2159 Y28.8033 
G01 X-15.2192 Y28.7763 
G01 X-15.2192 Y25.8142 
G01 X-15.2165 Y25.7791 
G01 X-15.2192 Y25.7647 
G01 X-15.2192 Y25.7498 
G01 X-15.2284 Y25.7155 
G01 X-15.2349 Y25.6806 
G01 X-15.2413 Y25.6673 
G01 X-15.2451 Y25.6530 
G01 X-15.2628 Y25.6224 
G01 X-15.2782 Y25.5902 
G01 X-15.2880 Y25.5789 
G01 X-15.2953 Y25.5661 
G01 X-15.3203 Y25.5412 
G01 X-17.0878 Y23.4791 
G01 X-17.0953 Y23.4661 
G01 X-17.1207 Y23.4408 
G01 X-17.1435 Y23.4141 
G01 X-17.1556 Y23.4059 
G01 X-17.1661 Y23.3953 
G01 X-17.1974 Y23.3773 
G01 X-17.2262 Y23.3575 
G01 X-17.2399 Y23.3527 
G01 X-17.2530 Y23.3451 
G01 X-17.2879 Y23.3358 
G01 X-17.3207 Y23.3242 
G01 X-17.3354 Y23.3231 
G01 X-17.3498 Y23.3192 
G01 X-17.3857 Y23.3192 
G01 X-17.4208 Y23.3165 
G01 X-17.4352 Y23.3192 
G01 X-18.1518 Y23.3192 
G01 X-28.7192 Y13.6325 
G01 X-28.7192 Y10.4510 
G01 X-28.6558 Y10.4248 
G01 X-28.5092 Y10.3269 
G01 X-28.3845 Y10.2022 
G01 X-28.2866 Y10.0556 
G01 X-28.2191 Y9.8927 
G01 X-28.1847 Y9.7198 
G01 X-28.1847 Y9.5433 
G01 X-28.2191 Y9.3704 
G01 X-28.2866 Y9.2075 
G01 X-28.3845 Y9.0609 
G01 X-28.5092 Y8.9362 
G01 X-28.6558 Y8.8383 
G01 X-28.8187 Y8.7708 
G01 X-28.9916 Y8.7364 
G01 X-29.1681 Y8.7364 
G01 X-29.3410 Y8.7708 
G01 X-29.5039 Y8.8383 
G01 X-29.6505 Y8.9362 
G01 X-29.7752 Y9.0609 
G01 X-29.8731 Y9.2075 
G01 X-29.9406 Y9.3704 
G01 X-29.9750 Y9.5433 
G01 X-29.9750 Y9.7198 
G01 X-29.9406 Y9.8927 
G01 X-29.8731 Y10.0556 
G01 X-29.7752 Y10.2022 
G01 X-29.6505 Y10.3269 
G01 X-29.5039 Y10.4248 
G01 X-29.4807 Y10.4344 
G01 X-29.4807 Y13.7583 
G01 X-29.4825 Y13.7664 
G01 X-29.4807 Y13.8084 
G01 X-29.4807 Y13.8501 
G01 X-29.4785 Y13.8580 
G01 X-29.4782 Y13.8666 
G01 X-29.4657 Y13.9062 
G01 X-29.4548 Y13.9469 
G01 X-29.4504 Y13.9544 
G01 X-29.4480 Y13.9622 
G01 X-29.4257 Y13.9972 
G01 X-29.4046 Y14.0338 
G01 X-29.3987 Y14.0396 
G01 X-29.3942 Y14.0468 
G01 X-29.3629 Y14.0754 
G01 X-29.3338 Y14.1046 
G01 X-29.3266 Y14.1087 
G01 X-18.5635 Y23.9749 
G01 X-18.5338 Y24.0046 
G01 X-18.5265 Y24.0088 
G01 X-18.5203 Y24.0145 
G01 X-18.4833 Y24.0337 
G01 X-18.4469 Y24.0548 
G01 X-18.4387 Y24.0570 
G01 X-18.4314 Y24.0608 
G01 X-18.3910 Y24.0697 
G01 X-18.3501 Y24.0807 
G01 X-18.3416 Y24.0807 
G01 X-18.3335 Y24.0825 
G01 X-18.2916 Y24.0807 
G01 X-17.5751 Y24.0807 
G01 X-15.9807 Y25.9407 
G01 X-15.9807 Y28.6689 
G01 X-23.2857 Y38.0192 
G01 X-97.0142 Y38.0192 
G01 X-104.3192 Y28.6689 
G01 X-104.3192 Y25.9231 
G01 X-100.6052 Y20.7807 
G01 X-73.6989 Y20.7807 
G01 X-69.7335 Y26.4810 
G01 X-69.7335 Y28.3785 
G00 Z2.0000 
G00 X-65.4825 Y26.2294 
G01 Z-0.1000 F600.00 
G01 X-65.4825 Y28.3785 
G01 X-65.4562 Y28.5443 
G01 X-65.4044 Y28.7040 
G01 X-65.3282 Y28.8536 
G01 X-65.2295 Y28.9894 
G01 X-65.1108 Y29.1081 
G01 X-64.9750 Y29.2068 
G01 X-64.8254 Y29.2830 
G01 X-64.6657 Y29.3348 
G01 X-64.4999 Y29.3611 
G01 X-64.3320 Y29.3611 
G01 X-64.1662 Y29.3348 
G01 X-64.0065 Y29.2830 
G01 X-63.8569 Y29.2068 
G01 X-63.7211 Y29.1081 
G01 X-63.6024 Y28.9894 
G01 X-63.5037 Y28.8536 
G01 X-63.4275 Y28.7040 
G01 X-63.3757 Y28.5443 
G01 X-63.3494 Y28.3785 
G01 X-63.3494 Y26.2294 
G01 X-63.3757 Y26.0636 
G01 X-63.4275 Y25.9039 
G01 X-63.5037 Y25.7543 
G01 X-63.6024 Y25.6185 
G01 X-63.7211 Y25.4998 
G01 X-63.8569 Y25.4011 
G01 X-64.0065 Y25.3249 
G01 X-64.1662 Y25.2731 
G01 X-64.3320 Y25.2468 
G01 X-64.4999 Y25.2468 
G01 X-64.5623 Y25.2568 
G01 X-65.6192 Y21.2506 
G01 X-65.6192 Y4.9807 
G01 X-25.6633 Y4.9807 
G01 X-21.9807 Y8.8521 
G01 X-21.9807 Y10.2422 
G01 X-23.1734 Y10.7192 
G01 X-24.7422 Y10.7192 
G01 X-25.4852 Y9.9763 
G01 X-25.4505 Y9.8927 
G01 X-25.4161 Y9.7198 
G01 X-25.4161 Y9.5433 
G01 X-25.4505 Y9.3704 
G01 X-25.5180 Y9.2075 
G01 X-25.6159 Y9.0609 
G01 X-25.7406 Y8.9362 
G01 X-25.8872 Y8.8383 
G01 X-26.0501 Y8.7708 
G01 X-26.2230 Y8.7364 
G01 X-26.3995 Y8.7364 
G01 X-26.5724 Y8.7708 
G01 X-26.7353 Y8.8383 
G01 X-26.8819 Y8.9362 
G01 X-27.0066 Y9.0609 
G01 X-27.1045 Y9.2075 
G01 X-27.1720 Y9.3704 
G01 X-27.2064 Y9.5433 
G01 X-27.2064 Y9.7198 
G01 X-27.1720 Y9.8927 
G01 X-27.1045 Y10.0556 
G01 X-27.0066 Y10.2022 
G01 X-26.8819 Y10.3269 
G01 X-26.7353 Y10.4248 
G01 X-26.5724 Y10.4923 
G01 X-26.3995 Y10.5267 
G01 X-26.2230 Y10.5267 
G01 X-26.0501 Y10.4923 
G01 X-26.0472 Y10.4911 
G01 X-25.2046 Y11.3338 
G01 X-25.1338 Y11.4046 
G01 X-25.0469 Y11.4548 
G01 X-24.9501 Y11.4807 
G01 X-23.1276 Y11.4807 
G01 X-23.1047 Y11.4840 
G01 X-23.0770 Y11.4807 
G01 X-23.0498 Y11.4807 
G01 X-23.0279 Y11.4748 
G01 X-23.0050 Y11.4721 
G01 X-22.9795 Y11.4618 
G01 X-22.9530 Y11.4548 
G01 X-22.9334 Y11.4434 
G01 X-21.4795 Y10.8618 
G01 X-21.4530 Y10.8548 
G01 X-21.4333 Y10.8434 
G01 X-21.4120 Y10.8349 
G01 X-21.3899 Y10.8183 
G01 X-21.3661 Y10.8046 
G01 X-21.3500 Y10.7884 
G01 X-21.3317 Y10.7748 
G01 X-21.3148 Y10.7532 
G01 X-21.2953 Y10.7338 
G01 X-21.2839 Y10.7139 
G01 X-21.2697 Y10.6960 
G01 X-21.2589 Y10.6707 
G01 X-21.2451 Y10.6469 
G01 X-21.2393 Y10.6249 
G01 X-21.2302 Y10.6039 
G01 X-21.2263 Y10.5764 
G01 X-21.2192 Y10.5501 
G01 X-21.2192 Y10.5275 
G01 X-21.2159 Y10.5047 
G01 X-21.2192 Y10.4770 
G01 X-21.2192 Y8.7035 
G01 X-21.2181 Y8.6593 
G01 X-21.2192 Y8.6548 
G01 X-21.2192 Y8.6498 
G01 X-21.2314 Y8.6045 
G01 X-21.2416 Y8.5619 
G01 X-21.2438 Y8.5579 
G01 X-21.2451 Y8.5530 
G01 X-21.2679 Y8.5137 
G01 X-21.2895 Y8.4738 
G01 X-21.2930 Y8.4702 
G01 X-21.2953 Y8.4661 
G01 X-21.3266 Y8.4349 
G01 X-25.1929 Y4.3703 
G01 X-25.1953 Y4.3661 
G01 X-25.2275 Y4.3340 
G01 X-25.2586 Y4.3012 
G01 X-25.2628 Y4.2987 
G01 X-25.2661 Y4.2953 
G01 X-25.3048 Y4.2730 
G01 X-25.3441 Y4.2489 
G01 X-25.3489 Y4.2475 
G01 X-25.3530 Y4.2451 
G01 X-25.3975 Y4.2332 
G01 X-25.4403 Y4.2206 
G01 X-25.4450 Y4.2205 
G01 X-25.4498 Y4.2192 
G01 X-25.4965 Y4.2192 
G01 X-25.5406 Y4.2181 
G01 X-25.5451 Y4.2192 
G01 X-65.9498 Y4.2192 
G01 X-66.0501 Y4.2192 
G01 X-66.1469 Y4.2451 
G01 X-66.2338 Y4.2953 
G01 X-66.3046 Y4.3661 
G01 X-66.3548 Y4.4530 
G01 X-66.3807 Y4.5498 
G01 X-66.3807 Y21.2979 
G01 X-66.3809 Y21.3487 
G01 X-66.3807 Y21.3494 
G01 X-66.3807 Y21.3501 
G01 X-66.3687 Y21.3948 
G01 X-65.2477 Y25.6437 
G01 X-65.3282 Y25.7543 
G01 X-65.4044 Y25.9039 
G01 X-65.4562 Y26.0636 
G01 X-65.4825 Y26.2294 
G00 Z2.0000 
G00 X-56.9805 Y26.2294 
G01 Z-0.1000 F600.00 
G01 X-56.9805 Y28.3785 
G01 X-56.9542 Y28.5443 
G01 X-56.9024 Y28.7040 
G01 X-56.8262 Y28.8536 
G01 X-56.7275 Y28.9894 
G01 X-56.6088 Y29.1081 
G01 X-56.4730 Y29.2068 
G01 X-56.3234 Y29.2830 
G01 X-56.1637 Y29.3348 
G01 X-55.9979 Y29.3611 
G01 X-55.8300 Y29.3611 
G01 X-55.6642 Y29.3348 
G01 X-55.5045 Y29.2830 
G01 X-55.3549 Y29.2068 
G01 X-55.2191 Y29.1081 
G01 X-55.1004 Y28.9894 
G01 X-55.0017 Y28.8536 
G01 X-54.9255 Y28.7040 
G01 X-54.8737 Y28.5443 
G01 X-54.8474 Y28.3785 
G01 X-54.8474 Y26.2294 
G01 X-54.8737 Y26.0636 
G01 X-54.9255 Y25.9039 
G01 X-55.0017 Y25.7543 
G01 X-55.1004 Y25.6185 
G01 X-55.2191 Y25.4998 
G01 X-55.3549 Y25.4011 
G01 X-55.5045 Y25.3249 
G01 X-55.5332 Y25.3157 
G01 X-55.5332 Y13.3588 
G01 X-55.4698 Y13.3715 
G01 X-55.2933 Y13.3715 
G01 X-55.1204 Y13.3371 
G01 X-54.9575 Y13.2696 
G01 X-54.8109 Y13.1717 
G01 X-54.6862 Y13.0470 
G01 X-54.5883 Y12.9004 
G01 X-54.5208 Y12.7375 
G01 X-54.4864 Y12.5646 
G01 X-54.4864 Y12.3881 
G01 X-54.5208 Y12.2152 
G01 X-54.5883 Y12.0523 
G01 X-54.6862 Y11.9057 
G01 X-54.8109 Y11.7810 
G01 X-54.9575 Y11.6831 
G01 X-55.1204 Y11.6156 
G01 X-55.2933 Y11.5812 
G01 X-55.4698 Y11.5812 
G01 X-55.6427 Y11.6156 
G01 X-55.8056 Y11.6831 
G01 X-55.9522 Y11.7810 
G01 X-56.0769 Y11.9057 
G01 X-56.1748 Y12.0523 
G01 X-56.2423 Y12.2152 
G01 X-56.2767 Y12.3881 
G01 X-56.2767 Y12.5646 
G01 X-56.2423 Y12.7375 
G01 X-56.2233 Y12.7832 
G01 X-56.2688 Y12.8618 
G01 X-56.2947 Y12.9586 
G01 X-56.2947 Y13.0589 
G01 X-56.2947 Y25.3157 
G01 X-56.3234 Y25.3249 
G01 X-56.4730 Y25.4011 
G01 X-56.6088 Y25.4998 
G01 X-56.7275 Y25.6185 
G01 X-56.8262 Y25.7543 
G01 X-56.9024 Y25.9039 
G01 X-56.9542 Y26.0636 
G01 X-56.9805 Y26.2294 
G00 Z2.0000 
G00 X-49.3552 Y9.5433 
G01 Z-0.1000 F600.00 
G01 X-49.3552 Y9.7198 
G01 X-49.3208 Y9.8927 
G01 X-49.2533 Y10.0556 
G01 X-49.1554 Y10.2022 
G01 X-49.0307 Y10.3269 
G01 X-48.8841 Y10.4248 
G01 X-48.8807 Y10.4262 
G01 X-48.8807 Y22.4562 
G01 X-48.8821 Y22.4621 
G01 X-48.8807 Y22.5060 
G01 X-48.8807 Y22.5501 
G01 X-48.8791 Y22.5560 
G01 X-48.8789 Y22.5624 
G01 X-48.8662 Y22.6039 
G01 X-48.8548 Y22.6469 
G01 X-48.8515 Y22.6525 
G01 X-48.8498 Y22.6583 
G01 X-48.8270 Y22.6950 
G01 X-48.8046 Y22.7338 
G01 X-48.8001 Y22.7382 
G01 X-48.7969 Y22.7435 
G01 X-48.7648 Y22.7735 
G01 X-48.7338 Y22.8046 
G01 X-48.7284 Y22.8077 
G01 X-45.6807 Y25.6649 
G01 X-45.6807 Y29.2422 
G01 X-48.1577 Y31.7192 
G01 X-72.1071 Y31.7192 
G01 X-75.2192 Y27.4753 
G01 X-75.2192 Y25.8469 
G01 X-75.2184 Y25.8437 
G01 X-75.2192 Y25.7964 
G01 X-75.2192 Y25.7498 
G01 X-75.2201 Y25.7467 
G01 X-75.2201 Y25.7434 
G01 X-75.2326 Y25.7000 
G01 X-75.2451 Y25.6530 
G01 X-75.2469 Y25.6500 
G01 X-75.2477 Y25.6470 
G01 X-75.2711 Y25.6082 
G01 X-75.2953 Y25.5661 
G01 X-75.2977 Y25.5638 
G01 X-77.9720 Y21.1065 
G01 X-77.9953 Y21.0661 
G01 X-77.9976 Y21.0639 
G01 X-77.9992 Y21.0611 
G01 X-78.0322 Y21.0292 
G01 X-78.0661 Y20.9953 
G01 X-78.0690 Y20.9937 
G01 X-78.0713 Y20.9914 
G01 X-78.1125 Y20.9686 
G01 X-78.1530 Y20.9451 
G01 X-78.1561 Y20.9443 
G01 X-78.1589 Y20.9427 
G01 X-78.2050 Y20.9312 
G01 X-78.2498 Y20.9192 
G01 X-78.2531 Y20.9192 
G01 X-78.2562 Y20.9184 
G01 X-78.3033 Y20.9192 
G01 X-94.1834 Y20.9192 
G01 X-94.2168 Y20.9163 
G01 X-94.2332 Y20.9192 
G01 X-94.2501 Y20.9192 
G01 X-94.2826 Y20.9279 
G01 X-94.3155 Y20.9337 
G01 X-94.3305 Y20.9408 
G01 X-94.3469 Y20.9451 
G01 X-94.3760 Y20.9620 
G01 X-94.4064 Y20.9761 
G01 X-94.4192 Y20.9870 
G01 X-94.4338 Y20.9953 
G01 X-94.4575 Y21.0191 
G01 X-94.4831 Y21.0405 
G01 X-94.4926 Y21.0542 
G01 X-94.5046 Y21.0661 
G01 X-94.5215 Y21.0954 
G01 X-97.6559 Y25.5731 
G01 X-97.7291 Y25.4998 
G01 X-97.8649 Y25.4011 
G01 X-98.0145 Y25.3249 
G01 X-98.1742 Y25.2731 
G01 X-98.3400 Y25.2468 
G01 X-98.5079 Y25.2468 
G01 X-98.6737 Y25.2731 
G01 X-98.8334 Y25.3249 
G01 X-98.9830 Y25.4011 
G01 X-99.1188 Y25.4998 
G01 X-99.2375 Y25.6185 
G01 X-99.3362 Y25.7543 
G01 X-99.4124 Y25.9039 
G01 X-99.4642 Y26.0636 
G01 X-99.4905 Y26.2294 
G01 X-99.4905 Y28.3785 
G01 X-99.4642 Y28.5443 
G01 X-99.4124 Y28.7040 
G01 X-99.3362 Y28.8536 
G01 X-99.2375 Y28.9894 
G01 X-99.1188 Y29.1081 
G01 X-98.9830 Y29.2068 
G01 X-98.8334 Y29.2830 
G01 X-98.6737 Y29.3348 
G01 X-98.5079 Y29.3611 
G01 X-98.3400 Y29.3611 
G01 X-98.1742 Y29.3348 
G01 X-98.0145 Y29.2830 
G01 X-97.8649 Y29.2068 
G01 X-97.7291 Y29.1081 
G01 X-97.6104 Y28.9894 
G01 X-97.5117 Y28.8536 
G01 X-97.4355 Y28.7040 
G01 X-97.3837 Y28.5443 
G01 X-97.3574 Y28.3785 
G01 X-97.3574 Y26.4745 
G01 X-94.0017 Y21.6807 
G01 X-78.5155 Y21.6807 
G01 X-75.9807 Y25.9054 
G01 X-75.9807 Y27.5707 
G01 X-75.9839 Y27.5915 
G01 X-75.9807 Y27.6208 
G01 X-75.9807 Y27.6501 
G01 X-75.9753 Y27.6703 
G01 X-75.9730 Y27.6913 
G01 X-75.9624 Y27.7184 
G01 X-75.9548 Y27.7469 
G01 X-75.9441 Y27.7653 
G01 X-75.9366 Y27.7847 
G01 X-75.9194 Y27.8080 
G01 X-75.9046 Y27.8338 
G01 X-75.8895 Y27.8488 
G01 X-72.6192 Y32.3084 
G01 X-72.6046 Y32.3338 
G01 X-72.5897 Y32.3486 
G01 X-72.5774 Y32.3655 
G01 X-72.5545 Y32.3838 
G01 X-72.5338 Y32.4046 
G01 X-72.5156 Y32.4150 
G01 X-72.4992 Y32.4283 
G01 X-72.4722 Y32.4401 
G01 X-72.4469 Y32.4548 
G01 X-72.4267 Y32.4602 
G01 X-72.4074 Y32.4687 
G01 X-72.3781 Y32.4731 
G01 X-72.3501 Y32.4807 
G01 X-72.3292 Y32.4807 
G01 X-72.3084 Y32.4839 
G01 X-72.2791 Y32.4807 
G01 X-47.9498 Y32.4807 
G01 X-47.8530 Y32.4548 
G01 X-47.7661 Y32.4046 
G01 X-47.6953 Y32.3338 
G01 X-47.6953 Y32.3337 
G01 X-44.9953 Y29.6338 
G01 X-44.9451 Y29.5469 
G01 X-44.9192 Y29.4501 
G01 X-44.9192 Y29.3498 
G01 X-44.9192 Y25.5437 
G01 X-44.9178 Y25.5378 
G01 X-44.9192 Y25.4939 
G01 X-44.9192 Y25.4498 
G01 X-44.9208 Y25.4439 
G01 X-44.9210 Y25.4375 
G01 X-44.9336 Y25.3960 
G01 X-44.9451 Y25.3530 
G01 X-44.9484 Y25.3474 
G01 X-44.9501 Y25.3416 
G01 X-44.9729 Y25.3050 
G01 X-44.9953 Y25.2661 
G01 X-44.9998 Y25.2617 
G01 X-45.0030 Y25.2564 
G01 X-45.0350 Y25.2265 
G01 X-45.0661 Y25.1953 
G01 X-45.0716 Y25.1922 
G01 X-48.1192 Y22.3350 
G01 X-48.1192 Y10.4593 
G01 X-48.0360 Y10.4248 
G01 X-47.8894 Y10.3269 
G01 X-47.7647 Y10.2022 
G01 X-47.6668 Y10.0556 
G01 X-47.5993 Y9.8927 
G01 X-47.5649 Y9.7198 
G01 X-47.5649 Y9.5433 
G01 X-47.5993 Y9.3704 
G01 X-47.6668 Y9.2075 
G01 X-47.7647 Y9.0609 
G01 X-47.8894 Y8.9362 
G01 X-48.0360 Y8.8383 
G01 X-48.1989 Y8.7708 
G01 X-48.3718 Y8.7364 
G01 X-48.5483 Y8.7364 
G01 X-48.7212 Y8.7708 
G01 X-48.8841 Y8.8383 
G01 X-49.0307 Y8.9362 
G01 X-49.1554 Y9.0609 
G01 X-49.2533 Y9.2075 
G01 X-49.3208 Y9.3704 
G01 X-49.3552 Y9.5433 
G00 Z2.0000 
G00 X-46.5866 Y9.5433 
G01 Z-0.1000 F600.00 
G01 X-46.5866 Y9.7198 
G01 X-46.5522 Y9.8927 
G01 X-46.4847 Y10.0556 
G01 X-46.3868 Y10.2022 
G01 X-46.2621 Y10.3269 
G01 X-46.1155 Y10.4248 
G01 X-45.9526 Y10.4923 
G01 X-45.7797 Y10.5267 
G01 X-45.6032 Y10.5267 
G01 X-45.4303 Y10.4923 
G01 X-45.2674 Y10.4248 
G01 X-45.1208 Y10.3269 
G01 X-44.9961 Y10.2022 
G01 X-44.8982 Y10.0556 
G01 X-44.8672 Y9.9807 
G01 X-44.7501 Y9.9807 
G01 X-44.6498 Y9.9807 
G01 X-44.5530 Y9.9548 
G01 X-44.4661 Y9.9046 
G01 X-44.3953 Y9.8338 
G01 X-44.3451 Y9.7469 
G01 X-44.3192 Y9.6501 
G01 X-44.3192 Y8.5807 
G01 X-36.3807 Y8.5807 
G01 X-36.3807 Y10.3248 
G01 X-37.6208 Y11.3878 
G01 X-37.6338 Y11.3953 
G01 X-37.6592 Y11.4207 
G01 X-37.6858 Y11.4435 
G01 X-37.6940 Y11.4556 
G01 X-37.7046 Y11.4661 
G01 X-37.7226 Y11.4974 
G01 X-37.7424 Y11.5262 
G01 X-37.7472 Y11.5399 
G01 X-37.7548 Y11.5530 
G01 X-37.7641 Y11.5879 
G01 X-37.7757 Y11.6207 
G01 X-37.7768 Y11.6354 
G01 X-37.7807 Y11.6498 
G01 X-37.7807 Y11.6857 
G01 X-37.7834 Y11.7208 
G01 X-37.7807 Y11.7352 
G01 X-37.7807 Y17.3585 
G01 X-37.7826 Y17.3671 
G01 X-37.7807 Y17.4086 
G01 X-37.7807 Y17.4501 
G01 X-37.7784 Y17.4586 
G01 X-37.7780 Y17.4674 
G01 X-37.7657 Y17.5062 
G01 X-37.7548 Y17.5469 
G01 X-37.7503 Y17.5546 
G01 X-37.7477 Y17.5629 
G01 X-37.7256 Y17.5974 
G01 X-37.7046 Y17.6338 
G01 X-37.6983 Y17.6400 
G01 X-37.6937 Y17.6473 
G01 X-37.6638 Y17.6746 
G01 X-37.6338 Y17.7046 
G01 X-37.6260 Y17.7091 
G01 X-28.5807 Y25.9679 
G01 X-28.5807 Y28.6630 
G01 X-34.0792 Y35.3192 
G01 X-87.4137 Y35.3192 
G01 X-93.1064 Y28.0001 
G01 X-93.1064 Y26.2294 
G01 X-93.1327 Y26.0636 
G01 X-93.1845 Y25.9039 
G01 X-93.2607 Y25.7543 
G01 X-93.3594 Y25.6185 
G01 X-93.4781 Y25.4998 
G01 X-93.6139 Y25.4011 
G01 X-93.7635 Y25.3249 
G01 X-93.9232 Y25.2731 
G01 X-94.0890 Y25.2468 
G01 X-94.2569 Y25.2468 
G01 X-94.4227 Y25.2731 
G01 X-94.5824 Y25.3249 
G01 X-94.7320 Y25.4011 
G01 X-94.8678 Y25.4998 
G01 X-94.9865 Y25.6185 
G01 X-95.0852 Y25.7543 
G01 X-95.1614 Y25.9039 
G01 X-95.2132 Y26.0636 
G01 X-95.2395 Y26.2294 
G01 X-95.2395 Y28.3785 
G01 X-95.2132 Y28.5443 
G01 X-95.1614 Y28.7040 
G01 X-95.0852 Y28.8536 
G01 X-94.9865 Y28.9894 
G01 X-94.8678 Y29.1081 
G01 X-94.7320 Y29.2068 
G01 X-94.5824 Y29.2830 
G01 X-94.4227 Y29.3348 
G01 X-94.2569 Y29.3611 
G01 X-94.0890 Y29.3611 
G01 X-93.9232 Y29.3348 
G01 X-93.7635 Y29.2830 
G01 X-93.6139 Y29.2068 
G01 X-93.4781 Y29.1081 
G01 X-93.3594 Y28.9894 
G01 X-93.3315 Y28.9510 
G01 X-87.9166 Y35.9129 
G01 X-87.9046 Y35.9338 
G01 X-87.8858 Y35.9526 
G01 X-87.8697 Y35.9733 
G01 X-87.8507 Y35.9876 
G01 X-87.8338 Y36.0046 
G01 X-87.8108 Y36.0178 
G01 X-87.7898 Y36.0338 
G01 X-87.7677 Y36.0428 
G01 X-87.7469 Y36.0548 
G01 X-87.7211 Y36.0617 
G01 X-87.6970 Y36.0715 
G01 X-87.6734 Y36.0745 
G01 X-87.6501 Y36.0807 
G01 X-87.6237 Y36.0807 
G01 X-87.5974 Y36.0840 
G01 X-87.5737 Y36.0807 
G01 X-33.9316 Y36.0807 
G01 X-33.9138 Y36.0837 
G01 X-33.8822 Y36.0807 
G01 X-33.8498 Y36.0807 
G01 X-33.8320 Y36.0759 
G01 X-33.8139 Y36.0742 
G01 X-33.7844 Y36.0632 
G01 X-33.7530 Y36.0548 
G01 X-33.7369 Y36.0455 
G01 X-33.7200 Y36.0392 
G01 X-33.6941 Y36.0207 
G01 X-33.6661 Y36.0046 
G01 X-33.6532 Y35.9917 
G01 X-33.6383 Y35.9811 
G01 X-33.6179 Y35.9564 
G01 X-33.5953 Y35.9338 
G01 X-33.5862 Y35.9180 
G01 X-27.9182 Y29.0567 
G01 X-27.8953 Y29.0338 
G01 X-27.8861 Y29.0177 
G01 X-27.8745 Y29.0038 
G01 X-27.8613 Y28.9749 
G01 X-27.8451 Y28.9469 
G01 X-27.8403 Y28.9290 
G01 X-27.8328 Y28.9126 
G01 X-27.8275 Y28.8812 
G01 X-27.8192 Y28.8501 
G01 X-27.8192 Y28.8316 
G01 X-27.8162 Y28.8138 
G01 X-27.8192 Y28.7822 
G01 X-27.8192 Y25.8414 
G01 X-27.8173 Y25.8328 
G01 X-27.8192 Y25.7914 
G01 X-27.8192 Y25.7498 
G01 X-27.8215 Y25.7412 
G01 X-27.8219 Y25.7325 
G01 X-27.8342 Y25.6938 
G01 X-27.8451 Y25.6530 
G01 X-27.8496 Y25.6453 
G01 X-27.8522 Y25.6370 
G01 X-27.8743 Y25.6026 
G01 X-27.8953 Y25.5661 
G01 X-27.9016 Y25.5598 
G01 X-27.9062 Y25.5526 
G01 X-27.9361 Y25.5253 
G01 X-27.9661 Y25.4953 
G01 X-27.9739 Y25.4908 
G01 X-37.0192 Y17.2320 
G01 X-37.0192 Y11.8751 
G01 X-35.7791 Y10.8121 
G01 X-35.7661 Y10.8046 
G01 X-35.7407 Y10.7792 
G01 X-35.7141 Y10.7564 
G01 X-35.7059 Y10.7443 
G01 X-35.6953 Y10.7338 
G01 X-35.6773 Y10.7026 
G01 X-35.6575 Y10.6737 
G01 X-35.6527 Y10.6600 
G01 X-35.6451 Y10.6469 
G01 X-35.6358 Y10.6120 
G01 X-35.6242 Y10.5792 
G01 X-35.6231 Y10.5645 
G01 X-35.6192 Y10.5501 
G01 X-35.6192 Y10.5142 
G01 X-35.6165 Y10.4791 
G01 X-35.6192 Y10.4647 
G01 X-35.6192 Y8.1498 
G01 X-35.6451 Y8.0530 
G01 X-35.6953 Y7.9661 
G01 X-35.7661 Y7.8953 
G01 X-35.8530 Y7.8451 
G01 X-35.9498 Y7.8192 
G01 X-36.0501 Y7.8192 
G01 X-44.7501 Y7.8192 
G01 X-44.8469 Y7.8451 
G01 X-44.9338 Y7.8953 
G01 X-45.0046 Y7.9661 
G01 X-45.0548 Y8.0530 
G01 X-45.0807 Y8.1498 
G01 X-45.0807 Y8.2501 
G01 X-45.0807 Y8.9764 
G01 X-45.1208 Y8.9362 
G01 X-45.2674 Y8.8383 
G01 X-45.4303 Y8.7708 
G01 X-45.6032 Y8.7364 
G01 X-45.7797 Y8.7364 
G01 X-45.9526 Y8.7708 
G01 X-46.1155 Y8.8383 
G01 X-46.2621 Y8.9362 
G01 X-46.3868 Y9.0609 
G01 X-46.4847 Y9.2075 
G01 X-46.5522 Y9.3704 
G01 X-46.5866 Y9.5433 
G00 Z2.0000 
G00 X-43.8180 Y9.5433 
G01 Z-0.1000 F600.00 
G01 X-43.8180 Y9.7198 
G01 X-43.7836 Y9.8927 
G01 X-43.7682 Y9.9298 
G01 X-44.5577 Y10.7192 
G01 X-45.6498 Y10.7192 
G01 X-45.7501 Y10.7192 
G01 X-45.8469 Y10.7451 
G01 X-45.9338 Y10.7953 
G01 X-46.0046 Y10.8661 
G01 X-46.0548 Y10.9530 
G01 X-46.0807 Y11.0498 
G01 X-46.0807 Y21.2521 
G01 X-46.0812 Y21.2540 
G01 X-46.0807 Y21.2997 
G01 X-46.0807 Y21.3501 
G01 X-46.0801 Y21.3522 
G01 X-46.0801 Y21.3543 
G01 X-46.0681 Y21.3972 
G01 X-46.0548 Y21.4469 
G01 X-46.0536 Y21.4489 
G01 X-46.0531 Y21.4508 
G01 X-46.0303 Y21.4891 
G01 X-46.0046 Y21.5338 
G01 X-46.0030 Y21.5353 
G01 X-46.0020 Y21.5371 
G01 X-45.9697 Y21.5686 
G01 X-45.9338 Y21.6046 
G01 X-45.9318 Y21.6057 
G01 X-41.4807 Y25.9601 
G01 X-41.4807 Y29.5422 
G01 X-44.5577 Y32.6192 
G01 X-77.1526 Y32.6192 
G01 X-79.4192 Y27.5192 
G01 X-79.4192 Y25.8375 
G01 X-79.4168 Y25.8255 
G01 X-79.4192 Y25.7879 
G01 X-79.4192 Y25.7498 
G01 X-79.4224 Y25.7379 
G01 X-79.4232 Y25.7254 
G01 X-79.4354 Y25.6895 
G01 X-79.4451 Y25.6530 
G01 X-79.4513 Y25.6424 
G01 X-79.4553 Y25.6304 
G01 X-79.4767 Y25.5983 
G01 X-79.4953 Y25.5661 
G01 X-79.5039 Y25.5575 
G01 X-81.2767 Y22.8984 
G01 X-81.2953 Y22.8661 
G01 X-81.3039 Y22.8575 
G01 X-81.3109 Y22.8470 
G01 X-81.3396 Y22.8219 
G01 X-81.3661 Y22.7953 
G01 X-81.3770 Y22.7891 
G01 X-81.3862 Y22.7809 
G01 X-81.4200 Y22.7642 
G01 X-81.4530 Y22.7451 
G01 X-81.4651 Y22.7419 
G01 X-81.4761 Y22.7364 
G01 X-81.5131 Y22.7291 
G01 X-81.5498 Y22.7192 
G01 X-81.5624 Y22.7192 
G01 X-81.5744 Y22.7168 
G01 X-81.6119 Y22.7192 
G01 X-86.9901 Y22.7192 
G01 X-87.0319 Y22.7172 
G01 X-87.0411 Y22.7192 
G01 X-87.0501 Y22.7192 
G01 X-87.0892 Y22.7297 
G01 X-87.1298 Y22.7385 
G01 X-87.1379 Y22.7427 
G01 X-87.1469 Y22.7451 
G01 X-87.1826 Y22.7658 
G01 X-87.2190 Y22.7845 
G01 X-87.2257 Y22.7907 
G01 X-87.2338 Y22.7953 
G01 X-87.2632 Y22.8248 
G01 X-87.2931 Y22.8519 
G01 X-87.2979 Y22.8595 
G01 X-87.3046 Y22.8661 
G01 X-87.3256 Y22.9025 
G01 X-89.0889 Y25.6454 
G01 X-89.1084 Y25.6185 
G01 X-89.2271 Y25.4998 
G01 X-89.3629 Y25.4011 
G01 X-89.5125 Y25.3249 
G01 X-89.6722 Y25.2731 
G01 X-89.8380 Y25.2468 
G01 X-90.0059 Y25.2468 
G01 X-90.1717 Y25.2731 
G01 X-90.3314 Y25.3249 
G01 X-90.4810 Y25.4011 
G01 X-90.6168 Y25.4998 
G01 X-90.7355 Y25.6185 
G01 X-90.8342 Y25.7543 
G01 X-90.9104 Y25.9039 
G01 X-90.9622 Y26.0636 
G01 X-90.9885 Y26.2294 
G01 X-90.9885 Y28.3785 
G01 X-90.9622 Y28.5443 
G01 X-90.9104 Y28.7040 
G01 X-90.8342 Y28.8536 
G01 X-90.7355 Y28.9894 
G01 X-90.6168 Y29.1081 
G01 X-90.4810 Y29.2068 
G01 X-90.3314 Y29.2830 
G01 X-90.1717 Y29.3348 
G01 X-90.0059 Y29.3611 
G01 X-89.8380 Y29.3611 
G01 X-89.6722 Y29.3348 
G01 X-89.5125 Y29.2830 
G01 X-89.3629 Y29.2068 
G01 X-89.2271 Y29.1081 
G01 X-89.1084 Y28.9894 
G01 X-89.0097 Y28.8536 
G01 X-88.9335 Y28.7040 
G01 X-88.8817 Y28.5443 
G01 X-88.8554 Y28.3785 
G01 X-88.8554 Y26.6902 
G01 X-86.7921 Y23.4807 
G01 X-81.8038 Y23.4807 
G01 X-80.1807 Y25.9153 
G01 X-80.1807 Y27.5797 
G01 X-80.1839 Y27.6098 
G01 X-80.1807 Y27.6299 
G01 X-80.1807 Y27.6501 
G01 X-80.1728 Y27.6793 
G01 X-80.1682 Y27.7088 
G01 X-80.1601 Y27.7269 
G01 X-80.1548 Y27.7469 
G01 X-80.1394 Y27.7734 
G01 X-77.7601 Y33.1269 
G01 X-77.7548 Y33.1469 
G01 X-77.7395 Y33.1733 
G01 X-77.7275 Y33.2004 
G01 X-77.7148 Y33.2160 
G01 X-77.7046 Y33.2338 
G01 X-77.6834 Y33.2550 
G01 X-77.6645 Y33.2784 
G01 X-77.6480 Y33.2903 
G01 X-77.6338 Y33.3046 
G01 X-77.6075 Y33.3197 
G01 X-77.5834 Y33.3373 
G01 X-77.5647 Y33.3444 
G01 X-77.5469 Y33.3548 
G01 X-77.5175 Y33.3626 
G01 X-77.4899 Y33.3733 
G01 X-77.4697 Y33.3754 
G01 X-77.4501 Y33.3807 
G01 X-77.4203 Y33.3807 
G01 X-77.3901 Y33.3839 
G01 X-77.3700 Y33.3807 
G01 X-44.3498 Y33.3807 
G01 X-44.2530 Y33.3548 
G01 X-44.1661 Y33.3046 
G01 X-44.0953 Y33.2338 
G01 X-40.7953 Y29.9338 
G01 X-40.7451 Y29.8469 
G01 X-40.7192 Y29.7501 
G01 X-40.7192 Y29.6498 
G01 X-40.7192 Y25.8478 
G01 X-40.7187 Y25.8459 
G01 X-40.7192 Y25.8004 
G01 X-40.7192 Y25.7498 
G01 X-40.7198 Y25.7477 
G01 X-40.7198 Y25.7456 
G01 X-40.7318 Y25.7029 
G01 X-40.7451 Y25.6530 
G01 X-40.7463 Y25.6510 
G01 X-40.7468 Y25.6491 
G01 X-40.7695 Y25.6110 
G01 X-40.7953 Y25.5661 
G01 X-40.7969 Y25.5646 
G01 X-40.7979 Y25.5628 
G01 X-40.8301 Y25.5314 
G01 X-40.8661 Y25.4953 
G01 X-40.8681 Y25.4942 
G01 X-45.3192 Y21.1398 
G01 X-45.3192 Y11.4807 
G01 X-44.3498 Y11.4807 
G01 X-44.2530 Y11.4548 
G01 X-44.1661 Y11.4046 
G01 X-44.0953 Y11.3338 
G01 X-43.2334 Y10.4718 
G01 X-43.1840 Y10.4923 
G01 X-43.0111 Y10.5267 
G01 X-42.8346 Y10.5267 
G01 X-42.6617 Y10.4923 
G01 X-42.4988 Y10.4248 
G01 X-42.3522 Y10.3269 
G01 X-42.2275 Y10.2022 
G01 X-42.1296 Y10.0556 
G01 X-42.0621 Y9.8927 
G01 X-42.0277 Y9.7198 
G01 X-42.0277 Y9.5433 
G01 X-42.0621 Y9.3704 
G01 X-42.1296 Y9.2075 
G01 X-42.2275 Y9.0609 
G01 X-42.3522 Y8.9362 
G01 X-42.4988 Y8.8383 
G01 X-42.6617 Y8.7708 
G01 X-42.8346 Y8.7364 
G01 X-43.0111 Y8.7364 
G01 X-43.1840 Y8.7708 
G01 X-43.3469 Y8.8383 
G01 X-43.4935 Y8.9362 
G01 X-43.6182 Y9.0609 
G01 X-43.7161 Y9.2075 
G01 X-43.7836 Y9.3704 
G01 X-43.8180 Y9.5433 
G00 Z2.0000 
G00 X-35.5122 Y9.5433 
G01 Z-0.1000 F600.00 
G01 X-35.5122 Y9.7198 
G01 X-35.4778 Y9.8927 
G01 X-35.4103 Y10.0556 
G01 X-35.3124 Y10.2022 
G01 X-35.1877 Y10.3269 
G01 X-35.0411 Y10.4248 
G01 X-34.9807 Y10.4498 
G01 X-34.9807 Y15.8564 
G01 X-34.9822 Y15.8628 
G01 X-34.9807 Y15.9071 
G01 X-34.9807 Y15.9501 
G01 X-34.9790 Y15.9563 
G01 X-34.9788 Y15.9631 
G01 X-34.9661 Y16.0047 
G01 X-34.9548 Y16.0469 
G01 X-34.9514 Y16.0527 
G01 X-34.9495 Y16.0590 
G01 X-34.9265 Y16.0958 
G01 X-34.9046 Y16.1338 
G01 X-34.8999 Y16.1384 
G01 X-34.8965 Y16.1440 
G01 X-34.8646 Y16.1737 
G01 X-34.8338 Y16.2046 
G01 X-34.8280 Y16.2079 
G01 X-24.3807 Y25.9653 
G01 X-24.3807 Y28.6654 
G01 X-30.4819 Y36.2192 
G01 X-89.8125 Y36.2192 
G01 X-95.6192 Y28.6705 
G01 X-95.6192 Y25.9153 
G01 X-93.3961 Y22.5807 
G01 X-81.1972 Y22.5807 
G01 X-78.2355 Y26.7765 
G01 X-78.2355 Y28.3785 
G01 X-78.2092 Y28.5443 
G01 X-78.1574 Y28.7040 
G01 X-78.0812 Y28.8536 
G01 X-77.9825 Y28.9894 
G01 X-77.8638 Y29.1081 
G01 X-77.7280 Y29.2068 
G01 X-77.5784 Y29.2830 
G01 X-77.4187 Y29.3348 
G01 X-77.2529 Y29.3611 
G01 X-77.0850 Y29.3611 
G01 X-76.9192 Y29.3348 
G01 X-76.7595 Y29.2830 
G01 X-76.6099 Y29.2068 
G01 X-76.4741 Y29.1081 
G01 X-76.3554 Y28.9894 
G01 X-76.2567 Y28.8536 
G01 X-76.1805 Y28.7040 
G01 X-76.1287 Y28.5443 
G01 X-76.1024 Y28.3785 
G01 X-76.1024 Y26.2294 
G01 X-76.1287 Y26.0636 
G01 X-76.1805 Y25.9039 
G01 X-76.2567 Y25.7543 
G01 X-76.3554 Y25.6185 
G01 X-76.4741 Y25.4998 
G01 X-76.6099 Y25.4011 
G01 X-76.7595 Y25.3249 
G01 X-76.9192 Y25.2731 
G01 X-77.0850 Y25.2468 
G01 X-77.2529 Y25.2468 
G01 X-77.4187 Y25.2731 
G01 X-77.5784 Y25.3249 
G01 X-77.7280 Y25.4011 
G01 X-77.8638 Y25.4998 
G01 X-77.9825 Y25.6185 
G01 X-78.0526 Y25.7151 
G01 X-80.6789 Y21.9946 
G01 X-80.6953 Y21.9661 
G01 X-80.7078 Y21.9537 
G01 X-80.7178 Y21.9394 
G01 X-80.7429 Y21.9186 
G01 X-80.7661 Y21.8953 
G01 X-80.7814 Y21.8865 
G01 X-80.7948 Y21.8753 
G01 X-80.8243 Y21.8617 
G01 X-80.8530 Y21.8451 
G01 X-80.8702 Y21.8405 
G01 X-80.8858 Y21.8333 
G01 X-80.9179 Y21.8278 
G01 X-80.9498 Y21.8192 
G01 X-80.9673 Y21.8192 
G01 X-80.9846 Y21.8162 
G01 X-81.0176 Y21.8192 
G01 X-93.5880 Y21.8192 
G01 X-93.6255 Y21.8168 
G01 X-93.6375 Y21.8192 
G01 X-93.6501 Y21.8192 
G01 X-93.6868 Y21.8291 
G01 X-93.7238 Y21.8364 
G01 X-93.7348 Y21.8419 
G01 X-93.7469 Y21.8451 
G01 X-93.7799 Y21.8642 
G01 X-93.8137 Y21.8809 
G01 X-93.8229 Y21.8891 
G01 X-93.8338 Y21.8953 
G01 X-93.8603 Y21.9219 
G01 X-93.8890 Y21.9470 
G01 X-93.8960 Y21.9575 
G01 X-93.9046 Y21.9661 
G01 X-93.9232 Y21.9984 
G01 X-96.2960 Y25.5575 
G01 X-96.3046 Y25.5661 
G01 X-96.3232 Y25.5983 
G01 X-96.3446 Y25.6304 
G01 X-96.3486 Y25.6424 
G01 X-96.3548 Y25.6530 
G01 X-96.3645 Y25.6895 
G01 X-96.3767 Y25.7254 
G01 X-96.3775 Y25.7379 
G01 X-96.3807 Y25.7498 
G01 X-96.3807 Y25.7879 
G01 X-96.3831 Y25.8255 
G01 X-96.3807 Y25.8375 
G01 X-96.3807 Y28.7752 
G01 X-96.3840 Y28.8005 
G01 X-96.3807 Y28.8253 
G01 X-96.3807 Y28.8501 
G01 X-96.3741 Y28.8745 
G01 X-96.3708 Y28.8998 
G01 X-96.3612 Y28.9227 
G01 X-96.3548 Y28.9469 
G01 X-96.3420 Y28.9690 
G01 X-96.3323 Y28.9924 
G01 X-96.3171 Y29.0121 
G01 X-96.3046 Y29.0338 
G01 X-96.2866 Y29.0517 
G01 X-90.3171 Y36.8120 
G01 X-90.3046 Y36.8338 
G01 X-90.2865 Y36.8518 
G01 X-90.2712 Y36.8718 
G01 X-90.2515 Y36.8869 
G01 X-90.2338 Y36.9046 
G01 X-90.2118 Y36.9172 
G01 X-90.1916 Y36.9328 
G01 X-90.1685 Y36.9423 
G01 X-90.1469 Y36.9548 
G01 X-90.1221 Y36.9614 
G01 X-90.0989 Y36.9710 
G01 X-90.0743 Y36.9742 
G01 X-90.0501 Y36.9807 
G01 X-90.0247 Y36.9807 
G01 X-89.9994 Y36.9840 
G01 X-89.9746 Y36.9807 
G01 X-30.3299 Y36.9807 
G01 X-30.3096 Y36.9839 
G01 X-30.2795 Y36.9807 
G01 X-30.2498 Y36.9807 
G01 X-30.2303 Y36.9754 
G01 X-30.2098 Y36.9733 
G01 X-30.1820 Y36.9625 
G01 X-30.1530 Y36.9548 
G01 X-30.1351 Y36.9444 
G01 X-30.1163 Y36.9372 
G01 X-30.0923 Y36.9197 
G01 X-30.0661 Y36.9046 
G01 X-30.0517 Y36.8902 
G01 X-30.0352 Y36.8782 
G01 X-30.0163 Y36.8548 
G01 X-29.9953 Y36.8338 
G01 X-29.9852 Y36.8162 
G01 X-23.7163 Y29.0548 
G01 X-23.6953 Y29.0338 
G01 X-23.6852 Y29.0162 
G01 X-23.6722 Y29.0002 
G01 X-23.6601 Y28.9727 
G01 X-23.6451 Y28.9469 
G01 X-23.6398 Y28.9271 
G01 X-23.6316 Y28.9086 
G01 X-23.6270 Y28.8790 
G01 X-23.6192 Y28.8501 
G01 X-23.6192 Y28.8299 
G01 X-23.6160 Y28.8096 
G01 X-23.6192 Y28.7794 
G01 X-23.6192 Y25.8435 
G01 X-23.6177 Y25.8371 
G01 X-23.6192 Y25.7929 
G01 X-23.6192 Y25.7498 
G01 X-23.6209 Y25.7436 
G01 X-23.6211 Y25.7368 
G01 X-23.6338 Y25.6953 
G01 X-23.6451 Y25.6530 
G01 X-23.6485 Y25.6471 
G01 X-23.6504 Y25.6409 
G01 X-23.6734 Y25.6041 
G01 X-23.6953 Y25.5661 
G01 X-23.7000 Y25.5615 
G01 X-23.7034 Y25.5559 
G01 X-23.7352 Y25.5263 
G01 X-23.7661 Y25.4953 
G01 X-23.7719 Y25.4920 
G01 X-34.2192 Y15.7346 
G01 X-34.2192 Y10.4356 
G01 X-34.1930 Y10.4248 
G01 X-34.0464 Y10.3269 
G01 X-33.9217 Y10.2022 
G01 X-33.8238 Y10.0556 
G01 X-33.7563 Y9.8927 
G01 X-33.7219 Y9.7198 
G01 X-33.7219 Y9.5433 
G01 X-33.7563 Y9.3704 
G01 X-33.8238 Y9.2075 
G01 X-33.9217 Y9.0609 
G01 X-34.0464 Y8.9362 
G01 X-34.1930 Y8.8383 
G01 X-34.3559 Y8.7708 
G01 X-34.5288 Y8.7364 
G01 X-34.7053 Y8.7364 
G01 X-34.8782 Y8.7708 
G01 X-35.0411 Y8.8383 
G01 X-35.1877 Y8.9362 
G01 X-35.3124 Y9.0609 
G01 X-35.4103 Y9.2075 
G01 X-35.4778 Y9.3704 
G01 X-35.5122 Y9.5433 
G00 Z2.0000 
G00 X-32.6417 Y10.0556 
G01 Z-0.1000 F600.00 
G01 X-32.5438 Y10.2022 
G01 X-32.4191 Y10.3269 
G01 X-32.2725 Y10.4248 
G01 X-32.1096 Y10.4923 
G01 X-31.9367 Y10.5267 
G01 X-31.7602 Y10.5267 
G01 X-31.5873 Y10.4923 
G01 X-31.4244 Y10.4248 
G01 X-31.2778 Y10.3269 
G01 X-31.1531 Y10.2022 
G01 X-31.0552 Y10.0556 
G01 X-30.9877 Y9.8927 
G01 X-30.9533 Y9.7198 
G01 X-30.9533 Y9.5433 
G01 X-30.9877 Y9.3704 
G01 X-31.0552 Y9.2075 
G01 X-31.1531 Y9.0609 
G01 X-31.2778 Y8.9362 
G01 X-31.4244 Y8.8383 
G01 X-31.5873 Y8.7708 
G01 X-31.7602 Y8.7364 
G01 X-31.9367 Y8.7364 
G01 X-32.1096 Y8.7708 
G01 X-32.2725 Y8.8383 
G01 X-32.4191 Y8.9362 
G01 X-32.5438 Y9.0609 
G01 X-32.5873 Y9.1261 
G01 X-34.1836 Y7.0864 
G01 X-34.1953 Y7.0661 
G01 X-34.2145 Y7.0470 
G01 X-34.2310 Y7.0258 
G01 X-34.2496 Y7.0118 
G01 X-34.2661 Y6.9953 
G01 X-34.2894 Y6.9819 
G01 X-34.3111 Y6.9655 
G01 X-34.3328 Y6.9568 
G01 X-34.3530 Y6.9451 
G01 X-34.3794 Y6.9381 
G01 X-34.4041 Y6.9281 
G01 X-34.4271 Y6.9253 
G01 X-34.4498 Y6.9192 
G01 X-34.4767 Y6.9192 
G01 X-34.5037 Y6.9159 
G01 X-34.5269 Y6.9192 
G01 X-49.7498 Y6.9192 
G01 X-49.8501 Y6.9192 
G01 X-49.9469 Y6.9451 
G01 X-50.0338 Y6.9953 
G01 X-50.1046 Y7.0661 
G01 X-50.1548 Y7.1530 
G01 X-50.1807 Y7.2498 
G01 X-50.1807 Y10.2423 
G01 X-51.4337 Y11.4953 
G01 X-51.4338 Y11.4953 
G01 X-51.5046 Y11.5661 
G01 X-51.5548 Y11.6530 
G01 X-51.5807 Y11.7498 
G01 X-51.5807 Y22.3713 
G01 X-51.5839 Y22.3924 
G01 X-51.5807 Y22.4212 
G01 X-51.5807 Y22.4501 
G01 X-51.5751 Y22.4707 
G01 X-51.5728 Y22.4921 
G01 X-51.5622 Y22.5189 
G01 X-51.5548 Y22.5469 
G01 X-51.5440 Y22.5655 
G01 X-51.5362 Y22.5855 
G01 X-51.5190 Y22.6087 
G01 X-51.5046 Y22.6338 
G01 X-51.4894 Y22.6489 
G01 X-50.1807 Y24.4251 
G01 X-50.1807 Y29.5217 
G01 X-51.7378 Y30.8192 
G01 X-70.0096 Y30.8192 
G01 X-71.8514 Y28.3635 
G01 X-71.8514 Y26.2294 
G01 X-71.8777 Y26.0636 
G01 X-71.9295 Y25.9039 
G01 X-72.0057 Y25.7543 
G01 X-72.1044 Y25.6185 
G01 X-72.2231 Y25.4998 
G01 X-72.3589 Y25.4011 
G01 X-72.5085 Y25.3249 
G01 X-72.6682 Y25.2731 
G01 X-72.8340 Y25.2468 
G01 X-73.0019 Y25.2468 
G01 X-73.1677 Y25.2731 
G01 X-73.3274 Y25.3249 
G01 X-73.4770 Y25.4011 
G01 X-73.6128 Y25.4998 
G01 X-73.7315 Y25.6185 
G01 X-73.8302 Y25.7543 
G01 X-73.9064 Y25.9039 
G01 X-73.9582 Y26.0636 
G01 X-73.9845 Y26.2294 
G01 X-73.9845 Y28.3785 
G01 X-73.9582 Y28.5443 
G01 X-73.9064 Y28.7040 
G01 X-73.8302 Y28.8536 
G01 X-73.7315 Y28.9894 
G01 X-73.6128 Y29.1081 
G01 X-73.4770 Y29.2068 
G01 X-73.3274 Y29.2830 
G01 X-73.1677 Y29.3348 
G01 X-73.0019 Y29.3611 
G01 X-72.8340 Y29.3611 
G01 X-72.6682 Y29.3348 
G01 X-72.5085 Y29.2830 
G01 X-72.3589 Y29.2068 
G01 X-72.2371 Y29.1182 
G01 X-70.5182 Y31.4101 
G01 X-70.5046 Y31.4338 
G01 X-70.4883 Y31.4500 
G01 X-70.4745 Y31.4685 
G01 X-70.4531 Y31.4852 
G01 X-70.4338 Y31.5046 
G01 X-70.4136 Y31.5162 
G01 X-70.3956 Y31.5304 
G01 X-70.3706 Y31.5410 
G01 X-70.3469 Y31.5548 
G01 X-70.3246 Y31.5607 
G01 X-70.3035 Y31.5698 
G01 X-70.2762 Y31.5736 
G01 X-70.2501 Y31.5807 
G01 X-70.2272 Y31.5807 
G01 X-70.2042 Y31.5840 
G01 X-70.1768 Y31.5807 
G01 X-51.6174 Y31.5807 
G01 X-51.5845 Y31.5837 
G01 X-51.5672 Y31.5807 
G01 X-51.5498 Y31.5807 
G01 X-51.5180 Y31.5721 
G01 X-51.4857 Y31.5666 
G01 X-51.4701 Y31.5593 
G01 X-51.4530 Y31.5548 
G01 X-51.4241 Y31.5380 
G01 X-51.3947 Y31.5245 
G01 X-51.3815 Y31.5134 
G01 X-51.3661 Y31.5046 
G01 X-51.3425 Y31.4810 
G01 X-49.5813 Y30.0133 
G01 X-49.5661 Y30.0046 
G01 X-49.5430 Y29.9814 
G01 X-49.5177 Y29.9604 
G01 X-49.5077 Y29.9461 
G01 X-49.4953 Y29.9338 
G01 X-49.4790 Y29.9054 
G01 X-49.4599 Y29.8785 
G01 X-49.4539 Y29.8620 
G01 X-49.4451 Y29.8469 
G01 X-49.4366 Y29.8151 
G01 X-49.4253 Y29.7844 
G01 X-49.4238 Y29.7669 
G01 X-49.4192 Y29.7501 
G01 X-49.4192 Y29.7175 
G01 X-49.4162 Y29.6845 
G01 X-49.4192 Y29.6672 
G01 X-49.4192 Y24.3286 
G01 X-49.4160 Y24.3075 
G01 X-49.4192 Y24.2787 
G01 X-49.4192 Y24.2498 
G01 X-49.4248 Y24.2292 
G01 X-49.4271 Y24.2078 
G01 X-49.4377 Y24.1810 
G01 X-49.4451 Y24.1530 
G01 X-49.4560 Y24.1343 
G01 X-49.4637 Y24.1144 
G01 X-49.4809 Y24.0912 
G01 X-49.4953 Y24.0661 
G01 X-49.5105 Y24.0510 
G01 X-50.8192 Y22.2748 
G01 X-50.8192 Y11.9576 
G01 X-49.5663 Y10.7047 
G01 X-49.5661 Y10.7046 
G01 X-49.4953 Y10.6338 
G01 X-49.4451 Y10.5469 
G01 X-49.4192 Y10.4501 
G01 X-49.4192 Y7.6807 
G01 X-34.6855 Y7.6807 
G01 X-33.0163 Y9.8135 
G01 X-33.0046 Y9.8338 
G01 X-32.9854 Y9.8529 
G01 X-32.9689 Y9.8741 
G01 X-32.9503 Y9.8881 
G01 X-32.9338 Y9.9046 
G01 X-32.9105 Y9.9180 
G01 X-32.8888 Y9.9344 
G01 X-32.8671 Y9.9431 
G01 X-32.8469 Y9.9548 
G01 X-32.8205 Y9.9618 
G01 X-32.7958 Y9.9718 
G01 X-32.7728 Y9.9746 
G01 X-32.7501 Y9.9807 
G01 X-32.7232 Y9.9807 
G01 X-32.6962 Y9.9840 
G01 X-32.6730 Y9.9807 
G01 X-32.6727 Y9.9807 
G01 X-32.6417 Y10.0556 
G00 Z2.0000 
G00 X-24.4378 Y9.5433 
G01 Z-0.1000 F600.00 
G01 X-24.4378 Y9.7198 
G01 X-24.4034 Y9.8927 
G01 X-24.3359 Y10.0556 
G01 X-24.2380 Y10.2022 
G01 X-24.1133 Y10.3269 
G01 X-23.9667 Y10.4248 
G01 X-23.8038 Y10.4923 
G01 X-23.6309 Y10.5267 
G01 X-23.4544 Y10.5267 
G01 X-23.2815 Y10.4923 
G01 X-23.1186 Y10.4248 
G01 X-22.9720 Y10.3269 
G01 X-22.8473 Y10.2022 
G01 X-22.7494 Y10.0556 
G01 X-22.6819 Y9.8927 
G01 X-22.6475 Y9.7198 
G01 X-22.6475 Y9.5433 
G01 X-22.6819 Y9.3704 
G01 X-22.7494 Y9.2075 
G01 X-22.8473 Y9.0609 
G01 X-22.9720 Y8.9362 
G01 X-23.1186 Y8.8383 
G01 X-23.2815 Y8.7708 
G01 X-23.4544 Y8.7364 
G01 X-23.6309 Y8.7364 
G01 X-23.8038 Y8.7708 
G01 X-23.9181 Y8.8182 
G01 X-27.2930 Y5.2702 
G01 X-27.2953 Y5.2661 
G01 X-27.3264 Y5.2351 
G01 X-27.3586 Y5.2012 
G01 X-27.3629 Y5.1986 
G01 X-27.3661 Y5.1953 
G01 X-27.4034 Y5.1738 
G01 X-27.4441 Y5.1489 
G01 X-27.4490 Y5.1475 
G01 X-27.4530 Y5.1451 
G01 X-27.4959 Y5.1337 
G01 X-27.5403 Y5.1206 
G01 X-27.5452 Y5.1205 
G01 X-27.5498 Y5.1192 
G01 X-27.5949 Y5.1192 
G01 X-27.6406 Y5.1181 
G01 X-27.6453 Y5.1192 
G01 X-52.5498 Y5.1192 
G01 X-52.6501 Y5.1192 
G01 X-52.7469 Y5.1451 
G01 X-52.8338 Y5.1953 
G01 X-52.9046 Y5.2661 
G01 X-52.9548 Y5.3530 
G01 X-52.9807 Y5.4498 
G01 X-52.9807 Y10.3248 
G01 X-54.2208 Y11.3878 
G01 X-54.2338 Y11.3953 
G01 X-54.2592 Y11.4207 
G01 X-54.2858 Y11.4435 
G01 X-54.2940 Y11.4556 
G01 X-54.3046 Y11.4661 
G01 X-54.3226 Y11.4974 
G01 X-54.3424 Y11.5262 
G01 X-54.3472 Y11.5399 
G01 X-54.3548 Y11.5530 
G01 X-54.3641 Y11.5879 
G01 X-54.3757 Y11.6207 
G01 X-54.3768 Y11.6354 
G01 X-54.3807 Y11.6498 
G01 X-54.3807 Y11.6857 
G01 X-54.3834 Y11.7208 
G01 X-54.3807 Y11.7352 
G01 X-54.3807 Y29.2096 
G01 X-55.3268 Y29.9192 
G01 X-57.7137 Y29.9192 
G01 X-59.0984 Y28.1389 
G01 X-59.0984 Y26.2294 
G01 X-59.1247 Y26.0636 
G01 X-59.1765 Y25.9039 
G01 X-59.2527 Y25.7543 
G01 X-59.3514 Y25.6185 
G01 X-59.4701 Y25.4998 
G01 X-59.6059 Y25.4011 
G01 X-59.7555 Y25.3249 
G01 X-59.9152 Y25.2731 
G01 X-60.0810 Y25.2468 
G01 X-60.2489 Y25.2468 
G01 X-60.4147 Y25.2731 
G01 X-60.5744 Y25.3249 
G01 X-60.7240 Y25.4011 
G01 X-60.8598 Y25.4998 
G01 X-60.9785 Y25.6185 
G01 X-61.0772 Y25.7543 
G01 X-61.1534 Y25.9039 
G01 X-61.2052 Y26.0636 
G01 X-61.2315 Y26.2294 
G01 X-61.2315 Y28.3785 
G01 X-61.2052 Y28.5443 
G01 X-61.1534 Y28.7040 
G01 X-61.0772 Y28.8536 
G01 X-60.9785 Y28.9894 
G01 X-60.8598 Y29.1081 
G01 X-60.7240 Y29.2068 
G01 X-60.5744 Y29.2830 
G01 X-60.4147 Y29.3348 
G01 X-60.2489 Y29.3611 
G01 X-60.0810 Y29.3611 
G01 X-59.9152 Y29.3348 
G01 X-59.7555 Y29.2830 
G01 X-59.6059 Y29.2068 
G01 X-59.4701 Y29.1081 
G01 X-59.3797 Y29.0176 
G01 X-58.2166 Y30.5129 
G01 X-58.2046 Y30.5338 
G01 X-58.1858 Y30.5525 
G01 X-58.1697 Y30.5733 
G01 X-58.1507 Y30.5876 
G01 X-58.1338 Y30.6046 
G01 X-58.1108 Y30.6178 
G01 X-58.0898 Y30.6338 
G01 X-58.0677 Y30.6427 
G01 X-58.0469 Y30.6548 
G01 X-58.0211 Y30.6616 
G01 X-57.9970 Y30.6715 
G01 X-57.9734 Y30.6744 
G01 X-57.9501 Y30.6807 
G01 X-57.9237 Y30.6807 
G01 X-57.8974 Y30.6840 
G01 X-57.8737 Y30.6807 
G01 X-55.2272 Y30.6807 
G01 X-55.2042 Y30.6840 
G01 X-55.1768 Y30.6807 
G01 X-55.1498 Y30.6807 
G01 X-55.1277 Y30.6747 
G01 X-55.1046 Y30.6720 
G01 X-55.0794 Y30.6618 
G01 X-55.0530 Y30.6548 
G01 X-55.0328 Y30.6431 
G01 X-55.0116 Y30.6346 
G01 X-54.9901 Y30.6184 
G01 X-54.9661 Y30.6046 
G01 X-54.9496 Y30.5881 
G01 X-53.7898 Y29.7182 
G01 X-53.7661 Y29.7046 
G01 X-53.7498 Y29.6883 
G01 X-53.7314 Y29.6745 
G01 X-53.7147 Y29.6531 
G01 X-53.6953 Y29.6338 
G01 X-53.6837 Y29.6136 
G01 X-53.6695 Y29.5956 
G01 X-53.6589 Y29.5706 
G01 X-53.6451 Y29.5469 
G01 X-53.6392 Y29.5246 
G01 X-53.6301 Y29.5035 
G01 X-53.6263 Y29.4762 
G01 X-53.6192 Y29.4501 
G01 X-53.6192 Y29.4272 
G01 X-53.6159 Y29.4042 
G01 X-53.6192 Y29.3768 
G01 X-53.6192 Y11.8751 
G01 X-52.3791 Y10.8120 
G01 X-52.3661 Y10.8046 
G01 X-52.3408 Y10.7792 
G01 X-52.3141 Y10.7564 
G01 X-52.3059 Y10.7443 
G01 X-52.2953 Y10.7338 
G01 X-52.2773 Y10.7025 
G01 X-52.2575 Y10.6737 
G01 X-52.2527 Y10.6600 
G01 X-52.2451 Y10.6469 
G01 X-52.2358 Y10.6120 
G01 X-52.2242 Y10.5792 
G01 X-52.2231 Y10.5645 
G01 X-52.2192 Y10.5501 
G01 X-52.2192 Y10.5142 
G01 X-52.2165 Y10.4791 
G01 X-52.2192 Y10.4647 
G01 X-52.2192 Y5.8807 
G01 X-27.7633 Y5.8807 
G01 X-24.4104 Y9.4055 
G01 X-24.4378 Y9.5433 
G00 Z2.0000 
G00 X-53.5081 Y12.3881 
G01 Z-0.1000 F600.00 
G01 X-53.5081 Y12.5646 
G01 X-53.4807 Y12.7022 
G01 X-53.4807 Y22.2501 
G01 X-53.4548 Y22.3469 
G01 X-53.4046 Y22.4338 
G01 X-53.3338 Y22.5046 
G01 X-52.0437 Y23.7947 
G01 X-52.0437 Y25.3156 
G01 X-52.0724 Y25.3249 
G01 X-52.2220 Y25.4011 
G01 X-52.3578 Y25.4998 
G01 X-52.4765 Y25.6185 
G01 X-52.5752 Y25.7543 
G01 X-52.6514 Y25.9039 
G01 X-52.7032 Y26.0636 
G01 X-52.7295 Y26.2294 
G01 X-52.7295 Y28.3785 
G01 X-52.7032 Y28.5443 
G01 X-52.6514 Y28.7040 
G01 X-52.5752 Y28.8536 
G01 X-52.4765 Y28.9894 
G01 X-52.3578 Y29.1081 
G01 X-52.2220 Y29.2068 
G01 X-52.0724 Y29.2830 
G01 X-51.9127 Y29.3348 
G01 X-51.7469 Y29.3611 
G01 X-51.5790 Y29.3611 
G01 X-51.4132 Y29.3348 
G01 X-51.2535 Y29.2830 
G01 X-51.1039 Y29.2068 
G01 X-50.9681 Y29.1081 
G01 X-50.8494 Y28.9894 
G01 X-50.7507 Y28.8536 
G01 X-50.6745 Y28.7040 
G01 X-50.6227 Y28.5443 
G01 X-50.5964 Y28.3785 
G01 X-50.5964 Y26.2294 
G01 X-50.6227 Y26.0636 
G01 X-50.6745 Y25.9039 
G01 X-50.7507 Y25.7543 
G01 X-50.8494 Y25.6185 
G01 X-50.9681 Y25.4998 
G01 X-51.1039 Y25.4011 
G01 X-51.2535 Y25.3249 
G01 X-51.2822 Y25.3156 
G01 X-51.2822 Y23.6871 
G01 X-51.2822 Y23.5868 
G01 X-51.3081 Y23.4900 
G01 X-51.3583 Y23.4031 
G01 X-52.7192 Y22.0422 
G01 X-52.7192 Y13.3679 
G01 X-52.7012 Y13.3715 
G01 X-52.5247 Y13.3715 
G01 X-52.3518 Y13.3371 
G01 X-52.1889 Y13.2696 
G01 X-52.0423 Y13.1717 
G01 X-51.9176 Y13.0470 
G01 X-51.8197 Y12.9004 
G01 X-51.7522 Y12.7375 
G01 X-51.7178 Y12.5646 
G01 X-51.7178 Y12.3881 
G01 X-51.7522 Y12.2152 
G01 X-51.8197 Y12.0523 
G01 X-51.9176 Y11.9057 
G01 X-52.0423 Y11.7810 
G01 X-52.1889 Y11.6831 
G01 X-52.3518 Y11.6156 
G01 X-52.5247 Y11.5812 
G01 X-52.7012 Y11.5812 
G01 X-52.8741 Y11.6156 
G01 X-53.0370 Y11.6831 
G01 X-53.1836 Y11.7810 
G01 X-53.3083 Y11.9057 
G01 X-53.4062 Y12.0523 
G01 X-53.4737 Y12.2152 
G01 X-53.5081 Y12.3881 
G00 Z2.0000 
G00 X-50.7395 Y12.3881 
G01 Z-0.1000 F600.00 
G01 X-50.7395 Y12.5646 
G01 X-50.7051 Y12.7375 
G01 X-50.6376 Y12.9004 
G01 X-50.5397 Y13.0470 
G01 X-50.4807 Y13.1060 
G01 X-50.4807 Y22.2501 
G01 X-50.4548 Y22.3469 
G01 X-50.4046 Y22.4338 
G01 X-50.3338 Y22.5046 
G01 X-47.7927 Y25.0457 
G01 X-47.7927 Y25.3156 
G01 X-47.8214 Y25.3249 
G01 X-47.9710 Y25.4011 
G01 X-48.1068 Y25.4998 
G01 X-48.2255 Y25.6185 
G01 X-48.3242 Y25.7543 
G01 X-48.4004 Y25.9039 
G01 X-48.4522 Y26.0636 
G01 X-48.4785 Y26.2294 
G01 X-48.4785 Y28.3785 
G01 X-48.4522 Y28.5443 
G01 X-48.4004 Y28.7040 
G01 X-48.3242 Y28.8536 
G01 X-48.2255 Y28.9894 
G01 X-48.1068 Y29.1081 
G01 X-47.9710 Y29.2068 
G01 X-47.8214 Y29.2830 
G01 X-47.6617 Y29.3348 
G01 X-47.4959 Y29.3611 
G01 X-47.3280 Y29.3611 
G01 X-47.1622 Y29.3348 
G01 X-47.0025 Y29.2830 
G01 X-46.8529 Y29.2068 
G01 X-46.7171 Y29.1081 
G01 X-46.5984 Y28.9894 
G01 X-46.4997 Y28.8536 
G01 X-46.4235 Y28.7040 
G01 X-46.3717 Y28.5443 
G01 X-46.3454 Y28.3785 
G01 X-46.3454 Y26.2294 
G01 X-46.3717 Y26.0636 
G01 X-46.4235 Y25.9039 
G01 X-46.4997 Y25.7543 
G01 X-46.5984 Y25.6185 
G01 X-46.7171 Y25.4998 
G01 X-46.8529 Y25.4011 
G01 X-47.0025 Y25.3249 
G01 X-47.0312 Y25.3156 
G01 X-47.0312 Y24.9381 
G01 X-47.0312 Y24.8378 
G01 X-47.0571 Y24.7410 
G01 X-47.1073 Y24.6541 
G01 X-49.7192 Y22.0422 
G01 X-49.7192 Y13.3641 
G01 X-49.5832 Y13.3371 
G01 X-49.4203 Y13.2696 
G01 X-49.2737 Y13.1717 
G01 X-49.1490 Y13.0470 
G01 X-49.0511 Y12.9004 
G01 X-48.9836 Y12.7375 
G01 X-48.9492 Y12.5646 
G01 X-48.9492 Y12.3881 
G01 X-48.9836 Y12.2152 
G01 X-49.0511 Y12.0523 
G01 X-49.1490 Y11.9057 
G01 X-49.2737 Y11.7810 
G01 X-49.4203 Y11.6831 
G01 X-49.5832 Y11.6156 
G01 X-49.7561 Y11.5812 
G01 X-49.9326 Y11.5812 
G01 X-50.1055 Y11.6156 
G01 X-50.2684 Y11.6831 
G01 X-50.4150 Y11.7810 
G01 X-50.5397 Y11.9057 
G01 X-50.6376 Y12.0523 
G01 X-50.7051 Y12.2152 
G01 X-50.7395 Y12.3881 
G00 Z2.0000 
G00 X-42.4337 Y12.3881 
G01 Z-0.1000 F600.00 
G01 X-42.4337 Y12.5646 
G01 X-42.3993 Y12.7375 
G01 X-42.3318 Y12.9004 
G01 X-42.2339 Y13.0470 
G01 X-42.1092 Y13.1717 
G01 X-41.9626 Y13.2696 
G01 X-41.7997 Y13.3371 
G01 X-41.7807 Y13.3408 
G01 X-41.7807 Y18.9501 
G01 X-41.7548 Y19.0469 
G01 X-41.7046 Y19.1338 
G01 X-41.6338 Y19.2046 
G01 X-35.3449 Y25.4934 
G01 X-35.3538 Y25.4998 
G01 X-35.4725 Y25.6185 
G01 X-35.5712 Y25.7543 
G01 X-35.6474 Y25.9039 
G01 X-35.6992 Y26.0636 
G01 X-35.7255 Y26.2294 
G01 X-35.7255 Y28.3785 
G01 X-35.6992 Y28.5443 
G01 X-35.6474 Y28.7040 
G01 X-35.5712 Y28.8536 
G01 X-35.4725 Y28.9894 
G01 X-35.3538 Y29.1081 
G01 X-35.2180 Y29.2068 
G01 X-35.0684 Y29.2830 
G01 X-34.9087 Y29.3348 
G01 X-34.7429 Y29.3611 
G01 X-34.5750 Y29.3611 
G01 X-34.4092 Y29.3348 
G01 X-34.2495 Y29.2830 
G01 X-34.0999 Y29.2068 
G01 X-33.9641 Y29.1081 
G01 X-33.8454 Y28.9894 
G01 X-33.7467 Y28.8536 
G01 X-33.6705 Y28.7040 
G01 X-33.6187 Y28.5443 
G01 X-33.5924 Y28.3785 
G01 X-33.5924 Y26.2294 
G01 X-33.6187 Y26.0636 
G01 X-33.6705 Y25.9039 
G01 X-33.7467 Y25.7543 
G01 X-33.8454 Y25.6185 
G01 X-33.9641 Y25.4998 
G01 X-34.0999 Y25.4011 
G01 X-34.2495 Y25.3249 
G01 X-34.4092 Y25.2731 
G01 X-34.5033 Y25.2582 
G01 X-41.0192 Y18.7422 
G01 X-41.0192 Y13.2059 
G01 X-40.9679 Y13.1717 
G01 X-40.8432 Y13.0470 
G01 X-40.7453 Y12.9004 
G01 X-40.6778 Y12.7375 
G01 X-40.6434 Y12.5646 
G01 X-40.6434 Y12.3881 
G01 X-40.6778 Y12.2152 
G01 X-40.7453 Y12.0523 
G01 X-40.8432 Y11.9057 
G01 X-40.9679 Y11.7810 
G01 X-41.1145 Y11.6831 
G01 X-41.2774 Y11.6156 
G01 X-41.4503 Y11.5812 
G01 X-41.6268 Y11.5812 
G01 X-41.7997 Y11.6156 
G01 X-41.9626 Y11.6831 
G01 X-42.1092 Y11.7810 
G01 X-42.2339 Y11.9057 
G01 X-42.3318 Y12.0523 
G01 X-42.3993 Y12.2152 
G01 X-42.4337 Y12.3881 
G00 Z2.0000 
G00 X-39.6651 Y12.3881 
G01 Z-0.1000 F600.00 
G01 X-39.6651 Y12.5646 
G01 X-39.6307 Y12.7375 
G01 X-39.5632 Y12.9004 
G01 X-39.4653 Y13.0470 
G01 X-39.3807 Y13.1316 
G01 X-39.3807 Y17.7501 
G01 X-39.3548 Y17.8469 
G01 X-39.3046 Y17.9338 
G01 X-39.2338 Y18.0046 
G01 X-39.2337 Y18.0046 
G01 X-31.3754 Y25.8629 
G01 X-31.3964 Y25.9039 
G01 X-31.4482 Y26.0636 
G01 X-31.4745 Y26.2294 
G01 X-31.4745 Y28.3785 
G01 X-31.4482 Y28.5443 
G01 X-31.3964 Y28.7040 
G01 X-31.3202 Y28.8536 
G01 X-31.2215 Y28.9894 
G01 X-31.1028 Y29.1081 
G01 X-30.9670 Y29.2068 
G01 X-30.8174 Y29.2830 
G01 X-30.6577 Y29.3348 
G01 X-30.4919 Y29.3611 
G01 X-30.3240 Y29.3611 
G01 X-30.1582 Y29.3348 
G01 X-29.9985 Y29.2830 
G01 X-29.8489 Y29.2068 
G01 X-29.7131 Y29.1081 
G01 X-29.5944 Y28.9894 
G01 X-29.4957 Y28.8536 
G01 X-29.4195 Y28.7040 
G01 X-29.3677 Y28.5443 
G01 X-29.3414 Y28.3785 
G01 X-29.3414 Y26.2294 
G01 X-29.3677 Y26.0636 
G01 X-29.4195 Y25.9039 
G01 X-29.4957 Y25.7543 
G01 X-29.5944 Y25.6185 
G01 X-29.7131 Y25.4998 
G01 X-29.8489 Y25.4011 
G01 X-29.9985 Y25.3249 
G01 X-30.1582 Y25.2731 
G01 X-30.3240 Y25.2468 
G01 X-30.4919 Y25.2468 
G01 X-30.6577 Y25.2731 
G01 X-30.8174 Y25.3249 
G01 X-30.8301 Y25.3314 
G01 X-38.6192 Y17.5422 
G01 X-38.6192 Y13.3590 
G01 X-38.5088 Y13.3371 
G01 X-38.3459 Y13.2696 
G01 X-38.1993 Y13.1717 
G01 X-38.0746 Y13.0470 
G01 X-37.9767 Y12.9004 
G01 X-37.9092 Y12.7375 
G01 X-37.8748 Y12.5646 
G01 X-37.8748 Y12.3881 
G01 X-37.9092 Y12.2152 
G01 X-37.9767 Y12.0523 
G01 X-38.0746 Y11.9057 
G01 X-38.1993 Y11.7810 
G01 X-38.3459 Y11.6831 
G01 X-38.5088 Y11.6156 
G01 X-38.6817 Y11.5812 
G01 X-38.8582 Y11.5812 
G01 X-39.0311 Y11.6156 
G01 X-39.1940 Y11.6831 
G01 X-39.3406 Y11.7810 
G01 X-39.4653 Y11.9057 
G01 X-39.5632 Y12.0523 
G01 X-39.6307 Y12.2152 
G01 X-39.6651 Y12.3881 
G00 Z2.0000 
G00 X-36.8965 Y12.3881 
G01 Z-0.1000 F600.00 
G01 X-36.8965 Y12.5646 
G01 X-36.8621 Y12.7375 
G01 X-36.7946 Y12.9004 
G01 X-36.6967 Y13.0470 
G01 X-36.5720 Y13.1717 
G01 X-36.4254 Y13.2696 
G01 X-36.3821 Y13.2875 
G01 X-36.3821 Y15.8484 
G01 X-36.3821 Y15.9022 
G01 X-36.3835 Y15.9197 
G01 X-36.3821 Y15.9272 
G01 X-36.3821 Y15.9487 
G01 X-36.3693 Y15.9963 
G01 X-36.3653 Y16.0183 
G01 X-36.3611 Y16.0270 
G01 X-36.3562 Y16.0455 
G01 X-36.3344 Y16.0832 
G01 X-35.7556 Y17.2996 
G01 X-35.7487 Y17.3218 
G01 X-35.7338 Y17.3454 
G01 X-35.7222 Y17.3698 
G01 X-35.7076 Y17.3869 
G01 X-35.6952 Y17.4066 
G01 X-35.6747 Y17.4255 
G01 X-35.6572 Y17.4461 
G01 X-35.6385 Y17.4589 
G01 X-27.0807 Y25.3666 
G01 X-27.0807 Y25.7770 
G01 X-27.1454 Y25.9039 
G01 X-27.1972 Y26.0636 
G01 X-27.2235 Y26.2294 
G01 X-27.2235 Y28.3785 
G01 X-27.1972 Y28.5443 
G01 X-27.1454 Y28.7040 
G01 X-27.0692 Y28.8536 
G01 X-26.9705 Y28.9894 
G01 X-26.8518 Y29.1081 
G01 X-26.7160 Y29.2068 
G01 X-26.5664 Y29.2830 
G01 X-26.4067 Y29.3348 
G01 X-26.2409 Y29.3611 
G01 X-26.0730 Y29.3611 
G01 X-25.9072 Y29.3348 
G01 X-25.7475 Y29.2830 
G01 X-25.5979 Y29.2068 
G01 X-25.4621 Y29.1081 
G01 X-25.3434 Y28.9894 
G01 X-25.2447 Y28.8536 
G01 X-25.1685 Y28.7040 
G01 X-25.1167 Y28.5443 
G01 X-25.0904 Y28.3785 
G01 X-25.0904 Y26.2294 
G01 X-25.1167 Y26.0636 
G01 X-25.1685 Y25.9039 
G01 X-25.2447 Y25.7543 
G01 X-25.3434 Y25.6185 
G01 X-25.4621 Y25.4998 
G01 X-25.5979 Y25.4011 
G01 X-25.7475 Y25.3249 
G01 X-25.9072 Y25.2731 
G01 X-26.0730 Y25.2468 
G01 X-26.2409 Y25.2468 
G01 X-26.3192 Y25.2593 
G01 X-26.3192 Y25.2426 
G01 X-26.3175 Y25.2351 
G01 X-26.3192 Y25.1925 
G01 X-26.3192 Y25.1498 
G01 X-26.3212 Y25.1424 
G01 X-26.3215 Y25.1348 
G01 X-26.3339 Y25.0948 
G01 X-26.3451 Y25.0530 
G01 X-26.3490 Y25.0463 
G01 X-26.3512 Y25.0391 
G01 X-26.3741 Y25.0029 
G01 X-26.3953 Y24.9661 
G01 X-26.4006 Y24.9608 
G01 X-26.4047 Y24.9543 
G01 X-26.4363 Y24.9252 
G01 X-26.4661 Y24.8953 
G01 X-26.4727 Y24.8915 
G01 X-35.0877 Y16.9310 
G01 X-35.6206 Y15.8111 
G01 X-35.6206 Y13.2875 
G01 X-35.5773 Y13.2696 
G01 X-35.4307 Y13.1717 
G01 X-35.3060 Y13.0470 
G01 X-35.2081 Y12.9004 
G01 X-35.1406 Y12.7375 
G01 X-35.1062 Y12.5646 
G01 X-35.1062 Y12.3881 
G01 X-35.1406 Y12.2152 
G01 X-35.2081 Y12.0523 
G01 X-35.3060 Y11.9057 
G01 X-35.4307 Y11.7810 
G01 X-35.5773 Y11.6831 
G01 X-35.7402 Y11.6156 
G01 X-35.9131 Y11.5812 
G01 X-36.0896 Y11.5812 
G01 X-36.2625 Y11.6156 
G01 X-36.4254 Y11.6831 
G01 X-36.5720 Y11.7810 
G01 X-36.6967 Y11.9057 
G01 X-36.7946 Y12.0523 
G01 X-36.8621 Y12.2152 
G01 X-36.8965 Y12.3881 
G00 Z2.0000 
G00 X-34.1279 Y12.3881 
G01 Z-0.1000 F600.00 
G01 X-34.1279 Y12.5646 
G01 X-34.0935 Y12.7375 
G01 X-34.0260 Y12.9004 
G01 X-33.9281 Y13.0470 
G01 X-33.8034 Y13.1717 
G01 X-33.6807 Y13.2536 
G01 X-33.6807 Y15.0501 
G01 X-33.6548 Y15.1469 
G01 X-33.6046 Y15.2338 
G01 X-33.5338 Y15.3046 
G01 X-22.9042 Y25.9342 
G01 X-22.9462 Y26.0636 
G01 X-22.9725 Y26.2294 
G01 X-22.9725 Y28.3785 
G01 X-22.9462 Y28.5443 
G01 X-22.8944 Y28.7040 
G01 X-22.8182 Y28.8536 
G01 X-22.7195 Y28.9894 
G01 X-22.6008 Y29.1081 
G01 X-22.4650 Y29.2068 
G01 X-22.3154 Y29.2830 
G01 X-22.1557 Y29.3348 
G01 X-21.9899 Y29.3611 
G01 X-21.8220 Y29.3611 
G01 X-21.6562 Y29.3348 
G01 X-21.4965 Y29.2830 
G01 X-21.3469 Y29.2068 
G01 X-21.2111 Y29.1081 
G01 X-21.0924 Y28.9894 
G01 X-20.9937 Y28.8536 
G01 X-20.9175 Y28.7040 
G01 X-20.8657 Y28.5443 
G01 X-20.8394 Y28.3785 
G01 X-20.8394 Y26.2294 
G01 X-20.8657 Y26.0636 
G01 X-20.9175 Y25.9039 
G01 X-20.9937 Y25.7543 
G01 X-21.0924 Y25.6185 
G01 X-21.2111 Y25.4998 
G01 X-21.3469 Y25.4011 
G01 X-21.4965 Y25.3249 
G01 X-21.6562 Y25.2731 
G01 X-21.8220 Y25.2468 
G01 X-21.9899 Y25.2468 
G01 X-22.1557 Y25.2731 
G01 X-22.3154 Y25.3249 
G01 X-22.3956 Y25.3658 
G01 X-32.9192 Y14.8422 
G01 X-32.9192 Y13.3153 
G01 X-32.8087 Y13.2696 
G01 X-32.6621 Y13.1717 
G01 X-32.5374 Y13.0470 
G01 X-32.4395 Y12.9004 
G01 X-32.3720 Y12.7375 
G01 X-32.3376 Y12.5646 
G01 X-32.3376 Y12.3881 
G01 X-32.3720 Y12.2152 
G01 X-32.4395 Y12.0523 
G01 X-32.5374 Y11.9057 
G01 X-32.6621 Y11.7810 
G01 X-32.8087 Y11.6831 
G01 X-32.9716 Y11.6156 
G01 X-33.1445 Y11.5812 
G01 X-33.3210 Y11.5812 
G01 X-33.4939 Y11.6156 
G01 X-33.6568 Y11.6831 
G01 X-33.8034 Y11.7810 
G01 X-33.9281 Y11.9057 
G01 X-34.0260 Y12.0523 
G01 X-34.0935 Y12.2152 
G01 X-34.1279 Y12.3881 
G00 Z2.0000 
G00 X-28.5907 Y12.3881 
G01 Z-0.1000 F600.00 
G01 X-28.5907 Y12.5646 
G01 X-28.5563 Y12.7375 
G01 X-28.4888 Y12.9004 
G01 X-28.3909 Y13.0470 
G01 X-28.2807 Y13.1571 
G01 X-28.2807 Y13.4600 
G01 X-28.2828 Y13.4699 
G01 X-28.2807 Y13.5096 
G01 X-28.2807 Y13.5501 
G01 X-28.2780 Y13.5600 
G01 X-28.2775 Y13.5701 
G01 X-28.2654 Y13.6073 
G01 X-28.2548 Y13.6469 
G01 X-28.2495 Y13.6559 
G01 X-28.2465 Y13.6654 
G01 X-28.2250 Y13.6983 
G01 X-28.2046 Y13.7338 
G01 X-28.1973 Y13.7411 
G01 X-28.1919 Y13.7494 
G01 X-28.1629 Y13.7755 
G01 X-28.1338 Y13.8046 
G01 X-28.1247 Y13.8098 
G01 X-22.1624 Y19.1760 
G01 X-22.1338 Y19.2046 
G01 X-22.1249 Y19.2097 
G01 X-22.1174 Y19.2165 
G01 X-22.0817 Y19.2346 
G01 X-22.0469 Y19.2548 
G01 X-22.0370 Y19.2574 
G01 X-22.0281 Y19.2620 
G01 X-21.9890 Y19.2703 
G01 X-21.9501 Y19.2807 
G01 X-21.9399 Y19.2807 
G01 X-21.9300 Y19.2828 
G01 X-21.8903 Y19.2807 
G01 X-20.2625 Y19.2807 
G01 X-14.2067 Y25.6078 
G01 X-14.2175 Y25.6185 
G01 X-14.3162 Y25.7543 
G01 X-14.3924 Y25.9039 
G01 X-14.4442 Y26.0636 
G01 X-14.4705 Y26.2294 
G01 X-14.4705 Y28.3785 
G01 X-14.4442 Y28.5443 
G01 X-14.3924 Y28.7040 
G01 X-14.3162 Y28.8536 
G01 X-14.2175 Y28.9894 
G01 X-14.0988 Y29.1081 
G01 X-13.9630 Y29.2068 
G01 X-13.8134 Y29.2830 
G01 X-13.6537 Y29.3348 
G01 X-13.4879 Y29.3611 
G01 X-13.3200 Y29.3611 
G01 X-13.1542 Y29.3348 
G01 X-12.9945 Y29.2830 
G01 X-12.8449 Y29.2068 
G01 X-12.7091 Y29.1081 
G01 X-12.5904 Y28.9894 
G01 X-12.4917 Y28.8536 
G01 X-12.4155 Y28.7040 
G01 X-12.3637 Y28.5443 
G01 X-12.3374 Y28.3785 
G01 X-12.3374 Y26.2294 
G01 X-12.3637 Y26.0636 
G01 X-12.4155 Y25.9039 
G01 X-12.4917 Y25.7543 
G01 X-12.5904 Y25.6185 
G01 X-12.7091 Y25.4998 
G01 X-12.8449 Y25.4011 
G01 X-12.9945 Y25.3249 
G01 X-13.1542 Y25.2731 
G01 X-13.3200 Y25.2468 
G01 X-13.4879 Y25.2468 
G01 X-13.4969 Y25.2483 
G01 X-19.7932 Y18.6699 
G01 X-19.7953 Y18.6661 
G01 X-19.8283 Y18.6331 
G01 X-19.8595 Y18.6005 
G01 X-19.8631 Y18.5984 
G01 X-19.8661 Y18.5953 
G01 X-19.9054 Y18.5726 
G01 X-19.9452 Y18.5484 
G01 X-19.9494 Y18.5472 
G01 X-19.9530 Y18.5451 
G01 X-19.9976 Y18.5332 
G01 X-20.0415 Y18.5204 
G01 X-20.0457 Y18.5203 
G01 X-20.0498 Y18.5192 
G01 X-20.0963 Y18.5192 
G01 X-20.1418 Y18.5182 
G01 X-20.1458 Y18.5192 
G01 X-21.7539 Y18.5192 
G01 X-27.4978 Y13.3497 
G01 X-27.4344 Y13.3371 
G01 X-27.2715 Y13.2696 
G01 X-27.1249 Y13.1717 
G01 X-27.0002 Y13.0470 
G01 X-26.9023 Y12.9004 
G01 X-26.8348 Y12.7375 
G01 X-26.8004 Y12.5646 
G01 X-26.8004 Y12.3881 
G01 X-26.8348 Y12.2152 
G01 X-26.9023 Y12.0523 
G01 X-27.0002 Y11.9057 
G01 X-27.1249 Y11.7810 
G01 X-27.2715 Y11.6831 
G01 X-27.4344 Y11.6156 
G01 X-27.6073 Y11.5812 
G01 X-27.7838 Y11.5812 
G01 X-27.9567 Y11.6156 
G01 X-28.1196 Y11.6831 
G01 X-28.2662 Y11.7810 
G01 X-28.3909 Y11.9057 
G01 X-28.4888 Y12.0523 
G01 X-28.5563 Y12.2152 
G01 X-28.5907 Y12.3881 
G00 Z2.0000 
G00 X-44.2275 Y26.2294 
G01 Z-0.1000 F600.00 
G01 X-44.2275 Y28.3785 
G01 X-44.2012 Y28.5443 
G01 X-44.1494 Y28.7040 
G01 X-44.0732 Y28.8536 
G01 X-43.9745 Y28.9894 
G01 X-43.8558 Y29.1081 
G01 X-43.7200 Y29.2068 
G01 X-43.5704 Y29.2830 
G01 X-43.4107 Y29.3348 
G01 X-43.2449 Y29.3611 
G01 X-43.0770 Y29.3611 
G01 X-42.9112 Y29.3348 
G01 X-42.7515 Y29.2830 
G01 X-42.6019 Y29.2068 
G01 X-42.4661 Y29.1081 
G01 X-42.3474 Y28.9894 
G01 X-42.2487 Y28.8536 
G01 X-42.1725 Y28.7040 
G01 X-42.1207 Y28.5443 
G01 X-42.0944 Y28.3785 
G01 X-42.0944 Y26.2294 
G01 X-42.1207 Y26.0636 
G01 X-42.1725 Y25.9039 
G01 X-42.2487 Y25.7543 
G01 X-42.3474 Y25.6185 
G01 X-42.4661 Y25.4998 
G01 X-42.6019 Y25.4011 
G01 X-42.7515 Y25.3249 
G01 X-42.8773 Y25.2841 
G01 X-47.0192 Y21.1422 
G01 X-47.0192 Y13.3715 
G01 X-46.9875 Y13.3715 
G01 X-46.8146 Y13.3371 
G01 X-46.6517 Y13.2696 
G01 X-46.5051 Y13.1717 
G01 X-46.3804 Y13.0470 
G01 X-46.2825 Y12.9004 
G01 X-46.2150 Y12.7375 
G01 X-46.1806 Y12.5646 
G01 X-46.1806 Y12.3881 
G01 X-46.2150 Y12.2152 
G01 X-46.2825 Y12.0523 
G01 X-46.3804 Y11.9057 
G01 X-46.5051 Y11.7810 
G01 X-46.6517 Y11.6831 
G01 X-46.8146 Y11.6156 
G01 X-46.9875 Y11.5812 
G01 X-47.1640 Y11.5812 
G01 X-47.3369 Y11.6156 
G01 X-47.4998 Y11.6831 
G01 X-47.6464 Y11.7810 
G01 X-47.7711 Y11.9057 
G01 X-47.8690 Y12.0523 
G01 X-47.9365 Y12.2152 
G01 X-47.9709 Y12.3881 
G01 X-47.9709 Y12.5646 
G01 X-47.9365 Y12.7375 
G01 X-47.8690 Y12.9004 
G01 X-47.7807 Y13.0326 
G01 X-47.7807 Y21.3501 
G01 X-47.7548 Y21.4469 
G01 X-47.7046 Y21.5338 
G01 X-47.6338 Y21.6046 
G01 X-43.7878 Y25.4505 
G01 X-43.8558 Y25.4998 
G01 X-43.9745 Y25.6185 
G01 X-44.0732 Y25.7543 
G01 X-44.1494 Y25.9039 
G01 X-44.2012 Y26.0636 
G01 X-44.2275 Y26.2294 
G00 Z2.0000 
G00 X-39.9765 Y26.2294 
G01 Z-0.1000 F600.00 
G01 X-39.9765 Y28.3785 
G01 X-39.9502 Y28.5443 
G01 X-39.8984 Y28.7040 
G01 X-39.8222 Y28.8536 
G01 X-39.7235 Y28.9894 
G01 X-39.6048 Y29.1081 
G01 X-39.4690 Y29.2068 
G01 X-39.3194 Y29.2830 
G01 X-39.1597 Y29.3348 
G01 X-38.9939 Y29.3611 
G01 X-38.8260 Y29.3611 
G01 X-38.6602 Y29.3348 
G01 X-38.5005 Y29.2830 
G01 X-38.3509 Y29.2068 
G01 X-38.2151 Y29.1081 
G01 X-38.0964 Y28.9894 
G01 X-37.9977 Y28.8536 
G01 X-37.9215 Y28.7040 
G01 X-37.8697 Y28.5443 
G01 X-37.8434 Y28.3785 
G01 X-37.8434 Y26.2294 
G01 X-37.8697 Y26.0636 
G01 X-37.9215 Y25.9039 
G01 X-37.9977 Y25.7543 
G01 X-38.0964 Y25.6185 
G01 X-38.2151 Y25.4998 
G01 X-38.3509 Y25.4011 
G01 X-38.5005 Y25.3249 
G01 X-38.6602 Y25.2731 
G01 X-38.8260 Y25.2468 
G01 X-38.9939 Y25.2468 
G01 X-38.9949 Y25.2470 
G01 X-44.0192 Y19.9481 
G01 X-44.0192 Y13.3260 
G01 X-43.8831 Y13.2696 
G01 X-43.7365 Y13.1717 
G01 X-43.6118 Y13.0470 
G01 X-43.5139 Y12.9004 
G01 X-43.4464 Y12.7375 
G01 X-43.4120 Y12.5646 
G01 X-43.4120 Y12.3881 
G01 X-43.4464 Y12.2152 
G01 X-43.5139 Y12.0523 
G01 X-43.6118 Y11.9057 
G01 X-43.7365 Y11.7810 
G01 X-43.8831 Y11.6831 
G01 X-44.0460 Y11.6156 
G01 X-44.2189 Y11.5812 
G01 X-44.3954 Y11.5812 
G01 X-44.5683 Y11.6156 
G01 X-44.7312 Y11.6831 
G01 X-44.8778 Y11.7810 
G01 X-45.0025 Y11.9057 
G01 X-45.1004 Y12.0523 
G01 X-45.1679 Y12.2152 
G01 X-45.2023 Y12.3881 
G01 X-45.2023 Y12.5646 
G01 X-45.1679 Y12.7375 
G01 X-45.1004 Y12.9004 
G01 X-45.0025 Y13.0470 
G01 X-44.8778 Y13.1717 
G01 X-44.7807 Y13.2365 
G01 X-44.7807 Y20.0955 
G01 X-44.7819 Y20.1400 
G01 X-44.7807 Y20.1449 
G01 X-44.7807 Y20.1501 
G01 X-44.7688 Y20.1945 
G01 X-44.7585 Y20.2375 
G01 X-44.7561 Y20.2418 
G01 X-44.7548 Y20.2469 
G01 X-44.7317 Y20.2868 
G01 X-44.7107 Y20.3256 
G01 X-44.7072 Y20.3292 
G01 X-44.7046 Y20.3338 
G01 X-44.6722 Y20.3661 
G01 X-39.7073 Y25.6024 
G01 X-39.7235 Y25.6185 
G01 X-39.8222 Y25.7543 
G01 X-39.8984 Y25.9039 
G01 X-39.9502 Y26.0636 
G01 X-39.9765 Y26.2294 
G00 Z2.0000 
G00 X-18.7215 Y26.2294 
G01 Z-0.1000 F600.00 
G01 X-18.7215 Y28.3785 
G01 X-18.6952 Y28.5443 
G01 X-18.6434 Y28.7040 
G01 X-18.5672 Y28.8536 
G01 X-18.4685 Y28.9894 
G01 X-18.3498 Y29.1081 
G01 X-18.2140 Y29.2068 
G01 X-18.0644 Y29.2830 
G01 X-17.9047 Y29.3348 
G01 X-17.7389 Y29.3611 
G01 X-17.5710 Y29.3611 
G01 X-17.4052 Y29.3348 
G01 X-17.2455 Y29.2830 
G01 X-17.0959 Y29.2068 
G01 X-16.9601 Y29.1081 
G01 X-16.8414 Y28.9894 
G01 X-16.7427 Y28.8536 
G01 X-16.6665 Y28.7040 
G01 X-16.6147 Y28.5443 
G01 X-16.5884 Y28.3785 
G01 X-16.5884 Y26.2294 
G01 X-16.6147 Y26.0636 
G01 X-16.6665 Y25.9039 
G01 X-16.7427 Y25.7543 
G01 X-16.8414 Y25.6185 
G01 X-16.9601 Y25.4998 
G01 X-17.0959 Y25.4011 
G01 X-17.2455 Y25.3249 
G01 X-17.4052 Y25.2731 
G01 X-17.5710 Y25.2468 
G01 X-17.7389 Y25.2468 
G01 X-17.9047 Y25.2731 
G01 X-17.9790 Y25.2973 
G01 X-26.9620 Y16.8565 
G01 X-26.9621 Y16.8562 
G01 X-26.9942 Y16.8262 
G01 X-27.0347 Y16.7881 
G01 X-27.0351 Y16.7879 
G01 X-27.6357 Y16.2257 
G01 X-30.0834 Y13.7780 
G01 X-30.0834 Y13.2875 
G01 X-30.0401 Y13.2696 
G01 X-29.8935 Y13.1717 
G01 X-29.7688 Y13.0470 
G01 X-29.6709 Y12.9004 
G01 X-29.6034 Y12.7375 
G01 X-29.5690 Y12.5646 
G01 X-29.5690 Y12.3881 
G01 X-29.6034 Y12.2152 
G01 X-29.6709 Y12.0523 
G01 X-29.7688 Y11.9057 
G01 X-29.8935 Y11.7810 
G01 X-30.0401 Y11.6831 
G01 X-30.2030 Y11.6156 
G01 X-30.3759 Y11.5812 
G01 X-30.5524 Y11.5812 
G01 X-30.7253 Y11.6156 
G01 X-30.8882 Y11.6831 
G01 X-31.0348 Y11.7810 
G01 X-31.1595 Y11.9057 
G01 X-31.2574 Y12.0523 
G01 X-31.3249 Y12.2152 
G01 X-31.3593 Y12.3881 
G01 X-31.3593 Y12.5646 
G01 X-31.3249 Y12.7375 
G01 X-31.2574 Y12.9004 
G01 X-31.1595 Y13.0470 
G01 X-31.0348 Y13.1717 
G01 X-30.8882 Y13.2696 
G01 X-30.8449 Y13.2875 
G01 X-30.8449 Y13.8856 
G01 X-30.8449 Y13.9859 
G01 X-30.8190 Y14.0827 
G01 X-30.7688 Y14.1696 
G01 X-28.2002 Y16.7381 
G01 X-28.1968 Y16.7437 
G01 X-28.1639 Y16.7744 
G01 X-28.1338 Y16.8046 
G01 X-28.1284 Y16.8077 
G01 X-27.4988 Y17.3970 
G01 X-18.5793 Y25.7781 
G01 X-18.6434 Y25.9039 
G01 X-18.6952 Y26.0636 
G01 X-18.7215 Y26.2294 
G00 Z2.0000 
G00 X-10.2195 Y28.3785 
G01 Z-0.1000 F600.00 
G01 X-10.1932 Y28.5443 
G01 X-10.1414 Y28.7040 
G01 X-10.0652 Y28.8536 
G01 X-9.9665 Y28.9894 
G01 X-9.8478 Y29.1081 
G01 X-9.7120 Y29.2068 
G01 X-9.5624 Y29.2830 
G01 X-9.4027 Y29.3348 
G01 X-9.2369 Y29.3611 
G01 X-9.0690 Y29.3611 
G01 X-8.9032 Y29.3348 
G01 X-8.7435 Y29.2830 
G01 X-8.5939 Y29.2068 
G01 X-8.4581 Y29.1081 
G01 X-8.3394 Y28.9894 
G01 X-8.2407 Y28.8536 
G01 X-8.1645 Y28.7040 
G01 X-8.1127 Y28.5443 
G01 X-8.0864 Y28.3785 
G01 X-8.0864 Y26.2294 
G01 X-8.1127 Y26.0636 
G01 X-8.1645 Y25.9039 
G01 X-8.2407 Y25.7543 
G01 X-8.3394 Y25.6185 
G01 X-8.4581 Y25.4998 
G01 X-8.5939 Y25.4011 
G01 X-8.7435 Y25.3249 
G01 X-8.9032 Y25.2731 
G01 X-9.0690 Y25.2468 
G01 X-9.2369 Y25.2468 
G01 X-9.4027 Y25.2731 
G01 X-9.5624 Y25.3249 
G01 X-9.7120 Y25.4011 
G01 X-9.8478 Y25.4998 
G01 X-9.9665 Y25.6185 
G01 X-10.0652 Y25.7543 
G01 X-10.0985 Y25.8199 
G01 X-20.9231 Y14.9953 
G01 X-21.0100 Y14.9451 
G01 X-21.1068 Y14.9192 
G01 X-21.2071 Y14.9192 
G01 X-23.8422 Y14.9192 
G01 X-24.5462 Y14.2152 
G01 X-24.5462 Y13.2875 
G01 X-24.5029 Y13.2696 
G01 X-24.3563 Y13.1717 
G01 X-24.2316 Y13.0470 
G01 X-24.1337 Y12.9004 
G01 X-24.0662 Y12.7375 
G01 X-24.0318 Y12.5646 
G01 X-24.0318 Y12.3881 
G01 X-24.0662 Y12.2152 
G01 X-24.1337 Y12.0523 
G01 X-24.2316 Y11.9057 
G01 X-24.3563 Y11.7810 
G01 X-24.5029 Y11.6831 
G01 X-24.6658 Y11.6156 
G01 X-24.8387 Y11.5812 
G01 X-25.0152 Y11.5812 
G01 X-25.1881 Y11.6156 
G01 X-25.3510 Y11.6831 
G01 X-25.4976 Y11.7810 
G01 X-25.6223 Y11.9057 
G01 X-25.7202 Y12.0523 
G01 X-25.7877 Y12.2152 
G01 X-25.8221 Y12.3881 
G01 X-25.8221 Y12.5646 
G01 X-25.7877 Y12.7375 
G01 X-25.7202 Y12.9004 
G01 X-25.6223 Y13.0470 
G01 X-25.4976 Y13.1717 
G01 X-25.3510 Y13.2696 
G01 X-25.3077 Y13.2875 
G01 X-25.3077 Y14.3228 
G01 X-25.3077 Y14.4231 
G01 X-25.2818 Y14.5199 
G01 X-25.2316 Y14.6068 
G01 X-24.3046 Y15.5338 
G01 X-24.2338 Y15.6046 
G01 X-24.1469 Y15.6548 
G01 X-24.0501 Y15.6807 
G01 X-21.3147 Y15.6807 
G01 X-10.2195 Y26.7759 
G01 X-10.2195 Y28.3785 
G00 Z2.0000 
G00 X-5.9685 Y26.2294 
G01 Z-0.1000 F600.00 
G01 X-5.9685 Y28.3785 
G01 X-5.9422 Y28.5443 
G01 X-5.8904 Y28.7040 
G01 X-5.8142 Y28.8536 
G01 X-5.7155 Y28.9894 
G01 X-5.5968 Y29.1081 
G01 X-5.4610 Y29.2068 
G01 X-5.3114 Y29.2830 
G01 X-5.1517 Y29.3348 
G01 X-4.9859 Y29.3611 
G01 X-4.8180 Y29.3611 
G01 X-4.6522 Y29.3348 
G01 X-4.4925 Y29.2830 
G01 X-4.3429 Y29.2068 
G01 X-4.2071 Y29.1081 
G01 X-4.0884 Y28.9894 
G01 X-3.9897 Y28.8536 
G01 X-3.9135 Y28.7040 
G01 X-3.8617 Y28.5443 
G01 X-3.8354 Y28.3785 
G01 X-3.8354 Y26.2294 
G01 X-3.8617 Y26.0636 
G01 X-3.9135 Y25.9039 
G01 X-3.9897 Y25.7543 
G01 X-4.0884 Y25.6185 
G01 X-4.2071 Y25.4998 
G01 X-4.3429 Y25.4011 
G01 X-4.4925 Y25.3249 
G01 X-4.6522 Y25.2731 
G01 X-4.8180 Y25.2468 
G01 X-4.9314 Y25.2468 
G01 X-18.7326 Y12.0289 
G01 X-18.7661 Y11.9953 
G01 X-18.7699 Y11.9932 
G01 X-18.7728 Y11.9903 
G01 X-18.8122 Y11.9688 
G01 X-18.8530 Y11.9451 
G01 X-18.8572 Y11.9440 
G01 X-18.8606 Y11.9421 
G01 X-18.9042 Y11.9315 
G01 X-18.9498 Y11.9192 
G01 X-18.9540 Y11.9192 
G01 X-18.9580 Y11.9182 
G01 X-19.0035 Y11.9192 
G01 X-21.4540 Y11.9192 
G01 X-21.4630 Y11.9057 
G01 X-21.5877 Y11.7810 
G01 X-21.7343 Y11.6831 
G01 X-21.8972 Y11.6156 
G01 X-22.0701 Y11.5812 
G01 X-22.2466 Y11.5812 
G01 X-22.4195 Y11.6156 
G01 X-22.5824 Y11.6831 
G01 X-22.7290 Y11.7810 
G01 X-22.8537 Y11.9057 
G01 X-22.9516 Y12.0523 
G01 X-23.0191 Y12.2152 
G01 X-23.0535 Y12.3881 
G01 X-23.0535 Y12.5646 
G01 X-23.0191 Y12.7375 
G01 X-22.9516 Y12.9004 
G01 X-22.8537 Y13.0470 
G01 X-22.7290 Y13.1717 
G01 X-22.5824 Y13.2696 
G01 X-22.4195 Y13.3371 
G01 X-22.2466 Y13.3715 
G01 X-22.0701 Y13.3715 
G01 X-21.8972 Y13.3371 
G01 X-21.7343 Y13.2696 
G01 X-21.5877 Y13.1717 
G01 X-21.4630 Y13.0470 
G01 X-21.3651 Y12.9004 
G01 X-21.2976 Y12.7375 
G01 X-21.2863 Y12.6807 
G01 X-19.1529 Y12.6807 
G01 X-5.6805 Y25.5836 
G01 X-5.7155 Y25.6185 
G01 X-5.8142 Y25.7543 
G01 X-5.8904 Y25.9039 
G01 X-5.9422 Y26.0636 
G01 X-5.9685 Y26.2294 
(File Footer)
G00 Z2.0000 
G00 Z10.0000 
M05
M02
