( This gcode generated by /home/mattvenn/.eagle/ulp/pcb-gcode.ulp )
( Copyright 2005 by John Johnson. See readme.txt for licensing terms. )

( This file generated from the board /home/mattvenn/eagle-circuit-designs/cvm/hymera.brd )
( This file generated 30/01/2012 17:05 )

G21

G90
G00 Z10.0000 
G00 X0 Y0
M03
G04 P3.000000
G00 Z2.0000 
G00 X107.4394 Y59.0316 
G01 Z-0.1000 F600.00 
G01 X107.4394 Y59.9963 
G01 X106.7573 Y60.6784 
G01 X105.7926 Y60.6784 
G01 X105.1105 Y59.9963 
G01 X105.1105 Y59.0316 
G01 X105.7926 Y58.3495 
G01 X106.7573 Y58.3495 
G01 X107.4394 Y59.0316 
G00 Z2.0000 
G00 X103.1884 Y59.0316 
G01 Z-0.1000 F600.00 
G01 X103.1884 Y59.9963 
G01 X102.5063 Y60.6784 
G01 X101.5416 Y60.6784 
G01 X100.8595 Y59.9963 
G01 X100.8595 Y59.0316 
G01 X101.5416 Y58.3495 
G01 X102.5063 Y58.3495 
G01 X103.1884 Y59.0316 
G00 Z2.0000 
G00 X98.9374 Y59.0316 
G01 Z-0.1000 F600.00 
G01 X98.9374 Y59.9963 
G01 X98.2553 Y60.6784 
G01 X97.2906 Y60.6784 
G01 X96.6085 Y59.9963 
G01 X96.6085 Y59.0316 
G01 X97.2906 Y58.3495 
G01 X98.2553 Y58.3495 
G01 X98.9374 Y59.0316 
G00 Z2.0000 
G00 X94.6864 Y59.0316 
G01 Z-0.1000 F600.00 
G01 X94.6864 Y59.9963 
G01 X94.0043 Y60.6784 
G01 X93.0396 Y60.6784 
G01 X92.3575 Y59.9963 
G01 X92.3575 Y59.0316 
G01 X93.0396 Y58.3495 
G01 X94.0043 Y58.3495 
G01 X94.6864 Y59.0316 
G00 Z2.0000 
G00 X90.4354 Y59.0316 
G01 Z-0.1000 F600.00 
G01 X90.4354 Y59.9963 
G01 X89.7533 Y60.6784 
G01 X88.7886 Y60.6784 
G01 X88.1065 Y59.9963 
G01 X88.1065 Y59.0316 
G01 X88.7886 Y58.3495 
G01 X89.7533 Y58.3495 
G01 X90.4354 Y59.0316 
G00 Z2.0000 
G00 X86.1844 Y59.0316 
G01 Z-0.1000 F600.00 
G01 X86.1844 Y59.9963 
G01 X85.5023 Y60.6784 
G01 X84.5376 Y60.6784 
G01 X83.8555 Y59.9963 
G01 X83.8555 Y59.0316 
G01 X84.5376 Y58.3495 
G01 X85.5023 Y58.3495 
G01 X86.1844 Y59.0316 
G00 Z2.0000 
G00 X81.9334 Y59.0316 
G01 Z-0.1000 F600.00 
G01 X81.9334 Y59.9963 
G01 X81.2513 Y60.6784 
G01 X80.2866 Y60.6784 
G01 X79.6045 Y59.9963 
G01 X79.6045 Y59.0316 
G01 X80.2866 Y58.3495 
G01 X81.2513 Y58.3495 
G01 X81.9334 Y59.0316 
G00 Z2.0000 
G00 X77.6824 Y59.0316 
G01 Z-0.1000 F600.00 
G01 X77.6824 Y59.9963 
G01 X77.0003 Y60.6784 
G01 X76.0356 Y60.6784 
G01 X75.3535 Y59.9963 
G01 X75.3535 Y59.0316 
G01 X76.0356 Y58.3495 
G01 X77.0003 Y58.3495 
G01 X77.6824 Y59.0316 
G00 Z2.0000 
G00 X73.4314 Y59.0316 
G01 Z-0.1000 F600.00 
G01 X73.4314 Y59.9963 
G01 X72.7493 Y60.6784 
G01 X71.7846 Y60.6784 
G01 X71.1025 Y59.9963 
G01 X71.1025 Y59.0316 
G01 X71.7846 Y58.3495 
G01 X72.7493 Y58.3495 
G01 X73.4314 Y59.0316 
G00 Z2.0000 
G00 X69.1804 Y59.0316 
G01 Z-0.1000 F600.00 
G01 X69.1804 Y59.9963 
G01 X68.4983 Y60.6784 
G01 X67.5336 Y60.6784 
G01 X66.8515 Y59.9963 
G01 X66.8515 Y59.0316 
G01 X67.5336 Y58.3495 
G01 X68.4983 Y58.3495 
G01 X69.1804 Y59.0316 
G00 Z2.0000 
G00 X127.9225 Y58.0345 
G01 Z-0.1000 F600.00 
G01 X127.9225 Y58.2126 
G01 X127.8878 Y58.3873 
G01 X127.8196 Y58.5519 
G01 X127.7207 Y58.6999 
G01 X127.5947 Y58.8259 
G01 X127.4467 Y58.9248 
G01 X127.2821 Y58.9930 
G01 X127.1074 Y59.0277 
G01 X126.9293 Y59.0277 
G01 X126.7546 Y58.9930 
G01 X126.5900 Y58.9248 
G01 X126.4420 Y58.8259 
G01 X126.3160 Y58.6999 
G01 X126.2171 Y58.5519 
G01 X126.1489 Y58.3873 
G01 X126.1142 Y58.2126 
G01 X126.1142 Y58.0345 
G01 X126.1489 Y57.8598 
G01 X126.2171 Y57.6952 
G01 X126.3160 Y57.5472 
G01 X126.4420 Y57.4212 
G01 X126.5900 Y57.3223 
G01 X126.7546 Y57.2541 
G01 X126.9293 Y57.2194 
G01 X127.1074 Y57.2194 
G01 X127.2821 Y57.2541 
G01 X127.4467 Y57.3223 
G01 X127.5947 Y57.4212 
G01 X127.7207 Y57.5472 
G01 X127.8196 Y57.6952 
G01 X127.8878 Y57.8598 
G01 X127.9225 Y58.0345 
G00 Z2.0000 
G00 X130.6911 Y58.0345 
G01 Z-0.1000 F600.00 
G01 X130.6911 Y58.2126 
G01 X130.6564 Y58.3873 
G01 X130.5882 Y58.5519 
G01 X130.4893 Y58.6999 
G01 X130.3633 Y58.8259 
G01 X130.2153 Y58.9248 
G01 X130.0507 Y58.9930 
G01 X129.8760 Y59.0277 
G01 X129.6979 Y59.0277 
G01 X129.5232 Y58.9930 
G01 X129.3586 Y58.9248 
G01 X129.2106 Y58.8259 
G01 X129.0846 Y58.6999 
G01 X128.9857 Y58.5519 
G01 X128.9175 Y58.3873 
G01 X128.8828 Y58.2126 
G01 X128.8828 Y58.0345 
G01 X128.9175 Y57.8598 
G01 X128.9857 Y57.6952 
G01 X129.0846 Y57.5472 
G01 X129.2106 Y57.4212 
G01 X129.3586 Y57.3223 
G01 X129.5232 Y57.2541 
G01 X129.6979 Y57.2194 
G01 X129.8760 Y57.2194 
G01 X130.0507 Y57.2541 
G01 X130.2153 Y57.3223 
G01 X130.3633 Y57.4212 
G01 X130.4893 Y57.5472 
G01 X130.5882 Y57.6952 
G01 X130.6564 Y57.8598 
G01 X130.6911 Y58.0345 
G00 Z2.0000 
G00 X133.4597 Y58.0345 
G01 Z-0.1000 F600.00 
G01 X133.4597 Y58.2126 
G01 X133.4250 Y58.3873 
G01 X133.3568 Y58.5519 
G01 X133.2579 Y58.6999 
G01 X133.1319 Y58.8259 
G01 X132.9839 Y58.9248 
G01 X132.8193 Y58.9930 
G01 X132.6446 Y59.0277 
G01 X132.4665 Y59.0277 
G01 X132.2918 Y58.9930 
G01 X132.1272 Y58.9248 
G01 X131.9792 Y58.8259 
G01 X131.8532 Y58.6999 
G01 X131.7543 Y58.5519 
G01 X131.6861 Y58.3873 
G01 X131.6514 Y58.2126 
G01 X131.6514 Y58.0345 
G01 X131.6861 Y57.8598 
G01 X131.7543 Y57.6952 
G01 X131.8532 Y57.5472 
G01 X131.9792 Y57.4212 
G01 X132.1272 Y57.3223 
G01 X132.2918 Y57.2541 
G01 X132.4665 Y57.2194 
G01 X132.6446 Y57.2194 
G01 X132.8193 Y57.2541 
G01 X132.9839 Y57.3223 
G01 X133.1319 Y57.4212 
G01 X133.2579 Y57.5472 
G01 X133.3568 Y57.6952 
G01 X133.4250 Y57.8598 
G01 X133.4597 Y58.0345 
G00 Z2.0000 
G00 X136.2283 Y58.0345 
G01 Z-0.1000 F600.00 
G01 X136.2283 Y58.2126 
G01 X136.1936 Y58.3873 
G01 X136.1254 Y58.5519 
G01 X136.0265 Y58.6999 
G01 X135.9005 Y58.8259 
G01 X135.7525 Y58.9248 
G01 X135.5879 Y58.9930 
G01 X135.4132 Y59.0277 
G01 X135.2351 Y59.0277 
G01 X135.0604 Y58.9930 
G01 X134.8958 Y58.9248 
G01 X134.7478 Y58.8259 
G01 X134.6218 Y58.6999 
G01 X134.5229 Y58.5519 
G01 X134.4547 Y58.3873 
G01 X134.4200 Y58.2126 
G01 X134.4200 Y58.0345 
G01 X134.4547 Y57.8598 
G01 X134.5229 Y57.6952 
G01 X134.6218 Y57.5472 
G01 X134.7478 Y57.4212 
G01 X134.8958 Y57.3223 
G01 X135.0604 Y57.2541 
G01 X135.2351 Y57.2194 
G01 X135.4132 Y57.2194 
G01 X135.5879 Y57.2541 
G01 X135.7525 Y57.3223 
G01 X135.9005 Y57.4212 
G01 X136.0265 Y57.5472 
G01 X136.1254 Y57.6952 
G01 X136.1936 Y57.8598 
G01 X136.2283 Y58.0345 
G00 Z2.0000 
G00 X138.9969 Y58.0345 
G01 Z-0.1000 F600.00 
G01 X138.9969 Y58.2126 
G01 X138.9622 Y58.3873 
G01 X138.8940 Y58.5519 
G01 X138.7951 Y58.6999 
G01 X138.6691 Y58.8259 
G01 X138.5211 Y58.9248 
G01 X138.3565 Y58.9930 
G01 X138.1818 Y59.0277 
G01 X138.0037 Y59.0277 
G01 X137.8290 Y58.9930 
G01 X137.6644 Y58.9248 
G01 X137.5164 Y58.8259 
G01 X137.3904 Y58.6999 
G01 X137.2915 Y58.5519 
G01 X137.2233 Y58.3873 
G01 X137.1886 Y58.2126 
G01 X137.1886 Y58.0345 
G01 X137.2233 Y57.8598 
G01 X137.2915 Y57.6952 
G01 X137.3904 Y57.5472 
G01 X137.5164 Y57.4212 
G01 X137.6644 Y57.3223 
G01 X137.8290 Y57.2541 
G01 X138.0037 Y57.2194 
G01 X138.1818 Y57.2194 
G01 X138.3565 Y57.2541 
G01 X138.5211 Y57.3223 
G01 X138.6691 Y57.4212 
G01 X138.7951 Y57.5472 
G01 X138.8940 Y57.6952 
G01 X138.9622 Y57.8598 
G01 X138.9969 Y58.0345 
G00 Z2.0000 
G00 X141.7655 Y58.0345 
G01 Z-0.1000 F600.00 
G01 X141.7655 Y58.2126 
G01 X141.7308 Y58.3873 
G01 X141.6626 Y58.5519 
G01 X141.5637 Y58.6999 
G01 X141.4377 Y58.8259 
G01 X141.2897 Y58.9248 
G01 X141.1251 Y58.9930 
G01 X140.9504 Y59.0277 
G01 X140.7723 Y59.0277 
G01 X140.5976 Y58.9930 
G01 X140.4330 Y58.9248 
G01 X140.2850 Y58.8259 
G01 X140.1590 Y58.6999 
G01 X140.0601 Y58.5519 
G01 X139.9919 Y58.3873 
G01 X139.9572 Y58.2126 
G01 X139.9572 Y58.0345 
G01 X139.9919 Y57.8598 
G01 X140.0601 Y57.6952 
G01 X140.1590 Y57.5472 
G01 X140.2850 Y57.4212 
G01 X140.4330 Y57.3223 
G01 X140.5976 Y57.2541 
G01 X140.7723 Y57.2194 
G01 X140.9504 Y57.2194 
G01 X141.1251 Y57.2541 
G01 X141.2897 Y57.3223 
G01 X141.4377 Y57.4212 
G01 X141.5637 Y57.5472 
G01 X141.6626 Y57.6952 
G01 X141.7308 Y57.8598 
G01 X141.7655 Y58.0345 
G00 Z2.0000 
G00 X144.5341 Y58.0345 
G01 Z-0.1000 F600.00 
G01 X144.5341 Y58.2126 
G01 X144.4994 Y58.3873 
G01 X144.4312 Y58.5519 
G01 X144.3323 Y58.6999 
G01 X144.2063 Y58.8259 
G01 X144.0583 Y58.9248 
G01 X143.8937 Y58.9930 
G01 X143.7190 Y59.0277 
G01 X143.5409 Y59.0277 
G01 X143.3662 Y58.9930 
G01 X143.2016 Y58.9248 
G01 X143.0536 Y58.8259 
G01 X142.9276 Y58.6999 
G01 X142.8287 Y58.5519 
G01 X142.7605 Y58.3873 
G01 X142.7258 Y58.2126 
G01 X142.7258 Y58.0345 
G01 X142.7605 Y57.8598 
G01 X142.8287 Y57.6952 
G01 X142.9276 Y57.5472 
G01 X143.0536 Y57.4212 
G01 X143.2016 Y57.3223 
G01 X143.3662 Y57.2541 
G01 X143.5409 Y57.2194 
G01 X143.7190 Y57.2194 
G01 X143.8937 Y57.2541 
G01 X144.0583 Y57.3223 
G01 X144.2063 Y57.4212 
G01 X144.3323 Y57.5472 
G01 X144.4312 Y57.6952 
G01 X144.4994 Y57.8598 
G01 X144.5341 Y58.0345 
G00 Z2.0000 
G00 X147.3027 Y58.0345 
G01 Z-0.1000 F600.00 
G01 X147.3027 Y58.2126 
G01 X147.2680 Y58.3873 
G01 X147.1998 Y58.5519 
G01 X147.1009 Y58.6999 
G01 X146.9749 Y58.8259 
G01 X146.8269 Y58.9248 
G01 X146.6623 Y58.9930 
G01 X146.4876 Y59.0277 
G01 X146.3095 Y59.0277 
G01 X146.1348 Y58.9930 
G01 X145.9702 Y58.9248 
G01 X145.8222 Y58.8259 
G01 X145.6962 Y58.6999 
G01 X145.5973 Y58.5519 
G01 X145.5291 Y58.3873 
G01 X145.4944 Y58.2126 
G01 X145.4944 Y58.0345 
G01 X145.5291 Y57.8598 
G01 X145.5973 Y57.6952 
G01 X145.6962 Y57.5472 
G01 X145.8222 Y57.4212 
G01 X145.9702 Y57.3223 
G01 X146.1348 Y57.2541 
G01 X146.3095 Y57.2194 
G01 X146.4876 Y57.2194 
G01 X146.6623 Y57.2541 
G01 X146.8269 Y57.3223 
G01 X146.9749 Y57.4212 
G01 X147.1009 Y57.5472 
G01 X147.1998 Y57.6952 
G01 X147.2680 Y57.8598 
G01 X147.3027 Y58.0345 
G00 Z2.0000 
G00 X150.0713 Y58.0345 
G01 Z-0.1000 F600.00 
G01 X150.0713 Y58.2126 
G01 X150.0366 Y58.3873 
G01 X149.9684 Y58.5519 
G01 X149.8695 Y58.6999 
G01 X149.7435 Y58.8259 
G01 X149.5955 Y58.9248 
G01 X149.4309 Y58.9930 
G01 X149.2562 Y59.0277 
G01 X149.0781 Y59.0277 
G01 X148.9034 Y58.9930 
G01 X148.7388 Y58.9248 
G01 X148.5908 Y58.8259 
G01 X148.4648 Y58.6999 
G01 X148.3659 Y58.5519 
G01 X148.2977 Y58.3873 
G01 X148.2630 Y58.2126 
G01 X148.2630 Y58.0345 
G01 X148.2977 Y57.8598 
G01 X148.3659 Y57.6952 
G01 X148.4648 Y57.5472 
G01 X148.5908 Y57.4212 
G01 X148.7388 Y57.3223 
G01 X148.9034 Y57.2541 
G01 X149.0781 Y57.2194 
G01 X149.2562 Y57.2194 
G01 X149.4309 Y57.2541 
G01 X149.5955 Y57.3223 
G01 X149.7435 Y57.4212 
G01 X149.8695 Y57.5472 
G01 X149.9684 Y57.6952 
G01 X150.0366 Y57.8598 
G01 X150.0713 Y58.0345 
G00 Z2.0000 
G00 X152.8399 Y58.0345 
G01 Z-0.1000 F600.00 
G01 X152.8399 Y58.2126 
G01 X152.8052 Y58.3873 
G01 X152.7370 Y58.5519 
G01 X152.6381 Y58.6999 
G01 X152.5121 Y58.8259 
G01 X152.3641 Y58.9248 
G01 X152.1995 Y58.9930 
G01 X152.0248 Y59.0277 
G01 X151.8467 Y59.0277 
G01 X151.6720 Y58.9930 
G01 X151.5074 Y58.9248 
G01 X151.3594 Y58.8259 
G01 X151.2334 Y58.6999 
G01 X151.1345 Y58.5519 
G01 X151.0663 Y58.3873 
G01 X151.0316 Y58.2126 
G01 X151.0316 Y58.0345 
G01 X151.0663 Y57.8598 
G01 X151.1345 Y57.6952 
G01 X151.2334 Y57.5472 
G01 X151.3594 Y57.4212 
G01 X151.5074 Y57.3223 
G01 X151.6720 Y57.2541 
G01 X151.8467 Y57.2194 
G01 X152.0248 Y57.2194 
G01 X152.1995 Y57.2541 
G01 X152.3641 Y57.3223 
G01 X152.5121 Y57.4212 
G01 X152.6381 Y57.5472 
G01 X152.7370 Y57.6952 
G01 X152.8052 Y57.8598 
G01 X152.8399 Y58.0345 
G00 Z2.0000 
G00 X155.6085 Y58.0345 
G01 Z-0.1000 F600.00 
G01 X155.6085 Y58.2126 
G01 X155.5738 Y58.3873 
G01 X155.5056 Y58.5519 
G01 X155.4067 Y58.6999 
G01 X155.2807 Y58.8259 
G01 X155.1327 Y58.9248 
G01 X154.9681 Y58.9930 
G01 X154.7934 Y59.0277 
G01 X154.6153 Y59.0277 
G01 X154.4406 Y58.9930 
G01 X154.2760 Y58.9248 
G01 X154.1280 Y58.8259 
G01 X154.0020 Y58.6999 
G01 X153.9031 Y58.5519 
G01 X153.8349 Y58.3873 
G01 X153.8002 Y58.2126 
G01 X153.8002 Y58.0345 
G01 X153.8349 Y57.8598 
G01 X153.9031 Y57.6952 
G01 X154.0020 Y57.5472 
G01 X154.1280 Y57.4212 
G01 X154.2760 Y57.3223 
G01 X154.4406 Y57.2541 
G01 X154.6153 Y57.2194 
G01 X154.7934 Y57.2194 
G01 X154.9681 Y57.2541 
G01 X155.1327 Y57.3223 
G01 X155.2807 Y57.4212 
G01 X155.4067 Y57.5472 
G01 X155.5056 Y57.6952 
G01 X155.5738 Y57.8598 
G01 X155.6085 Y58.0345 
G00 Z2.0000 
G00 X158.3771 Y58.0345 
G01 Z-0.1000 F600.00 
G01 X158.3771 Y58.2126 
G01 X158.3424 Y58.3873 
G01 X158.2742 Y58.5519 
G01 X158.1753 Y58.6999 
G01 X158.0493 Y58.8259 
G01 X157.9013 Y58.9248 
G01 X157.7367 Y58.9930 
G01 X157.5620 Y59.0277 
G01 X157.3839 Y59.0277 
G01 X157.2092 Y58.9930 
G01 X157.0446 Y58.9248 
G01 X156.8966 Y58.8259 
G01 X156.7706 Y58.6999 
G01 X156.6717 Y58.5519 
G01 X156.6035 Y58.3873 
G01 X156.5688 Y58.2126 
G01 X156.5688 Y58.0345 
G01 X156.6035 Y57.8598 
G01 X156.6717 Y57.6952 
G01 X156.7706 Y57.5472 
G01 X156.8966 Y57.4212 
G01 X157.0446 Y57.3223 
G01 X157.2092 Y57.2541 
G01 X157.3839 Y57.2194 
G01 X157.5620 Y57.2194 
G01 X157.7367 Y57.2541 
G01 X157.9013 Y57.3223 
G01 X158.0493 Y57.4212 
G01 X158.1753 Y57.5472 
G01 X158.2742 Y57.6952 
G01 X158.3424 Y57.8598 
G01 X158.3771 Y58.0345 
G00 Z2.0000 
G00 X161.1457 Y58.0345 
G01 Z-0.1000 F600.00 
G01 X161.1457 Y58.2126 
G01 X161.1110 Y58.3873 
G01 X161.0428 Y58.5519 
G01 X160.9439 Y58.6999 
G01 X160.8179 Y58.8259 
G01 X160.6699 Y58.9248 
G01 X160.5053 Y58.9930 
G01 X160.3306 Y59.0277 
G01 X160.1525 Y59.0277 
G01 X159.9778 Y58.9930 
G01 X159.8132 Y58.9248 
G01 X159.6652 Y58.8259 
G01 X159.5392 Y58.6999 
G01 X159.4403 Y58.5519 
G01 X159.3721 Y58.3873 
G01 X159.3374 Y58.2126 
G01 X159.3374 Y58.0345 
G01 X159.3721 Y57.8598 
G01 X159.4403 Y57.6952 
G01 X159.5392 Y57.5472 
G01 X159.6652 Y57.4212 
G01 X159.8132 Y57.3223 
G01 X159.9778 Y57.2541 
G01 X160.1525 Y57.2194 
G01 X160.3306 Y57.2194 
G01 X160.5053 Y57.2541 
G01 X160.6699 Y57.3223 
G01 X160.8179 Y57.4212 
G01 X160.9439 Y57.5472 
G01 X161.0428 Y57.6952 
G01 X161.1110 Y57.8598 
G01 X161.1457 Y58.0345 
G00 Z2.0000 
G00 X129.3068 Y60.8793 
G01 Z-0.1000 F600.00 
G01 X129.3068 Y61.0574 
G01 X129.2721 Y61.2321 
G01 X129.2039 Y61.3967 
G01 X129.1050 Y61.5447 
G01 X128.9790 Y61.6707 
G01 X128.8310 Y61.7696 
G01 X128.6664 Y61.8378 
G01 X128.4917 Y61.8725 
G01 X128.3136 Y61.8725 
G01 X128.1389 Y61.8378 
G01 X127.9743 Y61.7696 
G01 X127.8263 Y61.6707 
G01 X127.7003 Y61.5447 
G01 X127.6014 Y61.3967 
G01 X127.5332 Y61.2321 
G01 X127.4985 Y61.0574 
G01 X127.4985 Y60.8793 
G01 X127.5332 Y60.7046 
G01 X127.6014 Y60.5400 
G01 X127.7003 Y60.3920 
G01 X127.8263 Y60.2660 
G01 X127.9743 Y60.1671 
G01 X128.1389 Y60.0989 
G01 X128.3136 Y60.0642 
G01 X128.4917 Y60.0642 
G01 X128.6664 Y60.0989 
G01 X128.8310 Y60.1671 
G01 X128.9790 Y60.2660 
G01 X129.1050 Y60.3920 
G01 X129.2039 Y60.5400 
G01 X129.2721 Y60.7046 
G01 X129.3068 Y60.8793 
G00 Z2.0000 
G00 X132.0754 Y60.8793 
G01 Z-0.1000 F600.00 
G01 X132.0754 Y61.0574 
G01 X132.0407 Y61.2321 
G01 X131.9725 Y61.3967 
G01 X131.8736 Y61.5447 
G01 X131.7476 Y61.6707 
G01 X131.5996 Y61.7696 
G01 X131.4350 Y61.8378 
G01 X131.2603 Y61.8725 
G01 X131.0822 Y61.8725 
G01 X130.9075 Y61.8378 
G01 X130.7429 Y61.7696 
G01 X130.5949 Y61.6707 
G01 X130.4689 Y61.5447 
G01 X130.3700 Y61.3967 
G01 X130.3018 Y61.2321 
G01 X130.2671 Y61.0574 
G01 X130.2671 Y60.8793 
G01 X130.3018 Y60.7046 
G01 X130.3700 Y60.5400 
G01 X130.4689 Y60.3920 
G01 X130.5949 Y60.2660 
G01 X130.7429 Y60.1671 
G01 X130.9075 Y60.0989 
G01 X131.0822 Y60.0642 
G01 X131.2603 Y60.0642 
G01 X131.4350 Y60.0989 
G01 X131.5996 Y60.1671 
G01 X131.7476 Y60.2660 
G01 X131.8736 Y60.3920 
G01 X131.9725 Y60.5400 
G01 X132.0407 Y60.7046 
G01 X132.0754 Y60.8793 
G00 Z2.0000 
G00 X134.8440 Y60.8793 
G01 Z-0.1000 F600.00 
G01 X134.8440 Y61.0574 
G01 X134.8093 Y61.2321 
G01 X134.7411 Y61.3967 
G01 X134.6422 Y61.5447 
G01 X134.5162 Y61.6707 
G01 X134.3682 Y61.7696 
G01 X134.2036 Y61.8378 
G01 X134.0289 Y61.8725 
G01 X133.8508 Y61.8725 
G01 X133.6761 Y61.8378 
G01 X133.5115 Y61.7696 
G01 X133.3635 Y61.6707 
G01 X133.2375 Y61.5447 
G01 X133.1386 Y61.3967 
G01 X133.0704 Y61.2321 
G01 X133.0357 Y61.0574 
G01 X133.0357 Y60.8793 
G01 X133.0704 Y60.7046 
G01 X133.1386 Y60.5400 
G01 X133.2375 Y60.3920 
G01 X133.3635 Y60.2660 
G01 X133.5115 Y60.1671 
G01 X133.6761 Y60.0989 
G01 X133.8508 Y60.0642 
G01 X134.0289 Y60.0642 
G01 X134.2036 Y60.0989 
G01 X134.3682 Y60.1671 
G01 X134.5162 Y60.2660 
G01 X134.6422 Y60.3920 
G01 X134.7411 Y60.5400 
G01 X134.8093 Y60.7046 
G01 X134.8440 Y60.8793 
G00 Z2.0000 
G00 X137.6126 Y60.8793 
G01 Z-0.1000 F600.00 
G01 X137.6126 Y61.0574 
G01 X137.5779 Y61.2321 
G01 X137.5097 Y61.3967 
G01 X137.4108 Y61.5447 
G01 X137.2848 Y61.6707 
G01 X137.1368 Y61.7696 
G01 X136.9722 Y61.8378 
G01 X136.7975 Y61.8725 
G01 X136.6194 Y61.8725 
G01 X136.4447 Y61.8378 
G01 X136.2801 Y61.7696 
G01 X136.1321 Y61.6707 
G01 X136.0061 Y61.5447 
G01 X135.9072 Y61.3967 
G01 X135.8390 Y61.2321 
G01 X135.8043 Y61.0574 
G01 X135.8043 Y60.8793 
G01 X135.8390 Y60.7046 
G01 X135.9072 Y60.5400 
G01 X136.0061 Y60.3920 
G01 X136.1321 Y60.2660 
G01 X136.2801 Y60.1671 
G01 X136.4447 Y60.0989 
G01 X136.6194 Y60.0642 
G01 X136.7975 Y60.0642 
G01 X136.9722 Y60.0989 
G01 X137.1368 Y60.1671 
G01 X137.2848 Y60.2660 
G01 X137.4108 Y60.3920 
G01 X137.5097 Y60.5400 
G01 X137.5779 Y60.7046 
G01 X137.6126 Y60.8793 
G00 Z2.0000 
G00 X140.3812 Y60.8793 
G01 Z-0.1000 F600.00 
G01 X140.3812 Y61.0574 
G01 X140.3465 Y61.2321 
G01 X140.2783 Y61.3967 
G01 X140.1794 Y61.5447 
G01 X140.0534 Y61.6707 
G01 X139.9054 Y61.7696 
G01 X139.7408 Y61.8378 
G01 X139.5661 Y61.8725 
G01 X139.3880 Y61.8725 
G01 X139.2133 Y61.8378 
G01 X139.0487 Y61.7696 
G01 X138.9007 Y61.6707 
G01 X138.7747 Y61.5447 
G01 X138.6758 Y61.3967 
G01 X138.6076 Y61.2321 
G01 X138.5729 Y61.0574 
G01 X138.5729 Y60.8793 
G01 X138.6076 Y60.7046 
G01 X138.6758 Y60.5400 
G01 X138.7747 Y60.3920 
G01 X138.9007 Y60.2660 
G01 X139.0487 Y60.1671 
G01 X139.2133 Y60.0989 
G01 X139.3880 Y60.0642 
G01 X139.5661 Y60.0642 
G01 X139.7408 Y60.0989 
G01 X139.9054 Y60.1671 
G01 X140.0534 Y60.2660 
G01 X140.1794 Y60.3920 
G01 X140.2783 Y60.5400 
G01 X140.3465 Y60.7046 
G01 X140.3812 Y60.8793 
G00 Z2.0000 
G00 X143.1498 Y60.8793 
G01 Z-0.1000 F600.00 
G01 X143.1498 Y61.0574 
G01 X143.1151 Y61.2321 
G01 X143.0469 Y61.3967 
G01 X142.9480 Y61.5447 
G01 X142.8220 Y61.6707 
G01 X142.6740 Y61.7696 
G01 X142.5094 Y61.8378 
G01 X142.3347 Y61.8725 
G01 X142.1566 Y61.8725 
G01 X141.9819 Y61.8378 
G01 X141.8173 Y61.7696 
G01 X141.6693 Y61.6707 
G01 X141.5433 Y61.5447 
G01 X141.4444 Y61.3967 
G01 X141.3762 Y61.2321 
G01 X141.3415 Y61.0574 
G01 X141.3415 Y60.8793 
G01 X141.3762 Y60.7046 
G01 X141.4444 Y60.5400 
G01 X141.5433 Y60.3920 
G01 X141.6693 Y60.2660 
G01 X141.8173 Y60.1671 
G01 X141.9819 Y60.0989 
G01 X142.1566 Y60.0642 
G01 X142.3347 Y60.0642 
G01 X142.5094 Y60.0989 
G01 X142.6740 Y60.1671 
G01 X142.8220 Y60.2660 
G01 X142.9480 Y60.3920 
G01 X143.0469 Y60.5400 
G01 X143.1151 Y60.7046 
G01 X143.1498 Y60.8793 
G00 Z2.0000 
G00 X145.9184 Y60.8793 
G01 Z-0.1000 F600.00 
G01 X145.9184 Y61.0574 
G01 X145.8837 Y61.2321 
G01 X145.8155 Y61.3967 
G01 X145.7166 Y61.5447 
G01 X145.5906 Y61.6707 
G01 X145.4426 Y61.7696 
G01 X145.2780 Y61.8378 
G01 X145.1033 Y61.8725 
G01 X144.9252 Y61.8725 
G01 X144.7505 Y61.8378 
G01 X144.5859 Y61.7696 
G01 X144.4379 Y61.6707 
G01 X144.3119 Y61.5447 
G01 X144.2130 Y61.3967 
G01 X144.1448 Y61.2321 
G01 X144.1101 Y61.0574 
G01 X144.1101 Y60.8793 
G01 X144.1448 Y60.7046 
G01 X144.2130 Y60.5400 
G01 X144.3119 Y60.3920 
G01 X144.4379 Y60.2660 
G01 X144.5859 Y60.1671 
G01 X144.7505 Y60.0989 
G01 X144.9252 Y60.0642 
G01 X145.1033 Y60.0642 
G01 X145.2780 Y60.0989 
G01 X145.4426 Y60.1671 
G01 X145.5906 Y60.2660 
G01 X145.7166 Y60.3920 
G01 X145.8155 Y60.5400 
G01 X145.8837 Y60.7046 
G01 X145.9184 Y60.8793 
G00 Z2.0000 
G00 X148.6870 Y60.8793 
G01 Z-0.1000 F600.00 
G01 X148.6870 Y61.0574 
G01 X148.6523 Y61.2321 
G01 X148.5841 Y61.3967 
G01 X148.4852 Y61.5447 
G01 X148.3592 Y61.6707 
G01 X148.2112 Y61.7696 
G01 X148.0466 Y61.8378 
G01 X147.8719 Y61.8725 
G01 X147.6938 Y61.8725 
G01 X147.5191 Y61.8378 
G01 X147.3545 Y61.7696 
G01 X147.2065 Y61.6707 
G01 X147.0805 Y61.5447 
G01 X146.9816 Y61.3967 
G01 X146.9134 Y61.2321 
G01 X146.8787 Y61.0574 
G01 X146.8787 Y60.8793 
G01 X146.9134 Y60.7046 
G01 X146.9816 Y60.5400 
G01 X147.0805 Y60.3920 
G01 X147.2065 Y60.2660 
G01 X147.3545 Y60.1671 
G01 X147.5191 Y60.0989 
G01 X147.6938 Y60.0642 
G01 X147.8719 Y60.0642 
G01 X148.0466 Y60.0989 
G01 X148.2112 Y60.1671 
G01 X148.3592 Y60.2660 
G01 X148.4852 Y60.3920 
G01 X148.5841 Y60.5400 
G01 X148.6523 Y60.7046 
G01 X148.6870 Y60.8793 
G00 Z2.0000 
G00 X151.4556 Y60.8793 
G01 Z-0.1000 F600.00 
G01 X151.4556 Y61.0574 
G01 X151.4209 Y61.2321 
G01 X151.3527 Y61.3967 
G01 X151.2538 Y61.5447 
G01 X151.1278 Y61.6707 
G01 X150.9798 Y61.7696 
G01 X150.8152 Y61.8378 
G01 X150.6405 Y61.8725 
G01 X150.4624 Y61.8725 
G01 X150.2877 Y61.8378 
G01 X150.1231 Y61.7696 
G01 X149.9751 Y61.6707 
G01 X149.8491 Y61.5447 
G01 X149.7502 Y61.3967 
G01 X149.6820 Y61.2321 
G01 X149.6473 Y61.0574 
G01 X149.6473 Y60.8793 
G01 X149.6820 Y60.7046 
G01 X149.7502 Y60.5400 
G01 X149.8491 Y60.3920 
G01 X149.9751 Y60.2660 
G01 X150.1231 Y60.1671 
G01 X150.2877 Y60.0989 
G01 X150.4624 Y60.0642 
G01 X150.6405 Y60.0642 
G01 X150.8152 Y60.0989 
G01 X150.9798 Y60.1671 
G01 X151.1278 Y60.2660 
G01 X151.2538 Y60.3920 
G01 X151.3527 Y60.5400 
G01 X151.4209 Y60.7046 
G01 X151.4556 Y60.8793 
G00 Z2.0000 
G00 X154.2242 Y60.8793 
G01 Z-0.1000 F600.00 
G01 X154.2242 Y61.0574 
G01 X154.1895 Y61.2321 
G01 X154.1213 Y61.3967 
G01 X154.0224 Y61.5447 
G01 X153.8964 Y61.6707 
G01 X153.7484 Y61.7696 
G01 X153.5838 Y61.8378 
G01 X153.4091 Y61.8725 
G01 X153.2310 Y61.8725 
G01 X153.0563 Y61.8378 
G01 X152.8917 Y61.7696 
G01 X152.7437 Y61.6707 
G01 X152.6177 Y61.5447 
G01 X152.5188 Y61.3967 
G01 X152.4506 Y61.2321 
G01 X152.4159 Y61.0574 
G01 X152.4159 Y60.8793 
G01 X152.4506 Y60.7046 
G01 X152.5188 Y60.5400 
G01 X152.6177 Y60.3920 
G01 X152.7437 Y60.2660 
G01 X152.8917 Y60.1671 
G01 X153.0563 Y60.0989 
G01 X153.2310 Y60.0642 
G01 X153.4091 Y60.0642 
G01 X153.5838 Y60.0989 
G01 X153.7484 Y60.1671 
G01 X153.8964 Y60.2660 
G01 X154.0224 Y60.3920 
G01 X154.1213 Y60.5400 
G01 X154.1895 Y60.7046 
G01 X154.2242 Y60.8793 
G00 Z2.0000 
G00 X156.9928 Y60.8793 
G01 Z-0.1000 F600.00 
G01 X156.9928 Y61.0574 
G01 X156.9581 Y61.2321 
G01 X156.8899 Y61.3967 
G01 X156.7910 Y61.5447 
G01 X156.6650 Y61.6707 
G01 X156.5170 Y61.7696 
G01 X156.3524 Y61.8378 
G01 X156.1777 Y61.8725 
G01 X155.9996 Y61.8725 
G01 X155.8249 Y61.8378 
G01 X155.6603 Y61.7696 
G01 X155.5123 Y61.6707 
G01 X155.3863 Y61.5447 
G01 X155.2874 Y61.3967 
G01 X155.2192 Y61.2321 
G01 X155.1845 Y61.0574 
G01 X155.1845 Y60.8793 
G01 X155.2192 Y60.7046 
G01 X155.2874 Y60.5400 
G01 X155.3863 Y60.3920 
G01 X155.5123 Y60.2660 
G01 X155.6603 Y60.1671 
G01 X155.8249 Y60.0989 
G01 X155.9996 Y60.0642 
G01 X156.1777 Y60.0642 
G01 X156.3524 Y60.0989 
G01 X156.5170 Y60.1671 
G01 X156.6650 Y60.2660 
G01 X156.7910 Y60.3920 
G01 X156.8899 Y60.5400 
G01 X156.9581 Y60.7046 
G01 X156.9928 Y60.8793 
G00 Z2.0000 
G00 X159.7614 Y60.8793 
G01 Z-0.1000 F600.00 
G01 X159.7614 Y61.0574 
G01 X159.7267 Y61.2321 
G01 X159.6585 Y61.3967 
G01 X159.5596 Y61.5447 
G01 X159.4336 Y61.6707 
G01 X159.2856 Y61.7696 
G01 X159.1210 Y61.8378 
G01 X158.9463 Y61.8725 
G01 X158.7682 Y61.8725 
G01 X158.5935 Y61.8378 
G01 X158.4289 Y61.7696 
G01 X158.2809 Y61.6707 
G01 X158.1549 Y61.5447 
G01 X158.0560 Y61.3967 
G01 X157.9878 Y61.2321 
G01 X157.9531 Y61.0574 
G01 X157.9531 Y60.8793 
G01 X157.9878 Y60.7046 
G01 X158.0560 Y60.5400 
G01 X158.1549 Y60.3920 
G01 X158.2809 Y60.2660 
G01 X158.4289 Y60.1671 
G01 X158.5935 Y60.0989 
G01 X158.7682 Y60.0642 
G01 X158.9463 Y60.0642 
G01 X159.1210 Y60.0989 
G01 X159.2856 Y60.1671 
G01 X159.4336 Y60.2660 
G01 X159.5596 Y60.3920 
G01 X159.6585 Y60.5400 
G01 X159.7267 Y60.7046 
G01 X159.7614 Y60.8793 
G00 Z2.0000 
G00 X64.9294 Y59.0316 
G01 Z-0.1000 F600.00 
G01 X64.9294 Y59.9963 
G01 X64.2473 Y60.6784 
G01 X63.2826 Y60.6784 
G01 X62.6005 Y59.9963 
G01 X62.6005 Y59.0316 
G01 X63.2826 Y58.3495 
G01 X64.2473 Y58.3495 
G01 X64.9294 Y59.0316 
G00 Z2.0000 
G00 X60.6784 Y59.0316 
G01 Z-0.1000 F600.00 
G01 X60.6784 Y59.9963 
G01 X59.9963 Y60.6784 
G01 X59.0316 Y60.6784 
G01 X58.3495 Y59.9963 
G01 X58.3495 Y59.0316 
G01 X59.0316 Y58.3495 
G01 X59.9963 Y58.3495 
G01 X60.6784 Y59.0316 
G00 Z2.0000 
G00 X56.4274 Y59.0316 
G01 Z-0.1000 F600.00 
G01 X56.4274 Y59.9963 
G01 X55.7453 Y60.6784 
G01 X54.7806 Y60.6784 
G01 X54.0985 Y59.9963 
G01 X54.0985 Y59.0316 
G01 X54.7806 Y58.3495 
G01 X55.7453 Y58.3495 
G01 X56.4274 Y59.0316 
G00 Z2.0000 
G00 X52.1764 Y59.0316 
G01 Z-0.1000 F600.00 
G01 X52.1764 Y59.9963 
G01 X51.4943 Y60.6784 
G01 X50.5296 Y60.6784 
G01 X49.8475 Y59.9963 
G01 X49.8475 Y59.0316 
G01 X50.5296 Y58.3495 
G01 X51.4943 Y58.3495 
G01 X52.1764 Y59.0316 
G00 Z2.0000 
G00 X47.9254 Y59.0316 
G01 Z-0.1000 F600.00 
G01 X47.9254 Y59.9963 
G01 X47.2433 Y60.6784 
G01 X46.2786 Y60.6784 
G01 X45.5965 Y59.9963 
G01 X45.5965 Y59.0316 
G01 X46.2786 Y58.3495 
G01 X47.2433 Y58.3495 
G01 X47.9254 Y59.0316 
G00 Z2.0000 
G00 X43.6744 Y59.0316 
G01 Z-0.1000 F600.00 
G01 X43.6744 Y59.9963 
G01 X42.9923 Y60.6784 
G01 X42.0276 Y60.6784 
G01 X41.3455 Y59.9963 
G01 X41.3455 Y59.0316 
G01 X42.0276 Y58.3495 
G01 X42.9923 Y58.3495 
G01 X43.6744 Y59.0316 
G00 Z2.0000 
G00 X39.4234 Y59.0316 
G01 Z-0.1000 F600.00 
G01 X39.4234 Y59.9963 
G01 X38.7413 Y60.6784 
G01 X37.7766 Y60.6784 
G01 X37.0945 Y59.9963 
G01 X37.0945 Y59.0316 
G01 X37.7766 Y58.3495 
G01 X38.7413 Y58.3495 
G01 X39.4234 Y59.0316 
G00 Z2.0000 
G00 X35.1724 Y59.0316 
G01 Z-0.1000 F600.00 
G01 X35.1724 Y59.9963 
G01 X34.4903 Y60.6784 
G01 X33.5256 Y60.6784 
G01 X32.8435 Y59.9963 
G01 X32.8435 Y59.0316 
G01 X33.5256 Y58.3495 
G01 X34.4903 Y58.3495 
G01 X35.1724 Y59.0316 
G00 Z2.0000 
G00 X30.9214 Y59.0316 
G01 Z-0.1000 F600.00 
G01 X30.9214 Y59.9963 
G01 X30.2393 Y60.6784 
G01 X29.2746 Y60.6784 
G01 X28.5925 Y59.9963 
G01 X28.5925 Y59.0316 
G01 X29.2746 Y58.3495 
G01 X30.2393 Y58.3495 
G01 X30.9214 Y59.0316 
G00 Z2.0000 
G00 X26.6704 Y59.0316 
G01 Z-0.1000 F600.00 
G01 X26.6704 Y59.9963 
G01 X25.9883 Y60.6784 
G01 X25.0236 Y60.6784 
G01 X24.3415 Y59.9963 
G01 X24.3415 Y59.0316 
G01 X25.0236 Y58.3495 
G01 X25.9883 Y58.3495 
G01 X26.6704 Y59.0316 
G00 Z2.0000 
G00 X22.4194 Y59.0316 
G01 Z-0.1000 F600.00 
G01 X22.4194 Y59.9963 
G01 X21.7373 Y60.6784 
G01 X20.7726 Y60.6784 
G01 X20.0905 Y59.9963 
G01 X20.0905 Y59.0316 
G01 X20.7726 Y58.3495 
G01 X21.7373 Y58.3495 
G01 X22.4194 Y59.0316 
G00 Z2.0000 
G00 X18.1684 Y59.0316 
G01 Z-0.1000 F600.00 
G01 X18.1684 Y59.9963 
G01 X17.4863 Y60.6784 
G01 X16.5216 Y60.6784 
G01 X15.8395 Y59.9963 
G01 X15.8395 Y59.0316 
G01 X16.5216 Y58.3495 
G01 X17.4863 Y58.3495 
G01 X18.1684 Y59.0316 
G00 Z2.0000 
G00 X13.9174 Y59.0316 
G01 Z-0.1000 F600.00 
G01 X13.9174 Y59.9963 
G01 X13.2353 Y60.6784 
G01 X12.2706 Y60.6784 
G01 X11.5885 Y59.9963 
G01 X11.5885 Y59.0316 
G01 X12.2706 Y58.3495 
G01 X13.2353 Y58.3495 
G01 X13.9174 Y59.0316 
(File Footer)
G00 Z2.0000 
G00 Z10.0000 
M05
M02
