( This gcode generated by /home/mattvenn/.eagle/ulp/pcb-gcode.ulp )
( Copyright 2005 by John Johnson. See readme.txt for licensing terms. )

( This file generated from the board /home/mattvenn/eagle-circuit-designs/cvm/hymera.brd )
( This file generated 03/02/2012 13:22 )

G21

G90
G00 Z10.0000 
G00 X0 Y0
M03
G04 P3.000000
G00 Z2.0000 
G00 X-1.4000 Y42.4000 
G01 Z-2.0000 F600.00 
G01 X-110.4000 Y42.4000 
G01 X-110.4000 Y1.3000 
G00 Z2.0000 
G00 X-1.4000 Y1.3000 
G01 Z-2.0000 F600.00 
G01 X-1.4000 Y42.4000 
G00 Z2.0000 
G00 X-1.4000 Y1.3000 
G01 Z-2.0000 F600.00 
G01 X-110.4000 Y1.3000 
(File Footer)
G00 Z10.0000 
M05
M02
