( This gcode generated by /home/mattvenn/.eagle/ulp/pcb-gcode.ulp )
( Copyright 2005 by John Johnson. See readme.txt for licensing terms. )

( This file generated from the board /home/mattvenn/eagle-circuit-designs/cvm/hymera.brd )
( This file generated 03/02/2012 13:22 )

( T01 1.092200 )
( T02 1.320800 )
( T03 3.048000 )
( T04 3.200000 )
G21

G90
M05
G00 X0.0000 Y0.0000 Z30.0000 
M06 T01  ; 1.0922 
G00 Z2.0000 
M03
G04 P3.000000
G82 X-22.1584 Y12.4764 Z-2.0000 F127.00 R2.0000 P0.100000
G82 X-23.5427 Y9.6316 
G82 X-24.9270 Y12.4764 
G82 X-26.3113 Y9.6316 
G82 X-27.6956 Y12.4764 
G82 X-29.0799 Y9.6316 
G82 X-30.4642 Y12.4764 
G82 X-31.8485 Y9.6316 
G82 X-33.2328 Y12.4764 
G82 X-34.6171 Y9.6316 
G82 X-36.0014 Y12.4764 
G82 X-37.3857 Y9.6316 
G82 X-38.7700 Y12.4764 
G82 X-40.1543 Y9.6316 
G82 X-41.5386 Y12.4764 
G82 X-42.9229 Y9.6316 
G82 X-44.3072 Y12.4764 
G82 X-45.6915 Y9.6316 
G82 X-47.0758 Y12.4764 
G82 X-48.4601 Y9.6316 
G82 X-49.8444 Y12.4764 
G82 X-51.2287 Y9.6316 
G82 X-52.6130 Y12.4764 
G82 X-53.9973 Y9.6316 
G82 X-55.3816 Y12.4764 
M05
G00 X0.0000 Y0.0000 Z30.0000 
M06 T02  ; 1.3208 
G00 Z2.0000 
M03
G04 P3.000000
G82 X-4.9020 Y28.3040 Z-2.0000 F127.00 R2.0000 P0.100000
G82 X-9.1530 Y28.3040 
G82 X-102.6750 Y28.3040 
G82 X-106.9260 Y28.3040 
G82 X-13.4040 Y28.3040 
G82 X-17.6550 Y28.3040 
G82 X-21.9060 Y28.3040 
G82 X-26.1570 Y28.3040 
G82 X-30.4080 Y28.3040 
G82 X-34.6590 Y28.3040 
G82 X-38.9100 Y28.3040 
G82 X-43.1610 Y28.3040 
G82 X-47.4120 Y28.3040 
G82 X-51.6630 Y28.3040 
G82 X-55.9140 Y28.3040 
G82 X-60.1650 Y28.3040 
G82 X-64.4160 Y28.3040 
G82 X-68.6670 Y28.3040 
G82 X-72.9180 Y28.3040 
G82 X-77.1690 Y28.3040 
G82 X-81.4200 Y28.3040 
G82 X-85.6710 Y28.3040 
G82 X-89.9220 Y28.3040 
G82 X-94.1730 Y28.3040 
G82 X-98.4240 Y28.3040 
M05
G00 X0.0000 Y0.0000 Z30.0000 
M06 T03  ; 3.0480 
G00 Z2.0000 
M03
G04 P3.000000
G82 X-15.2496 Y11.0540 Z-2.0000 F127.00 R2.0000 P0.100000
G82 X-62.2904 Y11.0540 
M05
G00 X0.0000 Y0.0000 Z30.0000 
M06 T04  ; 3.2000 
G00 Z2.0000 
M03
G04 P3.000000
G82 X-7.4000 Y11.0000 Z-2.0000 F127.00 R2.0000 P0.100000
G82 X-59.4000 Y20.0000 
G82 X-92.9000 Y10.5000 
(File Footer)
T01 
G00 Z10.0000 
M05
M02
