( This gcode generated by /home/mattvenn/.eagle/ulp/pcb-gcode.ulp )
( Copyright 2005 by John Johnson. See readme.txt for licensing terms. )

( This file generated from the board /home/mattvenn/eagle-circuit-designs/cvm/hymera2.brd )
( This file generated 07/02/2012 14:18 )

G21

G90
G00 Z10.0000 
G00 X0 Y0
M03
G04 P3.000000
G00 Z2.0000 
G00 X101.1645 Y25.2294 
G01 Z-0.2000 F600.00 
G01 X101.1645 Y27.3785 
G01 X101.1382 Y27.5443 
G01 X101.0864 Y27.7040 
G01 X101.0102 Y27.8536 
G01 X100.9115 Y27.9894 
G01 X100.7928 Y28.1081 
G01 X100.6570 Y28.2068 
G01 X100.5074 Y28.2830 
G01 X100.3477 Y28.3348 
G01 X100.1819 Y28.3611 
G01 X100.0140 Y28.3611 
G01 X99.8482 Y28.3348 
G01 X99.6885 Y28.2830 
G01 X99.5389 Y28.2068 
G01 X99.4031 Y28.1081 
G01 X99.2844 Y27.9894 
G01 X99.1857 Y27.8536 
G01 X99.1095 Y27.7040 
G01 X99.0577 Y27.5443 
G01 X99.0314 Y27.3785 
G01 X99.0314 Y25.2294 
G01 X99.0577 Y25.0636 
G01 X99.1095 Y24.9039 
G01 X99.1857 Y24.7543 
G01 X99.2844 Y24.6185 
G01 X99.4031 Y24.4998 
G01 X99.5389 Y24.4011 
G01 X99.6885 Y24.3249 
G01 X99.8482 Y24.2731 
G01 X100.0140 Y24.2468 
G01 X100.1819 Y24.2468 
G01 X100.3477 Y24.2731 
G01 X100.5074 Y24.3249 
G01 X100.6570 Y24.4011 
G01 X100.7928 Y24.4998 
G01 X100.9115 Y24.6185 
G01 X101.0102 Y24.7543 
G01 X101.0864 Y24.9039 
G01 X101.1382 Y25.0636 
G01 X101.1645 Y25.2294 
G00 Z2.0000 
G00 X96.9135 Y25.2294 
G01 Z-0.2000 F600.00 
G01 X96.9135 Y27.3785 
G01 X96.8872 Y27.5443 
G01 X96.8354 Y27.7040 
G01 X96.7592 Y27.8536 
G01 X96.6605 Y27.9894 
G01 X96.5418 Y28.1081 
G01 X96.4060 Y28.2068 
G01 X96.2564 Y28.2830 
G01 X96.0967 Y28.3348 
G01 X95.9309 Y28.3611 
G01 X95.7630 Y28.3611 
G01 X95.5972 Y28.3348 
G01 X95.4375 Y28.2830 
G01 X95.2879 Y28.2068 
G01 X95.1521 Y28.1081 
G01 X95.0334 Y27.9894 
G01 X94.9347 Y27.8536 
G01 X94.8585 Y27.7040 
G01 X94.8067 Y27.5443 
G01 X94.7804 Y27.3785 
G01 X94.7804 Y25.2294 
G01 X94.8067 Y25.0636 
G01 X94.8585 Y24.9039 
G01 X94.9347 Y24.7543 
G01 X95.0334 Y24.6185 
G01 X95.1521 Y24.4998 
G01 X95.2879 Y24.4011 
G01 X95.4375 Y24.3249 
G01 X95.5972 Y24.2731 
G01 X95.7630 Y24.2468 
G01 X95.9309 Y24.2468 
G01 X96.0967 Y24.2731 
G01 X96.2564 Y24.3249 
G01 X96.4060 Y24.4011 
G01 X96.5418 Y24.4998 
G01 X96.6605 Y24.6185 
G01 X96.7592 Y24.7543 
G01 X96.8354 Y24.9039 
G01 X96.8872 Y25.0636 
G01 X96.9135 Y25.2294 
G00 Z2.0000 
G00 X92.6625 Y25.2294 
G01 Z-0.2000 F600.00 
G01 X92.6625 Y27.3785 
G01 X92.6362 Y27.5443 
G01 X92.5844 Y27.7040 
G01 X92.5082 Y27.8536 
G01 X92.4095 Y27.9894 
G01 X92.2908 Y28.1081 
G01 X92.1550 Y28.2068 
G01 X92.0054 Y28.2830 
G01 X91.8457 Y28.3348 
G01 X91.6799 Y28.3611 
G01 X91.5120 Y28.3611 
G01 X91.3462 Y28.3348 
G01 X91.1865 Y28.2830 
G01 X91.0369 Y28.2068 
G01 X90.9011 Y28.1081 
G01 X90.7824 Y27.9894 
G01 X90.6837 Y27.8536 
G01 X90.6075 Y27.7040 
G01 X90.5557 Y27.5443 
G01 X90.5294 Y27.3785 
G01 X90.5294 Y25.2294 
G01 X90.5557 Y25.0636 
G01 X90.6075 Y24.9039 
G01 X90.6837 Y24.7543 
G01 X90.7824 Y24.6185 
G01 X90.9011 Y24.4998 
G01 X91.0369 Y24.4011 
G01 X91.1865 Y24.3249 
G01 X91.3462 Y24.2731 
G01 X91.5120 Y24.2468 
G01 X91.6799 Y24.2468 
G01 X91.8457 Y24.2731 
G01 X92.0054 Y24.3249 
G01 X92.1550 Y24.4011 
G01 X92.2908 Y24.4998 
G01 X92.4095 Y24.6185 
G01 X92.5082 Y24.7543 
G01 X92.5844 Y24.9039 
G01 X92.6362 Y25.0636 
G01 X92.6625 Y25.2294 
G00 Z2.0000 
G00 X88.4115 Y25.2294 
G01 Z-0.2000 F600.00 
G01 X88.4115 Y27.3785 
G01 X88.3852 Y27.5443 
G01 X88.3334 Y27.7040 
G01 X88.2572 Y27.8536 
G01 X88.1585 Y27.9894 
G01 X88.0398 Y28.1081 
G01 X87.9040 Y28.2068 
G01 X87.7544 Y28.2830 
G01 X87.5947 Y28.3348 
G01 X87.4289 Y28.3611 
G01 X87.2610 Y28.3611 
G01 X87.0952 Y28.3348 
G01 X86.9355 Y28.2830 
G01 X86.7859 Y28.2068 
G01 X86.6501 Y28.1081 
G01 X86.5314 Y27.9894 
G01 X86.4327 Y27.8536 
G01 X86.3565 Y27.7040 
G01 X86.3047 Y27.5443 
G01 X86.2784 Y27.3785 
G01 X86.2784 Y25.2294 
G01 X86.3047 Y25.0636 
G01 X86.3565 Y24.9039 
G01 X86.4327 Y24.7543 
G01 X86.5314 Y24.6185 
G01 X86.6501 Y24.4998 
G01 X86.7859 Y24.4011 
G01 X86.9355 Y24.3249 
G01 X87.0952 Y24.2731 
G01 X87.2610 Y24.2468 
G01 X87.4289 Y24.2468 
G01 X87.5947 Y24.2731 
G01 X87.7544 Y24.3249 
G01 X87.9040 Y24.4011 
G01 X88.0398 Y24.4998 
G01 X88.1585 Y24.6185 
G01 X88.2572 Y24.7543 
G01 X88.3334 Y24.9039 
G01 X88.3852 Y25.0636 
G01 X88.4115 Y25.2294 
G00 Z2.0000 
G00 X84.1605 Y25.2294 
G01 Z-0.2000 F600.00 
G01 X84.1605 Y27.3785 
G01 X84.1342 Y27.5443 
G01 X84.0824 Y27.7040 
G01 X84.0062 Y27.8536 
G01 X83.9075 Y27.9894 
G01 X83.7888 Y28.1081 
G01 X83.6530 Y28.2068 
G01 X83.5034 Y28.2830 
G01 X83.3437 Y28.3348 
G01 X83.1779 Y28.3611 
G01 X83.0100 Y28.3611 
G01 X82.8442 Y28.3348 
G01 X82.6845 Y28.2830 
G01 X82.5349 Y28.2068 
G01 X82.3991 Y28.1081 
G01 X82.2804 Y27.9894 
G01 X82.1817 Y27.8536 
G01 X82.1055 Y27.7040 
G01 X82.0537 Y27.5443 
G01 X82.0274 Y27.3785 
G01 X82.0274 Y25.2294 
G01 X82.0537 Y25.0636 
G01 X82.1055 Y24.9039 
G01 X82.1817 Y24.7543 
G01 X82.2804 Y24.6185 
G01 X82.3991 Y24.4998 
G01 X82.5349 Y24.4011 
G01 X82.6845 Y24.3249 
G01 X82.8442 Y24.2731 
G01 X83.0100 Y24.2468 
G01 X83.1779 Y24.2468 
G01 X83.3437 Y24.2731 
G01 X83.5034 Y24.3249 
G01 X83.6530 Y24.4011 
G01 X83.7888 Y24.4998 
G01 X83.9075 Y24.6185 
G01 X84.0062 Y24.7543 
G01 X84.0824 Y24.9039 
G01 X84.1342 Y25.0636 
G01 X84.1605 Y25.2294 
G00 Z2.0000 
G00 X79.9095 Y25.2294 
G01 Z-0.2000 F600.00 
G01 X79.9095 Y27.3785 
G01 X79.8832 Y27.5443 
G01 X79.8314 Y27.7040 
G01 X79.7552 Y27.8536 
G01 X79.6565 Y27.9894 
G01 X79.5378 Y28.1081 
G01 X79.4020 Y28.2068 
G01 X79.2524 Y28.2830 
G01 X79.0927 Y28.3348 
G01 X78.9269 Y28.3611 
G01 X78.7590 Y28.3611 
G01 X78.5932 Y28.3348 
G01 X78.4335 Y28.2830 
G01 X78.2839 Y28.2068 
G01 X78.1481 Y28.1081 
G01 X78.0294 Y27.9894 
G01 X77.9307 Y27.8536 
G01 X77.8545 Y27.7040 
G01 X77.8027 Y27.5443 
G01 X77.7764 Y27.3785 
G01 X77.7764 Y25.2294 
G01 X77.8027 Y25.0636 
G01 X77.8545 Y24.9039 
G01 X77.9307 Y24.7543 
G01 X78.0294 Y24.6185 
G01 X78.1481 Y24.4998 
G01 X78.2839 Y24.4011 
G01 X78.4335 Y24.3249 
G01 X78.5932 Y24.2731 
G01 X78.7590 Y24.2468 
G01 X78.9269 Y24.2468 
G01 X79.0927 Y24.2731 
G01 X79.2524 Y24.3249 
G01 X79.4020 Y24.4011 
G01 X79.5378 Y24.4998 
G01 X79.6565 Y24.6185 
G01 X79.7552 Y24.7543 
G01 X79.8314 Y24.9039 
G01 X79.8832 Y25.0636 
G01 X79.9095 Y25.2294 
G00 Z2.0000 
G00 X75.6585 Y25.2294 
G01 Z-0.2000 F600.00 
G01 X75.6585 Y27.3785 
G01 X75.6322 Y27.5443 
G01 X75.5804 Y27.7040 
G01 X75.5042 Y27.8536 
G01 X75.4055 Y27.9894 
G01 X75.2868 Y28.1081 
G01 X75.1510 Y28.2068 
G01 X75.0014 Y28.2830 
G01 X74.8417 Y28.3348 
G01 X74.6759 Y28.3611 
G01 X74.5080 Y28.3611 
G01 X74.3422 Y28.3348 
G01 X74.1825 Y28.2830 
G01 X74.0329 Y28.2068 
G01 X73.8971 Y28.1081 
G01 X73.7784 Y27.9894 
G01 X73.6797 Y27.8536 
G01 X73.6035 Y27.7040 
G01 X73.5517 Y27.5443 
G01 X73.5254 Y27.3785 
G01 X73.5254 Y25.2294 
G01 X73.5517 Y25.0636 
G01 X73.6035 Y24.9039 
G01 X73.6797 Y24.7543 
G01 X73.7784 Y24.6185 
G01 X73.8971 Y24.4998 
G01 X74.0329 Y24.4011 
G01 X74.1825 Y24.3249 
G01 X74.3422 Y24.2731 
G01 X74.5080 Y24.2468 
G01 X74.6759 Y24.2468 
G01 X74.8417 Y24.2731 
G01 X75.0014 Y24.3249 
G01 X75.1510 Y24.4011 
G01 X75.2868 Y24.4998 
G01 X75.4055 Y24.6185 
G01 X75.5042 Y24.7543 
G01 X75.5804 Y24.9039 
G01 X75.6322 Y25.0636 
G01 X75.6585 Y25.2294 
G00 Z2.0000 
G00 X71.4075 Y25.2294 
G01 Z-0.2000 F600.00 
G01 X71.4075 Y27.3785 
G01 X71.3812 Y27.5443 
G01 X71.3294 Y27.7040 
G01 X71.2532 Y27.8536 
G01 X71.1545 Y27.9894 
G01 X71.0358 Y28.1081 
G01 X70.9000 Y28.2068 
G01 X70.7504 Y28.2830 
G01 X70.5907 Y28.3348 
G01 X70.4249 Y28.3611 
G01 X70.2570 Y28.3611 
G01 X70.0912 Y28.3348 
G01 X69.9315 Y28.2830 
G01 X69.7819 Y28.2068 
G01 X69.6461 Y28.1081 
G01 X69.5274 Y27.9894 
G01 X69.4287 Y27.8536 
G01 X69.3525 Y27.7040 
G01 X69.3007 Y27.5443 
G01 X69.2744 Y27.3785 
G01 X69.2744 Y25.2294 
G01 X69.3007 Y25.0636 
G01 X69.3525 Y24.9039 
G01 X69.4287 Y24.7543 
G01 X69.5274 Y24.6185 
G01 X69.6461 Y24.4998 
G01 X69.7819 Y24.4011 
G01 X69.9315 Y24.3249 
G01 X70.0912 Y24.2731 
G01 X70.2570 Y24.2468 
G01 X70.4249 Y24.2468 
G01 X70.5907 Y24.2731 
G01 X70.7504 Y24.3249 
G01 X70.9000 Y24.4011 
G01 X71.0358 Y24.4998 
G01 X71.1545 Y24.6185 
G01 X71.2532 Y24.7543 
G01 X71.3294 Y24.9039 
G01 X71.3812 Y25.0636 
G01 X71.4075 Y25.2294 
G00 Z2.0000 
G00 X67.1565 Y25.2294 
G01 Z-0.2000 F600.00 
G01 X67.1565 Y27.3785 
G01 X67.1302 Y27.5443 
G01 X67.0784 Y27.7040 
G01 X67.0022 Y27.8536 
G01 X66.9035 Y27.9894 
G01 X66.7848 Y28.1081 
G01 X66.6490 Y28.2068 
G01 X66.4994 Y28.2830 
G01 X66.3397 Y28.3348 
G01 X66.1739 Y28.3611 
G01 X66.0060 Y28.3611 
G01 X65.8402 Y28.3348 
G01 X65.6805 Y28.2830 
G01 X65.5309 Y28.2068 
G01 X65.3951 Y28.1081 
G01 X65.2764 Y27.9894 
G01 X65.1777 Y27.8536 
G01 X65.1015 Y27.7040 
G01 X65.0497 Y27.5443 
G01 X65.0234 Y27.3785 
G01 X65.0234 Y25.2294 
G01 X65.0497 Y25.0636 
G01 X65.1015 Y24.9039 
G01 X65.1777 Y24.7543 
G01 X65.2764 Y24.6185 
G01 X65.3951 Y24.4998 
G01 X65.5309 Y24.4011 
G01 X65.6805 Y24.3249 
G01 X65.8402 Y24.2731 
G01 X66.0060 Y24.2468 
G01 X66.1739 Y24.2468 
G01 X66.3397 Y24.2731 
G01 X66.4994 Y24.3249 
G01 X66.6490 Y24.4011 
G01 X66.7848 Y24.4998 
G01 X66.9035 Y24.6185 
G01 X67.0022 Y24.7543 
G01 X67.0784 Y24.9039 
G01 X67.1302 Y25.0636 
G01 X67.1565 Y25.2294 
G00 Z2.0000 
G00 X62.9055 Y25.2294 
G01 Z-0.2000 F600.00 
G01 X62.9055 Y27.3785 
G01 X62.8792 Y27.5443 
G01 X62.8274 Y27.7040 
G01 X62.7512 Y27.8536 
G01 X62.6525 Y27.9894 
G01 X62.5338 Y28.1081 
G01 X62.3980 Y28.2068 
G01 X62.2484 Y28.2830 
G01 X62.0887 Y28.3348 
G01 X61.9229 Y28.3611 
G01 X61.7550 Y28.3611 
G01 X61.5892 Y28.3348 
G01 X61.4295 Y28.2830 
G01 X61.2799 Y28.2068 
G01 X61.1441 Y28.1081 
G01 X61.0254 Y27.9894 
G01 X60.9267 Y27.8536 
G01 X60.8505 Y27.7040 
G01 X60.7987 Y27.5443 
G01 X60.7724 Y27.3785 
G01 X60.7724 Y25.2294 
G01 X60.7987 Y25.0636 
G01 X60.8505 Y24.9039 
G01 X60.9267 Y24.7543 
G01 X61.0254 Y24.6185 
G01 X61.1441 Y24.4998 
G01 X61.2799 Y24.4011 
G01 X61.4295 Y24.3249 
G01 X61.5892 Y24.2731 
G01 X61.7550 Y24.2468 
G01 X61.9229 Y24.2468 
G01 X62.0887 Y24.2731 
G01 X62.2484 Y24.3249 
G01 X62.3980 Y24.4011 
G01 X62.5338 Y24.4998 
G01 X62.6525 Y24.6185 
G01 X62.7512 Y24.7543 
G01 X62.8274 Y24.9039 
G01 X62.8792 Y25.0636 
G01 X62.9055 Y25.2294 
G00 Z2.0000 
G00 X61.2767 Y9.3881 
G01 Z-0.2000 F600.00 
G01 X61.2767 Y9.5646 
G01 X61.2423 Y9.7375 
G01 X61.1748 Y9.9004 
G01 X61.0769 Y10.0470 
G01 X60.9522 Y10.1717 
G01 X60.8056 Y10.2696 
G01 X60.6427 Y10.3371 
G01 X60.4698 Y10.3715 
G01 X60.2933 Y10.3715 
G01 X60.1204 Y10.3371 
G01 X59.9575 Y10.2696 
G01 X59.8109 Y10.1717 
G01 X59.6862 Y10.0470 
G01 X59.5883 Y9.9004 
G01 X59.5208 Y9.7375 
G01 X59.4864 Y9.5646 
G01 X59.4864 Y9.3881 
G01 X59.5208 Y9.2152 
G01 X59.5883 Y9.0523 
G01 X59.6862 Y8.9057 
G01 X59.8109 Y8.7810 
G01 X59.9575 Y8.6831 
G01 X60.1204 Y8.6156 
G01 X60.2933 Y8.5812 
G01 X60.4698 Y8.5812 
G01 X60.6427 Y8.6156 
G01 X60.8056 Y8.6831 
G01 X60.9522 Y8.7810 
G01 X61.0769 Y8.9057 
G01 X61.1748 Y9.0523 
G01 X61.2423 Y9.2152 
G01 X61.2767 Y9.3881 
G00 Z2.0000 
G00 X58.5081 Y9.3881 
G01 Z-0.2000 F600.00 
G01 X58.5081 Y9.5646 
G01 X58.4737 Y9.7375 
G01 X58.4062 Y9.9004 
G01 X58.3083 Y10.0470 
G01 X58.1836 Y10.1717 
G01 X58.0370 Y10.2696 
G01 X57.8741 Y10.3371 
G01 X57.7012 Y10.3715 
G01 X57.5247 Y10.3715 
G01 X57.3518 Y10.3371 
G01 X57.1889 Y10.2696 
G01 X57.0423 Y10.1717 
G01 X56.9176 Y10.0470 
G01 X56.8197 Y9.9004 
G01 X56.7522 Y9.7375 
G01 X56.7178 Y9.5646 
G01 X56.7178 Y9.3881 
G01 X56.7522 Y9.2152 
G01 X56.8197 Y9.0523 
G01 X56.9176 Y8.9057 
G01 X57.0423 Y8.7810 
G01 X57.1889 Y8.6831 
G01 X57.3518 Y8.6156 
G01 X57.5247 Y8.5812 
G01 X57.7012 Y8.5812 
G01 X57.8741 Y8.6156 
G01 X58.0370 Y8.6831 
G01 X58.1836 Y8.7810 
G01 X58.3083 Y8.9057 
G01 X58.4062 Y9.0523 
G01 X58.4737 Y9.2152 
G01 X58.5081 Y9.3881 
G00 Z2.0000 
G00 X55.7395 Y9.3881 
G01 Z-0.2000 F600.00 
G01 X55.7395 Y9.5646 
G01 X55.7051 Y9.7375 
G01 X55.6376 Y9.9004 
G01 X55.5397 Y10.0470 
G01 X55.4150 Y10.1717 
G01 X55.2684 Y10.2696 
G01 X55.1055 Y10.3371 
G01 X54.9326 Y10.3715 
G01 X54.7561 Y10.3715 
G01 X54.5832 Y10.3371 
G01 X54.4203 Y10.2696 
G01 X54.2737 Y10.1717 
G01 X54.1490 Y10.0470 
G01 X54.0511 Y9.9004 
G01 X53.9836 Y9.7375 
G01 X53.9492 Y9.5646 
G01 X53.9492 Y9.3881 
G01 X53.9836 Y9.2152 
G01 X54.0511 Y9.0523 
G01 X54.1490 Y8.9057 
G01 X54.2737 Y8.7810 
G01 X54.4203 Y8.6831 
G01 X54.5832 Y8.6156 
G01 X54.7561 Y8.5812 
G01 X54.9326 Y8.5812 
G01 X55.1055 Y8.6156 
G01 X55.2684 Y8.6831 
G01 X55.4150 Y8.7810 
G01 X55.5397 Y8.9057 
G01 X55.6376 Y9.0523 
G01 X55.7051 Y9.2152 
G01 X55.7395 Y9.3881 
G00 Z2.0000 
G00 X52.9709 Y9.3881 
G01 Z-0.2000 F600.00 
G01 X52.9709 Y9.5646 
G01 X52.9365 Y9.7375 
G01 X52.8690 Y9.9004 
G01 X52.7711 Y10.0470 
G01 X52.6464 Y10.1717 
G01 X52.4998 Y10.2696 
G01 X52.3369 Y10.3371 
G01 X52.1640 Y10.3715 
G01 X51.9875 Y10.3715 
G01 X51.8146 Y10.3371 
G01 X51.6517 Y10.2696 
G01 X51.5051 Y10.1717 
G01 X51.3804 Y10.0470 
G01 X51.2825 Y9.9004 
G01 X51.2150 Y9.7375 
G01 X51.1806 Y9.5646 
G01 X51.1806 Y9.3881 
G01 X51.2150 Y9.2152 
G01 X51.2825 Y9.0523 
G01 X51.3804 Y8.9057 
G01 X51.5051 Y8.7810 
G01 X51.6517 Y8.6831 
G01 X51.8146 Y8.6156 
G01 X51.9875 Y8.5812 
G01 X52.1640 Y8.5812 
G01 X52.3369 Y8.6156 
G01 X52.4998 Y8.6831 
G01 X52.6464 Y8.7810 
G01 X52.7711 Y8.9057 
G01 X52.8690 Y9.0523 
G01 X52.9365 Y9.2152 
G01 X52.9709 Y9.3881 
G00 Z2.0000 
G00 X50.2023 Y9.3881 
G01 Z-0.2000 F600.00 
G01 X50.2023 Y9.5646 
G01 X50.1679 Y9.7375 
G01 X50.1004 Y9.9004 
G01 X50.0025 Y10.0470 
G01 X49.8778 Y10.1717 
G01 X49.7312 Y10.2696 
G01 X49.5683 Y10.3371 
G01 X49.3954 Y10.3715 
G01 X49.2189 Y10.3715 
G01 X49.0460 Y10.3371 
G01 X48.8831 Y10.2696 
G01 X48.7365 Y10.1717 
G01 X48.6118 Y10.0470 
G01 X48.5139 Y9.9004 
G01 X48.4464 Y9.7375 
G01 X48.4120 Y9.5646 
G01 X48.4120 Y9.3881 
G01 X48.4464 Y9.2152 
G01 X48.5139 Y9.0523 
G01 X48.6118 Y8.9057 
G01 X48.7365 Y8.7810 
G01 X48.8831 Y8.6831 
G01 X49.0460 Y8.6156 
G01 X49.2189 Y8.5812 
G01 X49.3954 Y8.5812 
G01 X49.5683 Y8.6156 
G01 X49.7312 Y8.6831 
G01 X49.8778 Y8.7810 
G01 X50.0025 Y8.9057 
G01 X50.1004 Y9.0523 
G01 X50.1679 Y9.2152 
G01 X50.2023 Y9.3881 
G00 Z2.0000 
G00 X47.4337 Y9.3881 
G01 Z-0.2000 F600.00 
G01 X47.4337 Y9.5646 
G01 X47.3993 Y9.7375 
G01 X47.3318 Y9.9004 
G01 X47.2339 Y10.0470 
G01 X47.1092 Y10.1717 
G01 X46.9626 Y10.2696 
G01 X46.7997 Y10.3371 
G01 X46.6268 Y10.3715 
G01 X46.4503 Y10.3715 
G01 X46.2774 Y10.3371 
G01 X46.1145 Y10.2696 
G01 X45.9679 Y10.1717 
G01 X45.8432 Y10.0470 
G01 X45.7453 Y9.9004 
G01 X45.6778 Y9.7375 
G01 X45.6434 Y9.5646 
G01 X45.6434 Y9.3881 
G01 X45.6778 Y9.2152 
G01 X45.7453 Y9.0523 
G01 X45.8432 Y8.9057 
G01 X45.9679 Y8.7810 
G01 X46.1145 Y8.6831 
G01 X46.2774 Y8.6156 
G01 X46.4503 Y8.5812 
G01 X46.6268 Y8.5812 
G01 X46.7997 Y8.6156 
G01 X46.9626 Y8.6831 
G01 X47.1092 Y8.7810 
G01 X47.2339 Y8.9057 
G01 X47.3318 Y9.0523 
G01 X47.3993 Y9.2152 
G01 X47.4337 Y9.3881 
G00 Z2.0000 
G00 X44.6651 Y9.3881 
G01 Z-0.2000 F600.00 
G01 X44.6651 Y9.5646 
G01 X44.6307 Y9.7375 
G01 X44.5632 Y9.9004 
G01 X44.4653 Y10.0470 
G01 X44.3406 Y10.1717 
G01 X44.1940 Y10.2696 
G01 X44.0311 Y10.3371 
G01 X43.8582 Y10.3715 
G01 X43.6817 Y10.3715 
G01 X43.5088 Y10.3371 
G01 X43.3459 Y10.2696 
G01 X43.1993 Y10.1717 
G01 X43.0746 Y10.0470 
G01 X42.9767 Y9.9004 
G01 X42.9092 Y9.7375 
G01 X42.8748 Y9.5646 
G01 X42.8748 Y9.3881 
G01 X42.9092 Y9.2152 
G01 X42.9767 Y9.0523 
G01 X43.0746 Y8.9057 
G01 X43.1993 Y8.7810 
G01 X43.3459 Y8.6831 
G01 X43.5088 Y8.6156 
G01 X43.6817 Y8.5812 
G01 X43.8582 Y8.5812 
G01 X44.0311 Y8.6156 
G01 X44.1940 Y8.6831 
G01 X44.3406 Y8.7810 
G01 X44.4653 Y8.9057 
G01 X44.5632 Y9.0523 
G01 X44.6307 Y9.2152 
G01 X44.6651 Y9.3881 
G00 Z2.0000 
G00 X41.8965 Y9.3881 
G01 Z-0.2000 F600.00 
G01 X41.8965 Y9.5646 
G01 X41.8621 Y9.7375 
G01 X41.7946 Y9.9004 
G01 X41.6967 Y10.0470 
G01 X41.5720 Y10.1717 
G01 X41.4254 Y10.2696 
G01 X41.2625 Y10.3371 
G01 X41.0896 Y10.3715 
G01 X40.9131 Y10.3715 
G01 X40.7402 Y10.3371 
G01 X40.5773 Y10.2696 
G01 X40.4307 Y10.1717 
G01 X40.3060 Y10.0470 
G01 X40.2081 Y9.9004 
G01 X40.1406 Y9.7375 
G01 X40.1062 Y9.5646 
G01 X40.1062 Y9.3881 
G01 X40.1406 Y9.2152 
G01 X40.2081 Y9.0523 
G01 X40.3060 Y8.9057 
G01 X40.4307 Y8.7810 
G01 X40.5773 Y8.6831 
G01 X40.7402 Y8.6156 
G01 X40.9131 Y8.5812 
G01 X41.0896 Y8.5812 
G01 X41.2625 Y8.6156 
G01 X41.4254 Y8.6831 
G01 X41.5720 Y8.7810 
G01 X41.6967 Y8.9057 
G01 X41.7946 Y9.0523 
G01 X41.8621 Y9.2152 
G01 X41.8965 Y9.3881 
G00 Z2.0000 
G00 X39.1279 Y9.3881 
G01 Z-0.2000 F600.00 
G01 X39.1279 Y9.5646 
G01 X39.0935 Y9.7375 
G01 X39.0260 Y9.9004 
G01 X38.9281 Y10.0470 
G01 X38.8034 Y10.1717 
G01 X38.6568 Y10.2696 
G01 X38.4939 Y10.3371 
G01 X38.3210 Y10.3715 
G01 X38.1445 Y10.3715 
G01 X37.9716 Y10.3371 
G01 X37.8087 Y10.2696 
G01 X37.6621 Y10.1717 
G01 X37.5374 Y10.0470 
G01 X37.4395 Y9.9004 
G01 X37.3720 Y9.7375 
G01 X37.3376 Y9.5646 
G01 X37.3376 Y9.3881 
G01 X37.3720 Y9.2152 
G01 X37.4395 Y9.0523 
G01 X37.5374 Y8.9057 
G01 X37.6621 Y8.7810 
G01 X37.8087 Y8.6831 
G01 X37.9716 Y8.6156 
G01 X38.1445 Y8.5812 
G01 X38.3210 Y8.5812 
G01 X38.4939 Y8.6156 
G01 X38.6568 Y8.6831 
G01 X38.8034 Y8.7810 
G01 X38.9281 Y8.9057 
G01 X39.0260 Y9.0523 
G01 X39.0935 Y9.2152 
G01 X39.1279 Y9.3881 
G00 Z2.0000 
G00 X36.3593 Y9.3881 
G01 Z-0.2000 F600.00 
G01 X36.3593 Y9.5646 
G01 X36.3249 Y9.7375 
G01 X36.2574 Y9.9004 
G01 X36.1595 Y10.0470 
G01 X36.0348 Y10.1717 
G01 X35.8882 Y10.2696 
G01 X35.7253 Y10.3371 
G01 X35.5524 Y10.3715 
G01 X35.3759 Y10.3715 
G01 X35.2030 Y10.3371 
G01 X35.0401 Y10.2696 
G01 X34.8935 Y10.1717 
G01 X34.7688 Y10.0470 
G01 X34.6709 Y9.9004 
G01 X34.6034 Y9.7375 
G01 X34.5690 Y9.5646 
G01 X34.5690 Y9.3881 
G01 X34.6034 Y9.2152 
G01 X34.6709 Y9.0523 
G01 X34.7688 Y8.9057 
G01 X34.8935 Y8.7810 
G01 X35.0401 Y8.6831 
G01 X35.2030 Y8.6156 
G01 X35.3759 Y8.5812 
G01 X35.5524 Y8.5812 
G01 X35.7253 Y8.6156 
G01 X35.8882 Y8.6831 
G01 X36.0348 Y8.7810 
G01 X36.1595 Y8.9057 
G01 X36.2574 Y9.0523 
G01 X36.3249 Y9.2152 
G01 X36.3593 Y9.3881 
G00 Z2.0000 
G00 X33.5907 Y9.3881 
G01 Z-0.2000 F600.00 
G01 X33.5907 Y9.5646 
G01 X33.5563 Y9.7375 
G01 X33.4888 Y9.9004 
G01 X33.3909 Y10.0470 
G01 X33.2662 Y10.1717 
G01 X33.1196 Y10.2696 
G01 X32.9567 Y10.3371 
G01 X32.7838 Y10.3715 
G01 X32.6073 Y10.3715 
G01 X32.4344 Y10.3371 
G01 X32.2715 Y10.2696 
G01 X32.1249 Y10.1717 
G01 X32.0002 Y10.0470 
G01 X31.9023 Y9.9004 
G01 X31.8348 Y9.7375 
G01 X31.8004 Y9.5646 
G01 X31.8004 Y9.3881 
G01 X31.8348 Y9.2152 
G01 X31.9023 Y9.0523 
G01 X32.0002 Y8.9057 
G01 X32.1249 Y8.7810 
G01 X32.2715 Y8.6831 
G01 X32.4344 Y8.6156 
G01 X32.6073 Y8.5812 
G01 X32.7838 Y8.5812 
G01 X32.9567 Y8.6156 
G01 X33.1196 Y8.6831 
G01 X33.2662 Y8.7810 
G01 X33.3909 Y8.9057 
G01 X33.4888 Y9.0523 
G01 X33.5563 Y9.2152 
G01 X33.5907 Y9.3881 
G00 Z2.0000 
G00 X30.8221 Y9.3881 
G01 Z-0.2000 F600.00 
G01 X30.8221 Y9.5646 
G01 X30.7877 Y9.7375 
G01 X30.7202 Y9.9004 
G01 X30.6223 Y10.0470 
G01 X30.4976 Y10.1717 
G01 X30.3510 Y10.2696 
G01 X30.1881 Y10.3371 
G01 X30.0152 Y10.3715 
G01 X29.8387 Y10.3715 
G01 X29.6658 Y10.3371 
G01 X29.5029 Y10.2696 
G01 X29.3563 Y10.1717 
G01 X29.2316 Y10.0470 
G01 X29.1337 Y9.9004 
G01 X29.0662 Y9.7375 
G01 X29.0318 Y9.5646 
G01 X29.0318 Y9.3881 
G01 X29.0662 Y9.2152 
G01 X29.1337 Y9.0523 
G01 X29.2316 Y8.9057 
G01 X29.3563 Y8.7810 
G01 X29.5029 Y8.6831 
G01 X29.6658 Y8.6156 
G01 X29.8387 Y8.5812 
G01 X30.0152 Y8.5812 
G01 X30.1881 Y8.6156 
G01 X30.3510 Y8.6831 
G01 X30.4976 Y8.7810 
G01 X30.6223 Y8.9057 
G01 X30.7202 Y9.0523 
G01 X30.7877 Y9.2152 
G01 X30.8221 Y9.3881 
G00 Z2.0000 
G00 X28.0535 Y9.3881 
G01 Z-0.2000 F600.00 
G01 X28.0535 Y9.5646 
G01 X28.0191 Y9.7375 
G01 X27.9516 Y9.9004 
G01 X27.8537 Y10.0470 
G01 X27.7290 Y10.1717 
G01 X27.5824 Y10.2696 
G01 X27.4195 Y10.3371 
G01 X27.2466 Y10.3715 
G01 X27.0701 Y10.3715 
G01 X26.8972 Y10.3371 
G01 X26.7343 Y10.2696 
G01 X26.5877 Y10.1717 
G01 X26.4630 Y10.0470 
G01 X26.3651 Y9.9004 
G01 X26.2976 Y9.7375 
G01 X26.2632 Y9.5646 
G01 X26.2632 Y9.3881 
G01 X26.2976 Y9.2152 
G01 X26.3651 Y9.0523 
G01 X26.4630 Y8.9057 
G01 X26.5877 Y8.7810 
G01 X26.7343 Y8.6831 
G01 X26.8972 Y8.6156 
G01 X27.0701 Y8.5812 
G01 X27.2466 Y8.5812 
G01 X27.4195 Y8.6156 
G01 X27.5824 Y8.6831 
G01 X27.7290 Y8.7810 
G01 X27.8537 Y8.9057 
G01 X27.9516 Y9.0523 
G01 X28.0191 Y9.2152 
G01 X28.0535 Y9.3881 
G00 Z2.0000 
G00 X59.8924 Y6.5433 
G01 Z-0.2000 F600.00 
G01 X59.8924 Y6.7198 
G01 X59.8580 Y6.8927 
G01 X59.7905 Y7.0556 
G01 X59.6926 Y7.2022 
G01 X59.5679 Y7.3269 
G01 X59.4213 Y7.4248 
G01 X59.2584 Y7.4923 
G01 X59.0855 Y7.5267 
G01 X58.9090 Y7.5267 
G01 X58.7361 Y7.4923 
G01 X58.5732 Y7.4248 
G01 X58.4266 Y7.3269 
G01 X58.4053 Y7.3055 
G01 X56.5759 Y9.1350 
G01 X56.5759 Y10.9070 
G01 X56.5759 Y10.9929 
G01 X56.5537 Y11.0758 
G01 X56.5108 Y11.1501 
G01 X52.0759 Y15.5850 
G01 X52.0759 Y15.7070 
G01 X52.0759 Y15.7929 
G01 X52.0537 Y15.8758 
G01 X52.0108 Y15.9501 
G01 X51.9259 Y16.0350 
G01 X51.9259 Y16.3070 
G01 X51.9259 Y16.3929 
G01 X51.9037 Y16.4758 
G01 X51.8608 Y16.5501 
G01 X51.7759 Y16.6350 
G01 X51.7759 Y19.6070 
G01 X51.7759 Y19.6929 
G01 X51.7537 Y19.7758 
G01 X51.7108 Y19.8501 
G01 X45.9015 Y25.6594 
G01 X45.9015 Y27.3785 
G01 X45.8752 Y27.5443 
G01 X45.8234 Y27.7040 
G01 X45.7472 Y27.8536 
G01 X45.6485 Y27.9894 
G01 X45.5298 Y28.1081 
G01 X45.3940 Y28.2068 
G01 X45.2444 Y28.2830 
G01 X45.0847 Y28.3348 
G01 X44.9189 Y28.3611 
G01 X44.7510 Y28.3611 
G01 X44.5852 Y28.3348 
G01 X44.4255 Y28.2830 
G01 X44.2759 Y28.2068 
G01 X44.1401 Y28.1081 
G01 X44.0214 Y27.9894 
G01 X43.9227 Y27.8536 
G01 X43.8465 Y27.7040 
G01 X43.7947 Y27.5443 
G01 X43.7684 Y27.3785 
G01 X43.7684 Y25.2294 
G01 X43.7947 Y25.0636 
G01 X43.8465 Y24.9039 
G01 X43.9227 Y24.7543 
G01 X44.0214 Y24.6185 
G01 X44.1401 Y24.4998 
G01 X44.2759 Y24.4011 
G01 X44.4255 Y24.3249 
G01 X44.5852 Y24.2731 
G01 X44.7510 Y24.2468 
G01 X44.9189 Y24.2468 
G01 X45.0847 Y24.2731 
G01 X45.2444 Y24.3249 
G01 X45.3940 Y24.4011 
G01 X45.5298 Y24.4998 
G01 X45.6485 Y24.6185 
G01 X45.7472 Y24.7543 
G01 X45.7935 Y24.8454 
G01 X51.1240 Y19.5149 
G01 X51.1240 Y16.4570 
G01 X51.1462 Y16.3741 
G01 X51.1891 Y16.2998 
G01 X51.2498 Y16.2391 
G01 X51.2740 Y16.2149 
G01 X51.2740 Y15.8570 
G01 X51.2962 Y15.7741 
G01 X51.3391 Y15.6998 
G01 X51.3998 Y15.6391 
G01 X51.4240 Y15.6149 
G01 X51.4240 Y15.4070 
G01 X51.4462 Y15.3241 
G01 X51.4891 Y15.2498 
G01 X51.5498 Y15.1891 
G01 X55.9240 Y10.8149 
G01 X55.9240 Y8.9570 
G01 X55.9462 Y8.8741 
G01 X55.9891 Y8.7998 
G01 X56.0498 Y8.7391 
G01 X58.1021 Y6.6869 
G01 X58.1021 Y6.5433 
G01 X58.1365 Y6.3704 
G01 X58.2040 Y6.2075 
G01 X58.3019 Y6.0609 
G01 X58.4266 Y5.9362 
G01 X58.5732 Y5.8383 
G01 X58.7361 Y5.7708 
G01 X58.9090 Y5.7364 
G01 X59.0855 Y5.7364 
G01 X59.2584 Y5.7708 
G01 X59.4213 Y5.8383 
G01 X59.5679 Y5.9362 
G01 X59.6926 Y6.0609 
G01 X59.7905 Y6.2075 
G01 X59.8580 Y6.3704 
G01 X59.8924 Y6.5433 
G00 Z2.0000 
G00 X57.1238 Y6.5433 
G01 Z-0.2000 F600.00 
G01 X57.1238 Y6.7198 
G01 X57.0894 Y6.8927 
G01 X57.0219 Y7.0556 
G01 X56.9240 Y7.2022 
G01 X56.7993 Y7.3269 
G01 X56.6527 Y7.4248 
G01 X56.4898 Y7.4923 
G01 X56.3169 Y7.5267 
G01 X56.1404 Y7.5267 
G01 X55.9675 Y7.4923 
G01 X55.8046 Y7.4248 
G01 X55.6580 Y7.3269 
G01 X55.5960 Y7.2648 
G01 X53.8759 Y8.9850 
G01 X53.8759 Y12.5570 
G01 X53.8759 Y12.6429 
G01 X53.8537 Y12.7258 
G01 X53.8108 Y12.8001 
G01 X51.3259 Y15.2850 
G01 X51.3259 Y15.4070 
G01 X51.3259 Y15.4929 
G01 X51.3037 Y15.5758 
G01 X51.2608 Y15.6501 
G01 X51.1759 Y15.7350 
G01 X51.1759 Y16.0070 
G01 X51.1759 Y16.0929 
G01 X51.1537 Y16.1758 
G01 X51.1108 Y16.2501 
G01 X41.6505 Y25.7104 
G01 X41.6505 Y27.3785 
G01 X41.6242 Y27.5443 
G01 X41.5724 Y27.7040 
G01 X41.4962 Y27.8536 
G01 X41.3975 Y27.9894 
G01 X41.2788 Y28.1081 
G01 X41.1430 Y28.2068 
G01 X40.9934 Y28.2830 
G01 X40.8337 Y28.3348 
G01 X40.6679 Y28.3611 
G01 X40.5000 Y28.3611 
G01 X40.3342 Y28.3348 
G01 X40.1745 Y28.2830 
G01 X40.0249 Y28.2068 
G01 X39.8891 Y28.1081 
G01 X39.7704 Y27.9894 
G01 X39.6717 Y27.8536 
G01 X39.5955 Y27.7040 
G01 X39.5437 Y27.5443 
G01 X39.5174 Y27.3785 
G01 X39.5174 Y25.2294 
G01 X39.5437 Y25.0636 
G01 X39.5955 Y24.9039 
G01 X39.6717 Y24.7543 
G01 X39.7704 Y24.6185 
G01 X39.8891 Y24.4998 
G01 X40.0249 Y24.4011 
G01 X40.1745 Y24.3249 
G01 X40.3342 Y24.2731 
G01 X40.5000 Y24.2468 
G01 X40.6679 Y24.2468 
G01 X40.8337 Y24.2731 
G01 X40.9934 Y24.3249 
G01 X41.1430 Y24.4011 
G01 X41.2788 Y24.4998 
G01 X41.3975 Y24.6185 
G01 X41.4962 Y24.7543 
G01 X41.5597 Y24.8792 
G01 X50.5240 Y15.9149 
G01 X50.5240 Y15.5570 
G01 X50.5462 Y15.4741 
G01 X50.5891 Y15.3998 
G01 X50.6498 Y15.3391 
G01 X50.6740 Y15.3149 
G01 X50.6740 Y15.1070 
G01 X50.6962 Y15.0241 
G01 X50.7391 Y14.9498 
G01 X50.7998 Y14.8891 
G01 X53.2240 Y12.4649 
G01 X53.2240 Y8.8070 
G01 X53.2462 Y8.7241 
G01 X53.2891 Y8.6498 
G01 X53.3498 Y8.5891 
G01 X55.3335 Y6.6054 
G01 X55.3335 Y6.5433 
G01 X55.3679 Y6.3704 
G01 X55.4354 Y6.2075 
G01 X55.5333 Y6.0609 
G01 X55.6580 Y5.9362 
G01 X55.8046 Y5.8383 
G01 X55.9675 Y5.7708 
G01 X56.1404 Y5.7364 
G01 X56.3169 Y5.7364 
G01 X56.4898 Y5.7708 
G01 X56.6527 Y5.8383 
G01 X56.7993 Y5.9362 
G01 X56.9240 Y6.0609 
G01 X57.0219 Y6.2075 
G01 X57.0894 Y6.3704 
G01 X57.1238 Y6.5433 
G00 Z2.0000 
G00 X51.5866 Y6.5433 
G01 Z-0.2000 F600.00 
G01 X51.5866 Y6.7198 
G01 X51.5522 Y6.8927 
G01 X51.4847 Y7.0556 
G01 X51.3868 Y7.2022 
G01 X51.2621 Y7.3269 
G01 X51.1155 Y7.4248 
G01 X50.9526 Y7.4923 
G01 X50.7797 Y7.5267 
G01 X50.6032 Y7.5267 
G01 X50.4303 Y7.4923 
G01 X50.2674 Y7.4248 
G01 X50.1208 Y7.3269 
G01 X50.0524 Y7.2584 
G01 X48.3259 Y8.9850 
G01 X48.3259 Y10.3070 
G01 X48.3259 Y10.3929 
G01 X48.3037 Y10.4758 
G01 X48.2608 Y10.5501 
G01 X33.1485 Y25.6624 
G01 X33.1485 Y27.3785 
G01 X33.1222 Y27.5443 
G01 X33.0704 Y27.7040 
G01 X32.9942 Y27.8536 
G01 X32.8955 Y27.9894 
G01 X32.7768 Y28.1081 
G01 X32.6410 Y28.2068 
G01 X32.4914 Y28.2830 
G01 X32.3317 Y28.3348 
G01 X32.1659 Y28.3611 
G01 X31.9980 Y28.3611 
G01 X31.8322 Y28.3348 
G01 X31.6725 Y28.2830 
G01 X31.5229 Y28.2068 
G01 X31.3871 Y28.1081 
G01 X31.2684 Y27.9894 
G01 X31.1697 Y27.8536 
G01 X31.0935 Y27.7040 
G01 X31.0417 Y27.5443 
G01 X31.0154 Y27.3785 
G01 X31.0154 Y25.2294 
G01 X31.0417 Y25.0636 
G01 X31.0935 Y24.9039 
G01 X31.1697 Y24.7543 
G01 X31.2684 Y24.6185 
G01 X31.3871 Y24.4998 
G01 X31.5229 Y24.4011 
G01 X31.6725 Y24.3249 
G01 X31.8322 Y24.2731 
G01 X31.9980 Y24.2468 
G01 X32.1659 Y24.2468 
G01 X32.3317 Y24.2731 
G01 X32.4914 Y24.3249 
G01 X32.6410 Y24.4011 
G01 X32.7768 Y24.4998 
G01 X32.8955 Y24.6185 
G01 X32.9942 Y24.7543 
G01 X33.0416 Y24.8474 
G01 X47.6740 Y10.2149 
G01 X47.6740 Y8.8070 
G01 X47.6962 Y8.7241 
G01 X47.7391 Y8.6498 
G01 X47.7998 Y8.5891 
G01 X49.7963 Y6.5927 
G01 X49.7963 Y6.5433 
G01 X49.8307 Y6.3704 
G01 X49.8982 Y6.2075 
G01 X49.9961 Y6.0609 
G01 X50.1208 Y5.9362 
G01 X50.2674 Y5.8383 
G01 X50.4303 Y5.7708 
G01 X50.6032 Y5.7364 
G01 X50.7797 Y5.7364 
G01 X50.9526 Y5.7708 
G01 X51.1155 Y5.8383 
G01 X51.2621 Y5.9362 
G01 X51.3868 Y6.0609 
G01 X51.4847 Y6.2075 
G01 X51.5522 Y6.3704 
G01 X51.5866 Y6.5433 
G00 Z2.0000 
G00 X46.0494 Y6.5433 
G01 Z-0.2000 F600.00 
G01 X46.0494 Y6.7198 
G01 X46.0150 Y6.8927 
G01 X45.9475 Y7.0556 
G01 X45.8496 Y7.2022 
G01 X45.7249 Y7.3269 
G01 X45.5783 Y7.4248 
G01 X45.4154 Y7.4923 
G01 X45.2425 Y7.5267 
G01 X45.0660 Y7.5267 
G01 X44.8931 Y7.4923 
G01 X44.7302 Y7.4248 
G01 X44.5836 Y7.3269 
G01 X44.5088 Y7.2520 
G01 X42.7759 Y8.9850 
G01 X42.7759 Y9.8570 
G01 X42.7759 Y9.9429 
G01 X42.7537 Y10.0258 
G01 X42.7108 Y10.1001 
G01 X41.8108 Y11.0001 
G01 X41.7501 Y11.0608 
G01 X41.6758 Y11.1037 
G01 X41.5929 Y11.1259 
G01 X40.0350 Y11.1259 
G01 X39.4108 Y11.7501 
G01 X39.3501 Y11.8108 
G01 X39.2758 Y11.8537 
G01 X39.1929 Y11.8759 
G01 X38.5350 Y11.8759 
G01 X24.6465 Y25.7644 
G01 X24.6465 Y27.3785 
G01 X24.6202 Y27.5443 
G01 X24.5684 Y27.7040 
G01 X24.4922 Y27.8536 
G01 X24.3935 Y27.9894 
G01 X24.2748 Y28.1081 
G01 X24.1390 Y28.2068 
G01 X23.9894 Y28.2830 
G01 X23.8297 Y28.3348 
G01 X23.6639 Y28.3611 
G01 X23.4960 Y28.3611 
G01 X23.3302 Y28.3348 
G01 X23.1705 Y28.2830 
G01 X23.0209 Y28.2068 
G01 X22.8851 Y28.1081 
G01 X22.7664 Y27.9894 
G01 X22.6677 Y27.8536 
G01 X22.5915 Y27.7040 
G01 X22.5397 Y27.5443 
G01 X22.5134 Y27.3785 
G01 X22.5134 Y25.2294 
G01 X22.5397 Y25.0636 
G01 X22.5915 Y24.9039 
G01 X22.6677 Y24.7543 
G01 X22.7664 Y24.6185 
G01 X22.8851 Y24.4998 
G01 X23.0209 Y24.4011 
G01 X23.1705 Y24.3249 
G01 X23.3302 Y24.2731 
G01 X23.4960 Y24.2468 
G01 X23.6639 Y24.2468 
G01 X23.8297 Y24.2731 
G01 X23.9894 Y24.3249 
G01 X24.1390 Y24.4011 
G01 X24.2748 Y24.4998 
G01 X24.3935 Y24.6185 
G01 X24.4922 Y24.7543 
G01 X24.5684 Y24.9039 
G01 X24.5724 Y24.9165 
G01 X38.1998 Y11.2891 
G01 X38.2741 Y11.2462 
G01 X38.3570 Y11.2240 
G01 X38.4429 Y11.2240 
G01 X39.0149 Y11.2240 
G01 X39.6998 Y10.5391 
G01 X39.7741 Y10.4962 
G01 X39.8570 Y10.4740 
G01 X39.9429 Y10.4740 
G01 X41.4149 Y10.4740 
G01 X42.1240 Y9.7649 
G01 X42.1240 Y8.8070 
G01 X42.1462 Y8.7241 
G01 X42.1891 Y8.6498 
G01 X42.2498 Y8.5891 
G01 X44.2591 Y6.5799 
G01 X44.2591 Y6.5433 
G01 X44.2935 Y6.3704 
G01 X44.3610 Y6.2075 
G01 X44.4589 Y6.0609 
G01 X44.5836 Y5.9362 
G01 X44.7302 Y5.8383 
G01 X44.8931 Y5.7708 
G01 X45.0660 Y5.7364 
G01 X45.2425 Y5.7364 
G01 X45.4154 Y5.7708 
G01 X45.5783 Y5.8383 
G01 X45.7249 Y5.9362 
G01 X45.8496 Y6.0609 
G01 X45.9475 Y6.2075 
G01 X46.0150 Y6.3704 
G01 X46.0494 Y6.5433 
G00 Z2.0000 
G00 X40.5122 Y6.5433 
G01 Z-0.2000 F600.00 
G01 X40.5122 Y6.7198 
G01 X40.4778 Y6.8927 
G01 X40.4103 Y7.0556 
G01 X40.3124 Y7.2022 
G01 X40.1877 Y7.3269 
G01 X40.0411 Y7.4248 
G01 X39.8782 Y7.4923 
G01 X39.7053 Y7.5267 
G01 X39.5288 Y7.5267 
G01 X39.3559 Y7.4923 
G01 X39.1930 Y7.4248 
G01 X39.0464 Y7.3269 
G01 X39.0402 Y7.3206 
G01 X37.2259 Y9.1350 
G01 X37.2259 Y9.8570 
G01 X37.2259 Y9.9429 
G01 X37.2037 Y10.0258 
G01 X37.1608 Y10.1001 
G01 X36.2608 Y11.0001 
G01 X36.2001 Y11.0608 
G01 X36.1258 Y11.1037 
G01 X36.0429 Y11.1259 
G01 X30.7350 Y11.1259 
G01 X16.1445 Y25.7164 
G01 X16.1445 Y27.3785 
G01 X16.1182 Y27.5443 
G01 X16.0664 Y27.7040 
G01 X15.9902 Y27.8536 
G01 X15.8915 Y27.9894 
G01 X15.7728 Y28.1081 
G01 X15.6370 Y28.2068 
G01 X15.4874 Y28.2830 
G01 X15.3277 Y28.3348 
G01 X15.1619 Y28.3611 
G01 X14.9940 Y28.3611 
G01 X14.8282 Y28.3348 
G01 X14.6685 Y28.2830 
G01 X14.5189 Y28.2068 
G01 X14.3831 Y28.1081 
G01 X14.2644 Y27.9894 
G01 X14.1657 Y27.8536 
G01 X14.0895 Y27.7040 
G01 X14.0377 Y27.5443 
G01 X14.0114 Y27.3785 
G01 X14.0114 Y25.2294 
G01 X14.0377 Y25.0636 
G01 X14.0895 Y24.9039 
G01 X14.1657 Y24.7543 
G01 X14.2644 Y24.6185 
G01 X14.3831 Y24.4998 
G01 X14.5189 Y24.4011 
G01 X14.6685 Y24.3249 
G01 X14.8282 Y24.2731 
G01 X14.9940 Y24.2468 
G01 X15.1619 Y24.2468 
G01 X15.3277 Y24.2731 
G01 X15.4874 Y24.3249 
G01 X15.6370 Y24.4011 
G01 X15.7728 Y24.4998 
G01 X15.8915 Y24.6185 
G01 X15.9902 Y24.7543 
G01 X16.0558 Y24.8832 
G01 X30.3998 Y10.5391 
G01 X30.4741 Y10.4962 
G01 X30.5570 Y10.4740 
G01 X30.6429 Y10.4740 
G01 X35.8649 Y10.4740 
G01 X36.5740 Y9.7649 
G01 X36.5740 Y8.9570 
G01 X36.5962 Y8.8741 
G01 X36.6391 Y8.7998 
G01 X36.6998 Y8.7391 
G01 X36.6999 Y8.7391 
G01 X38.7219 Y6.7171 
G01 X38.7219 Y6.5433 
G01 X38.7563 Y6.3704 
G01 X38.8238 Y6.2075 
G01 X38.9217 Y6.0609 
G01 X39.0464 Y5.9362 
G01 X39.1930 Y5.8383 
G01 X39.3559 Y5.7708 
G01 X39.5288 Y5.7364 
G01 X39.7053 Y5.7364 
G01 X39.8782 Y5.7708 
G01 X40.0411 Y5.8383 
G01 X40.1877 Y5.9362 
G01 X40.3124 Y6.0609 
G01 X40.4103 Y6.2075 
G01 X40.4778 Y6.3704 
G01 X40.5122 Y6.5433 
G00 Z2.0000 
G00 X34.9750 Y6.5433 
G01 Z-0.2000 F600.00 
G01 X34.9750 Y6.7198 
G01 X34.9406 Y6.8927 
G01 X34.8731 Y7.0556 
G01 X34.7752 Y7.2022 
G01 X34.6505 Y7.3269 
G01 X34.5039 Y7.4248 
G01 X34.3410 Y7.4923 
G01 X34.1681 Y7.5267 
G01 X33.9916 Y7.5267 
G01 X33.8187 Y7.4923 
G01 X33.6558 Y7.4248 
G01 X33.5092 Y7.3269 
G01 X33.3845 Y7.2022 
G01 X33.2866 Y7.0556 
G01 X33.2191 Y6.8927 
G01 X33.1847 Y6.7198 
G01 X33.1847 Y6.5433 
G01 X33.2191 Y6.3704 
G01 X33.2866 Y6.2075 
G01 X33.3845 Y6.0609 
G01 X33.5092 Y5.9362 
G01 X33.6558 Y5.8383 
G01 X33.8187 Y5.7708 
G01 X33.9916 Y5.7364 
G01 X34.1681 Y5.7364 
G01 X34.3410 Y5.7708 
G01 X34.5039 Y5.8383 
G01 X34.6505 Y5.9362 
G01 X34.7752 Y6.0609 
G01 X34.8731 Y6.2075 
G01 X34.9406 Y6.3704 
G01 X34.9750 Y6.5433 
G00 Z2.0000 
G00 X32.2064 Y6.5433 
G01 Z-0.2000 F600.00 
G01 X32.2064 Y6.7198 
G01 X32.1720 Y6.8927 
G01 X32.1045 Y7.0556 
G01 X32.0066 Y7.2022 
G01 X31.8819 Y7.3269 
G01 X31.7353 Y7.4248 
G01 X31.5724 Y7.4923 
G01 X31.3995 Y7.5267 
G01 X31.2230 Y7.5267 
G01 X31.0501 Y7.4923 
G01 X30.8872 Y7.4248 
G01 X30.7406 Y7.3269 
G01 X30.6159 Y7.2022 
G01 X30.5180 Y7.0556 
G01 X30.4505 Y6.8927 
G01 X30.4161 Y6.7198 
G01 X30.4161 Y6.5433 
G01 X30.4505 Y6.3704 
G01 X30.5180 Y6.2075 
G01 X30.6159 Y6.0609 
G01 X30.7406 Y5.9362 
G01 X30.8872 Y5.8383 
G01 X31.0501 Y5.7708 
G01 X31.2230 Y5.7364 
G01 X31.3995 Y5.7364 
G01 X31.5724 Y5.7708 
G01 X31.7353 Y5.8383 
G01 X31.8819 Y5.9362 
G01 X32.0066 Y6.0609 
G01 X32.1045 Y6.2075 
G01 X32.1720 Y6.3704 
G01 X32.2064 Y6.5433 
G00 Z2.0000 
G00 X29.4378 Y6.5433 
G01 Z-0.2000 F600.00 
G01 X29.4378 Y6.7198 
G01 X29.4034 Y6.8927 
G01 X29.3359 Y7.0556 
G01 X29.2380 Y7.2022 
G01 X29.1133 Y7.3269 
G01 X28.9667 Y7.4248 
G01 X28.8038 Y7.4923 
G01 X28.6309 Y7.5267 
G01 X28.4544 Y7.5267 
G01 X28.2815 Y7.4923 
G01 X28.1186 Y7.4248 
G01 X27.9720 Y7.3269 
G01 X27.8473 Y7.2022 
G01 X27.7494 Y7.0556 
G01 X27.6819 Y6.8927 
G01 X27.6475 Y6.7198 
G01 X27.6475 Y6.5433 
G01 X27.6819 Y6.3704 
G01 X27.7494 Y6.2075 
G01 X27.8473 Y6.0609 
G01 X27.9720 Y5.9362 
G01 X28.1186 Y5.8383 
G01 X28.2815 Y5.7708 
G01 X28.4544 Y5.7364 
G01 X28.6309 Y5.7364 
G01 X28.8038 Y5.7708 
G01 X28.9667 Y5.8383 
G01 X29.1133 Y5.9362 
G01 X29.2380 Y6.0609 
G01 X29.3359 Y6.2075 
G01 X29.4034 Y6.3704 
G01 X29.4378 Y6.5433 
G00 Z2.0000 
G00 X58.6545 Y25.2294 
G01 Z-0.2000 F600.00 
G01 X58.6545 Y27.3785 
G01 X58.6282 Y27.5443 
G01 X58.5764 Y27.7040 
G01 X58.5002 Y27.8536 
G01 X58.4015 Y27.9894 
G01 X58.2828 Y28.1081 
G01 X58.1470 Y28.2068 
G01 X57.9974 Y28.2830 
G01 X57.8377 Y28.3348 
G01 X57.6719 Y28.3611 
G01 X57.5040 Y28.3611 
G01 X57.3382 Y28.3348 
G01 X57.1785 Y28.2830 
G01 X57.0289 Y28.2068 
G01 X56.8931 Y28.1081 
G01 X56.7744 Y27.9894 
G01 X56.6757 Y27.8536 
G01 X56.5995 Y27.7040 
G01 X56.5477 Y27.5443 
G01 X56.5214 Y27.3785 
G01 X56.5214 Y25.2294 
G01 X56.5477 Y25.0636 
G01 X56.5995 Y24.9039 
G01 X56.6757 Y24.7543 
G01 X56.7744 Y24.6185 
G01 X56.8931 Y24.4998 
G01 X57.0289 Y24.4011 
G01 X57.1785 Y24.3249 
G01 X57.3382 Y24.2731 
G01 X57.5040 Y24.2468 
G01 X57.6719 Y24.2468 
G01 X57.8377 Y24.2731 
G01 X57.9974 Y24.3249 
G01 X58.1470 Y24.4011 
G01 X58.2828 Y24.4998 
G01 X58.4015 Y24.6185 
G01 X58.5002 Y24.7543 
G01 X58.5764 Y24.9039 
G01 X58.6282 Y25.0636 
G01 X58.6545 Y25.2294 
G00 Z2.0000 
G00 X54.4035 Y25.2294 
G01 Z-0.2000 F600.00 
G01 X54.4035 Y27.3785 
G01 X54.3772 Y27.5443 
G01 X54.3254 Y27.7040 
G01 X54.2492 Y27.8536 
G01 X54.1505 Y27.9894 
G01 X54.0318 Y28.1081 
G01 X53.8960 Y28.2068 
G01 X53.7464 Y28.2830 
G01 X53.5867 Y28.3348 
G01 X53.4209 Y28.3611 
G01 X53.2530 Y28.3611 
G01 X53.0872 Y28.3348 
G01 X52.9275 Y28.2830 
G01 X52.7779 Y28.2068 
G01 X52.6421 Y28.1081 
G01 X52.5234 Y27.9894 
G01 X52.4247 Y27.8536 
G01 X52.3485 Y27.7040 
G01 X52.2967 Y27.5443 
G01 X52.2704 Y27.3785 
G01 X52.2704 Y25.2294 
G01 X52.2967 Y25.0636 
G01 X52.3485 Y24.9039 
G01 X52.4247 Y24.7543 
G01 X52.5234 Y24.6185 
G01 X52.6421 Y24.4998 
G01 X52.7779 Y24.4011 
G01 X52.9275 Y24.3249 
G01 X53.0872 Y24.2731 
G01 X53.2530 Y24.2468 
G01 X53.4209 Y24.2468 
G01 X53.5867 Y24.2731 
G01 X53.7464 Y24.3249 
G01 X53.8960 Y24.4011 
G01 X54.0318 Y24.4998 
G01 X54.1505 Y24.6185 
G01 X54.2492 Y24.7543 
G01 X54.3254 Y24.9039 
G01 X54.3772 Y25.0636 
G01 X54.4035 Y25.2294 
G00 Z2.0000 
G00 X50.1525 Y25.2294 
G01 Z-0.2000 F600.00 
G01 X50.1525 Y27.3785 
G01 X50.1262 Y27.5443 
G01 X50.0744 Y27.7040 
G01 X49.9982 Y27.8536 
G01 X49.8995 Y27.9894 
G01 X49.7808 Y28.1081 
G01 X49.6450 Y28.2068 
G01 X49.4954 Y28.2830 
G01 X49.3357 Y28.3348 
G01 X49.1699 Y28.3611 
G01 X49.0020 Y28.3611 
G01 X48.8362 Y28.3348 
G01 X48.6765 Y28.2830 
G01 X48.5269 Y28.2068 
G01 X48.3911 Y28.1081 
G01 X48.2724 Y27.9894 
G01 X48.1737 Y27.8536 
G01 X48.0975 Y27.7040 
G01 X48.0457 Y27.5443 
G01 X48.0194 Y27.3785 
G01 X48.0194 Y25.2294 
G01 X48.0457 Y25.0636 
G01 X48.0975 Y24.9039 
G01 X48.1737 Y24.7543 
G01 X48.2724 Y24.6185 
G01 X48.3911 Y24.4998 
G01 X48.5269 Y24.4011 
G01 X48.6765 Y24.3249 
G01 X48.8362 Y24.2731 
G01 X49.0020 Y24.2468 
G01 X49.1699 Y24.2468 
G01 X49.3357 Y24.2731 
G01 X49.4954 Y24.3249 
G01 X49.6450 Y24.4011 
G01 X49.7808 Y24.4998 
G01 X49.8995 Y24.6185 
G01 X49.9982 Y24.7543 
G01 X50.0744 Y24.9039 
G01 X50.1262 Y25.0636 
G01 X50.1525 Y25.2294 
G00 Z2.0000 
G00 X37.3995 Y27.3785 
G01 Z-0.2000 F600.00 
G01 X37.3732 Y27.5443 
G01 X37.3214 Y27.7040 
G01 X37.2452 Y27.8536 
G01 X37.1465 Y27.9894 
G01 X37.0278 Y28.1081 
G01 X36.8920 Y28.2068 
G01 X36.7424 Y28.2830 
G01 X36.5827 Y28.3348 
G01 X36.4169 Y28.3611 
G01 X36.2490 Y28.3611 
G01 X36.0832 Y28.3348 
G01 X35.9235 Y28.2830 
G01 X35.7739 Y28.2068 
G01 X35.6381 Y28.1081 
G01 X35.5194 Y27.9894 
G01 X35.4207 Y27.8536 
G01 X35.3445 Y27.7040 
G01 X35.2927 Y27.5443 
G01 X35.2664 Y27.3785 
G01 X35.2664 Y25.2294 
G01 X35.2927 Y25.0636 
G01 X35.3445 Y24.9039 
G01 X35.4207 Y24.7543 
G01 X35.5194 Y24.6185 
G01 X35.6381 Y24.4998 
G01 X35.7739 Y24.4011 
G01 X35.9235 Y24.3249 
G01 X36.0832 Y24.2731 
G01 X36.2490 Y24.2468 
G01 X36.4169 Y24.2468 
G01 X36.5827 Y24.2731 
G01 X36.7424 Y24.3249 
G01 X36.8920 Y24.4011 
G01 X37.0278 Y24.4998 
G01 X37.1465 Y24.6185 
G01 X37.2452 Y24.7543 
G01 X37.3214 Y24.9039 
G01 X37.3247 Y24.9143 
G01 X50.3740 Y11.8650 
G01 X50.3740 Y8.9570 
G01 X50.3962 Y8.8741 
G01 X50.4391 Y8.7998 
G01 X50.4998 Y8.7391 
G01 X52.5649 Y6.6740 
G01 X52.5649 Y6.5433 
G01 X52.5993 Y6.3704 
G01 X52.6668 Y6.2075 
G01 X52.7647 Y6.0609 
G01 X52.8894 Y5.9362 
G01 X53.0360 Y5.8383 
G01 X53.1989 Y5.7708 
G01 X53.3718 Y5.7364 
G01 X53.5483 Y5.7364 
G01 X53.7212 Y5.7708 
G01 X53.8841 Y5.8383 
G01 X54.0307 Y5.9362 
G01 X54.1554 Y6.0609 
G01 X54.2533 Y6.2075 
G01 X54.3208 Y6.3704 
G01 X54.3552 Y6.5433 
G01 X54.3552 Y6.7198 
G01 X54.3208 Y6.8927 
G01 X54.2533 Y7.0556 
G01 X54.1554 Y7.2022 
G01 X54.0307 Y7.3269 
G01 X53.8841 Y7.4248 
G01 X53.7212 Y7.4923 
G01 X53.5483 Y7.5267 
G01 X53.3718 Y7.5267 
G01 X53.1989 Y7.4923 
G01 X53.0360 Y7.4248 
G01 X52.8894 Y7.3269 
G01 X52.8617 Y7.2991 
G01 X51.0259 Y9.1350 
G01 X51.0259 Y12.0429 
G01 X51.0037 Y12.1258 
G01 X50.9608 Y12.2001 
G01 X50.9001 Y12.2608 
G01 X50.8999 Y12.2609 
G01 X37.3995 Y25.7613 
G01 X37.3995 Y27.3785 
G00 Z2.0000 
G00 X28.8975 Y27.3785 
G01 Z-0.2000 F600.00 
G01 X28.8712 Y27.5443 
G01 X28.8194 Y27.7040 
G01 X28.7432 Y27.8536 
G01 X28.6445 Y27.9894 
G01 X28.5258 Y28.1081 
G01 X28.3900 Y28.2068 
G01 X28.2404 Y28.2830 
G01 X28.0807 Y28.3348 
G01 X27.9149 Y28.3611 
G01 X27.7470 Y28.3611 
G01 X27.5812 Y28.3348 
G01 X27.4215 Y28.2830 
G01 X27.2719 Y28.2068 
G01 X27.1361 Y28.1081 
G01 X27.0174 Y27.9894 
G01 X26.9187 Y27.8536 
G01 X26.8425 Y27.7040 
G01 X26.7907 Y27.5443 
G01 X26.7644 Y27.3785 
G01 X26.7644 Y25.2294 
G01 X26.7907 Y25.0636 
G01 X26.8425 Y24.9039 
G01 X26.9187 Y24.7543 
G01 X27.0174 Y24.6185 
G01 X27.1361 Y24.4998 
G01 X27.2719 Y24.4011 
G01 X27.4215 Y24.3249 
G01 X27.5812 Y24.2731 
G01 X27.7470 Y24.2468 
G01 X27.9149 Y24.2468 
G01 X28.0807 Y24.2731 
G01 X28.2404 Y24.3249 
G01 X28.3900 Y24.4011 
G01 X28.5258 Y24.4998 
G01 X28.6445 Y24.6185 
G01 X28.7432 Y24.7543 
G01 X28.8078 Y24.8812 
G01 X43.1498 Y10.5391 
G01 X43.2241 Y10.4962 
G01 X43.3070 Y10.4740 
G01 X43.3929 Y10.4740 
G01 X44.1149 Y10.4740 
G01 X44.8240 Y9.7649 
G01 X44.8240 Y8.9570 
G01 X44.8462 Y8.8741 
G01 X44.8891 Y8.7998 
G01 X44.9498 Y8.7391 
G01 X47.0277 Y6.6613 
G01 X47.0277 Y6.5433 
G01 X47.0621 Y6.3704 
G01 X47.1296 Y6.2075 
G01 X47.2275 Y6.0609 
G01 X47.3522 Y5.9362 
G01 X47.4988 Y5.8383 
G01 X47.6617 Y5.7708 
G01 X47.8346 Y5.7364 
G01 X48.0111 Y5.7364 
G01 X48.1840 Y5.7708 
G01 X48.3469 Y5.8383 
G01 X48.4935 Y5.9362 
G01 X48.6182 Y6.0609 
G01 X48.7161 Y6.2075 
G01 X48.7836 Y6.3704 
G01 X48.8180 Y6.5433 
G01 X48.8180 Y6.7198 
G01 X48.7836 Y6.8927 
G01 X48.7161 Y7.0556 
G01 X48.6182 Y7.2022 
G01 X48.4935 Y7.3269 
G01 X48.3469 Y7.4248 
G01 X48.1840 Y7.4923 
G01 X48.0111 Y7.5267 
G01 X47.8346 Y7.5267 
G01 X47.6617 Y7.4923 
G01 X47.4988 Y7.4248 
G01 X47.3522 Y7.3269 
G01 X47.3181 Y7.2927 
G01 X45.4759 Y9.1350 
G01 X45.4759 Y9.8570 
G01 X45.4759 Y9.9429 
G01 X45.4537 Y10.0258 
G01 X45.4108 Y10.1001 
G01 X44.5108 Y11.0001 
G01 X44.4501 Y11.0608 
G01 X44.3758 Y11.1037 
G01 X44.2929 Y11.1259 
G01 X43.4850 Y11.1259 
G01 X28.8975 Y25.7134 
G01 X28.8975 Y27.3785 
G00 Z2.0000 
G00 X20.3955 Y27.3785 
G01 Z-0.2000 F600.00 
G01 X20.3692 Y27.5443 
G01 X20.3174 Y27.7040 
G01 X20.2412 Y27.8536 
G01 X20.1425 Y27.9894 
G01 X20.0238 Y28.1081 
G01 X19.8880 Y28.2068 
G01 X19.7384 Y28.2830 
G01 X19.5787 Y28.3348 
G01 X19.4129 Y28.3611 
G01 X19.2450 Y28.3611 
G01 X19.0792 Y28.3348 
G01 X18.9195 Y28.2830 
G01 X18.7699 Y28.2068 
G01 X18.6341 Y28.1081 
G01 X18.5154 Y27.9894 
G01 X18.4167 Y27.8536 
G01 X18.3405 Y27.7040 
G01 X18.2887 Y27.5443 
G01 X18.2624 Y27.3785 
G01 X18.2624 Y25.2294 
G01 X18.2887 Y25.0636 
G01 X18.3405 Y24.9039 
G01 X18.4167 Y24.7543 
G01 X18.5154 Y24.6185 
G01 X18.6341 Y24.4998 
G01 X18.7699 Y24.4011 
G01 X18.9195 Y24.3249 
G01 X19.0792 Y24.2731 
G01 X19.2450 Y24.2468 
G01 X19.4129 Y24.2468 
G01 X19.5787 Y24.2731 
G01 X19.7384 Y24.3249 
G01 X19.8880 Y24.4011 
G01 X20.0238 Y24.4998 
G01 X20.1425 Y24.6185 
G01 X20.2412 Y24.7543 
G01 X20.2896 Y24.8494 
G01 X33.8498 Y11.2891 
G01 X33.9241 Y11.2462 
G01 X34.0070 Y11.2240 
G01 X34.0929 Y11.2240 
G01 X36.1649 Y11.2240 
G01 X36.8498 Y10.5391 
G01 X36.9241 Y10.4962 
G01 X37.0070 Y10.4740 
G01 X37.0929 Y10.4740 
G01 X38.7149 Y10.4740 
G01 X39.2740 Y9.9149 
G01 X39.2740 Y8.9570 
G01 X39.2962 Y8.8741 
G01 X39.3391 Y8.7998 
G01 X39.3998 Y8.7391 
G01 X41.4905 Y6.6484 
G01 X41.4905 Y6.5433 
G01 X41.5249 Y6.3704 
G01 X41.5924 Y6.2075 
G01 X41.6903 Y6.0609 
G01 X41.8150 Y5.9362 
G01 X41.9616 Y5.8383 
G01 X42.1245 Y5.7708 
G01 X42.2974 Y5.7364 
G01 X42.4739 Y5.7364 
G01 X42.6468 Y5.7708 
G01 X42.8097 Y5.8383 
G01 X42.9563 Y5.9362 
G01 X43.0810 Y6.0609 
G01 X43.1789 Y6.2075 
G01 X43.2464 Y6.3704 
G01 X43.2808 Y6.5433 
G01 X43.2808 Y6.7198 
G01 X43.2464 Y6.8927 
G01 X43.1789 Y7.0556 
G01 X43.0810 Y7.2022 
G01 X42.9563 Y7.3269 
G01 X42.8097 Y7.4248 
G01 X42.6468 Y7.4923 
G01 X42.4739 Y7.5267 
G01 X42.2974 Y7.5267 
G01 X42.1245 Y7.4923 
G01 X41.9616 Y7.4248 
G01 X41.8150 Y7.3269 
G01 X41.7745 Y7.2863 
G01 X39.9259 Y9.1350 
G01 X39.9259 Y10.0070 
G01 X39.9259 Y10.0929 
G01 X39.9037 Y10.1758 
G01 X39.8608 Y10.2501 
G01 X39.1108 Y11.0001 
G01 X39.0501 Y11.0608 
G01 X38.9758 Y11.1037 
G01 X38.8929 Y11.1259 
G01 X37.1850 Y11.1259 
G01 X36.5608 Y11.7501 
G01 X36.5001 Y11.8108 
G01 X36.4258 Y11.8537 
G01 X36.3429 Y11.8759 
G01 X34.1850 Y11.8759 
G01 X20.3955 Y25.6654 
G01 X20.3955 Y27.3785 
G00 Z2.0000 
G00 X11.8935 Y27.3785 
G01 Z-0.2000 F600.00 
G01 X11.8672 Y27.5443 
G01 X11.8154 Y27.7040 
G01 X11.7392 Y27.8536 
G01 X11.6405 Y27.9894 
G01 X11.5218 Y28.1081 
G01 X11.3860 Y28.2068 
G01 X11.2364 Y28.2830 
G01 X11.0767 Y28.3348 
G01 X10.9109 Y28.3611 
G01 X10.7430 Y28.3611 
G01 X10.5772 Y28.3348 
G01 X10.4175 Y28.2830 
G01 X10.2679 Y28.2068 
G01 X10.1321 Y28.1081 
G01 X10.0134 Y27.9894 
G01 X9.9147 Y27.8536 
G01 X9.8385 Y27.7040 
G01 X9.7867 Y27.5443 
G01 X9.7604 Y27.3785 
G01 X9.7604 Y25.2294 
G01 X9.7867 Y25.0636 
G01 X9.8385 Y24.9039 
G01 X9.9147 Y24.7543 
G01 X10.0134 Y24.6185 
G01 X10.1321 Y24.4998 
G01 X10.2679 Y24.4011 
G01 X10.4175 Y24.3249 
G01 X10.5772 Y24.2731 
G01 X10.7430 Y24.2468 
G01 X10.9109 Y24.2468 
G01 X11.0767 Y24.2731 
G01 X11.2364 Y24.3249 
G01 X11.3860 Y24.4011 
G01 X11.5218 Y24.4998 
G01 X11.6405 Y24.6185 
G01 X11.7392 Y24.7543 
G01 X11.8154 Y24.9039 
G01 X11.8202 Y24.9188 
G01 X25.4740 Y11.2649 
G01 X25.4740 Y8.9570 
G01 X25.4962 Y8.8741 
G01 X25.5391 Y8.7998 
G01 X25.5998 Y8.7391 
G01 X26.6498 Y7.6891 
G01 X26.7241 Y7.6462 
G01 X26.8070 Y7.6240 
G01 X26.8929 Y7.6240 
G01 X34.5149 Y7.6240 
G01 X35.6498 Y6.4891 
G01 X35.7241 Y6.4462 
G01 X35.8070 Y6.4240 
G01 X35.8929 Y6.4240 
G01 X35.9771 Y6.4240 
G01 X35.9877 Y6.3704 
G01 X36.0552 Y6.2075 
G01 X36.1531 Y6.0609 
G01 X36.2778 Y5.9362 
G01 X36.4244 Y5.8383 
G01 X36.5873 Y5.7708 
G01 X36.7602 Y5.7364 
G01 X36.9367 Y5.7364 
G01 X37.1096 Y5.7708 
G01 X37.2725 Y5.8383 
G01 X37.4191 Y5.9362 
G01 X37.5438 Y6.0609 
G01 X37.6417 Y6.2075 
G01 X37.7092 Y6.3704 
G01 X37.7436 Y6.5433 
G01 X37.7436 Y6.7198 
G01 X37.7092 Y6.8927 
G01 X37.6417 Y7.0556 
G01 X37.5438 Y7.2022 
G01 X37.4191 Y7.3269 
G01 X37.2725 Y7.4248 
G01 X37.1096 Y7.4923 
G01 X36.9367 Y7.5267 
G01 X36.7602 Y7.5267 
G01 X36.5873 Y7.4923 
G01 X36.4244 Y7.4248 
G01 X36.2778 Y7.3269 
G01 X36.1531 Y7.2022 
G01 X36.0688 Y7.0759 
G01 X35.9850 Y7.0759 
G01 X34.9108 Y8.1501 
G01 X34.8501 Y8.2108 
G01 X34.7758 Y8.2537 
G01 X34.6929 Y8.2759 
G01 X26.9850 Y8.2759 
G01 X26.1259 Y9.1350 
G01 X26.1259 Y11.3570 
G01 X26.1259 Y11.4429 
G01 X26.1037 Y11.5258 
G01 X26.0608 Y11.6001 
G01 X11.8935 Y25.7674 
G01 X11.8935 Y27.3785 
G00 Z2.0000 
G00 X7.6425 Y25.2294 
G01 Z-0.2000 F600.00 
G01 X7.6425 Y27.3785 
G01 X7.6162 Y27.5443 
G01 X7.5644 Y27.7040 
G01 X7.4882 Y27.8536 
G01 X7.3895 Y27.9894 
G01 X7.2708 Y28.1081 
G01 X7.1350 Y28.2068 
G01 X6.9854 Y28.2830 
G01 X6.8257 Y28.3348 
G01 X6.6599 Y28.3611 
G01 X6.4920 Y28.3611 
G01 X6.3262 Y28.3348 
G01 X6.1665 Y28.2830 
G01 X6.0169 Y28.2068 
G01 X5.8811 Y28.1081 
G01 X5.7624 Y27.9894 
G01 X5.6637 Y27.8536 
G01 X5.5875 Y27.7040 
G01 X5.5357 Y27.5443 
G01 X5.5094 Y27.3785 
G01 X5.5094 Y25.2294 
G01 X5.5357 Y25.0636 
G01 X5.5875 Y24.9039 
G01 X5.6637 Y24.7543 
G01 X5.7624 Y24.6185 
G01 X5.8811 Y24.4998 
G01 X6.0169 Y24.4011 
G01 X6.1665 Y24.3249 
G01 X6.3262 Y24.2731 
G01 X6.4920 Y24.2468 
G01 X6.6599 Y24.2468 
G01 X6.8257 Y24.2731 
G01 X6.9854 Y24.3249 
G01 X7.1350 Y24.4011 
G01 X7.2708 Y24.4998 
G01 X7.3895 Y24.6185 
G01 X7.4882 Y24.7543 
G01 X7.5644 Y24.9039 
G01 X7.6162 Y25.0636 
G01 X7.6425 Y25.2294 
(File Footer)
G00 Z2.0000 
G00 Z10.0000 
M05
M02
