( This gcode generated by /home/mattvenn/.eagle/ulp/pcb-gcode.ulp )
( Copyright 2005 by John Johnson. See readme.txt for licensing terms. )

( This file generated from the board /home/mattvenn/eagle-circuit-designs/cvm/hymera2.brd )
( This file generated 13/02/2012 12:12 )

( T01 0.600000 )
( T02 1.092200 )
( T03 1.320800 )
( T04 3.000000 )
( T05 3.048000 )
( T06 3.200000 )
G21

G90
M05
G00 X0.0000 Y0.0000 Z30.0000 
M06 T01  ; 0.6000 
G00 Z2.0000 
M03
G04 P3.000000
G82 X-47.1000 Y13.2000 Z-2.0000 F127.00 R2.0000 P0.100000
G82 X-50.1000 Y13.2000 
G82 X-52.8000 Y13.2000 
G82 X-55.8000 Y13.2000 
M05
G00 X0.0000 Y0.0000 Z30.0000 
M06 T02  ; 1.0922 
G00 Z2.0000 
M03
G04 P3.000000
G82 X-29.1584 Y9.4764 Z-2.0000 F127.00 R2.0000 P0.100000
G82 X-30.5427 Y6.6316 
G82 X-31.9270 Y9.4764 
G82 X-33.3113 Y6.6316 
G82 X-34.6956 Y9.4764 
G82 X-36.0799 Y6.6316 
G82 X-37.4642 Y9.4764 
G82 X-38.8485 Y6.6316 
G82 X-40.2328 Y9.4764 
G82 X-41.6171 Y6.6316 
G82 X-43.0014 Y9.4764 
G82 X-44.3857 Y6.6316 
G82 X-45.7700 Y9.4764 
G82 X-47.1543 Y6.6316 
G82 X-48.5386 Y9.4764 
G82 X-49.9229 Y6.6316 
G82 X-51.3072 Y9.4764 
G82 X-52.6915 Y6.6316 
G82 X-54.0758 Y9.4764 
G82 X-55.4601 Y6.6316 
G82 X-56.8444 Y9.4764 
G82 X-58.2287 Y6.6316 
G82 X-59.6130 Y9.4764 
G82 X-60.9973 Y6.6316 
G82 X-62.3816 Y9.4764 
M05
G00 X0.0000 Y0.0000 Z30.0000 
M06 T03  ; 1.3208 
G00 Z2.0000 
M03
G04 P3.000000
G82 X-6.5760 Y26.3040 Z-2.0000 F127.00 R2.0000 P0.100000
G82 X-100.0980 Y26.3040 
G82 X-10.8270 Y26.3040 
G82 X-15.0780 Y26.3040 
G82 X-19.3290 Y26.3040 
G82 X-23.5800 Y26.3040 
G82 X-27.8310 Y26.3040 
G82 X-32.0820 Y26.3040 
G82 X-36.3330 Y26.3040 
G82 X-40.5840 Y26.3040 
G82 X-44.8350 Y26.3040 
G82 X-49.0860 Y26.3040 
G82 X-53.3370 Y26.3040 
G82 X-57.5880 Y26.3040 
G82 X-61.8390 Y26.3040 
G82 X-66.0900 Y26.3040 
G82 X-70.3410 Y26.3040 
G82 X-74.5920 Y26.3040 
G82 X-78.8430 Y26.3040 
G82 X-83.0940 Y26.3040 
G82 X-87.3450 Y26.3040 
G82 X-91.5960 Y26.3040 
G82 X-95.8470 Y26.3040 
M05
G00 X0.0000 Y0.0000 Z30.0000 
M06 T04  ; 3.0000 
G00 Z2.0000 
M03
G04 P3.000000
G82 X-12.4000 Y8.0000 Z-2.0000 F127.00 R2.0000 P0.100000
G82 X-30.4000 Y19.7000 
M05
G00 X0.0000 Y0.0000 Z30.0000 
M06 T05  ; 3.0480 
G00 Z2.0000 
M03
G04 P3.000000
G82 X-22.2496 Y8.0540 Z-2.0000 F127.00 R2.0000 P0.100000
G82 X-69.2904 Y8.0540 
M05
G00 X0.0000 Y0.0000 Z30.0000 
M06 T06  ; 3.2000 
G00 Z2.0000 
M03
G04 P3.000000
G82 X-99.4000 Y8.0000 Z-2.0000 F127.00 R2.0000 P0.100000
(File Footer)
T01 
G00 Z10.0000 
M05
M02
