( This gcode generated by /home/mattvenn/.eagle/ulp/pcb-gcode.ulp )
( Copyright 2005 by John Johnson. See readme.txt for licensing terms. )

( This file generated from the board /home/mattvenn/eagle-circuit-designs/cvm/hymera.brd )
( This file generated 30/01/2012 16:46 )

G21

G90
G00 Z10.0000 
G00 X0 Y0
M03
G04 P3.000000
G00 Z2.0000 
G00 X13.4729 Y59.4430 
G01 Z-0.1000 F600.00 
G01 X13.4729 Y59.5849 
G01 X13.4452 Y59.7240 
G01 X13.3910 Y59.8550 
G01 X13.3122 Y59.9729 
G01 X13.2119 Y60.0732 
G01 X13.0940 Y60.1520 
G01 X12.9630 Y60.2062 
G01 X12.8239 Y60.2339 
G01 X12.6820 Y60.2339 
G01 X12.5429 Y60.2062 
G01 X12.4119 Y60.1520 
G01 X12.2940 Y60.0732 
G01 X12.1937 Y59.9729 
G01 X12.1149 Y59.8550 
G01 X12.0607 Y59.7240 
G01 X12.0330 Y59.5849 
G01 X12.0330 Y59.4430 
G01 X12.0607 Y59.3039 
G01 X12.1149 Y59.1729 
G01 X12.1937 Y59.0550 
G01 X12.2940 Y58.9547 
G01 X12.4119 Y58.8759 
G01 X12.5429 Y58.8217 
G01 X12.6820 Y58.7940 
G01 X12.8239 Y58.7940 
G01 X12.9630 Y58.8217 
G01 X13.0940 Y58.8759 
G01 X13.2119 Y58.9547 
G01 X13.3122 Y59.0550 
G01 X13.3910 Y59.1729 
G01 X13.4452 Y59.3039 
G01 X13.4729 Y59.4430 
G00 Z2.0000 
G00 X17.7239 Y59.4430 
G01 Z-0.1000 F600.00 
G01 X17.7239 Y59.5849 
G01 X17.6962 Y59.7240 
G01 X17.6420 Y59.8550 
G01 X17.5632 Y59.9729 
G01 X17.4629 Y60.0732 
G01 X17.3450 Y60.1520 
G01 X17.2140 Y60.2062 
G01 X17.0749 Y60.2339 
G01 X16.9330 Y60.2339 
G01 X16.7939 Y60.2062 
G01 X16.6629 Y60.1520 
G01 X16.5450 Y60.0732 
G01 X16.4447 Y59.9729 
G01 X16.3659 Y59.8550 
G01 X16.3117 Y59.7240 
G01 X16.2840 Y59.5849 
G01 X16.2840 Y59.4430 
G01 X16.3117 Y59.3039 
G01 X16.3659 Y59.1729 
G01 X16.4447 Y59.0550 
G01 X16.5450 Y58.9547 
G01 X16.6629 Y58.8759 
G01 X16.7939 Y58.8217 
G01 X16.9330 Y58.7940 
G01 X17.0749 Y58.7940 
G01 X17.2140 Y58.8217 
G01 X17.3450 Y58.8759 
G01 X17.4629 Y58.9547 
G01 X17.5632 Y59.0550 
G01 X17.6420 Y59.1729 
G01 X17.6962 Y59.3039 
G01 X17.7239 Y59.4430 
G00 Z2.0000 
G00 X21.9749 Y59.4430 
G01 Z-0.1000 F600.00 
G01 X21.9749 Y59.5849 
G01 X21.9472 Y59.7240 
G01 X21.8930 Y59.8550 
G01 X21.8142 Y59.9729 
G01 X21.7139 Y60.0732 
G01 X21.5960 Y60.1520 
G01 X21.4650 Y60.2062 
G01 X21.3259 Y60.2339 
G01 X21.1840 Y60.2339 
G01 X21.0449 Y60.2062 
G01 X20.9139 Y60.1520 
G01 X20.7960 Y60.0732 
G01 X20.6957 Y59.9729 
G01 X20.6169 Y59.8550 
G01 X20.5627 Y59.7240 
G01 X20.5350 Y59.5849 
G01 X20.5350 Y59.4430 
G01 X20.5627 Y59.3039 
G01 X20.6169 Y59.1729 
G01 X20.6957 Y59.0550 
G01 X20.7960 Y58.9547 
G01 X20.9139 Y58.8759 
G01 X21.0449 Y58.8217 
G01 X21.1840 Y58.7940 
G01 X21.3259 Y58.7940 
G01 X21.4650 Y58.8217 
G01 X21.5960 Y58.8759 
G01 X21.7139 Y58.9547 
G01 X21.8142 Y59.0550 
G01 X21.8930 Y59.1729 
G01 X21.9472 Y59.3039 
G01 X21.9749 Y59.4430 
G00 Z2.0000 
G00 X26.2259 Y59.4430 
G01 Z-0.1000 F600.00 
G01 X26.2259 Y59.5849 
G01 X26.1982 Y59.7240 
G01 X26.1440 Y59.8550 
G01 X26.0652 Y59.9729 
G01 X25.9649 Y60.0732 
G01 X25.8470 Y60.1520 
G01 X25.7160 Y60.2062 
G01 X25.5769 Y60.2339 
G01 X25.4350 Y60.2339 
G01 X25.2959 Y60.2062 
G01 X25.1649 Y60.1520 
G01 X25.0470 Y60.0732 
G01 X24.9467 Y59.9729 
G01 X24.8679 Y59.8550 
G01 X24.8137 Y59.7240 
G01 X24.7860 Y59.5849 
G01 X24.7860 Y59.4430 
G01 X24.8137 Y59.3039 
G01 X24.8679 Y59.1729 
G01 X24.9467 Y59.0550 
G01 X25.0470 Y58.9547 
G01 X25.1649 Y58.8759 
G01 X25.2959 Y58.8217 
G01 X25.4350 Y58.7940 
G01 X25.5769 Y58.7940 
G01 X25.7160 Y58.8217 
G01 X25.8470 Y58.8759 
G01 X25.9649 Y58.9547 
G01 X26.0652 Y59.0550 
G01 X26.1440 Y59.1729 
G01 X26.1982 Y59.3039 
G01 X26.2259 Y59.4430 
G00 Z2.0000 
G00 X30.4769 Y59.4430 
G01 Z-0.1000 F600.00 
G01 X30.4769 Y59.5849 
G01 X30.4492 Y59.7240 
G01 X30.3950 Y59.8550 
G01 X30.3162 Y59.9729 
G01 X30.2159 Y60.0732 
G01 X30.0980 Y60.1520 
G01 X29.9670 Y60.2062 
G01 X29.8279 Y60.2339 
G01 X29.6860 Y60.2339 
G01 X29.5469 Y60.2062 
G01 X29.4159 Y60.1520 
G01 X29.2980 Y60.0732 
G01 X29.1977 Y59.9729 
G01 X29.1189 Y59.8550 
G01 X29.0647 Y59.7240 
G01 X29.0370 Y59.5849 
G01 X29.0370 Y59.4430 
G01 X29.0647 Y59.3039 
G01 X29.1189 Y59.1729 
G01 X29.1977 Y59.0550 
G01 X29.2980 Y58.9547 
G01 X29.4159 Y58.8759 
G01 X29.5469 Y58.8217 
G01 X29.6860 Y58.7940 
G01 X29.8279 Y58.7940 
G01 X29.9670 Y58.8217 
G01 X30.0980 Y58.8759 
G01 X30.2159 Y58.9547 
G01 X30.3162 Y59.0550 
G01 X30.3950 Y59.1729 
G01 X30.4492 Y59.3039 
G01 X30.4769 Y59.4430 
G00 Z2.0000 
G00 X34.7279 Y59.4430 
G01 Z-0.1000 F600.00 
G01 X34.7279 Y59.5849 
G01 X34.7002 Y59.7240 
G01 X34.6460 Y59.8550 
G01 X34.5672 Y59.9729 
G01 X34.4669 Y60.0732 
G01 X34.3490 Y60.1520 
G01 X34.2180 Y60.2062 
G01 X34.0789 Y60.2339 
G01 X33.9370 Y60.2339 
G01 X33.7979 Y60.2062 
G01 X33.6669 Y60.1520 
G01 X33.5490 Y60.0732 
G01 X33.4487 Y59.9729 
G01 X33.3699 Y59.8550 
G01 X33.3157 Y59.7240 
G01 X33.2880 Y59.5849 
G01 X33.2880 Y59.4430 
G01 X33.3157 Y59.3039 
G01 X33.3699 Y59.1729 
G01 X33.4487 Y59.0550 
G01 X33.5490 Y58.9547 
G01 X33.6669 Y58.8759 
G01 X33.7979 Y58.8217 
G01 X33.9370 Y58.7940 
G01 X34.0789 Y58.7940 
G01 X34.2180 Y58.8217 
G01 X34.3490 Y58.8759 
G01 X34.4669 Y58.9547 
G01 X34.5672 Y59.0550 
G01 X34.6460 Y59.1729 
G01 X34.7002 Y59.3039 
G01 X34.7279 Y59.4430 
G00 Z2.0000 
G00 X38.9789 Y59.4430 
G01 Z-0.1000 F600.00 
G01 X38.9789 Y59.5849 
G01 X38.9512 Y59.7240 
G01 X38.8970 Y59.8550 
G01 X38.8182 Y59.9729 
G01 X38.7179 Y60.0732 
G01 X38.6000 Y60.1520 
G01 X38.4690 Y60.2062 
G01 X38.3299 Y60.2339 
G01 X38.1880 Y60.2339 
G01 X38.0489 Y60.2062 
G01 X37.9179 Y60.1520 
G01 X37.8000 Y60.0732 
G01 X37.6997 Y59.9729 
G01 X37.6209 Y59.8550 
G01 X37.5667 Y59.7240 
G01 X37.5390 Y59.5849 
G01 X37.5390 Y59.4430 
G01 X37.5667 Y59.3039 
G01 X37.6209 Y59.1729 
G01 X37.6997 Y59.0550 
G01 X37.8000 Y58.9547 
G01 X37.9179 Y58.8759 
G01 X38.0489 Y58.8217 
G01 X38.1880 Y58.7940 
G01 X38.3299 Y58.7940 
G01 X38.4690 Y58.8217 
G01 X38.6000 Y58.8759 
G01 X38.7179 Y58.9547 
G01 X38.8182 Y59.0550 
G01 X38.8970 Y59.1729 
G01 X38.9512 Y59.3039 
G01 X38.9789 Y59.4430 
G00 Z2.0000 
G00 X43.2299 Y59.4430 
G01 Z-0.1000 F600.00 
G01 X43.2299 Y59.5849 
G01 X43.2022 Y59.7240 
G01 X43.1480 Y59.8550 
G01 X43.0692 Y59.9729 
G01 X42.9689 Y60.0732 
G01 X42.8510 Y60.1520 
G01 X42.7200 Y60.2062 
G01 X42.5809 Y60.2339 
G01 X42.4390 Y60.2339 
G01 X42.2999 Y60.2062 
G01 X42.1689 Y60.1520 
G01 X42.0510 Y60.0732 
G01 X41.9507 Y59.9729 
G01 X41.8719 Y59.8550 
G01 X41.8177 Y59.7240 
G01 X41.7900 Y59.5849 
G01 X41.7900 Y59.4430 
G01 X41.8177 Y59.3039 
G01 X41.8719 Y59.1729 
G01 X41.9507 Y59.0550 
G01 X42.0510 Y58.9547 
G01 X42.1689 Y58.8759 
G01 X42.2999 Y58.8217 
G01 X42.4390 Y58.7940 
G01 X42.5809 Y58.7940 
G01 X42.7200 Y58.8217 
G01 X42.8510 Y58.8759 
G01 X42.9689 Y58.9547 
G01 X43.0692 Y59.0550 
G01 X43.1480 Y59.1729 
G01 X43.2022 Y59.3039 
G01 X43.2299 Y59.4430 
G00 Z2.0000 
G00 X47.4809 Y59.4430 
G01 Z-0.1000 F600.00 
G01 X47.4809 Y59.5849 
G01 X47.4532 Y59.7240 
G01 X47.3990 Y59.8550 
G01 X47.3202 Y59.9729 
G01 X47.2199 Y60.0732 
G01 X47.1020 Y60.1520 
G01 X46.9710 Y60.2062 
G01 X46.8319 Y60.2339 
G01 X46.6900 Y60.2339 
G01 X46.5509 Y60.2062 
G01 X46.4199 Y60.1520 
G01 X46.3020 Y60.0732 
G01 X46.2017 Y59.9729 
G01 X46.1229 Y59.8550 
G01 X46.0687 Y59.7240 
G01 X46.0410 Y59.5849 
G01 X46.0410 Y59.4430 
G01 X46.0687 Y59.3039 
G01 X46.1229 Y59.1729 
G01 X46.2017 Y59.0550 
G01 X46.3020 Y58.9547 
G01 X46.4199 Y58.8759 
G01 X46.5509 Y58.8217 
G01 X46.6900 Y58.7940 
G01 X46.8319 Y58.7940 
G01 X46.9710 Y58.8217 
G01 X47.1020 Y58.8759 
G01 X47.2199 Y58.9547 
G01 X47.3202 Y59.0550 
G01 X47.3990 Y59.1729 
G01 X47.4532 Y59.3039 
G01 X47.4809 Y59.4430 
G00 Z2.0000 
G00 X51.7319 Y59.4430 
G01 Z-0.1000 F600.00 
G01 X51.7319 Y59.5849 
G01 X51.7042 Y59.7240 
G01 X51.6500 Y59.8550 
G01 X51.5712 Y59.9729 
G01 X51.4709 Y60.0732 
G01 X51.3530 Y60.1520 
G01 X51.2220 Y60.2062 
G01 X51.0829 Y60.2339 
G01 X50.9410 Y60.2339 
G01 X50.8019 Y60.2062 
G01 X50.6709 Y60.1520 
G01 X50.5530 Y60.0732 
G01 X50.4527 Y59.9729 
G01 X50.3739 Y59.8550 
G01 X50.3197 Y59.7240 
G01 X50.2920 Y59.5849 
G01 X50.2920 Y59.4430 
G01 X50.3197 Y59.3039 
G01 X50.3739 Y59.1729 
G01 X50.4527 Y59.0550 
G01 X50.5530 Y58.9547 
G01 X50.6709 Y58.8759 
G01 X50.8019 Y58.8217 
G01 X50.9410 Y58.7940 
G01 X51.0829 Y58.7940 
G01 X51.2220 Y58.8217 
G01 X51.3530 Y58.8759 
G01 X51.4709 Y58.9547 
G01 X51.5712 Y59.0550 
G01 X51.6500 Y59.1729 
G01 X51.7042 Y59.3039 
G01 X51.7319 Y59.4430 
G00 Z2.0000 
G00 X55.9829 Y59.4430 
G01 Z-0.1000 F600.00 
G01 X55.9829 Y59.5849 
G01 X55.9552 Y59.7240 
G01 X55.9010 Y59.8550 
G01 X55.8222 Y59.9729 
G01 X55.7219 Y60.0732 
G01 X55.6040 Y60.1520 
G01 X55.4730 Y60.2062 
G01 X55.3339 Y60.2339 
G01 X55.1920 Y60.2339 
G01 X55.0529 Y60.2062 
G01 X54.9219 Y60.1520 
G01 X54.8040 Y60.0732 
G01 X54.7037 Y59.9729 
G01 X54.6249 Y59.8550 
G01 X54.5707 Y59.7240 
G01 X54.5430 Y59.5849 
G01 X54.5430 Y59.4430 
G01 X54.5707 Y59.3039 
G01 X54.6249 Y59.1729 
G01 X54.7037 Y59.0550 
G01 X54.8040 Y58.9547 
G01 X54.9219 Y58.8759 
G01 X55.0529 Y58.8217 
G01 X55.1920 Y58.7940 
G01 X55.3339 Y58.7940 
G01 X55.4730 Y58.8217 
G01 X55.6040 Y58.8759 
G01 X55.7219 Y58.9547 
G01 X55.8222 Y59.0550 
G01 X55.9010 Y59.1729 
G01 X55.9552 Y59.3039 
G01 X55.9829 Y59.4430 
G00 Z2.0000 
G00 X60.2339 Y59.4430 
G01 Z-0.1000 F600.00 
G01 X60.2339 Y59.5849 
G01 X60.2062 Y59.7240 
G01 X60.1520 Y59.8550 
G01 X60.0732 Y59.9729 
G01 X59.9729 Y60.0732 
G01 X59.8550 Y60.1520 
G01 X59.7240 Y60.2062 
G01 X59.5849 Y60.2339 
G01 X59.4430 Y60.2339 
G01 X59.3039 Y60.2062 
G01 X59.1729 Y60.1520 
G01 X59.0550 Y60.0732 
G01 X58.9547 Y59.9729 
G01 X58.8759 Y59.8550 
G01 X58.8217 Y59.7240 
G01 X58.7940 Y59.5849 
G01 X58.7940 Y59.4430 
G01 X58.8217 Y59.3039 
G01 X58.8759 Y59.1729 
G01 X58.9547 Y59.0550 
G01 X59.0550 Y58.9547 
G01 X59.1729 Y58.8759 
G01 X59.3039 Y58.8217 
G01 X59.4430 Y58.7940 
G01 X59.5849 Y58.7940 
G01 X59.7240 Y58.8217 
G01 X59.8550 Y58.8759 
G01 X59.9729 Y58.9547 
G01 X60.0732 Y59.0550 
G01 X60.1520 Y59.1729 
G01 X60.2062 Y59.3039 
G01 X60.2339 Y59.4430 
G00 Z2.0000 
G00 X64.4849 Y59.4430 
G01 Z-0.1000 F600.00 
G01 X64.4849 Y59.5849 
G01 X64.4572 Y59.7240 
G01 X64.4030 Y59.8550 
G01 X64.3242 Y59.9729 
G01 X64.2239 Y60.0732 
G01 X64.1060 Y60.1520 
G01 X63.9750 Y60.2062 
G01 X63.8359 Y60.2339 
G01 X63.6940 Y60.2339 
G01 X63.5549 Y60.2062 
G01 X63.4239 Y60.1520 
G01 X63.3060 Y60.0732 
G01 X63.2057 Y59.9729 
G01 X63.1269 Y59.8550 
G01 X63.0727 Y59.7240 
G01 X63.0450 Y59.5849 
G01 X63.0450 Y59.4430 
G01 X63.0727 Y59.3039 
G01 X63.1269 Y59.1729 
G01 X63.2057 Y59.0550 
G01 X63.3060 Y58.9547 
G01 X63.4239 Y58.8759 
G01 X63.5549 Y58.8217 
G01 X63.6940 Y58.7940 
G01 X63.8359 Y58.7940 
G01 X63.9750 Y58.8217 
G01 X64.1060 Y58.8759 
G01 X64.2239 Y58.9547 
G01 X64.3242 Y59.0550 
G01 X64.4030 Y59.1729 
G01 X64.4572 Y59.3039 
G01 X64.4849 Y59.4430 
G00 Z2.0000 
G00 X159.7614 Y60.8793 
G01 Z-0.1000 F600.00 
G01 X159.7614 Y61.0574 
G01 X159.7267 Y61.2321 
G01 X159.6585 Y61.3967 
G01 X159.5596 Y61.5447 
G01 X159.4336 Y61.6707 
G01 X159.2856 Y61.7696 
G01 X159.1210 Y61.8378 
G01 X158.9463 Y61.8725 
G01 X158.7682 Y61.8725 
G01 X158.5935 Y61.8378 
G01 X158.4289 Y61.7696 
G01 X158.2809 Y61.6707 
G01 X158.1549 Y61.5447 
G01 X158.0560 Y61.3967 
G01 X157.9878 Y61.2321 
G01 X157.9531 Y61.0574 
G01 X157.9531 Y60.8793 
G01 X157.9878 Y60.7046 
G01 X158.0560 Y60.5400 
G01 X158.1549 Y60.3920 
G01 X158.2809 Y60.2660 
G01 X158.4289 Y60.1671 
G01 X158.5935 Y60.0989 
G01 X158.7682 Y60.0642 
G01 X158.9463 Y60.0642 
G01 X159.1210 Y60.0989 
G01 X159.2856 Y60.1671 
G01 X159.4336 Y60.2660 
G01 X159.5596 Y60.3920 
G01 X159.6585 Y60.5400 
G01 X159.7267 Y60.7046 
G01 X159.7614 Y60.8793 
G00 Z2.0000 
G00 X156.9928 Y60.8793 
G01 Z-0.1000 F600.00 
G01 X156.9928 Y61.0574 
G01 X156.9581 Y61.2321 
G01 X156.8899 Y61.3967 
G01 X156.7910 Y61.5447 
G01 X156.6650 Y61.6707 
G01 X156.5170 Y61.7696 
G01 X156.3524 Y61.8378 
G01 X156.1777 Y61.8725 
G01 X155.9996 Y61.8725 
G01 X155.8249 Y61.8378 
G01 X155.6603 Y61.7696 
G01 X155.5123 Y61.6707 
G01 X155.3863 Y61.5447 
G01 X155.2874 Y61.3967 
G01 X155.2192 Y61.2321 
G01 X155.1845 Y61.0574 
G01 X155.1845 Y60.8793 
G01 X155.2192 Y60.7046 
G01 X155.2874 Y60.5400 
G01 X155.3863 Y60.3920 
G01 X155.5123 Y60.2660 
G01 X155.6603 Y60.1671 
G01 X155.8249 Y60.0989 
G01 X155.9996 Y60.0642 
G01 X156.1777 Y60.0642 
G01 X156.3524 Y60.0989 
G01 X156.5170 Y60.1671 
G01 X156.6650 Y60.2660 
G01 X156.7910 Y60.3920 
G01 X156.8899 Y60.5400 
G01 X156.9581 Y60.7046 
G01 X156.9928 Y60.8793 
G00 Z2.0000 
G00 X154.2242 Y60.8793 
G01 Z-0.1000 F600.00 
G01 X154.2242 Y61.0574 
G01 X154.1895 Y61.2321 
G01 X154.1213 Y61.3967 
G01 X154.0224 Y61.5447 
G01 X153.8964 Y61.6707 
G01 X153.7484 Y61.7696 
G01 X153.5838 Y61.8378 
G01 X153.4091 Y61.8725 
G01 X153.2310 Y61.8725 
G01 X153.0563 Y61.8378 
G01 X152.8917 Y61.7696 
G01 X152.7437 Y61.6707 
G01 X152.6177 Y61.5447 
G01 X152.5188 Y61.3967 
G01 X152.4506 Y61.2321 
G01 X152.4159 Y61.0574 
G01 X152.4159 Y60.8793 
G01 X152.4506 Y60.7046 
G01 X152.5188 Y60.5400 
G01 X152.6177 Y60.3920 
G01 X152.7437 Y60.2660 
G01 X152.8917 Y60.1671 
G01 X153.0563 Y60.0989 
G01 X153.2310 Y60.0642 
G01 X153.4091 Y60.0642 
G01 X153.5838 Y60.0989 
G01 X153.7484 Y60.1671 
G01 X153.8964 Y60.2660 
G01 X154.0224 Y60.3920 
G01 X154.1213 Y60.5400 
G01 X154.1895 Y60.7046 
G01 X154.2242 Y60.8793 
G00 Z2.0000 
G00 X151.4556 Y60.8793 
G01 Z-0.1000 F600.00 
G01 X151.4556 Y61.0574 
G01 X151.4209 Y61.2321 
G01 X151.3527 Y61.3967 
G01 X151.2538 Y61.5447 
G01 X151.1278 Y61.6707 
G01 X150.9798 Y61.7696 
G01 X150.8152 Y61.8378 
G01 X150.6405 Y61.8725 
G01 X150.4624 Y61.8725 
G01 X150.2877 Y61.8378 
G01 X150.1231 Y61.7696 
G01 X149.9751 Y61.6707 
G01 X149.8491 Y61.5447 
G01 X149.7502 Y61.3967 
G01 X149.6820 Y61.2321 
G01 X149.6473 Y61.0574 
G01 X149.6473 Y60.8793 
G01 X149.6820 Y60.7046 
G01 X149.7502 Y60.5400 
G01 X149.8491 Y60.3920 
G01 X149.9751 Y60.2660 
G01 X150.1231 Y60.1671 
G01 X150.2877 Y60.0989 
G01 X150.4624 Y60.0642 
G01 X150.6405 Y60.0642 
G01 X150.8152 Y60.0989 
G01 X150.9798 Y60.1671 
G01 X151.1278 Y60.2660 
G01 X151.2538 Y60.3920 
G01 X151.3527 Y60.5400 
G01 X151.4209 Y60.7046 
G01 X151.4556 Y60.8793 
G00 Z2.0000 
G00 X148.6870 Y60.8793 
G01 Z-0.1000 F600.00 
G01 X148.6870 Y61.0574 
G01 X148.6523 Y61.2321 
G01 X148.5841 Y61.3967 
G01 X148.4852 Y61.5447 
G01 X148.3592 Y61.6707 
G01 X148.2112 Y61.7696 
G01 X148.0466 Y61.8378 
G01 X147.8719 Y61.8725 
G01 X147.6938 Y61.8725 
G01 X147.5191 Y61.8378 
G01 X147.3545 Y61.7696 
G01 X147.2065 Y61.6707 
G01 X147.0805 Y61.5447 
G01 X146.9816 Y61.3967 
G01 X146.9134 Y61.2321 
G01 X146.8787 Y61.0574 
G01 X146.8787 Y60.8793 
G01 X146.9134 Y60.7046 
G01 X146.9816 Y60.5400 
G01 X147.0805 Y60.3920 
G01 X147.2065 Y60.2660 
G01 X147.3545 Y60.1671 
G01 X147.5191 Y60.0989 
G01 X147.6938 Y60.0642 
G01 X147.8719 Y60.0642 
G01 X148.0466 Y60.0989 
G01 X148.2112 Y60.1671 
G01 X148.3592 Y60.2660 
G01 X148.4852 Y60.3920 
G01 X148.5841 Y60.5400 
G01 X148.6523 Y60.7046 
G01 X148.6870 Y60.8793 
G00 Z2.0000 
G00 X145.9184 Y60.8793 
G01 Z-0.1000 F600.00 
G01 X145.9184 Y61.0574 
G01 X145.8837 Y61.2321 
G01 X145.8155 Y61.3967 
G01 X145.7166 Y61.5447 
G01 X145.5906 Y61.6707 
G01 X145.4426 Y61.7696 
G01 X145.2780 Y61.8378 
G01 X145.1033 Y61.8725 
G01 X144.9252 Y61.8725 
G01 X144.7505 Y61.8378 
G01 X144.5859 Y61.7696 
G01 X144.4379 Y61.6707 
G01 X144.3119 Y61.5447 
G01 X144.2130 Y61.3967 
G01 X144.1448 Y61.2321 
G01 X144.1101 Y61.0574 
G01 X144.1101 Y60.8793 
G01 X144.1448 Y60.7046 
G01 X144.2130 Y60.5400 
G01 X144.3119 Y60.3920 
G01 X144.4379 Y60.2660 
G01 X144.5859 Y60.1671 
G01 X144.7505 Y60.0989 
G01 X144.9252 Y60.0642 
G01 X145.1033 Y60.0642 
G01 X145.2780 Y60.0989 
G01 X145.4426 Y60.1671 
G01 X145.5906 Y60.2660 
G01 X145.7166 Y60.3920 
G01 X145.8155 Y60.5400 
G01 X145.8837 Y60.7046 
G01 X145.9184 Y60.8793 
G00 Z2.0000 
G00 X143.1498 Y60.8793 
G01 Z-0.1000 F600.00 
G01 X143.1498 Y61.0574 
G01 X143.1151 Y61.2321 
G01 X143.0469 Y61.3967 
G01 X142.9480 Y61.5447 
G01 X142.8220 Y61.6707 
G01 X142.6740 Y61.7696 
G01 X142.5094 Y61.8378 
G01 X142.3347 Y61.8725 
G01 X142.1566 Y61.8725 
G01 X141.9819 Y61.8378 
G01 X141.8173 Y61.7696 
G01 X141.6693 Y61.6707 
G01 X141.5433 Y61.5447 
G01 X141.4444 Y61.3967 
G01 X141.3762 Y61.2321 
G01 X141.3415 Y61.0574 
G01 X141.3415 Y60.8793 
G01 X141.3762 Y60.7046 
G01 X141.4444 Y60.5400 
G01 X141.5433 Y60.3920 
G01 X141.6693 Y60.2660 
G01 X141.8173 Y60.1671 
G01 X141.9819 Y60.0989 
G01 X142.1566 Y60.0642 
G01 X142.3347 Y60.0642 
G01 X142.5094 Y60.0989 
G01 X142.6740 Y60.1671 
G01 X142.8220 Y60.2660 
G01 X142.9480 Y60.3920 
G01 X143.0469 Y60.5400 
G01 X143.1151 Y60.7046 
G01 X143.1498 Y60.8793 
G00 Z2.0000 
G00 X140.3812 Y60.8793 
G01 Z-0.1000 F600.00 
G01 X140.3812 Y61.0574 
G01 X140.3465 Y61.2321 
G01 X140.2783 Y61.3967 
G01 X140.1794 Y61.5447 
G01 X140.0534 Y61.6707 
G01 X139.9054 Y61.7696 
G01 X139.7408 Y61.8378 
G01 X139.5661 Y61.8725 
G01 X139.3880 Y61.8725 
G01 X139.2133 Y61.8378 
G01 X139.0487 Y61.7696 
G01 X138.9007 Y61.6707 
G01 X138.7747 Y61.5447 
G01 X138.6758 Y61.3967 
G01 X138.6076 Y61.2321 
G01 X138.5729 Y61.0574 
G01 X138.5729 Y60.8793 
G01 X138.6076 Y60.7046 
G01 X138.6758 Y60.5400 
G01 X138.7747 Y60.3920 
G01 X138.9007 Y60.2660 
G01 X139.0487 Y60.1671 
G01 X139.2133 Y60.0989 
G01 X139.3880 Y60.0642 
G01 X139.5661 Y60.0642 
G01 X139.7408 Y60.0989 
G01 X139.9054 Y60.1671 
G01 X140.0534 Y60.2660 
G01 X140.1794 Y60.3920 
G01 X140.2783 Y60.5400 
G01 X140.3465 Y60.7046 
G01 X140.3812 Y60.8793 
G00 Z2.0000 
G00 X137.6126 Y60.8793 
G01 Z-0.1000 F600.00 
G01 X137.6126 Y61.0574 
G01 X137.5779 Y61.2321 
G01 X137.5097 Y61.3967 
G01 X137.4108 Y61.5447 
G01 X137.2848 Y61.6707 
G01 X137.1368 Y61.7696 
G01 X136.9722 Y61.8378 
G01 X136.7975 Y61.8725 
G01 X136.6194 Y61.8725 
G01 X136.4447 Y61.8378 
G01 X136.2801 Y61.7696 
G01 X136.1321 Y61.6707 
G01 X136.0061 Y61.5447 
G01 X135.9072 Y61.3967 
G01 X135.8390 Y61.2321 
G01 X135.8043 Y61.0574 
G01 X135.8043 Y60.8793 
G01 X135.8390 Y60.7046 
G01 X135.9072 Y60.5400 
G01 X136.0061 Y60.3920 
G01 X136.1321 Y60.2660 
G01 X136.2801 Y60.1671 
G01 X136.4447 Y60.0989 
G01 X136.6194 Y60.0642 
G01 X136.7975 Y60.0642 
G01 X136.9722 Y60.0989 
G01 X137.1368 Y60.1671 
G01 X137.2848 Y60.2660 
G01 X137.4108 Y60.3920 
G01 X137.5097 Y60.5400 
G01 X137.5779 Y60.7046 
G01 X137.6126 Y60.8793 
G00 Z2.0000 
G00 X134.8440 Y60.8793 
G01 Z-0.1000 F600.00 
G01 X134.8440 Y61.0574 
G01 X134.8093 Y61.2321 
G01 X134.7411 Y61.3967 
G01 X134.6422 Y61.5447 
G01 X134.5162 Y61.6707 
G01 X134.3682 Y61.7696 
G01 X134.2036 Y61.8378 
G01 X134.0289 Y61.8725 
G01 X133.8508 Y61.8725 
G01 X133.6761 Y61.8378 
G01 X133.5115 Y61.7696 
G01 X133.3635 Y61.6707 
G01 X133.2375 Y61.5447 
G01 X133.1386 Y61.3967 
G01 X133.0704 Y61.2321 
G01 X133.0357 Y61.0574 
G01 X133.0357 Y60.8793 
G01 X133.0704 Y60.7046 
G01 X133.1386 Y60.5400 
G01 X133.2375 Y60.3920 
G01 X133.3635 Y60.2660 
G01 X133.5115 Y60.1671 
G01 X133.6761 Y60.0989 
G01 X133.8508 Y60.0642 
G01 X134.0289 Y60.0642 
G01 X134.2036 Y60.0989 
G01 X134.3682 Y60.1671 
G01 X134.5162 Y60.2660 
G01 X134.6422 Y60.3920 
G01 X134.7411 Y60.5400 
G01 X134.8093 Y60.7046 
G01 X134.8440 Y60.8793 
G00 Z2.0000 
G00 X132.0754 Y60.8793 
G01 Z-0.1000 F600.00 
G01 X132.0754 Y61.0574 
G01 X132.0407 Y61.2321 
G01 X131.9725 Y61.3967 
G01 X131.8736 Y61.5447 
G01 X131.7476 Y61.6707 
G01 X131.5996 Y61.7696 
G01 X131.4350 Y61.8378 
G01 X131.2603 Y61.8725 
G01 X131.0822 Y61.8725 
G01 X130.9075 Y61.8378 
G01 X130.7429 Y61.7696 
G01 X130.5949 Y61.6707 
G01 X130.4689 Y61.5447 
G01 X130.3700 Y61.3967 
G01 X130.3018 Y61.2321 
G01 X130.2671 Y61.0574 
G01 X130.2671 Y60.8793 
G01 X130.3018 Y60.7046 
G01 X130.3700 Y60.5400 
G01 X130.4689 Y60.3920 
G01 X130.5949 Y60.2660 
G01 X130.7429 Y60.1671 
G01 X130.9075 Y60.0989 
G01 X131.0822 Y60.0642 
G01 X131.2603 Y60.0642 
G01 X131.4350 Y60.0989 
G01 X131.5996 Y60.1671 
G01 X131.7476 Y60.2660 
G01 X131.8736 Y60.3920 
G01 X131.9725 Y60.5400 
G01 X132.0407 Y60.7046 
G01 X132.0754 Y60.8793 
G00 Z2.0000 
G00 X129.3068 Y60.8793 
G01 Z-0.1000 F600.00 
G01 X129.3068 Y61.0574 
G01 X129.2721 Y61.2321 
G01 X129.2039 Y61.3967 
G01 X129.1050 Y61.5447 
G01 X128.9790 Y61.6707 
G01 X128.8310 Y61.7696 
G01 X128.6664 Y61.8378 
G01 X128.4917 Y61.8725 
G01 X128.3136 Y61.8725 
G01 X128.1389 Y61.8378 
G01 X127.9743 Y61.7696 
G01 X127.8263 Y61.6707 
G01 X127.7003 Y61.5447 
G01 X127.6014 Y61.3967 
G01 X127.5332 Y61.2321 
G01 X127.4985 Y61.0574 
G01 X127.4985 Y60.8793 
G01 X127.5332 Y60.7046 
G01 X127.6014 Y60.5400 
G01 X127.7003 Y60.3920 
G01 X127.8263 Y60.2660 
G01 X127.9743 Y60.1671 
G01 X128.1389 Y60.0989 
G01 X128.3136 Y60.0642 
G01 X128.4917 Y60.0642 
G01 X128.6664 Y60.0989 
G01 X128.8310 Y60.1671 
G01 X128.9790 Y60.2660 
G01 X129.1050 Y60.3920 
G01 X129.2039 Y60.5400 
G01 X129.2721 Y60.7046 
G01 X129.3068 Y60.8793 
G00 Z2.0000 
G00 X161.1457 Y58.0345 
G01 Z-0.1000 F600.00 
G01 X161.1457 Y58.2126 
G01 X161.1110 Y58.3873 
G01 X161.0428 Y58.5519 
G01 X160.9439 Y58.6999 
G01 X160.8179 Y58.8259 
G01 X160.6699 Y58.9248 
G01 X160.5053 Y58.9930 
G01 X160.3306 Y59.0277 
G01 X160.1525 Y59.0277 
G01 X159.9778 Y58.9930 
G01 X159.8132 Y58.9248 
G01 X159.6652 Y58.8259 
G01 X159.5392 Y58.6999 
G01 X159.4403 Y58.5519 
G01 X159.3721 Y58.3873 
G01 X159.3374 Y58.2126 
G01 X159.3374 Y58.0345 
G01 X159.3721 Y57.8598 
G01 X159.4403 Y57.6952 
G01 X159.5392 Y57.5472 
G01 X159.6652 Y57.4212 
G01 X159.8132 Y57.3223 
G01 X159.9778 Y57.2541 
G01 X160.1525 Y57.2194 
G01 X160.3306 Y57.2194 
G01 X160.5053 Y57.2541 
G01 X160.6699 Y57.3223 
G01 X160.8179 Y57.4212 
G01 X160.9439 Y57.5472 
G01 X161.0428 Y57.6952 
G01 X161.1110 Y57.8598 
G01 X161.1457 Y58.0345 
G00 Z2.0000 
G00 X158.3771 Y58.0345 
G01 Z-0.1000 F600.00 
G01 X158.3771 Y58.2126 
G01 X158.3424 Y58.3873 
G01 X158.2742 Y58.5519 
G01 X158.1753 Y58.6999 
G01 X158.0493 Y58.8259 
G01 X157.9013 Y58.9248 
G01 X157.7367 Y58.9930 
G01 X157.5620 Y59.0277 
G01 X157.3839 Y59.0277 
G01 X157.2092 Y58.9930 
G01 X157.0446 Y58.9248 
G01 X156.8966 Y58.8259 
G01 X156.7706 Y58.6999 
G01 X156.6717 Y58.5519 
G01 X156.6035 Y58.3873 
G01 X156.5688 Y58.2126 
G01 X156.5688 Y58.0345 
G01 X156.6035 Y57.8598 
G01 X156.6717 Y57.6952 
G01 X156.7706 Y57.5472 
G01 X156.8966 Y57.4212 
G01 X157.0446 Y57.3223 
G01 X157.2092 Y57.2541 
G01 X157.3839 Y57.2194 
G01 X157.5620 Y57.2194 
G01 X157.7367 Y57.2541 
G01 X157.9013 Y57.3223 
G01 X158.0493 Y57.4212 
G01 X158.1753 Y57.5472 
G01 X158.2742 Y57.6952 
G01 X158.3424 Y57.8598 
G01 X158.3771 Y58.0345 
G00 Z2.0000 
G00 X155.6085 Y58.0345 
G01 Z-0.1000 F600.00 
G01 X155.6085 Y58.2126 
G01 X155.5738 Y58.3873 
G01 X155.5056 Y58.5519 
G01 X155.4067 Y58.6999 
G01 X155.2807 Y58.8259 
G01 X155.1327 Y58.9248 
G01 X154.9681 Y58.9930 
G01 X154.7934 Y59.0277 
G01 X154.6153 Y59.0277 
G01 X154.4406 Y58.9930 
G01 X154.2760 Y58.9248 
G01 X154.1280 Y58.8259 
G01 X154.0020 Y58.6999 
G01 X153.9031 Y58.5519 
G01 X153.8349 Y58.3873 
G01 X153.8002 Y58.2126 
G01 X153.8002 Y58.0345 
G01 X153.8349 Y57.8598 
G01 X153.9031 Y57.6952 
G01 X154.0020 Y57.5472 
G01 X154.1280 Y57.4212 
G01 X154.2760 Y57.3223 
G01 X154.4406 Y57.2541 
G01 X154.6153 Y57.2194 
G01 X154.7934 Y57.2194 
G01 X154.9681 Y57.2541 
G01 X155.1327 Y57.3223 
G01 X155.2807 Y57.4212 
G01 X155.4067 Y57.5472 
G01 X155.5056 Y57.6952 
G01 X155.5738 Y57.8598 
G01 X155.6085 Y58.0345 
G00 Z2.0000 
G00 X152.8399 Y58.0345 
G01 Z-0.1000 F600.00 
G01 X152.8399 Y58.2126 
G01 X152.8052 Y58.3873 
G01 X152.7370 Y58.5519 
G01 X152.6381 Y58.6999 
G01 X152.5121 Y58.8259 
G01 X152.3641 Y58.9248 
G01 X152.1995 Y58.9930 
G01 X152.0248 Y59.0277 
G01 X151.8467 Y59.0277 
G01 X151.6720 Y58.9930 
G01 X151.5074 Y58.9248 
G01 X151.3594 Y58.8259 
G01 X151.2334 Y58.6999 
G01 X151.1345 Y58.5519 
G01 X151.0663 Y58.3873 
G01 X151.0316 Y58.2126 
G01 X151.0316 Y58.0345 
G01 X151.0663 Y57.8598 
G01 X151.1345 Y57.6952 
G01 X151.2334 Y57.5472 
G01 X151.3594 Y57.4212 
G01 X151.5074 Y57.3223 
G01 X151.6720 Y57.2541 
G01 X151.8467 Y57.2194 
G01 X152.0248 Y57.2194 
G01 X152.1995 Y57.2541 
G01 X152.3641 Y57.3223 
G01 X152.5121 Y57.4212 
G01 X152.6381 Y57.5472 
G01 X152.7370 Y57.6952 
G01 X152.8052 Y57.8598 
G01 X152.8399 Y58.0345 
G00 Z2.0000 
G00 X150.0713 Y58.0345 
G01 Z-0.1000 F600.00 
G01 X150.0713 Y58.2126 
G01 X150.0366 Y58.3873 
G01 X149.9684 Y58.5519 
G01 X149.8695 Y58.6999 
G01 X149.7435 Y58.8259 
G01 X149.5955 Y58.9248 
G01 X149.4309 Y58.9930 
G01 X149.2562 Y59.0277 
G01 X149.0781 Y59.0277 
G01 X148.9034 Y58.9930 
G01 X148.7388 Y58.9248 
G01 X148.5908 Y58.8259 
G01 X148.4648 Y58.6999 
G01 X148.3659 Y58.5519 
G01 X148.2977 Y58.3873 
G01 X148.2630 Y58.2126 
G01 X148.2630 Y58.0345 
G01 X148.2977 Y57.8598 
G01 X148.3659 Y57.6952 
G01 X148.4648 Y57.5472 
G01 X148.5908 Y57.4212 
G01 X148.7388 Y57.3223 
G01 X148.9034 Y57.2541 
G01 X149.0781 Y57.2194 
G01 X149.2562 Y57.2194 
G01 X149.4309 Y57.2541 
G01 X149.5955 Y57.3223 
G01 X149.7435 Y57.4212 
G01 X149.8695 Y57.5472 
G01 X149.9684 Y57.6952 
G01 X150.0366 Y57.8598 
G01 X150.0713 Y58.0345 
G00 Z2.0000 
G00 X147.3027 Y58.0345 
G01 Z-0.1000 F600.00 
G01 X147.3027 Y58.2126 
G01 X147.2680 Y58.3873 
G01 X147.1998 Y58.5519 
G01 X147.1009 Y58.6999 
G01 X146.9749 Y58.8259 
G01 X146.8269 Y58.9248 
G01 X146.6623 Y58.9930 
G01 X146.4876 Y59.0277 
G01 X146.3095 Y59.0277 
G01 X146.1348 Y58.9930 
G01 X145.9702 Y58.9248 
G01 X145.8222 Y58.8259 
G01 X145.6962 Y58.6999 
G01 X145.5973 Y58.5519 
G01 X145.5291 Y58.3873 
G01 X145.4944 Y58.2126 
G01 X145.4944 Y58.0345 
G01 X145.5291 Y57.8598 
G01 X145.5973 Y57.6952 
G01 X145.6962 Y57.5472 
G01 X145.8222 Y57.4212 
G01 X145.9702 Y57.3223 
G01 X146.1348 Y57.2541 
G01 X146.3095 Y57.2194 
G01 X146.4876 Y57.2194 
G01 X146.6623 Y57.2541 
G01 X146.8269 Y57.3223 
G01 X146.9749 Y57.4212 
G01 X147.1009 Y57.5472 
G01 X147.1998 Y57.6952 
G01 X147.2680 Y57.8598 
G01 X147.3027 Y58.0345 
G00 Z2.0000 
G00 X144.5341 Y58.0345 
G01 Z-0.1000 F600.00 
G01 X144.5341 Y58.2126 
G01 X144.4994 Y58.3873 
G01 X144.4312 Y58.5519 
G01 X144.3323 Y58.6999 
G01 X144.2063 Y58.8259 
G01 X144.0583 Y58.9248 
G01 X143.8937 Y58.9930 
G01 X143.7190 Y59.0277 
G01 X143.5409 Y59.0277 
G01 X143.3662 Y58.9930 
G01 X143.2016 Y58.9248 
G01 X143.0536 Y58.8259 
G01 X142.9276 Y58.6999 
G01 X142.8287 Y58.5519 
G01 X142.7605 Y58.3873 
G01 X142.7258 Y58.2126 
G01 X142.7258 Y58.0345 
G01 X142.7605 Y57.8598 
G01 X142.8287 Y57.6952 
G01 X142.9276 Y57.5472 
G01 X143.0536 Y57.4212 
G01 X143.2016 Y57.3223 
G01 X143.3662 Y57.2541 
G01 X143.5409 Y57.2194 
G01 X143.7190 Y57.2194 
G01 X143.8937 Y57.2541 
G01 X144.0583 Y57.3223 
G01 X144.2063 Y57.4212 
G01 X144.3323 Y57.5472 
G01 X144.4312 Y57.6952 
G01 X144.4994 Y57.8598 
G01 X144.5341 Y58.0345 
G00 Z2.0000 
G00 X141.7655 Y58.0345 
G01 Z-0.1000 F600.00 
G01 X141.7655 Y58.2126 
G01 X141.7308 Y58.3873 
G01 X141.6626 Y58.5519 
G01 X141.5637 Y58.6999 
G01 X141.4377 Y58.8259 
G01 X141.2897 Y58.9248 
G01 X141.1251 Y58.9930 
G01 X140.9504 Y59.0277 
G01 X140.7723 Y59.0277 
G01 X140.5976 Y58.9930 
G01 X140.4330 Y58.9248 
G01 X140.2850 Y58.8259 
G01 X140.1590 Y58.6999 
G01 X140.0601 Y58.5519 
G01 X139.9919 Y58.3873 
G01 X139.9572 Y58.2126 
G01 X139.9572 Y58.0345 
G01 X139.9919 Y57.8598 
G01 X140.0601 Y57.6952 
G01 X140.1590 Y57.5472 
G01 X140.2850 Y57.4212 
G01 X140.4330 Y57.3223 
G01 X140.5976 Y57.2541 
G01 X140.7723 Y57.2194 
G01 X140.9504 Y57.2194 
G01 X141.1251 Y57.2541 
G01 X141.2897 Y57.3223 
G01 X141.4377 Y57.4212 
G01 X141.5637 Y57.5472 
G01 X141.6626 Y57.6952 
G01 X141.7308 Y57.8598 
G01 X141.7655 Y58.0345 
G00 Z2.0000 
G00 X138.9969 Y58.0345 
G01 Z-0.1000 F600.00 
G01 X138.9969 Y58.2126 
G01 X138.9622 Y58.3873 
G01 X138.8940 Y58.5519 
G01 X138.7951 Y58.6999 
G01 X138.6691 Y58.8259 
G01 X138.5211 Y58.9248 
G01 X138.3565 Y58.9930 
G01 X138.1818 Y59.0277 
G01 X138.0037 Y59.0277 
G01 X137.8290 Y58.9930 
G01 X137.6644 Y58.9248 
G01 X137.5164 Y58.8259 
G01 X137.3904 Y58.6999 
G01 X137.2915 Y58.5519 
G01 X137.2233 Y58.3873 
G01 X137.1886 Y58.2126 
G01 X137.1886 Y58.0345 
G01 X137.2233 Y57.8598 
G01 X137.2915 Y57.6952 
G01 X137.3904 Y57.5472 
G01 X137.5164 Y57.4212 
G01 X137.6644 Y57.3223 
G01 X137.8290 Y57.2541 
G01 X138.0037 Y57.2194 
G01 X138.1818 Y57.2194 
G01 X138.3565 Y57.2541 
G01 X138.5211 Y57.3223 
G01 X138.6691 Y57.4212 
G01 X138.7951 Y57.5472 
G01 X138.8940 Y57.6952 
G01 X138.9622 Y57.8598 
G01 X138.9969 Y58.0345 
G00 Z2.0000 
G00 X136.2283 Y58.0345 
G01 Z-0.1000 F600.00 
G01 X136.2283 Y58.2126 
G01 X136.1936 Y58.3873 
G01 X136.1254 Y58.5519 
G01 X136.0265 Y58.6999 
G01 X135.9005 Y58.8259 
G01 X135.7525 Y58.9248 
G01 X135.5879 Y58.9930 
G01 X135.4132 Y59.0277 
G01 X135.2351 Y59.0277 
G01 X135.0604 Y58.9930 
G01 X134.8958 Y58.9248 
G01 X134.7478 Y58.8259 
G01 X134.6218 Y58.6999 
G01 X134.5229 Y58.5519 
G01 X134.4547 Y58.3873 
G01 X134.4200 Y58.2126 
G01 X134.4200 Y58.0345 
G01 X134.4547 Y57.8598 
G01 X134.5229 Y57.6952 
G01 X134.6218 Y57.5472 
G01 X134.7478 Y57.4212 
G01 X134.8958 Y57.3223 
G01 X135.0604 Y57.2541 
G01 X135.2351 Y57.2194 
G01 X135.4132 Y57.2194 
G01 X135.5879 Y57.2541 
G01 X135.7525 Y57.3223 
G01 X135.9005 Y57.4212 
G01 X136.0265 Y57.5472 
G01 X136.1254 Y57.6952 
G01 X136.1936 Y57.8598 
G01 X136.2283 Y58.0345 
G00 Z2.0000 
G00 X133.4597 Y58.0345 
G01 Z-0.1000 F600.00 
G01 X133.4597 Y58.2126 
G01 X133.4250 Y58.3873 
G01 X133.3568 Y58.5519 
G01 X133.2579 Y58.6999 
G01 X133.1319 Y58.8259 
G01 X132.9839 Y58.9248 
G01 X132.8193 Y58.9930 
G01 X132.6446 Y59.0277 
G01 X132.4665 Y59.0277 
G01 X132.2918 Y58.9930 
G01 X132.1272 Y58.9248 
G01 X131.9792 Y58.8259 
G01 X131.8532 Y58.6999 
G01 X131.7543 Y58.5519 
G01 X131.6861 Y58.3873 
G01 X131.6514 Y58.2126 
G01 X131.6514 Y58.0345 
G01 X131.6861 Y57.8598 
G01 X131.7543 Y57.6952 
G01 X131.8532 Y57.5472 
G01 X131.9792 Y57.4212 
G01 X132.1272 Y57.3223 
G01 X132.2674 Y57.2643 
G01 X132.2674 Y55.7881 
G01 X98.0381 Y55.7881 
G01 X98.0381 Y58.8446 
G01 X98.1140 Y58.8759 
G01 X98.2319 Y58.9547 
G01 X98.3322 Y59.0550 
G01 X98.4110 Y59.1729 
G01 X98.4652 Y59.3039 
G01 X98.4929 Y59.4430 
G01 X98.4929 Y59.5849 
G01 X98.4652 Y59.7240 
G01 X98.4110 Y59.8550 
G01 X98.3322 Y59.9729 
G01 X98.2319 Y60.0732 
G01 X98.1140 Y60.1520 
G01 X97.9830 Y60.2062 
G01 X97.8439 Y60.2339 
G01 X97.7020 Y60.2339 
G01 X97.5629 Y60.2062 
G01 X97.4319 Y60.1520 
G01 X97.3140 Y60.0732 
G01 X97.2137 Y59.9729 
G01 X97.1349 Y59.8550 
G01 X97.0807 Y59.7240 
G01 X97.0530 Y59.5849 
G01 X97.0530 Y59.4430 
G01 X97.0807 Y59.3039 
G01 X97.1349 Y59.1729 
G01 X97.2137 Y59.0550 
G01 X97.3140 Y58.9547 
G01 X97.4319 Y58.8759 
G01 X97.4618 Y58.8636 
G01 X97.4618 Y55.5379 
G01 X97.4618 Y55.4620 
G01 X97.4814 Y55.3887 
G01 X97.5194 Y55.3230 
G01 X97.5730 Y55.2694 
G01 X97.6387 Y55.2314 
G01 X97.7120 Y55.2118 
G01 X132.5176 Y55.2118 
G01 X132.5935 Y55.2118 
G01 X132.6668 Y55.2314 
G01 X132.7325 Y55.2694 
G01 X132.7861 Y55.3230 
G01 X132.8241 Y55.3887 
G01 X132.8437 Y55.4620 
G01 X132.8437 Y57.2643 
G01 X132.9839 Y57.3223 
G01 X133.1319 Y57.4212 
G01 X133.2579 Y57.5472 
G01 X133.3568 Y57.6952 
G01 X133.4250 Y57.8598 
G01 X133.4597 Y58.0345 
G00 Z2.0000 
G00 X68.7359 Y59.4430 
G01 Z-0.1000 F600.00 
G01 X68.7359 Y59.5849 
G01 X68.7082 Y59.7240 
G01 X68.6540 Y59.8550 
G01 X68.5752 Y59.9729 
G01 X68.4749 Y60.0732 
G01 X68.3570 Y60.1520 
G01 X68.2260 Y60.2062 
G01 X68.0869 Y60.2339 
G01 X67.9450 Y60.2339 
G01 X67.8059 Y60.2062 
G01 X67.6749 Y60.1520 
G01 X67.5570 Y60.0732 
G01 X67.4567 Y59.9729 
G01 X67.3779 Y59.8550 
G01 X67.3237 Y59.7240 
G01 X67.2960 Y59.5849 
G01 X67.2960 Y59.4430 
G01 X67.3237 Y59.3039 
G01 X67.3779 Y59.1729 
G01 X67.4567 Y59.0550 
G01 X67.5570 Y58.9547 
G01 X67.6749 Y58.8759 
G01 X67.8059 Y58.8217 
G01 X67.9450 Y58.7940 
G01 X68.0869 Y58.7940 
G01 X68.2260 Y58.8217 
G01 X68.3570 Y58.8759 
G01 X68.4749 Y58.9547 
G01 X68.5752 Y59.0550 
G01 X68.6540 Y59.1729 
G01 X68.7082 Y59.3039 
G01 X68.7359 Y59.4430 
G00 Z2.0000 
G00 X72.9869 Y59.4430 
G01 Z-0.1000 F600.00 
G01 X72.9869 Y59.5849 
G01 X72.9592 Y59.7240 
G01 X72.9050 Y59.8550 
G01 X72.8262 Y59.9729 
G01 X72.7259 Y60.0732 
G01 X72.6080 Y60.1520 
G01 X72.4770 Y60.2062 
G01 X72.3379 Y60.2339 
G01 X72.1960 Y60.2339 
G01 X72.0569 Y60.2062 
G01 X71.9259 Y60.1520 
G01 X71.8080 Y60.0732 
G01 X71.7077 Y59.9729 
G01 X71.6289 Y59.8550 
G01 X71.5747 Y59.7240 
G01 X71.5470 Y59.5849 
G01 X71.5470 Y59.4430 
G01 X71.5747 Y59.3039 
G01 X71.6289 Y59.1729 
G01 X71.7077 Y59.0550 
G01 X71.8080 Y58.9547 
G01 X71.9259 Y58.8759 
G01 X72.0569 Y58.8217 
G01 X72.1960 Y58.7940 
G01 X72.3379 Y58.7940 
G01 X72.4770 Y58.8217 
G01 X72.6080 Y58.8759 
G01 X72.7259 Y58.9547 
G01 X72.8262 Y59.0550 
G01 X72.9050 Y59.1729 
G01 X72.9592 Y59.3039 
G01 X72.9869 Y59.4430 
G00 Z2.0000 
G00 X77.2379 Y59.4430 
G01 Z-0.1000 F600.00 
G01 X77.2379 Y59.5849 
G01 X77.2102 Y59.7240 
G01 X77.1560 Y59.8550 
G01 X77.0772 Y59.9729 
G01 X76.9769 Y60.0732 
G01 X76.8590 Y60.1520 
G01 X76.7280 Y60.2062 
G01 X76.5889 Y60.2339 
G01 X76.4470 Y60.2339 
G01 X76.3079 Y60.2062 
G01 X76.1769 Y60.1520 
G01 X76.0590 Y60.0732 
G01 X75.9587 Y59.9729 
G01 X75.8799 Y59.8550 
G01 X75.8257 Y59.7240 
G01 X75.7980 Y59.5849 
G01 X75.7980 Y59.4430 
G01 X75.8257 Y59.3039 
G01 X75.8799 Y59.1729 
G01 X75.9587 Y59.0550 
G01 X76.0590 Y58.9547 
G01 X76.1769 Y58.8759 
G01 X76.3079 Y58.8217 
G01 X76.4470 Y58.7940 
G01 X76.5889 Y58.7940 
G01 X76.7280 Y58.8217 
G01 X76.8590 Y58.8759 
G01 X76.9769 Y58.9547 
G01 X77.0772 Y59.0550 
G01 X77.1560 Y59.1729 
G01 X77.2102 Y59.3039 
G01 X77.2379 Y59.4430 
G00 Z2.0000 
G00 X81.4889 Y59.4430 
G01 Z-0.1000 F600.00 
G01 X81.4889 Y59.5849 
G01 X81.4612 Y59.7240 
G01 X81.4070 Y59.8550 
G01 X81.3282 Y59.9729 
G01 X81.2279 Y60.0732 
G01 X81.1100 Y60.1520 
G01 X80.9790 Y60.2062 
G01 X80.8399 Y60.2339 
G01 X80.6980 Y60.2339 
G01 X80.5589 Y60.2062 
G01 X80.4279 Y60.1520 
G01 X80.3100 Y60.0732 
G01 X80.2097 Y59.9729 
G01 X80.1309 Y59.8550 
G01 X80.0767 Y59.7240 
G01 X80.0490 Y59.5849 
G01 X80.0490 Y59.4430 
G01 X80.0767 Y59.3039 
G01 X80.1309 Y59.1729 
G01 X80.2097 Y59.0550 
G01 X80.3100 Y58.9547 
G01 X80.4279 Y58.8759 
G01 X80.5589 Y58.8217 
G01 X80.6980 Y58.7940 
G01 X80.8399 Y58.7940 
G01 X80.9790 Y58.8217 
G01 X81.1100 Y58.8759 
G01 X81.2279 Y58.9547 
G01 X81.3282 Y59.0550 
G01 X81.4070 Y59.1729 
G01 X81.4612 Y59.3039 
G01 X81.4889 Y59.4430 
G00 Z2.0000 
G00 X85.7399 Y59.4430 
G01 Z-0.1000 F600.00 
G01 X85.7399 Y59.5849 
G01 X85.7122 Y59.7240 
G01 X85.6580 Y59.8550 
G01 X85.5792 Y59.9729 
G01 X85.4789 Y60.0732 
G01 X85.3610 Y60.1520 
G01 X85.2300 Y60.2062 
G01 X85.0909 Y60.2339 
G01 X84.9490 Y60.2339 
G01 X84.8099 Y60.2062 
G01 X84.6789 Y60.1520 
G01 X84.5610 Y60.0732 
G01 X84.4607 Y59.9729 
G01 X84.3819 Y59.8550 
G01 X84.3277 Y59.7240 
G01 X84.3000 Y59.5849 
G01 X84.3000 Y59.4430 
G01 X84.3277 Y59.3039 
G01 X84.3819 Y59.1729 
G01 X84.4607 Y59.0550 
G01 X84.5610 Y58.9547 
G01 X84.6789 Y58.8759 
G01 X84.8099 Y58.8217 
G01 X84.9490 Y58.7940 
G01 X85.0909 Y58.7940 
G01 X85.2300 Y58.8217 
G01 X85.3610 Y58.8759 
G01 X85.4789 Y58.9547 
G01 X85.5792 Y59.0550 
G01 X85.6580 Y59.1729 
G01 X85.7122 Y59.3039 
G01 X85.7399 Y59.4430 
G00 Z2.0000 
G00 X89.9909 Y59.4430 
G01 Z-0.1000 F600.00 
G01 X89.9909 Y59.5849 
G01 X89.9632 Y59.7240 
G01 X89.9090 Y59.8550 
G01 X89.8302 Y59.9729 
G01 X89.7299 Y60.0732 
G01 X89.6120 Y60.1520 
G01 X89.4810 Y60.2062 
G01 X89.3419 Y60.2339 
G01 X89.2000 Y60.2339 
G01 X89.0609 Y60.2062 
G01 X88.9299 Y60.1520 
G01 X88.8120 Y60.0732 
G01 X88.7117 Y59.9729 
G01 X88.6329 Y59.8550 
G01 X88.5787 Y59.7240 
G01 X88.5510 Y59.5849 
G01 X88.5510 Y59.4430 
G01 X88.5787 Y59.3039 
G01 X88.6329 Y59.1729 
G01 X88.7117 Y59.0550 
G01 X88.8120 Y58.9547 
G01 X88.9299 Y58.8759 
G01 X89.0609 Y58.8217 
G01 X89.2000 Y58.7940 
G01 X89.3419 Y58.7940 
G01 X89.4810 Y58.8217 
G01 X89.6120 Y58.8759 
G01 X89.7299 Y58.9547 
G01 X89.8302 Y59.0550 
G01 X89.9090 Y59.1729 
G01 X89.9632 Y59.3039 
G01 X89.9909 Y59.4430 
G00 Z2.0000 
G00 X94.2419 Y59.4430 
G01 Z-0.1000 F600.00 
G01 X94.2419 Y59.5849 
G01 X94.2142 Y59.7240 
G01 X94.1600 Y59.8550 
G01 X94.0812 Y59.9729 
G01 X93.9809 Y60.0732 
G01 X93.8630 Y60.1520 
G01 X93.7320 Y60.2062 
G01 X93.5929 Y60.2339 
G01 X93.4510 Y60.2339 
G01 X93.3119 Y60.2062 
G01 X93.1809 Y60.1520 
G01 X93.0630 Y60.0732 
G01 X92.9627 Y59.9729 
G01 X92.8839 Y59.8550 
G01 X92.8297 Y59.7240 
G01 X92.8020 Y59.5849 
G01 X92.8020 Y59.4430 
G01 X92.8297 Y59.3039 
G01 X92.8839 Y59.1729 
G01 X92.9627 Y59.0550 
G01 X93.0630 Y58.9547 
G01 X93.1809 Y58.8759 
G01 X93.3119 Y58.8217 
G01 X93.4510 Y58.7940 
G01 X93.5929 Y58.7940 
G01 X93.7320 Y58.8217 
G01 X93.8630 Y58.8759 
G01 X93.9809 Y58.9547 
G01 X94.0812 Y59.0550 
G01 X94.1600 Y59.1729 
G01 X94.2142 Y59.3039 
G01 X94.2419 Y59.4430 
G00 Z2.0000 
G00 X102.7439 Y59.4430 
G01 Z-0.1000 F600.00 
G01 X102.7439 Y59.5849 
G01 X102.7162 Y59.7240 
G01 X102.6620 Y59.8550 
G01 X102.5832 Y59.9729 
G01 X102.4829 Y60.0732 
G01 X102.3650 Y60.1520 
G01 X102.2340 Y60.2062 
G01 X102.0949 Y60.2339 
G01 X101.9530 Y60.2339 
G01 X101.8139 Y60.2062 
G01 X101.6829 Y60.1520 
G01 X101.5650 Y60.0732 
G01 X101.4647 Y59.9729 
G01 X101.3859 Y59.8550 
G01 X101.3317 Y59.7240 
G01 X101.3040 Y59.5849 
G01 X101.3040 Y59.4430 
G01 X101.3317 Y59.3039 
G01 X101.3859 Y59.1729 
G01 X101.4647 Y59.0550 
G01 X101.5650 Y58.9547 
G01 X101.6829 Y58.8759 
G01 X101.7118 Y58.8640 
G01 X101.7118 Y56.5379 
G01 X101.7118 Y56.4620 
G01 X101.7314 Y56.3887 
G01 X101.7694 Y56.3230 
G01 X101.8230 Y56.2694 
G01 X101.8887 Y56.2314 
G01 X101.9620 Y56.2118 
G01 X129.7490 Y56.2118 
G01 X129.8249 Y56.2118 
G01 X129.8982 Y56.2314 
G01 X129.9639 Y56.2694 
G01 X130.0175 Y56.3230 
G01 X130.0555 Y56.3887 
G01 X130.0751 Y56.4620 
G01 X130.0751 Y57.2643 
G01 X130.2153 Y57.3223 
G01 X130.3633 Y57.4212 
G01 X130.4893 Y57.5472 
G01 X130.5882 Y57.6952 
G01 X130.6564 Y57.8598 
G01 X130.6911 Y58.0345 
G01 X130.6911 Y58.2126 
G01 X130.6564 Y58.3873 
G01 X130.5882 Y58.5519 
G01 X130.4893 Y58.6999 
G01 X130.3633 Y58.8259 
G01 X130.2153 Y58.9248 
G01 X130.0507 Y58.9930 
G01 X129.8760 Y59.0277 
G01 X129.6979 Y59.0277 
G01 X129.5232 Y58.9930 
G01 X129.3586 Y58.9248 
G01 X129.2106 Y58.8259 
G01 X129.0846 Y58.6999 
G01 X128.9857 Y58.5519 
G01 X128.9175 Y58.3873 
G01 X128.8828 Y58.2126 
G01 X128.8828 Y58.0345 
G01 X128.9175 Y57.8598 
G01 X128.9857 Y57.6952 
G01 X129.0846 Y57.5472 
G01 X129.2106 Y57.4212 
G01 X129.3586 Y57.3223 
G01 X129.4988 Y57.2643 
G01 X129.4988 Y56.7881 
G01 X102.2881 Y56.7881 
G01 X102.2881 Y58.8441 
G01 X102.3650 Y58.8759 
G01 X102.4829 Y58.9547 
G01 X102.5832 Y59.0550 
G01 X102.6620 Y59.1729 
G01 X102.7162 Y59.3039 
G01 X102.7439 Y59.4430 
G00 Z2.0000 
G00 X106.9949 Y59.4430 
G01 Z-0.1000 F600.00 
G01 X106.9949 Y59.5849 
G01 X106.9672 Y59.7240 
G01 X106.9130 Y59.8550 
G01 X106.8342 Y59.9729 
G01 X106.7339 Y60.0732 
G01 X106.6160 Y60.1520 
G01 X106.4850 Y60.2062 
G01 X106.3459 Y60.2339 
G01 X106.2040 Y60.2339 
G01 X106.0649 Y60.2062 
G01 X105.9339 Y60.1520 
G01 X105.8160 Y60.0732 
G01 X105.7157 Y59.9729 
G01 X105.6369 Y59.8550 
G01 X105.5827 Y59.7240 
G01 X105.5550 Y59.5849 
G01 X105.5550 Y59.4430 
G01 X105.5827 Y59.3039 
G01 X105.6369 Y59.1729 
G01 X105.7157 Y59.0550 
G01 X105.8160 Y58.9547 
G01 X105.9339 Y58.8759 
G01 X106.0649 Y58.8217 
G01 X106.2040 Y58.7940 
G01 X106.2118 Y58.7940 
G01 X106.2118 Y57.5379 
G01 X106.2118 Y57.4620 
G01 X106.2314 Y57.3887 
G01 X106.2694 Y57.3230 
G01 X106.3230 Y57.2694 
G01 X106.3887 Y57.2314 
G01 X106.4620 Y57.2118 
G01 X126.9804 Y57.2118 
G01 X127.0563 Y57.2118 
G01 X127.0847 Y57.2194 
G01 X127.1074 Y57.2194 
G01 X127.2821 Y57.2541 
G01 X127.4467 Y57.3223 
G01 X127.5947 Y57.4212 
G01 X127.7207 Y57.5472 
G01 X127.8196 Y57.6952 
G01 X127.8878 Y57.8598 
G01 X127.9225 Y58.0345 
G01 X127.9225 Y58.2126 
G01 X127.8878 Y58.3873 
G01 X127.8196 Y58.5519 
G01 X127.7207 Y58.6999 
G01 X127.5947 Y58.8259 
G01 X127.4467 Y58.9248 
G01 X127.2821 Y58.9930 
G01 X127.1074 Y59.0277 
G01 X126.9293 Y59.0277 
G01 X126.7546 Y58.9930 
G01 X126.5900 Y58.9248 
G01 X126.4420 Y58.8259 
G01 X126.3160 Y58.6999 
G01 X126.2171 Y58.5519 
G01 X126.1489 Y58.3873 
G01 X126.1142 Y58.2126 
G01 X126.1142 Y58.0345 
G01 X126.1489 Y57.8598 
G01 X126.1787 Y57.7881 
G01 X106.7881 Y57.7881 
G01 X106.7881 Y59.0090 
G01 X106.8342 Y59.0550 
G01 X106.9130 Y59.1729 
G01 X106.9672 Y59.3039 
G01 X106.9949 Y59.4430 
(File Footer)
G00 Z2.0000 
G00 Z10.0000 
M05
M02
