( This gcode generated by /home/mattvenn/.eagle/ulp/pcb-gcode.ulp )
( Copyright 2005 by John Johnson. See readme.txt for licensing terms. )

( This file generated from the board /home/mattvenn/eagle-circuit-designs/cvm/hymera.brd )
( This file generated 30/01/2012 16:46 )

G21

G90
G00 Z10.0000 
G00 X0 Y0
M03
G04 P3.000000
G00 Z2.0000 
G00 X-127.9225 Y58.0345 
G01 Z-0.1000 F600.00 
G01 X-127.9225 Y58.2126 
G01 X-127.8878 Y58.3873 
G01 X-127.8196 Y58.5519 
G01 X-127.7207 Y58.6999 
G01 X-127.5947 Y58.8259 
G01 X-127.4467 Y58.9248 
G01 X-127.2821 Y58.9930 
G01 X-127.1074 Y59.0277 
G01 X-126.9293 Y59.0277 
G01 X-126.7546 Y58.9930 
G01 X-126.5900 Y58.9248 
G01 X-126.4420 Y58.8259 
G01 X-126.3160 Y58.6999 
G01 X-126.2171 Y58.5519 
G01 X-126.1489 Y58.3873 
G01 X-126.1142 Y58.2126 
G01 X-126.1142 Y58.0345 
G01 X-126.1489 Y57.8598 
G01 X-126.2171 Y57.6952 
G01 X-126.3160 Y57.5472 
G01 X-126.4420 Y57.4212 
G01 X-126.5900 Y57.3223 
G01 X-126.7546 Y57.2541 
G01 X-126.9293 Y57.2194 
G01 X-127.1074 Y57.2194 
G01 X-127.2821 Y57.2541 
G01 X-127.4467 Y57.3223 
G01 X-127.5947 Y57.4212 
G01 X-127.7207 Y57.5472 
G01 X-127.8196 Y57.6952 
G01 X-127.8878 Y57.8598 
G01 X-127.9225 Y58.0345 
G00 Z2.0000 
G00 X-130.6911 Y58.0345 
G01 Z-0.1000 F600.00 
G01 X-130.6911 Y58.2126 
G01 X-130.6564 Y58.3873 
G01 X-130.5882 Y58.5519 
G01 X-130.4893 Y58.6999 
G01 X-130.3633 Y58.8259 
G01 X-130.2153 Y58.9248 
G01 X-130.0507 Y58.9930 
G01 X-129.8760 Y59.0277 
G01 X-129.6979 Y59.0277 
G01 X-129.5232 Y58.9930 
G01 X-129.3586 Y58.9248 
G01 X-129.2106 Y58.8259 
G01 X-129.0846 Y58.6999 
G01 X-128.9857 Y58.5519 
G01 X-128.9175 Y58.3873 
G01 X-128.8828 Y58.2126 
G01 X-128.8828 Y58.0345 
G01 X-128.9175 Y57.8598 
G01 X-128.9857 Y57.6952 
G01 X-129.0846 Y57.5472 
G01 X-129.2106 Y57.4212 
G01 X-129.3586 Y57.3223 
G01 X-129.5232 Y57.2541 
G01 X-129.6979 Y57.2194 
G01 X-129.8760 Y57.2194 
G01 X-130.0507 Y57.2541 
G01 X-130.2153 Y57.3223 
G01 X-130.3633 Y57.4212 
G01 X-130.4893 Y57.5472 
G01 X-130.5882 Y57.6952 
G01 X-130.6564 Y57.8598 
G01 X-130.6911 Y58.0345 
G00 Z2.0000 
G00 X-133.4597 Y58.0345 
G01 Z-0.1000 F600.00 
G01 X-133.4597 Y58.2126 
G01 X-133.4250 Y58.3873 
G01 X-133.3568 Y58.5519 
G01 X-133.2579 Y58.6999 
G01 X-133.1319 Y58.8259 
G01 X-132.9839 Y58.9248 
G01 X-132.8193 Y58.9930 
G01 X-132.6446 Y59.0277 
G01 X-132.4665 Y59.0277 
G01 X-132.2918 Y58.9930 
G01 X-132.1272 Y58.9248 
G01 X-131.9792 Y58.8259 
G01 X-131.8532 Y58.6999 
G01 X-131.7543 Y58.5519 
G01 X-131.6861 Y58.3873 
G01 X-131.6514 Y58.2126 
G01 X-131.6514 Y58.0345 
G01 X-131.6861 Y57.8598 
G01 X-131.7543 Y57.6952 
G01 X-131.8532 Y57.5472 
G01 X-131.9792 Y57.4212 
G01 X-132.1272 Y57.3223 
G01 X-132.2918 Y57.2541 
G01 X-132.4665 Y57.2194 
G01 X-132.6446 Y57.2194 
G01 X-132.8193 Y57.2541 
G01 X-132.9839 Y57.3223 
G01 X-133.1319 Y57.4212 
G01 X-133.2579 Y57.5472 
G01 X-133.3568 Y57.6952 
G01 X-133.4250 Y57.8598 
G01 X-133.4597 Y58.0345 
G00 Z2.0000 
G00 X-136.2283 Y58.0345 
G01 Z-0.1000 F600.00 
G01 X-136.2283 Y58.2126 
G01 X-136.1936 Y58.3873 
G01 X-136.1254 Y58.5519 
G01 X-136.0265 Y58.6999 
G01 X-135.9005 Y58.8259 
G01 X-135.7525 Y58.9248 
G01 X-135.5879 Y58.9930 
G01 X-135.4132 Y59.0277 
G01 X-135.2351 Y59.0277 
G01 X-135.0604 Y58.9930 
G01 X-134.8958 Y58.9248 
G01 X-134.7478 Y58.8259 
G01 X-134.6218 Y58.6999 
G01 X-134.5229 Y58.5519 
G01 X-134.4547 Y58.3873 
G01 X-134.4200 Y58.2126 
G01 X-134.4200 Y58.0345 
G01 X-134.4547 Y57.8598 
G01 X-134.5229 Y57.6952 
G01 X-134.6218 Y57.5472 
G01 X-134.7478 Y57.4212 
G01 X-134.8958 Y57.3223 
G01 X-135.0604 Y57.2541 
G01 X-135.2351 Y57.2194 
G01 X-135.4132 Y57.2194 
G01 X-135.5879 Y57.2541 
G01 X-135.7525 Y57.3223 
G01 X-135.9005 Y57.4212 
G01 X-136.0265 Y57.5472 
G01 X-136.1254 Y57.6952 
G01 X-136.1936 Y57.8598 
G01 X-136.2283 Y58.0345 
G00 Z2.0000 
G00 X-138.9969 Y58.0345 
G01 Z-0.1000 F600.00 
G01 X-138.9969 Y58.2126 
G01 X-138.9622 Y58.3873 
G01 X-138.8940 Y58.5519 
G01 X-138.7951 Y58.6999 
G01 X-138.6691 Y58.8259 
G01 X-138.5211 Y58.9248 
G01 X-138.3565 Y58.9930 
G01 X-138.1818 Y59.0277 
G01 X-138.0037 Y59.0277 
G01 X-137.8290 Y58.9930 
G01 X-137.6644 Y58.9248 
G01 X-137.5164 Y58.8259 
G01 X-137.3904 Y58.6999 
G01 X-137.2915 Y58.5519 
G01 X-137.2233 Y58.3873 
G01 X-137.1886 Y58.2126 
G01 X-137.1886 Y58.0345 
G01 X-137.2233 Y57.8598 
G01 X-137.2915 Y57.6952 
G01 X-137.3904 Y57.5472 
G01 X-137.5164 Y57.4212 
G01 X-137.6644 Y57.3223 
G01 X-137.8290 Y57.2541 
G01 X-138.0037 Y57.2194 
G01 X-138.1818 Y57.2194 
G01 X-138.3565 Y57.2541 
G01 X-138.5211 Y57.3223 
G01 X-138.6691 Y57.4212 
G01 X-138.7951 Y57.5472 
G01 X-138.8940 Y57.6952 
G01 X-138.9622 Y57.8598 
G01 X-138.9969 Y58.0345 
G00 Z2.0000 
G00 X-141.7655 Y58.0345 
G01 Z-0.1000 F600.00 
G01 X-141.7655 Y58.2126 
G01 X-141.7308 Y58.3873 
G01 X-141.6626 Y58.5519 
G01 X-141.5637 Y58.6999 
G01 X-141.4377 Y58.8259 
G01 X-141.2897 Y58.9248 
G01 X-141.1251 Y58.9930 
G01 X-140.9504 Y59.0277 
G01 X-140.7723 Y59.0277 
G01 X-140.5976 Y58.9930 
G01 X-140.4330 Y58.9248 
G01 X-140.2850 Y58.8259 
G01 X-140.1590 Y58.6999 
G01 X-140.0601 Y58.5519 
G01 X-139.9919 Y58.3873 
G01 X-139.9572 Y58.2126 
G01 X-139.9572 Y58.0345 
G01 X-139.9919 Y57.8598 
G01 X-140.0601 Y57.6952 
G01 X-140.1590 Y57.5472 
G01 X-140.2850 Y57.4212 
G01 X-140.4330 Y57.3223 
G01 X-140.5976 Y57.2541 
G01 X-140.7723 Y57.2194 
G01 X-140.9504 Y57.2194 
G01 X-141.1251 Y57.2541 
G01 X-141.2897 Y57.3223 
G01 X-141.4377 Y57.4212 
G01 X-141.5637 Y57.5472 
G01 X-141.6626 Y57.6952 
G01 X-141.7308 Y57.8598 
G01 X-141.7655 Y58.0345 
G00 Z2.0000 
G00 X-144.5341 Y58.0345 
G01 Z-0.1000 F600.00 
G01 X-144.5341 Y58.2126 
G01 X-144.4994 Y58.3873 
G01 X-144.4312 Y58.5519 
G01 X-144.3323 Y58.6999 
G01 X-144.2063 Y58.8259 
G01 X-144.0583 Y58.9248 
G01 X-143.8937 Y58.9930 
G01 X-143.7190 Y59.0277 
G01 X-143.5409 Y59.0277 
G01 X-143.3662 Y58.9930 
G01 X-143.2016 Y58.9248 
G01 X-143.0536 Y58.8259 
G01 X-142.9276 Y58.6999 
G01 X-142.8287 Y58.5519 
G01 X-142.7605 Y58.3873 
G01 X-142.7258 Y58.2126 
G01 X-142.7258 Y58.0345 
G01 X-142.7605 Y57.8598 
G01 X-142.8287 Y57.6952 
G01 X-142.9276 Y57.5472 
G01 X-143.0536 Y57.4212 
G01 X-143.2016 Y57.3223 
G01 X-143.3662 Y57.2541 
G01 X-143.5409 Y57.2194 
G01 X-143.7190 Y57.2194 
G01 X-143.8937 Y57.2541 
G01 X-144.0583 Y57.3223 
G01 X-144.2063 Y57.4212 
G01 X-144.3323 Y57.5472 
G01 X-144.4312 Y57.6952 
G01 X-144.4994 Y57.8598 
G01 X-144.5341 Y58.0345 
G00 Z2.0000 
G00 X-147.3027 Y58.0345 
G01 Z-0.1000 F600.00 
G01 X-147.3027 Y58.2126 
G01 X-147.2680 Y58.3873 
G01 X-147.1998 Y58.5519 
G01 X-147.1009 Y58.6999 
G01 X-146.9749 Y58.8259 
G01 X-146.8269 Y58.9248 
G01 X-146.6623 Y58.9930 
G01 X-146.4876 Y59.0277 
G01 X-146.3095 Y59.0277 
G01 X-146.1348 Y58.9930 
G01 X-145.9702 Y58.9248 
G01 X-145.8222 Y58.8259 
G01 X-145.6962 Y58.6999 
G01 X-145.5973 Y58.5519 
G01 X-145.5291 Y58.3873 
G01 X-145.4944 Y58.2126 
G01 X-145.4944 Y58.0345 
G01 X-145.5291 Y57.8598 
G01 X-145.5973 Y57.6952 
G01 X-145.6962 Y57.5472 
G01 X-145.8222 Y57.4212 
G01 X-145.9702 Y57.3223 
G01 X-146.1348 Y57.2541 
G01 X-146.3095 Y57.2194 
G01 X-146.4876 Y57.2194 
G01 X-146.6623 Y57.2541 
G01 X-146.8269 Y57.3223 
G01 X-146.9749 Y57.4212 
G01 X-147.1009 Y57.5472 
G01 X-147.1998 Y57.6952 
G01 X-147.2680 Y57.8598 
G01 X-147.3027 Y58.0345 
G00 Z2.0000 
G00 X-150.0713 Y58.0345 
G01 Z-0.1000 F600.00 
G01 X-150.0713 Y58.2126 
G01 X-150.0366 Y58.3873 
G01 X-149.9684 Y58.5519 
G01 X-149.8695 Y58.6999 
G01 X-149.7435 Y58.8259 
G01 X-149.5955 Y58.9248 
G01 X-149.4309 Y58.9930 
G01 X-149.2562 Y59.0277 
G01 X-149.0781 Y59.0277 
G01 X-148.9034 Y58.9930 
G01 X-148.7388 Y58.9248 
G01 X-148.5908 Y58.8259 
G01 X-148.4648 Y58.6999 
G01 X-148.3659 Y58.5519 
G01 X-148.2977 Y58.3873 
G01 X-148.2630 Y58.2126 
G01 X-148.2630 Y58.0345 
G01 X-148.2977 Y57.8598 
G01 X-148.3659 Y57.6952 
G01 X-148.4648 Y57.5472 
G01 X-148.5908 Y57.4212 
G01 X-148.7388 Y57.3223 
G01 X-148.9034 Y57.2541 
G01 X-149.0781 Y57.2194 
G01 X-149.2562 Y57.2194 
G01 X-149.4309 Y57.2541 
G01 X-149.5955 Y57.3223 
G01 X-149.7435 Y57.4212 
G01 X-149.8695 Y57.5472 
G01 X-149.9684 Y57.6952 
G01 X-150.0366 Y57.8598 
G01 X-150.0713 Y58.0345 
G00 Z2.0000 
G00 X-152.8399 Y58.0345 
G01 Z-0.1000 F600.00 
G01 X-152.8399 Y58.2126 
G01 X-152.8052 Y58.3873 
G01 X-152.7370 Y58.5519 
G01 X-152.6381 Y58.6999 
G01 X-152.5121 Y58.8259 
G01 X-152.3641 Y58.9248 
G01 X-152.1995 Y58.9930 
G01 X-152.0248 Y59.0277 
G01 X-151.8467 Y59.0277 
G01 X-151.6720 Y58.9930 
G01 X-151.5074 Y58.9248 
G01 X-151.3594 Y58.8259 
G01 X-151.2334 Y58.6999 
G01 X-151.1345 Y58.5519 
G01 X-151.0663 Y58.3873 
G01 X-151.0316 Y58.2126 
G01 X-151.0316 Y58.0345 
G01 X-151.0663 Y57.8598 
G01 X-151.1345 Y57.6952 
G01 X-151.2334 Y57.5472 
G01 X-151.3594 Y57.4212 
G01 X-151.5074 Y57.3223 
G01 X-151.6720 Y57.2541 
G01 X-151.8467 Y57.2194 
G01 X-152.0248 Y57.2194 
G01 X-152.1995 Y57.2541 
G01 X-152.3641 Y57.3223 
G01 X-152.5121 Y57.4212 
G01 X-152.6381 Y57.5472 
G01 X-152.7370 Y57.6952 
G01 X-152.8052 Y57.8598 
G01 X-152.8399 Y58.0345 
G00 Z2.0000 
G00 X-155.6085 Y58.0345 
G01 Z-0.1000 F600.00 
G01 X-155.6085 Y58.2126 
G01 X-155.5738 Y58.3873 
G01 X-155.5056 Y58.5519 
G01 X-155.4067 Y58.6999 
G01 X-155.2807 Y58.8259 
G01 X-155.1327 Y58.9248 
G01 X-154.9681 Y58.9930 
G01 X-154.7934 Y59.0277 
G01 X-154.6153 Y59.0277 
G01 X-154.4406 Y58.9930 
G01 X-154.2760 Y58.9248 
G01 X-154.1280 Y58.8259 
G01 X-154.0020 Y58.6999 
G01 X-153.9031 Y58.5519 
G01 X-153.8349 Y58.3873 
G01 X-153.8002 Y58.2126 
G01 X-153.8002 Y58.0345 
G01 X-153.8349 Y57.8598 
G01 X-153.9031 Y57.6952 
G01 X-154.0020 Y57.5472 
G01 X-154.1280 Y57.4212 
G01 X-154.2760 Y57.3223 
G01 X-154.4406 Y57.2541 
G01 X-154.6153 Y57.2194 
G01 X-154.7934 Y57.2194 
G01 X-154.9681 Y57.2541 
G01 X-155.1327 Y57.3223 
G01 X-155.2807 Y57.4212 
G01 X-155.4067 Y57.5472 
G01 X-155.5056 Y57.6952 
G01 X-155.5738 Y57.8598 
G01 X-155.6085 Y58.0345 
G00 Z2.0000 
G00 X-158.3771 Y58.0345 
G01 Z-0.1000 F600.00 
G01 X-158.3771 Y58.2126 
G01 X-158.3424 Y58.3873 
G01 X-158.2742 Y58.5519 
G01 X-158.1753 Y58.6999 
G01 X-158.0493 Y58.8259 
G01 X-157.9013 Y58.9248 
G01 X-157.7367 Y58.9930 
G01 X-157.5620 Y59.0277 
G01 X-157.3839 Y59.0277 
G01 X-157.2092 Y58.9930 
G01 X-157.0446 Y58.9248 
G01 X-156.8966 Y58.8259 
G01 X-156.7706 Y58.6999 
G01 X-156.6717 Y58.5519 
G01 X-156.6035 Y58.3873 
G01 X-156.5688 Y58.2126 
G01 X-156.5688 Y58.0345 
G01 X-156.6035 Y57.8598 
G01 X-156.6717 Y57.6952 
G01 X-156.7706 Y57.5472 
G01 X-156.8966 Y57.4212 
G01 X-157.0446 Y57.3223 
G01 X-157.2092 Y57.2541 
G01 X-157.3839 Y57.2194 
G01 X-157.5620 Y57.2194 
G01 X-157.7367 Y57.2541 
G01 X-157.9013 Y57.3223 
G01 X-158.0493 Y57.4212 
G01 X-158.1753 Y57.5472 
G01 X-158.2742 Y57.6952 
G01 X-158.3424 Y57.8598 
G01 X-158.3771 Y58.0345 
G00 Z2.0000 
G00 X-161.1457 Y58.0345 
G01 Z-0.1000 F600.00 
G01 X-161.1457 Y58.2126 
G01 X-161.1110 Y58.3873 
G01 X-161.0428 Y58.5519 
G01 X-160.9439 Y58.6999 
G01 X-160.8179 Y58.8259 
G01 X-160.6699 Y58.9248 
G01 X-160.5053 Y58.9930 
G01 X-160.3306 Y59.0277 
G01 X-160.1525 Y59.0277 
G01 X-159.9778 Y58.9930 
G01 X-159.8132 Y58.9248 
G01 X-159.6652 Y58.8259 
G01 X-159.5392 Y58.6999 
G01 X-159.4403 Y58.5519 
G01 X-159.3721 Y58.3873 
G01 X-159.3374 Y58.2126 
G01 X-159.3374 Y58.0345 
G01 X-159.3721 Y57.8598 
G01 X-159.4403 Y57.6952 
G01 X-159.5392 Y57.5472 
G01 X-159.6652 Y57.4212 
G01 X-159.8132 Y57.3223 
G01 X-159.9778 Y57.2541 
G01 X-160.1525 Y57.2194 
G01 X-160.3306 Y57.2194 
G01 X-160.5053 Y57.2541 
G01 X-160.6699 Y57.3223 
G01 X-160.8179 Y57.4212 
G01 X-160.9439 Y57.5472 
G01 X-161.0428 Y57.6952 
G01 X-161.1110 Y57.8598 
G01 X-161.1457 Y58.0345 
G00 Z2.0000 
G00 X-129.3068 Y60.8793 
G01 Z-0.1000 F600.00 
G01 X-129.3068 Y61.0574 
G01 X-129.2721 Y61.2321 
G01 X-129.2039 Y61.3967 
G01 X-129.1050 Y61.5447 
G01 X-128.9790 Y61.6707 
G01 X-128.8310 Y61.7696 
G01 X-128.6664 Y61.8378 
G01 X-128.4917 Y61.8725 
G01 X-128.3136 Y61.8725 
G01 X-128.1389 Y61.8378 
G01 X-127.9743 Y61.7696 
G01 X-127.8263 Y61.6707 
G01 X-127.7003 Y61.5447 
G01 X-127.6014 Y61.3967 
G01 X-127.5332 Y61.2321 
G01 X-127.4985 Y61.0574 
G01 X-127.4985 Y60.8793 
G01 X-127.5332 Y60.7046 
G01 X-127.6014 Y60.5400 
G01 X-127.7003 Y60.3920 
G01 X-127.8263 Y60.2660 
G01 X-127.9743 Y60.1671 
G01 X-128.1389 Y60.0989 
G01 X-128.3136 Y60.0642 
G01 X-128.4917 Y60.0642 
G01 X-128.6664 Y60.0989 
G01 X-128.8310 Y60.1671 
G01 X-128.9790 Y60.2660 
G01 X-129.1050 Y60.3920 
G01 X-129.2039 Y60.5400 
G01 X-129.2721 Y60.7046 
G01 X-129.3068 Y60.8793 
G00 Z2.0000 
G00 X-132.0754 Y60.8793 
G01 Z-0.1000 F600.00 
G01 X-132.0754 Y61.0574 
G01 X-132.0407 Y61.2321 
G01 X-131.9725 Y61.3967 
G01 X-131.8736 Y61.5447 
G01 X-131.7476 Y61.6707 
G01 X-131.5996 Y61.7696 
G01 X-131.4350 Y61.8378 
G01 X-131.2603 Y61.8725 
G01 X-131.0822 Y61.8725 
G01 X-130.9075 Y61.8378 
G01 X-130.7429 Y61.7696 
G01 X-130.5949 Y61.6707 
G01 X-130.4689 Y61.5447 
G01 X-130.3700 Y61.3967 
G01 X-130.3018 Y61.2321 
G01 X-130.2671 Y61.0574 
G01 X-130.2671 Y60.8793 
G01 X-130.3018 Y60.7046 
G01 X-130.3700 Y60.5400 
G01 X-130.4689 Y60.3920 
G01 X-130.5949 Y60.2660 
G01 X-130.7429 Y60.1671 
G01 X-130.9075 Y60.0989 
G01 X-131.0822 Y60.0642 
G01 X-131.2603 Y60.0642 
G01 X-131.4350 Y60.0989 
G01 X-131.5996 Y60.1671 
G01 X-131.7476 Y60.2660 
G01 X-131.8736 Y60.3920 
G01 X-131.9725 Y60.5400 
G01 X-132.0407 Y60.7046 
G01 X-132.0754 Y60.8793 
G00 Z2.0000 
G00 X-134.8440 Y60.8793 
G01 Z-0.1000 F600.00 
G01 X-134.8440 Y61.0574 
G01 X-134.8093 Y61.2321 
G01 X-134.7411 Y61.3967 
G01 X-134.6422 Y61.5447 
G01 X-134.5162 Y61.6707 
G01 X-134.3682 Y61.7696 
G01 X-134.2036 Y61.8378 
G01 X-134.0289 Y61.8725 
G01 X-133.8508 Y61.8725 
G01 X-133.6761 Y61.8378 
G01 X-133.5115 Y61.7696 
G01 X-133.3635 Y61.6707 
G01 X-133.2375 Y61.5447 
G01 X-133.1386 Y61.3967 
G01 X-133.0704 Y61.2321 
G01 X-133.0357 Y61.0574 
G01 X-133.0357 Y60.8793 
G01 X-133.0704 Y60.7046 
G01 X-133.1386 Y60.5400 
G01 X-133.2375 Y60.3920 
G01 X-133.3635 Y60.2660 
G01 X-133.5115 Y60.1671 
G01 X-133.6761 Y60.0989 
G01 X-133.8508 Y60.0642 
G01 X-134.0289 Y60.0642 
G01 X-134.2036 Y60.0989 
G01 X-134.3682 Y60.1671 
G01 X-134.5162 Y60.2660 
G01 X-134.6422 Y60.3920 
G01 X-134.7411 Y60.5400 
G01 X-134.8093 Y60.7046 
G01 X-134.8440 Y60.8793 
G00 Z2.0000 
G00 X-137.6126 Y60.8793 
G01 Z-0.1000 F600.00 
G01 X-137.6126 Y61.0574 
G01 X-137.5779 Y61.2321 
G01 X-137.5097 Y61.3967 
G01 X-137.4108 Y61.5447 
G01 X-137.2848 Y61.6707 
G01 X-137.1368 Y61.7696 
G01 X-136.9722 Y61.8378 
G01 X-136.7975 Y61.8725 
G01 X-136.6194 Y61.8725 
G01 X-136.4447 Y61.8378 
G01 X-136.2801 Y61.7696 
G01 X-136.1321 Y61.6707 
G01 X-136.0061 Y61.5447 
G01 X-135.9072 Y61.3967 
G01 X-135.8390 Y61.2321 
G01 X-135.8043 Y61.0574 
G01 X-135.8043 Y60.8793 
G01 X-135.8390 Y60.7046 
G01 X-135.9072 Y60.5400 
G01 X-136.0061 Y60.3920 
G01 X-136.1321 Y60.2660 
G01 X-136.2801 Y60.1671 
G01 X-136.4447 Y60.0989 
G01 X-136.6194 Y60.0642 
G01 X-136.7975 Y60.0642 
G01 X-136.9722 Y60.0989 
G01 X-137.1368 Y60.1671 
G01 X-137.2848 Y60.2660 
G01 X-137.4108 Y60.3920 
G01 X-137.5097 Y60.5400 
G01 X-137.5779 Y60.7046 
G01 X-137.6126 Y60.8793 
G00 Z2.0000 
G00 X-140.3812 Y60.8793 
G01 Z-0.1000 F600.00 
G01 X-140.3812 Y61.0574 
G01 X-140.3465 Y61.2321 
G01 X-140.2783 Y61.3967 
G01 X-140.1794 Y61.5447 
G01 X-140.0534 Y61.6707 
G01 X-139.9054 Y61.7696 
G01 X-139.7408 Y61.8378 
G01 X-139.5661 Y61.8725 
G01 X-139.3880 Y61.8725 
G01 X-139.2133 Y61.8378 
G01 X-139.0487 Y61.7696 
G01 X-138.9007 Y61.6707 
G01 X-138.7747 Y61.5447 
G01 X-138.6758 Y61.3967 
G01 X-138.6076 Y61.2321 
G01 X-138.5729 Y61.0574 
G01 X-138.5729 Y60.8793 
G01 X-138.6076 Y60.7046 
G01 X-138.6758 Y60.5400 
G01 X-138.7747 Y60.3920 
G01 X-138.9007 Y60.2660 
G01 X-139.0487 Y60.1671 
G01 X-139.2133 Y60.0989 
G01 X-139.3880 Y60.0642 
G01 X-139.5661 Y60.0642 
G01 X-139.7408 Y60.0989 
G01 X-139.9054 Y60.1671 
G01 X-140.0534 Y60.2660 
G01 X-140.1794 Y60.3920 
G01 X-140.2783 Y60.5400 
G01 X-140.3465 Y60.7046 
G01 X-140.3812 Y60.8793 
G00 Z2.0000 
G00 X-143.1498 Y60.8793 
G01 Z-0.1000 F600.00 
G01 X-143.1498 Y61.0574 
G01 X-143.1151 Y61.2321 
G01 X-143.0469 Y61.3967 
G01 X-142.9480 Y61.5447 
G01 X-142.8220 Y61.6707 
G01 X-142.6740 Y61.7696 
G01 X-142.5094 Y61.8378 
G01 X-142.3347 Y61.8725 
G01 X-142.1566 Y61.8725 
G01 X-141.9819 Y61.8378 
G01 X-141.8173 Y61.7696 
G01 X-141.6693 Y61.6707 
G01 X-141.5433 Y61.5447 
G01 X-141.4444 Y61.3967 
G01 X-141.3762 Y61.2321 
G01 X-141.3415 Y61.0574 
G01 X-141.3415 Y60.8793 
G01 X-141.3762 Y60.7046 
G01 X-141.4444 Y60.5400 
G01 X-141.5433 Y60.3920 
G01 X-141.6693 Y60.2660 
G01 X-141.8173 Y60.1671 
G01 X-141.9819 Y60.0989 
G01 X-142.1566 Y60.0642 
G01 X-142.3347 Y60.0642 
G01 X-142.5094 Y60.0989 
G01 X-142.6740 Y60.1671 
G01 X-142.8220 Y60.2660 
G01 X-142.9480 Y60.3920 
G01 X-143.0469 Y60.5400 
G01 X-143.1151 Y60.7046 
G01 X-143.1498 Y60.8793 
G00 Z2.0000 
G00 X-145.9184 Y60.8793 
G01 Z-0.1000 F600.00 
G01 X-145.9184 Y61.0574 
G01 X-145.8837 Y61.2321 
G01 X-145.8155 Y61.3967 
G01 X-145.7166 Y61.5447 
G01 X-145.5906 Y61.6707 
G01 X-145.4426 Y61.7696 
G01 X-145.2780 Y61.8378 
G01 X-145.1033 Y61.8725 
G01 X-144.9252 Y61.8725 
G01 X-144.7505 Y61.8378 
G01 X-144.5859 Y61.7696 
G01 X-144.4379 Y61.6707 
G01 X-144.3119 Y61.5447 
G01 X-144.2130 Y61.3967 
G01 X-144.1448 Y61.2321 
G01 X-144.1101 Y61.0574 
G01 X-144.1101 Y60.8793 
G01 X-144.1448 Y60.7046 
G01 X-144.2130 Y60.5400 
G01 X-144.3119 Y60.3920 
G01 X-144.4379 Y60.2660 
G01 X-144.5859 Y60.1671 
G01 X-144.7505 Y60.0989 
G01 X-144.9252 Y60.0642 
G01 X-145.1033 Y60.0642 
G01 X-145.2780 Y60.0989 
G01 X-145.4426 Y60.1671 
G01 X-145.5906 Y60.2660 
G01 X-145.7166 Y60.3920 
G01 X-145.8155 Y60.5400 
G01 X-145.8837 Y60.7046 
G01 X-145.9184 Y60.8793 
G00 Z2.0000 
G00 X-148.6870 Y60.8793 
G01 Z-0.1000 F600.00 
G01 X-148.6870 Y61.0574 
G01 X-148.6523 Y61.2321 
G01 X-148.5841 Y61.3967 
G01 X-148.4852 Y61.5447 
G01 X-148.3592 Y61.6707 
G01 X-148.2112 Y61.7696 
G01 X-148.0466 Y61.8378 
G01 X-147.8719 Y61.8725 
G01 X-147.6938 Y61.8725 
G01 X-147.5191 Y61.8378 
G01 X-147.3545 Y61.7696 
G01 X-147.2065 Y61.6707 
G01 X-147.0805 Y61.5447 
G01 X-146.9816 Y61.3967 
G01 X-146.9134 Y61.2321 
G01 X-146.8787 Y61.0574 
G01 X-146.8787 Y60.8793 
G01 X-146.9134 Y60.7046 
G01 X-146.9816 Y60.5400 
G01 X-147.0805 Y60.3920 
G01 X-147.2065 Y60.2660 
G01 X-147.3545 Y60.1671 
G01 X-147.5191 Y60.0989 
G01 X-147.6938 Y60.0642 
G01 X-147.8719 Y60.0642 
G01 X-148.0466 Y60.0989 
G01 X-148.2112 Y60.1671 
G01 X-148.3592 Y60.2660 
G01 X-148.4852 Y60.3920 
G01 X-148.5841 Y60.5400 
G01 X-148.6523 Y60.7046 
G01 X-148.6870 Y60.8793 
G00 Z2.0000 
G00 X-151.4556 Y60.8793 
G01 Z-0.1000 F600.00 
G01 X-151.4556 Y61.0574 
G01 X-151.4209 Y61.2321 
G01 X-151.3527 Y61.3967 
G01 X-151.2538 Y61.5447 
G01 X-151.1278 Y61.6707 
G01 X-150.9798 Y61.7696 
G01 X-150.8152 Y61.8378 
G01 X-150.6405 Y61.8725 
G01 X-150.4624 Y61.8725 
G01 X-150.2877 Y61.8378 
G01 X-150.1231 Y61.7696 
G01 X-149.9751 Y61.6707 
G01 X-149.8491 Y61.5447 
G01 X-149.7502 Y61.3967 
G01 X-149.6820 Y61.2321 
G01 X-149.6473 Y61.0574 
G01 X-149.6473 Y60.8793 
G01 X-149.6820 Y60.7046 
G01 X-149.7502 Y60.5400 
G01 X-149.8491 Y60.3920 
G01 X-149.9751 Y60.2660 
G01 X-150.1231 Y60.1671 
G01 X-150.2877 Y60.0989 
G01 X-150.4624 Y60.0642 
G01 X-150.6405 Y60.0642 
G01 X-150.8152 Y60.0989 
G01 X-150.9798 Y60.1671 
G01 X-151.1278 Y60.2660 
G01 X-151.2538 Y60.3920 
G01 X-151.3527 Y60.5400 
G01 X-151.4209 Y60.7046 
G01 X-151.4556 Y60.8793 
G00 Z2.0000 
G00 X-154.2242 Y60.8793 
G01 Z-0.1000 F600.00 
G01 X-154.2242 Y61.0574 
G01 X-154.1895 Y61.2321 
G01 X-154.1213 Y61.3967 
G01 X-154.0224 Y61.5447 
G01 X-153.8964 Y61.6707 
G01 X-153.7484 Y61.7696 
G01 X-153.5838 Y61.8378 
G01 X-153.4091 Y61.8725 
G01 X-153.2310 Y61.8725 
G01 X-153.0563 Y61.8378 
G01 X-152.8917 Y61.7696 
G01 X-152.7437 Y61.6707 
G01 X-152.6177 Y61.5447 
G01 X-152.5188 Y61.3967 
G01 X-152.4506 Y61.2321 
G01 X-152.4159 Y61.0574 
G01 X-152.4159 Y60.8793 
G01 X-152.4506 Y60.7046 
G01 X-152.5188 Y60.5400 
G01 X-152.6177 Y60.3920 
G01 X-152.7437 Y60.2660 
G01 X-152.8917 Y60.1671 
G01 X-153.0563 Y60.0989 
G01 X-153.2310 Y60.0642 
G01 X-153.4091 Y60.0642 
G01 X-153.5838 Y60.0989 
G01 X-153.7484 Y60.1671 
G01 X-153.8964 Y60.2660 
G01 X-154.0224 Y60.3920 
G01 X-154.1213 Y60.5400 
G01 X-154.1895 Y60.7046 
G01 X-154.2242 Y60.8793 
G00 Z2.0000 
G00 X-156.9928 Y60.8793 
G01 Z-0.1000 F600.00 
G01 X-156.9928 Y61.0574 
G01 X-156.9581 Y61.2321 
G01 X-156.8899 Y61.3967 
G01 X-156.7910 Y61.5447 
G01 X-156.6650 Y61.6707 
G01 X-156.5170 Y61.7696 
G01 X-156.3524 Y61.8378 
G01 X-156.1777 Y61.8725 
G01 X-155.9996 Y61.8725 
G01 X-155.8249 Y61.8378 
G01 X-155.6603 Y61.7696 
G01 X-155.5123 Y61.6707 
G01 X-155.3863 Y61.5447 
G01 X-155.2874 Y61.3967 
G01 X-155.2192 Y61.2321 
G01 X-155.1845 Y61.0574 
G01 X-155.1845 Y60.8793 
G01 X-155.2192 Y60.7046 
G01 X-155.2874 Y60.5400 
G01 X-155.3863 Y60.3920 
G01 X-155.5123 Y60.2660 
G01 X-155.6603 Y60.1671 
G01 X-155.8249 Y60.0989 
G01 X-155.9996 Y60.0642 
G01 X-156.1777 Y60.0642 
G01 X-156.3524 Y60.0989 
G01 X-156.5170 Y60.1671 
G01 X-156.6650 Y60.2660 
G01 X-156.7910 Y60.3920 
G01 X-156.8899 Y60.5400 
G01 X-156.9581 Y60.7046 
G01 X-156.9928 Y60.8793 
G00 Z2.0000 
G00 X-159.7614 Y60.8793 
G01 Z-0.1000 F600.00 
G01 X-159.7614 Y61.0574 
G01 X-159.7267 Y61.2321 
G01 X-159.6585 Y61.3967 
G01 X-159.5596 Y61.5447 
G01 X-159.4336 Y61.6707 
G01 X-159.2856 Y61.7696 
G01 X-159.1210 Y61.8378 
G01 X-158.9463 Y61.8725 
G01 X-158.7682 Y61.8725 
G01 X-158.5935 Y61.8378 
G01 X-158.4289 Y61.7696 
G01 X-158.2809 Y61.6707 
G01 X-158.1549 Y61.5447 
G01 X-158.0560 Y61.3967 
G01 X-157.9878 Y61.2321 
G01 X-157.9531 Y61.0574 
G01 X-157.9531 Y60.8793 
G01 X-157.9878 Y60.7046 
G01 X-158.0560 Y60.5400 
G01 X-158.1549 Y60.3920 
G01 X-158.2809 Y60.2660 
G01 X-158.4289 Y60.1671 
G01 X-158.5935 Y60.0989 
G01 X-158.7682 Y60.0642 
G01 X-158.9463 Y60.0642 
G01 X-159.1210 Y60.0989 
G01 X-159.2856 Y60.1671 
G01 X-159.4336 Y60.2660 
G01 X-159.5596 Y60.3920 
G01 X-159.6585 Y60.5400 
G01 X-159.7267 Y60.7046 
G01 X-159.7614 Y60.8793 
(File Footer)
G00 Z2.0000 
G00 Z10.0000 
M05
M02
