( This gcode generated by /home/mattvenn/.eagle/ulp/pcb-gcode.ulp )
( Copyright 2005 by John Johnson. See readme.txt for licensing terms. )

( This file generated from the board /home/mattvenn/eagle-circuit-designs/cvm/hymera.brd )
( This file generated 30/01/2012 17:05 )

G21

G90
G00 Z10.0000 
G00 X0 Y0
M03
G04 P3.000000
G00 Z2.0000 
G00 X-13.9174 Y59.0316 
G01 Z-0.1000 F600.00 
G01 X-13.9174 Y59.9963 
G01 X-13.2353 Y60.6784 
G01 X-12.9903 Y60.6784 
G01 X-12.9903 Y66.2626 
G01 X-153.2626 Y66.2626 
G01 X-153.2626 Y61.8725 
G01 X-153.2310 Y61.8725 
G01 X-153.0563 Y61.8378 
G01 X-152.8917 Y61.7696 
G01 X-152.7437 Y61.6707 
G01 X-152.6177 Y61.5447 
G01 X-152.5188 Y61.3967 
G01 X-152.4506 Y61.2321 
G01 X-152.4159 Y61.0574 
G01 X-152.4159 Y60.8793 
G01 X-152.4506 Y60.7046 
G01 X-152.5188 Y60.5400 
G01 X-152.6177 Y60.3920 
G01 X-152.7437 Y60.2660 
G01 X-152.8917 Y60.1671 
G01 X-153.0563 Y60.0989 
G01 X-153.2310 Y60.0642 
G01 X-153.4091 Y60.0642 
G01 X-153.5838 Y60.0989 
G01 X-153.7484 Y60.1671 
G01 X-153.8964 Y60.2660 
G01 X-154.0224 Y60.3920 
G01 X-154.1213 Y60.5400 
G01 X-154.1895 Y60.7046 
G01 X-154.2242 Y60.8793 
G01 X-154.2242 Y61.0574 
G01 X-154.1895 Y61.2321 
G01 X-154.1213 Y61.3967 
G01 X-154.0224 Y61.5447 
G01 X-153.8964 Y61.6707 
G01 X-153.7484 Y61.7696 
G01 X-153.7373 Y61.7742 
G01 X-153.7373 Y66.4527 
G01 X-153.7373 Y66.5472 
G01 X-153.7012 Y66.6344 
G01 X-153.6344 Y66.7012 
G01 X-153.5472 Y66.7373 
G01 X-12.8002 Y66.7373 
G01 X-12.7057 Y66.7373 
G01 X-12.6185 Y66.7012 
G01 X-12.5517 Y66.6344 
G01 X-12.5156 Y66.5472 
G01 X-12.5156 Y60.6784 
G01 X-12.2706 Y60.6784 
G01 X-11.5885 Y59.9963 
G01 X-11.5885 Y59.0316 
G01 X-12.2706 Y58.3495 
G01 X-13.2353 Y58.3495 
G01 X-13.9174 Y59.0316 
G00 Z2.0000 
G00 X-22.4194 Y59.0316 
G01 Z-0.1000 F600.00 
G01 X-22.4194 Y59.9963 
G01 X-21.7373 Y60.6784 
G01 X-21.4923 Y60.6784 
G01 X-21.4923 Y65.2626 
G01 X-147.7626 Y65.2626 
G01 X-147.7626 Y61.8725 
G01 X-147.6938 Y61.8725 
G01 X-147.5191 Y61.8378 
G01 X-147.3545 Y61.7696 
G01 X-147.2065 Y61.6707 
G01 X-147.0805 Y61.5447 
G01 X-146.9816 Y61.3967 
G01 X-146.9134 Y61.2321 
G01 X-146.8787 Y61.0574 
G01 X-146.8787 Y60.8793 
G01 X-146.9134 Y60.7046 
G01 X-146.9816 Y60.5400 
G01 X-147.0805 Y60.3920 
G01 X-147.2065 Y60.2660 
G01 X-147.3545 Y60.1671 
G01 X-147.5191 Y60.0989 
G01 X-147.6938 Y60.0642 
G01 X-147.8719 Y60.0642 
G01 X-148.0466 Y60.0989 
G01 X-148.2112 Y60.1671 
G01 X-148.3592 Y60.2660 
G01 X-148.4852 Y60.3920 
G01 X-148.5841 Y60.5400 
G01 X-148.6523 Y60.7046 
G01 X-148.6870 Y60.8793 
G01 X-148.6870 Y61.0574 
G01 X-148.6523 Y61.2321 
G01 X-148.5841 Y61.3967 
G01 X-148.4852 Y61.5447 
G01 X-148.3592 Y61.6707 
G01 X-148.2373 Y61.7521 
G01 X-148.2373 Y65.4527 
G01 X-148.2373 Y65.5472 
G01 X-148.2012 Y65.6344 
G01 X-148.1344 Y65.7012 
G01 X-148.0472 Y65.7373 
G01 X-21.3022 Y65.7373 
G01 X-21.2077 Y65.7373 
G01 X-21.1205 Y65.7012 
G01 X-21.0537 Y65.6344 
G01 X-21.0176 Y65.5472 
G01 X-21.0176 Y60.6784 
G01 X-20.7726 Y60.6784 
G01 X-20.0905 Y59.9963 
G01 X-20.0905 Y59.0316 
G01 X-20.7726 Y58.3495 
G01 X-21.7373 Y58.3495 
G01 X-22.4194 Y59.0316 
G00 Z2.0000 
G00 X-30.9214 Y59.0316 
G01 Z-0.1000 F600.00 
G01 X-30.9214 Y59.9963 
G01 X-30.2393 Y60.6784 
G01 X-29.9943 Y60.6784 
G01 X-29.9943 Y64.2626 
G01 X-142.2626 Y64.2626 
G01 X-142.2626 Y61.8725 
G01 X-142.1566 Y61.8725 
G01 X-141.9819 Y61.8378 
G01 X-141.8173 Y61.7696 
G01 X-141.6693 Y61.6707 
G01 X-141.5433 Y61.5447 
G01 X-141.4444 Y61.3967 
G01 X-141.3762 Y61.2321 
G01 X-141.3415 Y61.0574 
G01 X-141.3415 Y60.8793 
G01 X-141.3762 Y60.7046 
G01 X-141.4444 Y60.5400 
G01 X-141.5433 Y60.3920 
G01 X-141.6693 Y60.2660 
G01 X-141.8173 Y60.1671 
G01 X-141.9819 Y60.0989 
G01 X-142.1566 Y60.0642 
G01 X-142.3347 Y60.0642 
G01 X-142.5094 Y60.0989 
G01 X-142.6740 Y60.1671 
G01 X-142.8220 Y60.2660 
G01 X-142.9480 Y60.3920 
G01 X-143.0469 Y60.5400 
G01 X-143.1151 Y60.7046 
G01 X-143.1498 Y60.8793 
G01 X-143.1498 Y61.0574 
G01 X-143.1151 Y61.2321 
G01 X-143.0469 Y61.3967 
G01 X-142.9480 Y61.5447 
G01 X-142.8220 Y61.6707 
G01 X-142.7373 Y61.7273 
G01 X-142.7373 Y64.4527 
G01 X-142.7373 Y64.5472 
G01 X-142.7012 Y64.6344 
G01 X-142.6344 Y64.7012 
G01 X-142.5472 Y64.7373 
G01 X-29.8042 Y64.7373 
G01 X-29.7097 Y64.7373 
G01 X-29.6225 Y64.7012 
G01 X-29.5557 Y64.6344 
G01 X-29.5196 Y64.5472 
G01 X-29.5196 Y60.6784 
G01 X-29.2746 Y60.6784 
G01 X-28.5925 Y59.9963 
G01 X-28.5925 Y59.0316 
G01 X-29.2746 Y58.3495 
G01 X-30.2393 Y58.3495 
G01 X-30.9214 Y59.0316 
G00 Z2.0000 
G00 X-39.4234 Y59.0316 
G01 Z-0.1000 F600.00 
G01 X-39.4234 Y59.9963 
G01 X-38.7413 Y60.6784 
G01 X-38.4963 Y60.6784 
G01 X-38.4963 Y63.2626 
G01 X-136.7626 Y63.2626 
G01 X-136.7626 Y61.8725 
G01 X-136.6194 Y61.8725 
G01 X-136.4447 Y61.8378 
G01 X-136.2801 Y61.7696 
G01 X-136.1321 Y61.6707 
G01 X-136.0061 Y61.5447 
G01 X-135.9072 Y61.3967 
G01 X-135.8390 Y61.2321 
G01 X-135.8043 Y61.0574 
G01 X-135.8043 Y60.8793 
G01 X-135.8390 Y60.7046 
G01 X-135.9072 Y60.5400 
G01 X-136.0061 Y60.3920 
G01 X-136.1321 Y60.2660 
G01 X-136.2801 Y60.1671 
G01 X-136.4447 Y60.0989 
G01 X-136.6194 Y60.0642 
G01 X-136.7975 Y60.0642 
G01 X-136.9722 Y60.0989 
G01 X-137.1368 Y60.1671 
G01 X-137.2848 Y60.2660 
G01 X-137.4108 Y60.3920 
G01 X-137.5097 Y60.5400 
G01 X-137.5779 Y60.7046 
G01 X-137.6126 Y60.8793 
G01 X-137.6126 Y61.0574 
G01 X-137.5779 Y61.2321 
G01 X-137.5097 Y61.3967 
G01 X-137.4108 Y61.5447 
G01 X-137.2848 Y61.6707 
G01 X-137.2373 Y61.7024 
G01 X-137.2373 Y63.4527 
G01 X-137.2373 Y63.5472 
G01 X-137.2012 Y63.6344 
G01 X-137.1344 Y63.7012 
G01 X-137.0472 Y63.7373 
G01 X-38.3062 Y63.7373 
G01 X-38.2117 Y63.7373 
G01 X-38.1245 Y63.7012 
G01 X-38.0577 Y63.6344 
G01 X-38.0216 Y63.5472 
G01 X-38.0216 Y60.6784 
G01 X-37.7766 Y60.6784 
G01 X-37.0945 Y59.9963 
G01 X-37.0945 Y59.0316 
G01 X-37.7766 Y58.3495 
G01 X-38.7413 Y58.3495 
G01 X-39.4234 Y59.0316 
G00 Z2.0000 
G00 X-47.9254 Y59.0316 
G01 Z-0.1000 F600.00 
G01 X-47.9254 Y59.9963 
G01 X-47.2433 Y60.6784 
G01 X-46.9983 Y60.6784 
G01 X-46.9983 Y62.2626 
G01 X-130.7626 Y62.2626 
G01 X-130.7626 Y61.7777 
G01 X-130.7429 Y61.7696 
G01 X-130.5949 Y61.6707 
G01 X-130.4689 Y61.5447 
G01 X-130.3700 Y61.3967 
G01 X-130.3018 Y61.2321 
G01 X-130.2671 Y61.0574 
G01 X-130.2671 Y60.8793 
G01 X-130.3018 Y60.7046 
G01 X-130.3700 Y60.5400 
G01 X-130.4689 Y60.3920 
G01 X-130.5949 Y60.2660 
G01 X-130.7429 Y60.1671 
G01 X-130.9075 Y60.0989 
G01 X-131.0822 Y60.0642 
G01 X-131.2603 Y60.0642 
G01 X-131.4350 Y60.0989 
G01 X-131.5996 Y60.1671 
G01 X-131.7476 Y60.2660 
G01 X-131.8736 Y60.3920 
G01 X-131.9725 Y60.5400 
G01 X-132.0407 Y60.7046 
G01 X-132.0754 Y60.8793 
G01 X-132.0754 Y61.0574 
G01 X-132.0407 Y61.2321 
G01 X-131.9725 Y61.3967 
G01 X-131.8736 Y61.5447 
G01 X-131.7476 Y61.6707 
G01 X-131.5996 Y61.7696 
G01 X-131.4350 Y61.8378 
G01 X-131.2603 Y61.8725 
G01 X-131.2373 Y61.8725 
G01 X-131.2373 Y62.4527 
G01 X-131.2373 Y62.5472 
G01 X-131.2012 Y62.6344 
G01 X-131.1344 Y62.7012 
G01 X-131.0472 Y62.7373 
G01 X-46.8082 Y62.7373 
G01 X-46.7137 Y62.7373 
G01 X-46.6265 Y62.7012 
G01 X-46.5597 Y62.6344 
G01 X-46.5236 Y62.5472 
G01 X-46.5236 Y60.6784 
G01 X-46.2786 Y60.6784 
G01 X-45.5965 Y59.9963 
G01 X-45.5965 Y59.0316 
G01 X-46.2786 Y58.3495 
G01 X-47.2433 Y58.3495 
G01 X-47.9254 Y59.0316 
G00 Z2.0000 
G00 X-56.4274 Y59.0316 
G01 Z-0.1000 F600.00 
G01 X-56.4274 Y59.9963 
G01 X-55.7453 Y60.6784 
G01 X-54.7806 Y60.6784 
G01 X-54.0985 Y59.9963 
G01 X-54.0985 Y59.0316 
G01 X-54.7806 Y58.3495 
G01 X-55.0256 Y58.3495 
G01 X-55.0256 Y50.9527 
G01 X-55.0617 Y50.8655 
G01 X-55.1285 Y50.7987 
G01 X-55.2157 Y50.7626 
G01 X-55.3102 Y50.7626 
G01 X-160.0472 Y50.7626 
G01 X-160.1344 Y50.7987 
G01 X-160.2012 Y50.8655 
G01 X-160.2373 Y50.9527 
G01 X-160.2373 Y51.0472 
G01 X-160.2373 Y57.2194 
G01 X-160.3306 Y57.2194 
G01 X-160.5053 Y57.2541 
G01 X-160.6699 Y57.3223 
G01 X-160.8179 Y57.4212 
G01 X-160.9439 Y57.5472 
G01 X-161.0428 Y57.6952 
G01 X-161.1110 Y57.8598 
G01 X-161.1457 Y58.0345 
G01 X-161.1457 Y58.2126 
G01 X-161.1110 Y58.3873 
G01 X-161.0428 Y58.5519 
G01 X-160.9439 Y58.6999 
G01 X-160.8179 Y58.8259 
G01 X-160.6699 Y58.9248 
G01 X-160.5053 Y58.9930 
G01 X-160.3306 Y59.0277 
G01 X-160.1525 Y59.0277 
G01 X-159.9778 Y58.9930 
G01 X-159.8132 Y58.9248 
G01 X-159.6652 Y58.8259 
G01 X-159.5392 Y58.6999 
G01 X-159.4403 Y58.5519 
G01 X-159.3721 Y58.3873 
G01 X-159.3374 Y58.2126 
G01 X-159.3374 Y58.0345 
G01 X-159.3721 Y57.8598 
G01 X-159.4403 Y57.6952 
G01 X-159.5392 Y57.5472 
G01 X-159.6652 Y57.4212 
G01 X-159.7626 Y57.3562 
G01 X-159.7626 Y51.2373 
G01 X-55.5003 Y51.2373 
G01 X-55.5003 Y58.3495 
G01 X-55.7453 Y58.3495 
G01 X-56.4274 Y59.0316 
G00 Z2.0000 
G00 X-64.9294 Y59.0316 
G01 Z-0.1000 F600.00 
G01 X-64.9294 Y59.9963 
G01 X-64.2473 Y60.6784 
G01 X-63.2826 Y60.6784 
G01 X-62.6005 Y59.9963 
G01 X-62.6005 Y59.0316 
G01 X-63.2826 Y58.3495 
G01 X-63.5276 Y58.3495 
G01 X-63.5276 Y51.9527 
G01 X-63.5637 Y51.8655 
G01 X-63.6305 Y51.7987 
G01 X-63.7177 Y51.7626 
G01 X-63.8122 Y51.7626 
G01 X-154.5472 Y51.7626 
G01 X-154.6344 Y51.7987 
G01 X-154.7012 Y51.8655 
G01 X-154.7373 Y51.9527 
G01 X-154.7373 Y52.0472 
G01 X-154.7373 Y57.2194 
G01 X-154.7934 Y57.2194 
G01 X-154.9681 Y57.2541 
G01 X-155.1327 Y57.3223 
G01 X-155.2807 Y57.4212 
G01 X-155.4067 Y57.5472 
G01 X-155.5056 Y57.6952 
G01 X-155.5738 Y57.8598 
G01 X-155.6085 Y58.0345 
G01 X-155.6085 Y58.2126 
G01 X-155.5738 Y58.3873 
G01 X-155.5056 Y58.5519 
G01 X-155.4067 Y58.6999 
G01 X-155.2807 Y58.8259 
G01 X-155.1327 Y58.9248 
G01 X-154.9681 Y58.9930 
G01 X-154.7934 Y59.0277 
G01 X-154.6153 Y59.0277 
G01 X-154.4406 Y58.9930 
G01 X-154.2760 Y58.9248 
G01 X-154.1280 Y58.8259 
G01 X-154.0020 Y58.6999 
G01 X-153.9031 Y58.5519 
G01 X-153.8349 Y58.3873 
G01 X-153.8002 Y58.2126 
G01 X-153.8002 Y58.0345 
G01 X-153.8349 Y57.8598 
G01 X-153.9031 Y57.6952 
G01 X-154.0020 Y57.5472 
G01 X-154.1280 Y57.4212 
G01 X-154.2626 Y57.3313 
G01 X-154.2626 Y52.2373 
G01 X-64.0023 Y52.2373 
G01 X-64.0023 Y58.3495 
G01 X-64.2473 Y58.3495 
G01 X-64.9294 Y59.0316 
G00 Z2.0000 
G00 X-159.7614 Y60.8793 
G01 Z-0.1000 F600.00 
G01 X-159.7614 Y61.0574 
G01 X-159.7267 Y61.2321 
G01 X-159.6585 Y61.3967 
G01 X-159.5596 Y61.5447 
G01 X-159.4336 Y61.6707 
G01 X-159.2856 Y61.7696 
G01 X-159.1210 Y61.8378 
G01 X-158.9463 Y61.8725 
G01 X-158.7682 Y61.8725 
G01 X-158.5935 Y61.8378 
G01 X-158.4289 Y61.7696 
G01 X-158.2809 Y61.6707 
G01 X-158.1549 Y61.5447 
G01 X-158.0560 Y61.3967 
G01 X-157.9878 Y61.2321 
G01 X-157.9531 Y61.0574 
G01 X-157.9531 Y60.8793 
G01 X-157.9878 Y60.7046 
G01 X-158.0560 Y60.5400 
G01 X-158.1549 Y60.3920 
G01 X-158.2809 Y60.2660 
G01 X-158.4289 Y60.1671 
G01 X-158.5935 Y60.0989 
G01 X-158.7682 Y60.0642 
G01 X-158.9463 Y60.0642 
G01 X-159.1210 Y60.0989 
G01 X-159.2856 Y60.1671 
G01 X-159.4336 Y60.2660 
G01 X-159.5596 Y60.3920 
G01 X-159.6585 Y60.5400 
G01 X-159.7267 Y60.7046 
G01 X-159.7614 Y60.8793 
G00 Z2.0000 
G00 X-156.9928 Y60.8793 
G01 Z-0.1000 F600.00 
G01 X-156.9928 Y61.0574 
G01 X-156.9581 Y61.2321 
G01 X-156.8899 Y61.3967 
G01 X-156.7910 Y61.5447 
G01 X-156.6650 Y61.6707 
G01 X-156.5170 Y61.7696 
G01 X-156.3524 Y61.8378 
G01 X-156.1777 Y61.8725 
G01 X-155.9996 Y61.8725 
G01 X-155.8249 Y61.8378 
G01 X-155.6603 Y61.7696 
G01 X-155.5123 Y61.6707 
G01 X-155.3863 Y61.5447 
G01 X-155.2874 Y61.3967 
G01 X-155.2192 Y61.2321 
G01 X-155.1845 Y61.0574 
G01 X-155.1845 Y60.8793 
G01 X-155.2192 Y60.7046 
G01 X-155.2874 Y60.5400 
G01 X-155.3863 Y60.3920 
G01 X-155.5123 Y60.2660 
G01 X-155.6603 Y60.1671 
G01 X-155.8249 Y60.0989 
G01 X-155.9996 Y60.0642 
G01 X-156.1777 Y60.0642 
G01 X-156.3524 Y60.0989 
G01 X-156.5170 Y60.1671 
G01 X-156.6650 Y60.2660 
G01 X-156.7910 Y60.3920 
G01 X-156.8899 Y60.5400 
G01 X-156.9581 Y60.7046 
G01 X-156.9928 Y60.8793 
G00 Z2.0000 
G00 X-151.4556 Y60.8793 
G01 Z-0.1000 F600.00 
G01 X-151.4556 Y61.0574 
G01 X-151.4209 Y61.2321 
G01 X-151.3527 Y61.3967 
G01 X-151.2538 Y61.5447 
G01 X-151.1278 Y61.6707 
G01 X-150.9798 Y61.7696 
G01 X-150.8152 Y61.8378 
G01 X-150.7373 Y61.8533 
G01 X-150.7373 Y65.9527 
G01 X-150.7373 Y66.0472 
G01 X-150.7012 Y66.1344 
G01 X-150.6344 Y66.2012 
G01 X-150.5472 Y66.2373 
G01 X-17.0512 Y66.2373 
G01 X-16.9567 Y66.2373 
G01 X-16.8695 Y66.2012 
G01 X-16.8027 Y66.1344 
G01 X-16.7666 Y66.0472 
G01 X-16.7666 Y60.6784 
G01 X-16.5216 Y60.6784 
G01 X-15.8395 Y59.9963 
G01 X-15.8395 Y59.0316 
G01 X-16.5216 Y58.3495 
G01 X-17.4863 Y58.3495 
G01 X-18.1684 Y59.0316 
G01 X-18.1684 Y59.9963 
G01 X-17.4863 Y60.6784 
G01 X-17.2413 Y60.6784 
G01 X-17.2413 Y65.7626 
G01 X-150.2626 Y65.7626 
G01 X-150.2626 Y61.8274 
G01 X-150.1231 Y61.7696 
G01 X-149.9751 Y61.6707 
G01 X-149.8491 Y61.5447 
G01 X-149.7502 Y61.3967 
G01 X-149.6820 Y61.2321 
G01 X-149.6473 Y61.0574 
G01 X-149.6473 Y60.8793 
G01 X-149.6820 Y60.7046 
G01 X-149.7502 Y60.5400 
G01 X-149.8491 Y60.3920 
G01 X-149.9751 Y60.2660 
G01 X-150.1231 Y60.1671 
G01 X-150.2877 Y60.0989 
G01 X-150.4624 Y60.0642 
G01 X-150.6405 Y60.0642 
G01 X-150.8152 Y60.0989 
G01 X-150.9798 Y60.1671 
G01 X-151.1278 Y60.2660 
G01 X-151.2538 Y60.3920 
G01 X-151.3527 Y60.5400 
G01 X-151.4209 Y60.7046 
G01 X-151.4556 Y60.8793 
G00 Z2.0000 
G00 X-145.9184 Y60.8793 
G01 Z-0.1000 F600.00 
G01 X-145.9184 Y61.0574 
G01 X-145.8837 Y61.2321 
G01 X-145.8155 Y61.3967 
G01 X-145.7166 Y61.5447 
G01 X-145.5906 Y61.6707 
G01 X-145.4426 Y61.7696 
G01 X-145.2780 Y61.8378 
G01 X-145.2373 Y61.8459 
G01 X-145.2373 Y64.9527 
G01 X-145.2373 Y65.0472 
G01 X-145.2012 Y65.1344 
G01 X-145.1344 Y65.2012 
G01 X-145.0472 Y65.2373 
G01 X-25.5532 Y65.2373 
G01 X-25.4587 Y65.2373 
G01 X-25.3715 Y65.2012 
G01 X-25.3047 Y65.1344 
G01 X-25.2686 Y65.0472 
G01 X-25.2686 Y60.6784 
G01 X-25.0236 Y60.6784 
G01 X-24.3415 Y59.9963 
G01 X-24.3415 Y59.0316 
G01 X-25.0236 Y58.3495 
G01 X-25.9883 Y58.3495 
G01 X-26.6704 Y59.0316 
G01 X-26.6704 Y59.9963 
G01 X-25.9883 Y60.6784 
G01 X-25.7433 Y60.6784 
G01 X-25.7433 Y64.7626 
G01 X-144.7626 Y64.7626 
G01 X-144.7626 Y61.8402 
G01 X-144.7505 Y61.8378 
G01 X-144.5859 Y61.7696 
G01 X-144.4379 Y61.6707 
G01 X-144.3119 Y61.5447 
G01 X-144.2130 Y61.3967 
G01 X-144.1448 Y61.2321 
G01 X-144.1101 Y61.0574 
G01 X-144.1101 Y60.8793 
G01 X-144.1448 Y60.7046 
G01 X-144.2130 Y60.5400 
G01 X-144.3119 Y60.3920 
G01 X-144.4379 Y60.2660 
G01 X-144.5859 Y60.1671 
G01 X-144.7505 Y60.0989 
G01 X-144.9252 Y60.0642 
G01 X-145.1033 Y60.0642 
G01 X-145.2780 Y60.0989 
G01 X-145.4426 Y60.1671 
G01 X-145.5906 Y60.2660 
G01 X-145.7166 Y60.3920 
G01 X-145.8155 Y60.5400 
G01 X-145.8837 Y60.7046 
G01 X-145.9184 Y60.8793 
G00 Z2.0000 
G00 X-140.3812 Y60.8793 
G01 Z-0.1000 F600.00 
G01 X-140.3812 Y61.0574 
G01 X-140.3465 Y61.2321 
G01 X-140.2783 Y61.3967 
G01 X-140.1794 Y61.5447 
G01 X-140.0534 Y61.6707 
G01 X-139.9054 Y61.7696 
G01 X-139.7408 Y61.8378 
G01 X-139.7373 Y61.8385 
G01 X-139.7373 Y63.9527 
G01 X-139.7373 Y64.0472 
G01 X-139.7012 Y64.1344 
G01 X-139.6344 Y64.2012 
G01 X-139.5472 Y64.2373 
G01 X-34.0552 Y64.2373 
G01 X-33.9607 Y64.2373 
G01 X-33.8735 Y64.2012 
G01 X-33.8067 Y64.1344 
G01 X-33.7706 Y64.0472 
G01 X-33.7706 Y60.6784 
G01 X-33.5256 Y60.6784 
G01 X-32.8435 Y59.9963 
G01 X-32.8435 Y59.0316 
G01 X-33.5256 Y58.3495 
G01 X-34.4903 Y58.3495 
G01 X-35.1724 Y59.0316 
G01 X-35.1724 Y59.9963 
G01 X-34.4903 Y60.6784 
G01 X-34.2453 Y60.6784 
G01 X-34.2453 Y63.7626 
G01 X-139.2626 Y63.7626 
G01 X-139.2626 Y61.8476 
G01 X-139.2133 Y61.8378 
G01 X-139.0487 Y61.7696 
G01 X-138.9007 Y61.6707 
G01 X-138.7747 Y61.5447 
G01 X-138.6758 Y61.3967 
G01 X-138.6076 Y61.2321 
G01 X-138.5729 Y61.0574 
G01 X-138.5729 Y60.8793 
G01 X-138.6076 Y60.7046 
G01 X-138.6758 Y60.5400 
G01 X-138.7747 Y60.3920 
G01 X-138.9007 Y60.2660 
G01 X-139.0487 Y60.1671 
G01 X-139.2133 Y60.0989 
G01 X-139.3880 Y60.0642 
G01 X-139.5661 Y60.0642 
G01 X-139.7408 Y60.0989 
G01 X-139.9054 Y60.1671 
G01 X-140.0534 Y60.2660 
G01 X-140.1794 Y60.3920 
G01 X-140.2783 Y60.5400 
G01 X-140.3465 Y60.7046 
G01 X-140.3812 Y60.8793 
G00 Z2.0000 
G00 X-134.8440 Y60.8793 
G01 Z-0.1000 F600.00 
G01 X-134.8440 Y61.0574 
G01 X-134.8093 Y61.2321 
G01 X-134.7411 Y61.3967 
G01 X-134.6422 Y61.5447 
G01 X-134.5162 Y61.6707 
G01 X-134.3682 Y61.7696 
G01 X-134.2373 Y61.8238 
G01 X-134.2373 Y62.9527 
G01 X-134.2373 Y63.0472 
G01 X-134.2012 Y63.1344 
G01 X-134.1344 Y63.2012 
G01 X-134.0472 Y63.2373 
G01 X-42.5572 Y63.2373 
G01 X-42.4627 Y63.2373 
G01 X-42.3755 Y63.2012 
G01 X-42.3087 Y63.1344 
G01 X-42.2726 Y63.0472 
G01 X-42.2726 Y60.6784 
G01 X-42.0276 Y60.6784 
G01 X-41.3455 Y59.9963 
G01 X-41.3455 Y59.0316 
G01 X-42.0276 Y58.3495 
G01 X-42.9923 Y58.3495 
G01 X-43.6744 Y59.0316 
G01 X-43.6744 Y59.9963 
G01 X-42.9923 Y60.6784 
G01 X-42.7473 Y60.6784 
G01 X-42.7473 Y62.7626 
G01 X-133.7626 Y62.7626 
G01 X-133.7626 Y61.8550 
G01 X-133.6761 Y61.8378 
G01 X-133.5115 Y61.7696 
G01 X-133.3635 Y61.6707 
G01 X-133.2375 Y61.5447 
G01 X-133.1386 Y61.3967 
G01 X-133.0704 Y61.2321 
G01 X-133.0357 Y61.0574 
G01 X-133.0357 Y60.8793 
G01 X-133.0704 Y60.7046 
G01 X-133.1386 Y60.5400 
G01 X-133.2375 Y60.3920 
G01 X-133.3635 Y60.2660 
G01 X-133.5115 Y60.1671 
G01 X-133.6761 Y60.0989 
G01 X-133.8508 Y60.0642 
G01 X-134.0289 Y60.0642 
G01 X-134.2036 Y60.0989 
G01 X-134.3682 Y60.1671 
G01 X-134.5162 Y60.2660 
G01 X-134.6422 Y60.3920 
G01 X-134.7411 Y60.5400 
G01 X-134.8093 Y60.7046 
G01 X-134.8440 Y60.8793 
G00 Z2.0000 
G00 X-129.3068 Y60.8793 
G01 Z-0.1000 F600.00 
G01 X-129.3068 Y61.0574 
G01 X-129.2721 Y61.2321 
G01 X-129.2039 Y61.3967 
G01 X-129.1050 Y61.5447 
G01 X-128.9790 Y61.6707 
G01 X-128.8310 Y61.7696 
G01 X-128.7373 Y61.8084 
G01 X-128.7373 Y61.9527 
G01 X-128.7373 Y62.0472 
G01 X-128.7012 Y62.1344 
G01 X-128.6344 Y62.2012 
G01 X-128.5472 Y62.2373 
G01 X-51.0592 Y62.2373 
G01 X-50.9647 Y62.2373 
G01 X-50.8775 Y62.2012 
G01 X-50.8107 Y62.1344 
G01 X-50.7746 Y62.0472 
G01 X-50.7746 Y60.6784 
G01 X-50.5296 Y60.6784 
G01 X-49.8475 Y59.9963 
G01 X-49.8475 Y59.0316 
G01 X-50.5296 Y58.3495 
G01 X-51.4943 Y58.3495 
G01 X-52.1764 Y59.0316 
G01 X-52.1764 Y59.9963 
G01 X-51.4943 Y60.6784 
G01 X-51.2493 Y60.6784 
G01 X-51.2493 Y61.7626 
G01 X-127.9639 Y61.7626 
G01 X-127.8263 Y61.6707 
G01 X-127.7003 Y61.5447 
G01 X-127.6014 Y61.3967 
G01 X-127.5332 Y61.2321 
G01 X-127.4985 Y61.0574 
G01 X-127.4985 Y60.8793 
G01 X-127.5332 Y60.7046 
G01 X-127.6014 Y60.5400 
G01 X-127.7003 Y60.3920 
G01 X-127.8263 Y60.2660 
G01 X-127.9743 Y60.1671 
G01 X-128.1389 Y60.0989 
G01 X-128.3136 Y60.0642 
G01 X-128.4917 Y60.0642 
G01 X-128.6664 Y60.0989 
G01 X-128.8310 Y60.1671 
G01 X-128.9790 Y60.2660 
G01 X-129.1050 Y60.3920 
G01 X-129.2039 Y60.5400 
G01 X-129.2721 Y60.7046 
G01 X-129.3068 Y60.8793 
G00 Z2.0000 
G00 X-158.3771 Y58.0345 
G01 Z-0.1000 F600.00 
G01 X-158.3771 Y58.2126 
G01 X-158.3424 Y58.3873 
G01 X-158.2742 Y58.5519 
G01 X-158.1753 Y58.6999 
G01 X-158.0493 Y58.8259 
G01 X-157.9013 Y58.9248 
G01 X-157.7367 Y58.9930 
G01 X-157.5620 Y59.0277 
G01 X-157.3839 Y59.0277 
G01 X-157.2092 Y58.9930 
G01 X-157.0446 Y58.9248 
G01 X-156.8966 Y58.8259 
G01 X-156.7706 Y58.6999 
G01 X-156.6717 Y58.5519 
G01 X-156.6035 Y58.3873 
G01 X-156.5688 Y58.2126 
G01 X-156.5688 Y58.0345 
G01 X-156.6035 Y57.8598 
G01 X-156.6717 Y57.6952 
G01 X-156.7706 Y57.5472 
G01 X-156.8966 Y57.4212 
G01 X-157.0446 Y57.3223 
G01 X-157.2092 Y57.2541 
G01 X-157.2626 Y57.2435 
G01 X-157.2626 Y51.7373 
G01 X-59.7513 Y51.7373 
G01 X-59.7513 Y58.3495 
G01 X-59.9963 Y58.3495 
G01 X-60.6784 Y59.0316 
G01 X-60.6784 Y59.9963 
G01 X-59.9963 Y60.6784 
G01 X-59.0316 Y60.6784 
G01 X-58.3495 Y59.9963 
G01 X-58.3495 Y59.0316 
G01 X-59.0316 Y58.3495 
G01 X-59.2766 Y58.3495 
G01 X-59.2766 Y51.4527 
G01 X-59.3127 Y51.3655 
G01 X-59.3795 Y51.2987 
G01 X-59.4667 Y51.2626 
G01 X-59.5612 Y51.2626 
G01 X-157.5472 Y51.2626 
G01 X-157.6344 Y51.2987 
G01 X-157.7012 Y51.3655 
G01 X-157.7373 Y51.4527 
G01 X-157.7373 Y51.5472 
G01 X-157.7373 Y57.2544 
G01 X-157.9013 Y57.3223 
G01 X-158.0493 Y57.4212 
G01 X-158.1753 Y57.5472 
G01 X-158.2742 Y57.6952 
G01 X-158.3424 Y57.8598 
G01 X-158.3771 Y58.0345 
G00 Z2.0000 
G00 X-152.8399 Y58.0345 
G01 Z-0.1000 F600.00 
G01 X-152.8399 Y58.2126 
G01 X-152.8052 Y58.3873 
G01 X-152.7370 Y58.5519 
G01 X-152.6381 Y58.6999 
G01 X-152.5121 Y58.8259 
G01 X-152.3641 Y58.9248 
G01 X-152.1995 Y58.9930 
G01 X-152.0248 Y59.0277 
G01 X-151.8467 Y59.0277 
G01 X-151.6720 Y58.9930 
G01 X-151.5074 Y58.9248 
G01 X-151.3594 Y58.8259 
G01 X-151.2334 Y58.6999 
G01 X-151.1345 Y58.5519 
G01 X-151.0663 Y58.3873 
G01 X-151.0316 Y58.2126 
G01 X-151.0316 Y58.0345 
G01 X-151.0663 Y57.8598 
G01 X-151.1345 Y57.6952 
G01 X-151.2334 Y57.5472 
G01 X-151.2626 Y57.5180 
G01 X-151.2626 Y52.7373 
G01 X-68.2533 Y52.7373 
G01 X-68.2533 Y58.3495 
G01 X-68.4983 Y58.3495 
G01 X-69.1804 Y59.0316 
G01 X-69.1804 Y59.9963 
G01 X-68.4983 Y60.6784 
G01 X-67.5336 Y60.6784 
G01 X-66.8515 Y59.9963 
G01 X-66.8515 Y59.0316 
G01 X-67.5336 Y58.3495 
G01 X-67.7786 Y58.3495 
G01 X-67.7786 Y52.4527 
G01 X-67.8147 Y52.3655 
G01 X-67.8815 Y52.2987 
G01 X-67.9687 Y52.2626 
G01 X-68.0632 Y52.2626 
G01 X-151.5472 Y52.2626 
G01 X-151.6344 Y52.2987 
G01 X-151.7012 Y52.3655 
G01 X-151.7373 Y52.4527 
G01 X-151.7373 Y52.5472 
G01 X-151.7373 Y57.2412 
G01 X-151.8467 Y57.2194 
G01 X-152.0248 Y57.2194 
G01 X-152.1995 Y57.2541 
G01 X-152.3641 Y57.3223 
G01 X-152.5121 Y57.4212 
G01 X-152.6381 Y57.5472 
G01 X-152.7370 Y57.6952 
G01 X-152.8052 Y57.8598 
G01 X-152.8399 Y58.0345 
G00 Z2.0000 
G00 X-147.3027 Y58.0345 
G01 Z-0.1000 F600.00 
G01 X-147.3027 Y58.2126 
G01 X-147.2680 Y58.3873 
G01 X-147.1998 Y58.5519 
G01 X-147.1009 Y58.6999 
G01 X-146.9749 Y58.8259 
G01 X-146.8269 Y58.9248 
G01 X-146.6623 Y58.9930 
G01 X-146.4876 Y59.0277 
G01 X-146.3095 Y59.0277 
G01 X-146.1348 Y58.9930 
G01 X-145.9702 Y58.9248 
G01 X-145.8222 Y58.8259 
G01 X-145.6962 Y58.6999 
G01 X-145.5973 Y58.5519 
G01 X-145.5291 Y58.3873 
G01 X-145.4944 Y58.2126 
G01 X-145.4944 Y58.0345 
G01 X-145.5291 Y57.8598 
G01 X-145.5973 Y57.6952 
G01 X-145.6962 Y57.5472 
G01 X-145.8222 Y57.4212 
G01 X-145.9702 Y57.3223 
G01 X-146.1348 Y57.2541 
G01 X-146.2626 Y57.2287 
G01 X-146.2626 Y53.7373 
G01 X-76.7553 Y53.7373 
G01 X-76.7553 Y58.3495 
G01 X-77.0003 Y58.3495 
G01 X-77.6824 Y59.0316 
G01 X-77.6824 Y59.9963 
G01 X-77.0003 Y60.6784 
G01 X-76.0356 Y60.6784 
G01 X-75.3535 Y59.9963 
G01 X-75.3535 Y59.0316 
G01 X-76.0356 Y58.3495 
G01 X-76.2806 Y58.3495 
G01 X-76.2806 Y53.4527 
G01 X-76.3167 Y53.3655 
G01 X-76.3835 Y53.2987 
G01 X-76.4707 Y53.2626 
G01 X-76.5652 Y53.2626 
G01 X-146.5472 Y53.2626 
G01 X-146.6344 Y53.2987 
G01 X-146.7012 Y53.3655 
G01 X-146.7373 Y53.4527 
G01 X-146.7373 Y53.5472 
G01 X-146.7373 Y57.2852 
G01 X-146.8269 Y57.3223 
G01 X-146.9749 Y57.4212 
G01 X-147.1009 Y57.5472 
G01 X-147.1998 Y57.6952 
G01 X-147.2680 Y57.8598 
G01 X-147.3027 Y58.0345 
G00 Z2.0000 
G00 X-141.7655 Y58.0345 
G01 Z-0.1000 F600.00 
G01 X-141.7655 Y58.2126 
G01 X-141.7308 Y58.3873 
G01 X-141.6626 Y58.5519 
G01 X-141.5637 Y58.6999 
G01 X-141.4377 Y58.8259 
G01 X-141.2897 Y58.9248 
G01 X-141.1251 Y58.9930 
G01 X-140.9504 Y59.0277 
G01 X-140.7723 Y59.0277 
G01 X-140.5976 Y58.9930 
G01 X-140.4330 Y58.9248 
G01 X-140.2850 Y58.8259 
G01 X-140.1590 Y58.6999 
G01 X-140.0601 Y58.5519 
G01 X-139.9919 Y58.3873 
G01 X-139.9572 Y58.2126 
G01 X-139.9572 Y58.0345 
G01 X-139.9919 Y57.8598 
G01 X-140.0601 Y57.6952 
G01 X-140.1590 Y57.5472 
G01 X-140.2850 Y57.4212 
G01 X-140.4330 Y57.3223 
G01 X-140.5976 Y57.2541 
G01 X-140.6240 Y57.2489 
G01 X-140.6240 Y54.7373 
G01 X-85.2373 Y54.7373 
G01 X-85.2373 Y58.3495 
G01 X-85.5023 Y58.3495 
G01 X-86.1844 Y59.0316 
G01 X-86.1844 Y59.9963 
G01 X-85.5023 Y60.6784 
G01 X-84.5376 Y60.6784 
G01 X-83.8555 Y59.9963 
G01 X-83.8555 Y59.0316 
G01 X-84.5376 Y58.3495 
G01 X-84.7626 Y58.3495 
G01 X-84.7626 Y54.5472 
G01 X-84.7626 Y54.4527 
G01 X-84.7987 Y54.3655 
G01 X-84.8655 Y54.2987 
G01 X-84.9527 Y54.2626 
G01 X-140.8141 Y54.2626 
G01 X-140.9086 Y54.2626 
G01 X-140.9958 Y54.2987 
G01 X-141.0626 Y54.3655 
G01 X-141.0987 Y54.4527 
G01 X-141.0987 Y57.2489 
G01 X-141.1251 Y57.2541 
G01 X-141.2897 Y57.3223 
G01 X-141.4377 Y57.4212 
G01 X-141.5637 Y57.5472 
G01 X-141.6626 Y57.6952 
G01 X-141.7308 Y57.8598 
G01 X-141.7655 Y58.0345 
G00 Z2.0000 
G00 X-136.2283 Y58.0345 
G01 Z-0.1000 F600.00 
G01 X-136.2283 Y58.2126 
G01 X-136.1936 Y58.3873 
G01 X-136.1254 Y58.5519 
G01 X-136.0265 Y58.6999 
G01 X-135.9005 Y58.8259 
G01 X-135.7525 Y58.9248 
G01 X-135.5879 Y58.9930 
G01 X-135.4132 Y59.0277 
G01 X-135.2351 Y59.0277 
G01 X-135.0604 Y58.9930 
G01 X-134.8958 Y58.9248 
G01 X-134.7478 Y58.8259 
G01 X-134.6218 Y58.6999 
G01 X-134.5229 Y58.5519 
G01 X-134.4547 Y58.3873 
G01 X-134.4200 Y58.2126 
G01 X-134.4200 Y58.0345 
G01 X-134.4547 Y57.8598 
G01 X-134.5229 Y57.6952 
G01 X-134.6218 Y57.5472 
G01 X-134.7478 Y57.4212 
G01 X-134.8958 Y57.3223 
G01 X-135.0604 Y57.2541 
G01 X-135.2351 Y57.2194 
G01 X-135.2626 Y57.2194 
G01 X-135.2626 Y55.7373 
G01 X-93.7593 Y55.7373 
G01 X-93.7593 Y58.3495 
G01 X-94.0043 Y58.3495 
G01 X-94.6864 Y59.0316 
G01 X-94.6864 Y59.9963 
G01 X-94.0043 Y60.6784 
G01 X-93.0396 Y60.6784 
G01 X-92.3575 Y59.9963 
G01 X-92.3575 Y59.0316 
G01 X-93.0396 Y58.3495 
G01 X-93.2846 Y58.3495 
G01 X-93.2846 Y55.4527 
G01 X-93.3207 Y55.3655 
G01 X-93.3875 Y55.2987 
G01 X-93.4747 Y55.2626 
G01 X-93.5692 Y55.2626 
G01 X-135.5472 Y55.2626 
G01 X-135.6344 Y55.2987 
G01 X-135.7012 Y55.3655 
G01 X-135.7373 Y55.4527 
G01 X-135.7373 Y55.5472 
G01 X-135.7373 Y57.3160 
G01 X-135.7525 Y57.3223 
G01 X-135.9005 Y57.4212 
G01 X-136.0265 Y57.5472 
G01 X-136.1254 Y57.6952 
G01 X-136.1936 Y57.8598 
G01 X-136.2283 Y58.0345 
G00 Z2.0000 
G00 X-127.9225 Y58.0345 
G01 Z-0.1000 F600.00 
G01 X-127.9225 Y58.2126 
G01 X-127.8878 Y58.3873 
G01 X-127.8196 Y58.5519 
G01 X-127.7207 Y58.6999 
G01 X-127.5947 Y58.8259 
G01 X-127.4467 Y58.9248 
G01 X-127.2821 Y58.9930 
G01 X-127.1074 Y59.0277 
G01 X-126.9293 Y59.0277 
G01 X-126.7546 Y58.9930 
G01 X-126.5900 Y58.9248 
G01 X-126.4420 Y58.8259 
G01 X-126.3160 Y58.6999 
G01 X-126.2171 Y58.5519 
G01 X-126.1489 Y58.3873 
G01 X-126.1142 Y58.2126 
G01 X-126.1142 Y58.0345 
G01 X-126.1489 Y57.8598 
G01 X-126.2171 Y57.6952 
G01 X-126.3160 Y57.5472 
G01 X-126.4420 Y57.4212 
G01 X-126.5900 Y57.3223 
G01 X-126.7546 Y57.2541 
G01 X-126.7626 Y57.2526 
G01 X-126.7626 Y57.2373 
G01 X-106.5123 Y57.2373 
G01 X-106.5123 Y58.3495 
G01 X-106.7573 Y58.3495 
G01 X-107.4394 Y59.0316 
G01 X-107.4394 Y59.9963 
G01 X-106.7573 Y60.6784 
G01 X-105.7926 Y60.6784 
G01 X-105.1105 Y59.9963 
G01 X-105.1105 Y59.0316 
G01 X-105.7926 Y58.3495 
G01 X-106.0376 Y58.3495 
G01 X-106.0376 Y56.9527 
G01 X-106.0737 Y56.8655 
G01 X-106.1405 Y56.7987 
G01 X-106.2277 Y56.7626 
G01 X-106.3222 Y56.7626 
G01 X-127.0472 Y56.7626 
G01 X-127.1344 Y56.7987 
G01 X-127.2012 Y56.8655 
G01 X-127.2373 Y56.9527 
G01 X-127.2373 Y57.0472 
G01 X-127.2373 Y57.2452 
G01 X-127.2821 Y57.2541 
G01 X-127.4467 Y57.3223 
G01 X-127.5947 Y57.4212 
G01 X-127.7207 Y57.5472 
G01 X-127.8196 Y57.6952 
G01 X-127.8878 Y57.8598 
G01 X-127.9225 Y58.0345 
G00 Z2.0000 
G00 X-73.4314 Y59.0316 
G01 Z-0.1000 F600.00 
G01 X-73.4314 Y59.9963 
G01 X-72.7493 Y60.6784 
G01 X-71.7846 Y60.6784 
G01 X-71.1025 Y59.9963 
G01 X-71.1025 Y59.0316 
G01 X-71.7846 Y58.3495 
G01 X-72.0296 Y58.3495 
G01 X-72.0296 Y52.9527 
G01 X-72.0657 Y52.8655 
G01 X-72.1325 Y52.7987 
G01 X-72.2197 Y52.7626 
G01 X-72.3142 Y52.7626 
G01 X-149.5472 Y52.7626 
G01 X-149.6344 Y52.7987 
G01 X-149.7012 Y52.8655 
G01 X-149.7373 Y52.9527 
G01 X-149.7373 Y53.0472 
G01 X-149.7373 Y57.4171 
G01 X-149.7435 Y57.4212 
G01 X-149.8695 Y57.5472 
G01 X-149.9684 Y57.6952 
G01 X-150.0366 Y57.8598 
G01 X-150.0713 Y58.0345 
G01 X-150.0713 Y58.2126 
G01 X-150.0366 Y58.3873 
G01 X-149.9684 Y58.5519 
G01 X-149.8695 Y58.6999 
G01 X-149.7435 Y58.8259 
G01 X-149.5955 Y58.9248 
G01 X-149.4309 Y58.9930 
G01 X-149.2562 Y59.0277 
G01 X-149.0781 Y59.0277 
G01 X-148.9034 Y58.9930 
G01 X-148.7388 Y58.9248 
G01 X-148.5908 Y58.8259 
G01 X-148.4648 Y58.6999 
G01 X-148.3659 Y58.5519 
G01 X-148.2977 Y58.3873 
G01 X-148.2630 Y58.2126 
G01 X-148.2630 Y58.0345 
G01 X-148.2977 Y57.8598 
G01 X-148.3659 Y57.6952 
G01 X-148.4648 Y57.5472 
G01 X-148.5908 Y57.4212 
G01 X-148.7388 Y57.3223 
G01 X-148.9034 Y57.2541 
G01 X-149.0781 Y57.2194 
G01 X-149.2562 Y57.2194 
G01 X-149.2626 Y57.2207 
G01 X-149.2626 Y53.2373 
G01 X-72.5043 Y53.2373 
G01 X-72.5043 Y58.3495 
G01 X-72.7493 Y58.3495 
G01 X-73.4314 Y59.0316 
G00 Z2.0000 
G00 X-81.9334 Y59.0316 
G01 Z-0.1000 F600.00 
G01 X-81.9334 Y59.9963 
G01 X-81.2513 Y60.6784 
G01 X-80.2866 Y60.6784 
G01 X-79.6045 Y59.9963 
G01 X-79.6045 Y59.0316 
G01 X-80.2866 Y58.3495 
G01 X-80.5316 Y58.3495 
G01 X-80.5316 Y53.9527 
G01 X-80.5677 Y53.8655 
G01 X-80.6345 Y53.7987 
G01 X-80.7217 Y53.7626 
G01 X-80.8162 Y53.7626 
G01 X-143.5472 Y53.7626 
G01 X-143.6344 Y53.7987 
G01 X-143.7012 Y53.8655 
G01 X-143.7373 Y53.9527 
G01 X-143.7373 Y54.0472 
G01 X-143.7373 Y57.2231 
G01 X-143.8937 Y57.2541 
G01 X-144.0583 Y57.3223 
G01 X-144.2063 Y57.4212 
G01 X-144.3323 Y57.5472 
G01 X-144.4312 Y57.6952 
G01 X-144.4994 Y57.8598 
G01 X-144.5341 Y58.0345 
G01 X-144.5341 Y58.2126 
G01 X-144.4994 Y58.3873 
G01 X-144.4312 Y58.5519 
G01 X-144.3323 Y58.6999 
G01 X-144.2063 Y58.8259 
G01 X-144.0583 Y58.9248 
G01 X-143.8937 Y58.9930 
G01 X-143.7190 Y59.0277 
G01 X-143.5409 Y59.0277 
G01 X-143.3662 Y58.9930 
G01 X-143.2016 Y58.9248 
G01 X-143.0536 Y58.8259 
G01 X-142.9276 Y58.6999 
G01 X-142.8287 Y58.5519 
G01 X-142.7605 Y58.3873 
G01 X-142.7258 Y58.2126 
G01 X-142.7258 Y58.0345 
G01 X-142.7605 Y57.8598 
G01 X-142.8287 Y57.6952 
G01 X-142.9276 Y57.5472 
G01 X-143.0536 Y57.4212 
G01 X-143.2016 Y57.3223 
G01 X-143.2626 Y57.2971 
G01 X-143.2626 Y54.2373 
G01 X-81.0063 Y54.2373 
G01 X-81.0063 Y58.3495 
G01 X-81.2513 Y58.3495 
G01 X-81.9334 Y59.0316 
G00 Z2.0000 
G00 X-90.4354 Y59.0316 
G01 Z-0.1000 F600.00 
G01 X-90.4354 Y59.9963 
G01 X-89.7533 Y60.6784 
G01 X-88.7886 Y60.6784 
G01 X-88.1065 Y59.9963 
G01 X-88.1065 Y59.0316 
G01 X-88.7886 Y58.3495 
G01 X-89.0336 Y58.3495 
G01 X-89.0336 Y54.9527 
G01 X-89.0697 Y54.8655 
G01 X-89.1365 Y54.7987 
G01 X-89.2237 Y54.7626 
G01 X-89.3182 Y54.7626 
G01 X-138.5472 Y54.7626 
G01 X-138.6344 Y54.7987 
G01 X-138.7012 Y54.8655 
G01 X-138.7373 Y54.9527 
G01 X-138.7373 Y55.0472 
G01 X-138.7373 Y57.4895 
G01 X-138.7951 Y57.5472 
G01 X-138.8940 Y57.6952 
G01 X-138.9622 Y57.8598 
G01 X-138.9969 Y58.0345 
G01 X-138.9969 Y58.2126 
G01 X-138.9622 Y58.3873 
G01 X-138.8940 Y58.5519 
G01 X-138.7951 Y58.6999 
G01 X-138.6691 Y58.8259 
G01 X-138.5211 Y58.9248 
G01 X-138.3565 Y58.9930 
G01 X-138.1818 Y59.0277 
G01 X-138.0037 Y59.0277 
G01 X-137.8290 Y58.9930 
G01 X-137.6644 Y58.9248 
G01 X-137.5164 Y58.8259 
G01 X-137.3904 Y58.6999 
G01 X-137.2915 Y58.5519 
G01 X-137.2233 Y58.3873 
G01 X-137.1886 Y58.2126 
G01 X-137.1886 Y58.0345 
G01 X-137.2233 Y57.8598 
G01 X-137.2915 Y57.6952 
G01 X-137.3904 Y57.5472 
G01 X-137.5164 Y57.4212 
G01 X-137.6644 Y57.3223 
G01 X-137.8290 Y57.2541 
G01 X-138.0037 Y57.2194 
G01 X-138.1818 Y57.2194 
G01 X-138.2626 Y57.2355 
G01 X-138.2626 Y55.2373 
G01 X-89.5083 Y55.2373 
G01 X-89.5083 Y58.3495 
G01 X-89.7533 Y58.3495 
G01 X-90.4354 Y59.0316 
G00 Z2.0000 
G00 X-98.9374 Y59.0316 
G01 Z-0.1000 F600.00 
G01 X-98.9374 Y59.9963 
G01 X-98.2553 Y60.6784 
G01 X-97.2906 Y60.6784 
G01 X-96.6085 Y59.9963 
G01 X-96.6085 Y59.0316 
G01 X-97.2906 Y58.3495 
G01 X-97.5356 Y58.3495 
G01 X-97.5356 Y55.9527 
G01 X-97.5717 Y55.8655 
G01 X-97.6385 Y55.7987 
G01 X-97.7257 Y55.7626 
G01 X-97.8202 Y55.7626 
G01 X-132.5472 Y55.7626 
G01 X-132.6344 Y55.7987 
G01 X-132.7012 Y55.8655 
G01 X-132.7373 Y55.9527 
G01 X-132.7373 Y56.0472 
G01 X-132.7373 Y57.2379 
G01 X-132.8193 Y57.2541 
G01 X-132.9839 Y57.3223 
G01 X-133.1319 Y57.4212 
G01 X-133.2579 Y57.5472 
G01 X-133.3568 Y57.6952 
G01 X-133.4250 Y57.8598 
G01 X-133.4597 Y58.0345 
G01 X-133.4597 Y58.2126 
G01 X-133.4250 Y58.3873 
G01 X-133.3568 Y58.5519 
G01 X-133.2579 Y58.6999 
G01 X-133.1319 Y58.8259 
G01 X-132.9839 Y58.9248 
G01 X-132.8193 Y58.9930 
G01 X-132.6446 Y59.0277 
G01 X-132.4665 Y59.0277 
G01 X-132.2918 Y58.9930 
G01 X-132.1272 Y58.9248 
G01 X-131.9792 Y58.8259 
G01 X-131.8532 Y58.6999 
G01 X-131.7543 Y58.5519 
G01 X-131.6861 Y58.3873 
G01 X-131.6514 Y58.2126 
G01 X-131.6514 Y58.0345 
G01 X-131.6861 Y57.8598 
G01 X-131.7543 Y57.6952 
G01 X-131.8532 Y57.5472 
G01 X-131.9792 Y57.4212 
G01 X-132.1272 Y57.3223 
G01 X-132.2626 Y57.2662 
G01 X-132.2626 Y56.2373 
G01 X-98.0103 Y56.2373 
G01 X-98.0103 Y58.3495 
G01 X-98.2553 Y58.3495 
G01 X-98.9374 Y59.0316 
G00 Z2.0000 
G00 X-103.1884 Y59.0316 
G01 Z-0.1000 F600.00 
G01 X-103.1884 Y59.9963 
G01 X-102.5063 Y60.6784 
G01 X-101.5416 Y60.6784 
G01 X-100.8595 Y59.9963 
G01 X-100.8595 Y59.0316 
G01 X-101.5416 Y58.3495 
G01 X-101.7626 Y58.3495 
G01 X-101.7626 Y56.5472 
G01 X-101.7626 Y56.4527 
G01 X-101.7987 Y56.3655 
G01 X-101.8655 Y56.2987 
G01 X-101.9527 Y56.2626 
G01 X-129.7397 Y56.2626 
G01 X-129.8342 Y56.2626 
G01 X-129.9214 Y56.2987 
G01 X-129.9882 Y56.3655 
G01 X-130.0243 Y56.4527 
G01 X-130.0243 Y57.2489 
G01 X-130.0507 Y57.2541 
G01 X-130.2153 Y57.3223 
G01 X-130.3633 Y57.4212 
G01 X-130.4893 Y57.5472 
G01 X-130.5882 Y57.6952 
G01 X-130.6564 Y57.8598 
G01 X-130.6911 Y58.0345 
G01 X-130.6911 Y58.2126 
G01 X-130.6564 Y58.3873 
G01 X-130.5882 Y58.5519 
G01 X-130.4893 Y58.6999 
G01 X-130.3633 Y58.8259 
G01 X-130.2153 Y58.9248 
G01 X-130.0507 Y58.9930 
G01 X-129.8760 Y59.0277 
G01 X-129.6979 Y59.0277 
G01 X-129.5232 Y58.9930 
G01 X-129.3586 Y58.9248 
G01 X-129.2106 Y58.8259 
G01 X-129.0846 Y58.6999 
G01 X-128.9857 Y58.5519 
G01 X-128.9175 Y58.3873 
G01 X-128.8828 Y58.2126 
G01 X-128.8828 Y58.0345 
G01 X-128.9175 Y57.8598 
G01 X-128.9857 Y57.6952 
G01 X-129.0846 Y57.5472 
G01 X-129.2106 Y57.4212 
G01 X-129.3586 Y57.3223 
G01 X-129.5232 Y57.2541 
G01 X-129.5496 Y57.2489 
G01 X-129.5496 Y56.7373 
G01 X-102.2373 Y56.7373 
G01 X-102.2373 Y58.3495 
G01 X-102.5063 Y58.3495 
G01 X-103.1884 Y59.0316 
(File Footer)
G00 Z2.0000 
G00 Z10.0000 
M05
M02
