( This gcode generated by /home/mattvenn/.eagle/ulp/pcb-gcode.ulp )
( Copyright 2005 by John Johnson. See readme.txt for licensing terms. )

( This file generated from the board /home/mattvenn/eagle-circuit-designs/cvm/hymera.brd )
( This file generated 30/01/2012 17:05 )

( T01 1.092200 )
( T02 1.320800 )
( T03 3.048000 )
( T04 3.200000 )
G21

G90
M05
G00 X0.0000 Y0.0000 Z30.0000 
M06 T01  ; 1.0922 
G00 Z2.0000 
M03
G04 P3.000000
G82 X-127.0184 Y58.1236 Z-2.0000 F127.00 R2.0000 P0.100000
G82 X-128.4027 Y60.9684 
G82 X-129.7870 Y58.1236 
G82 X-131.1713 Y60.9684 
G82 X-132.5556 Y58.1236 
G82 X-133.9399 Y60.9684 
G82 X-135.3242 Y58.1236 
G82 X-136.7085 Y60.9684 
G82 X-138.0928 Y58.1236 
G82 X-139.4771 Y60.9684 
G82 X-140.8614 Y58.1236 
G82 X-142.2457 Y60.9684 
G82 X-143.6300 Y58.1236 
G82 X-145.0143 Y60.9684 
G82 X-146.3986 Y58.1236 
G82 X-147.7829 Y60.9684 
G82 X-149.1672 Y58.1236 
G82 X-150.5515 Y60.9684 
G82 X-151.9358 Y58.1236 
G82 X-153.3201 Y60.9684 
G82 X-154.7044 Y58.1236 
G82 X-156.0887 Y60.9684 
G82 X-157.4730 Y58.1236 
G82 X-158.8573 Y60.9684 
G82 X-160.2416 Y58.1236 
M05
G00 X0.0000 Y0.0000 Z30.0000 
M06 T02  ; 1.3208 
G00 Z2.0000 
M03
G04 P3.000000
G82 X-102.0240 Y59.5140 Z-2.0000 F127.00 R2.0000 P0.100000
G82 X-106.2750 Y59.5140 
G82 X-12.7530 Y59.5140 
G82 X-17.0040 Y59.5140 
G82 X-21.2550 Y59.5140 
G82 X-25.5060 Y59.5140 
G82 X-29.7570 Y59.5140 
G82 X-34.0080 Y59.5140 
G82 X-38.2590 Y59.5140 
G82 X-42.5100 Y59.5140 
G82 X-46.7610 Y59.5140 
G82 X-51.0120 Y59.5140 
G82 X-55.2630 Y59.5140 
G82 X-59.5140 Y59.5140 
G82 X-63.7650 Y59.5140 
G82 X-68.0160 Y59.5140 
G82 X-72.2670 Y59.5140 
G82 X-76.5180 Y59.5140 
G82 X-80.7690 Y59.5140 
G82 X-85.0200 Y59.5140 
G82 X-89.2710 Y59.5140 
G82 X-93.5220 Y59.5140 
G82 X-97.7730 Y59.5140 
M05
G00 X0.0000 Y0.0000 Z30.0000 
M06 T03  ; 3.0480 
G00 Z2.0000 
M03
G04 P3.000000
G82 X-120.1096 Y59.5460 Z-2.0000 F127.00 R2.0000 P0.100000
G82 X-167.1504 Y59.5460 
M05
G00 X0.0000 Y0.0000 Z30.0000 
M06 T04  ; 3.2000 
G00 Z2.0000 
M03
G04 P3.000000
G82 X-15.0000 Y75.0000 Z-2.0000 F127.00 R2.0000 P0.100000
G82 X-165.0000 Y75.0000 
G82 X-90.0000 Y75.0000 
(File Footer)
T01 
G00 Z10.0000 
M05
M02
