( This gcode generated by /home/mattvenn/.eagle/ulp/pcb-gcode.ulp )
( Copyright 2005 by John Johnson. See readme.txt for licensing terms. )

( This file generated from the board /home/mattvenn/eagle-circuit-designs/cvm/hymera2.brd )
( This file generated 13/02/2012 12:12 )

G21

G90
G00 Z10.0000 
G00 X0 Y0
M03
G04 P3.000000
G00 Z2.0000 
G00 X-7.6675 Y25.2274 
G01 Z-0.2000 F600.00 
G01 X-7.6675 Y27.3805 
G01 X-7.6406 Y27.5502 
G01 X-7.5875 Y27.7136 
G01 X-7.5095 Y27.8667 
G01 X-7.4085 Y28.0057 
G01 X-7.2871 Y28.1271 
G01 X-7.1481 Y28.2281 
G01 X-6.9950 Y28.3061 
G01 X-6.8316 Y28.3592 
G01 X-6.6619 Y28.3861 
G01 X-6.4900 Y28.3861 
G01 X-6.3203 Y28.3592 
G01 X-6.1569 Y28.3061 
G01 X-6.0038 Y28.2281 
G01 X-5.8648 Y28.1271 
G01 X-5.7434 Y28.0057 
G01 X-5.6424 Y27.8667 
G01 X-5.5644 Y27.7136 
G01 X-5.5113 Y27.5502 
G01 X-5.4844 Y27.3805 
G01 X-5.4844 Y25.2274 
G01 X-5.5113 Y25.0577 
G01 X-5.5644 Y24.8943 
G01 X-5.6424 Y24.7412 
G01 X-5.7434 Y24.6022 
G01 X-5.8648 Y24.4808 
G01 X-5.9958 Y24.3857 
G01 X-5.9958 Y17.9599 
G01 X-6.0165 Y17.8825 
G01 X-6.0566 Y17.8132 
G01 X-6.1132 Y17.7566 
G01 X-19.3132 Y4.5566 
G01 X-19.3825 Y4.5165 
G01 X-19.4599 Y4.4958 
G01 X-19.5400 Y4.4958 
G01 X-34.7950 Y4.4958 
G01 X-34.8293 Y4.4946 
G01 X-34.8344 Y4.4958 
G01 X-34.8400 Y4.4958 
G01 X-34.8746 Y4.5051 
G01 X-34.9073 Y4.5126 
G01 X-34.9118 Y4.5150 
G01 X-34.9174 Y4.5165 
G01 X-34.9482 Y4.5344 
G01 X-36.1919 Y5.1950 
G01 X-36.1973 Y5.1964 
G01 X-36.2270 Y5.2136 
G01 X-36.2579 Y5.2300 
G01 X-36.2620 Y5.2339 
G01 X-36.2666 Y5.2365 
G01 X-36.2901 Y5.2600 
G01 X-36.3165 Y5.2846 
G01 X-36.3195 Y5.2895 
G01 X-36.3232 Y5.2931 
G01 X-36.3400 Y5.3223 
G01 X-36.3590 Y5.3525 
G01 X-36.3606 Y5.3578 
G01 X-36.3633 Y5.3624 
G01 X-36.3722 Y5.3959 
G01 X-36.3824 Y5.4291 
G01 X-36.3826 Y5.4346 
G01 X-36.3840 Y5.4398 
G01 X-36.3840 Y5.4748 
G01 X-36.3852 Y5.5092 
G01 X-36.3840 Y5.5144 
G01 X-36.3840 Y5.7616 
G01 X-36.5157 Y5.8161 
G01 X-36.6664 Y5.9168 
G01 X-36.7946 Y6.0450 
G01 X-36.8953 Y6.1957 
G01 X-36.9646 Y6.3631 
G01 X-37.0000 Y6.5409 
G01 X-37.0000 Y6.7222 
G01 X-36.9646 Y6.9000 
G01 X-36.8953 Y7.0674 
G01 X-36.7946 Y7.2181 
G01 X-36.6664 Y7.3463 
G01 X-36.5157 Y7.4470 
G01 X-36.3483 Y7.5163 
G01 X-36.1705 Y7.5517 
G01 X-35.9892 Y7.5517 
G01 X-35.8114 Y7.5163 
G01 X-35.6440 Y7.4470 
G01 X-35.4933 Y7.3463 
G01 X-35.3651 Y7.2181 
G01 X-35.2644 Y7.0674 
G01 X-35.1951 Y6.9000 
G01 X-35.1597 Y6.7222 
G01 X-35.1597 Y6.5409 
G01 X-35.1951 Y6.3631 
G01 X-35.2644 Y6.1957 
G01 X-35.3651 Y6.0450 
G01 X-35.4933 Y5.9168 
G01 X-35.6440 Y5.8161 
G01 X-35.7757 Y5.7616 
G01 X-35.7757 Y5.6626 
G01 X-34.7242 Y5.1041 
G01 X-19.6259 Y5.1041 
G01 X-6.6041 Y18.1259 
G01 X-6.6041 Y24.2218 
G01 X-6.6619 Y24.2218 
G01 X-6.8316 Y24.2487 
G01 X-6.9950 Y24.3018 
G01 X-7.1481 Y24.3798 
G01 X-7.2871 Y24.4808 
G01 X-7.4085 Y24.6022 
G01 X-7.5095 Y24.7412 
G01 X-7.5875 Y24.8943 
G01 X-7.6406 Y25.0577 
G01 X-7.6675 Y25.2274 
G00 Z2.0000 
G00 X-11.9185 Y25.2274 
G01 Z-0.2000 F600.00 
G01 X-11.9185 Y27.3805 
G01 X-11.8916 Y27.5502 
G01 X-11.8385 Y27.7136 
G01 X-11.7605 Y27.8667 
G01 X-11.6595 Y28.0057 
G01 X-11.5381 Y28.1271 
G01 X-11.4041 Y28.2244 
G01 X-11.4041 Y28.5400 
G01 X-11.3834 Y28.6174 
G01 X-11.3433 Y28.6867 
G01 X-11.2867 Y28.7433 
G01 X-10.0867 Y29.9433 
G01 X-10.0174 Y29.9834 
G01 X-9.9400 Y30.0041 
G01 X-9.8599 Y30.0041 
G01 X-6.5599 Y30.0041 
G01 X-6.4825 Y29.9834 
G01 X-6.4132 Y29.9433 
G01 X-6.3566 Y29.8867 
G01 X-4.5566 Y28.0867 
G01 X-4.5165 Y28.0174 
G01 X-4.4958 Y27.9400 
G01 X-4.4958 Y27.8599 
G01 X-4.4958 Y11.4340 
G01 X-4.4945 Y11.4283 
G01 X-4.4958 Y11.3947 
G01 X-4.4958 Y11.3599 
G01 X-4.4974 Y11.3541 
G01 X-4.4976 Y11.3482 
G01 X-4.5076 Y11.3159 
G01 X-4.5165 Y11.2825 
G01 X-4.5195 Y11.2775 
G01 X-4.5212 Y11.2717 
G01 X-4.5400 Y11.2420 
G01 X-4.5566 Y11.2132 
G01 X-4.5607 Y11.2092 
G01 X-4.5639 Y11.2040 
G01 X-4.5896 Y11.1803 
G01 X-4.6132 Y11.1566 
G01 X-4.6183 Y11.1537 
G01 X-12.6890 Y3.6809 
G01 X-12.7132 Y3.6566 
G01 X-12.7184 Y3.6537 
G01 X-12.7227 Y3.6496 
G01 X-12.7526 Y3.6339 
G01 X-12.7825 Y3.6165 
G01 X-12.7883 Y3.6150 
G01 X-12.7935 Y3.6122 
G01 X-12.8269 Y3.6047 
G01 X-12.8599 Y3.5958 
G01 X-12.8659 Y3.5958 
G01 X-12.8716 Y3.5945 
G01 X-12.9052 Y3.5958 
G01 X-36.2800 Y3.5958 
G01 X-36.2994 Y3.5932 
G01 X-36.3195 Y3.5958 
G01 X-36.3400 Y3.5958 
G01 X-36.3592 Y3.6010 
G01 X-36.3789 Y3.6035 
G01 X-36.3975 Y3.6112 
G01 X-36.4174 Y3.6165 
G01 X-36.4346 Y3.6265 
G01 X-36.4529 Y3.6340 
G01 X-36.4692 Y3.6465 
G01 X-36.4867 Y3.6566 
G01 X-36.5004 Y3.6704 
G01 X-39.0179 Y5.5951 
G01 X-39.0352 Y5.6051 
G01 X-39.0488 Y5.6188 
G01 X-39.0650 Y5.6311 
G01 X-39.0777 Y5.6477 
G01 X-39.0918 Y5.6617 
G01 X-39.1015 Y5.6786 
G01 X-39.1139 Y5.6946 
G01 X-39.1217 Y5.7134 
G01 X-39.1319 Y5.7310 
G01 X-39.1371 Y5.7505 
G01 X-39.1394 Y5.7562 
G01 X-39.2843 Y5.8161 
G01 X-39.4350 Y5.9168 
G01 X-39.5632 Y6.0450 
G01 X-39.6639 Y6.1957 
G01 X-39.7332 Y6.3631 
G01 X-39.7686 Y6.5409 
G01 X-39.7686 Y6.7222 
G01 X-39.7332 Y6.9000 
G01 X-39.6639 Y7.0674 
G01 X-39.5632 Y7.2181 
G01 X-39.4350 Y7.3463 
G01 X-39.2843 Y7.4470 
G01 X-39.1169 Y7.5163 
G01 X-38.9391 Y7.5517 
G01 X-38.7578 Y7.5517 
G01 X-38.5800 Y7.5163 
G01 X-38.4126 Y7.4470 
G01 X-38.2619 Y7.3463 
G01 X-38.1337 Y7.2181 
G01 X-38.0330 Y7.0674 
G01 X-37.9637 Y6.9000 
G01 X-37.9283 Y6.7222 
G01 X-37.9283 Y6.5409 
G01 X-37.9637 Y6.3631 
G01 X-38.0330 Y6.1957 
G01 X-38.1337 Y6.0450 
G01 X-38.2619 Y5.9168 
G01 X-38.3554 Y5.8543 
G01 X-36.1970 Y4.2041 
G01 X-13.0191 Y4.2041 
G01 X-5.1041 Y11.5328 
G01 X-5.1041 Y27.7740 
G01 X-6.7259 Y29.3958 
G01 X-9.7740 Y29.3958 
G01 X-10.7838 Y28.3861 
G01 X-10.7410 Y28.3861 
G01 X-10.5713 Y28.3592 
G01 X-10.4079 Y28.3061 
G01 X-10.2548 Y28.2281 
G01 X-10.1158 Y28.1271 
G01 X-9.9944 Y28.0057 
G01 X-9.8934 Y27.8667 
G01 X-9.8154 Y27.7136 
G01 X-9.7623 Y27.5502 
G01 X-9.7354 Y27.3805 
G01 X-9.7354 Y25.2274 
G01 X-9.7623 Y25.0577 
G01 X-9.8154 Y24.8943 
G01 X-9.8934 Y24.7412 
G01 X-9.9944 Y24.6022 
G01 X-10.1158 Y24.4808 
G01 X-10.2548 Y24.3798 
G01 X-10.4079 Y24.3018 
G01 X-10.5713 Y24.2487 
G01 X-10.7410 Y24.2218 
G01 X-10.9129 Y24.2218 
G01 X-11.0826 Y24.2487 
G01 X-11.2460 Y24.3018 
G01 X-11.3991 Y24.3798 
G01 X-11.5381 Y24.4808 
G01 X-11.6595 Y24.6022 
G01 X-11.7605 Y24.7412 
G01 X-11.8385 Y24.8943 
G01 X-11.8916 Y25.0577 
G01 X-11.9185 Y25.2274 
G00 Z2.0000 
G00 X-16.1695 Y25.2274 
G01 Z-0.2000 F600.00 
G01 X-16.1695 Y27.3805 
G01 X-16.1426 Y27.5502 
G01 X-16.0895 Y27.7136 
G01 X-16.0115 Y27.8667 
G01 X-15.9105 Y28.0057 
G01 X-15.7891 Y28.1271 
G01 X-15.6501 Y28.2281 
G01 X-15.4970 Y28.3061 
G01 X-15.3821 Y28.3434 
G01 X-15.3821 Y28.6819 
G01 X-15.3821 Y28.7620 
G01 X-15.3614 Y28.8394 
G01 X-15.3213 Y28.9087 
G01 X-13.3867 Y30.8433 
G01 X-13.3174 Y30.8834 
G01 X-13.2400 Y30.9041 
G01 X-13.1599 Y30.9041 
G01 X-13.1598 Y30.9041 
G01 X-6.0400 Y30.9041 
G01 X-5.9599 Y30.9041 
G01 X-5.8825 Y30.8834 
G01 X-5.8132 Y30.8433 
G01 X-3.4133 Y28.4433 
G01 X-3.4132 Y28.4433 
G01 X-3.3566 Y28.3867 
G01 X-3.3165 Y28.3174 
G01 X-3.2958 Y28.2400 
G01 X-3.2958 Y11.4374 
G01 X-3.2951 Y11.4346 
G01 X-3.2958 Y11.3972 
G01 X-3.2958 Y11.3599 
G01 X-3.2966 Y11.3571 
G01 X-3.2966 Y11.3545 
G01 X-3.3061 Y11.3216 
G01 X-3.3165 Y11.2825 
G01 X-3.3181 Y11.2799 
G01 X-3.3187 Y11.2775 
G01 X-3.3378 Y11.2459 
G01 X-3.3566 Y11.2132 
G01 X-3.3584 Y11.2115 
G01 X-3.3599 Y11.2089 
G01 X-3.3887 Y11.1812 
G01 X-3.4132 Y11.1566 
G01 X-3.4155 Y11.1554 
G01 X-11.9888 Y2.8811 
G01 X-12.0132 Y2.8566 
G01 X-12.0155 Y2.8554 
G01 X-12.0175 Y2.8533 
G01 X-12.0498 Y2.8355 
G01 X-12.0825 Y2.8165 
G01 X-12.0854 Y2.8158 
G01 X-12.0876 Y2.8145 
G01 X-12.1234 Y2.8056 
G01 X-12.1599 Y2.7958 
G01 X-12.1626 Y2.7958 
G01 X-12.1653 Y2.7951 
G01 X-12.2026 Y2.7958 
G01 X-36.9652 Y2.7958 
G01 X-36.9845 Y2.7932 
G01 X-37.0048 Y2.7958 
G01 X-37.0255 Y2.7958 
G01 X-37.0445 Y2.8009 
G01 X-37.0640 Y2.8034 
G01 X-37.0828 Y2.8112 
G01 X-37.1029 Y2.8165 
G01 X-37.1198 Y2.8264 
G01 X-37.1381 Y2.8338 
G01 X-37.1547 Y2.8466 
G01 X-37.1722 Y2.8566 
G01 X-37.1856 Y2.8701 
G01 X-41.1108 Y5.8632 
G01 X-41.1812 Y5.8161 
G01 X-41.3486 Y5.7468 
G01 X-41.5264 Y5.7114 
G01 X-41.7077 Y5.7114 
G01 X-41.8855 Y5.7468 
G01 X-42.0529 Y5.8161 
G01 X-42.2036 Y5.9168 
G01 X-42.3318 Y6.0450 
G01 X-42.4325 Y6.1957 
G01 X-42.5018 Y6.3631 
G01 X-42.5372 Y6.5409 
G01 X-42.5372 Y6.7222 
G01 X-42.5018 Y6.9000 
G01 X-42.4325 Y7.0674 
G01 X-42.3318 Y7.2181 
G01 X-42.2036 Y7.3463 
G01 X-42.0529 Y7.4470 
G01 X-41.8855 Y7.5163 
G01 X-41.7077 Y7.5517 
G01 X-41.5264 Y7.5517 
G01 X-41.3486 Y7.5163 
G01 X-41.1812 Y7.4470 
G01 X-41.0305 Y7.3463 
G01 X-40.9023 Y7.2181 
G01 X-40.8016 Y7.0674 
G01 X-40.7323 Y6.9000 
G01 X-40.6969 Y6.7222 
G01 X-40.6969 Y6.5409 
G01 X-40.7323 Y6.3631 
G01 X-40.7398 Y6.3451 
G01 X-36.8828 Y3.4041 
G01 X-12.3228 Y3.4041 
G01 X-3.9041 Y11.5291 
G01 X-3.9041 Y28.0741 
G01 X-6.1259 Y30.2958 
G01 X-13.0740 Y30.2958 
G01 X-14.7738 Y28.5960 
G01 X-14.7738 Y28.3434 
G01 X-14.6589 Y28.3061 
G01 X-14.5058 Y28.2281 
G01 X-14.3668 Y28.1271 
G01 X-14.2454 Y28.0057 
G01 X-14.1444 Y27.8667 
G01 X-14.0664 Y27.7136 
G01 X-14.0133 Y27.5502 
G01 X-13.9864 Y27.3805 
G01 X-13.9864 Y25.2274 
G01 X-14.0133 Y25.0577 
G01 X-14.0664 Y24.8943 
G01 X-14.1444 Y24.7412 
G01 X-14.2454 Y24.6022 
G01 X-14.3668 Y24.4808 
G01 X-14.5058 Y24.3798 
G01 X-14.6589 Y24.3018 
G01 X-14.8223 Y24.2487 
G01 X-14.9920 Y24.2218 
G01 X-15.1639 Y24.2218 
G01 X-15.3336 Y24.2487 
G01 X-15.4970 Y24.3018 
G01 X-15.6501 Y24.3798 
G01 X-15.7891 Y24.4808 
G01 X-15.9105 Y24.6022 
G01 X-16.0115 Y24.7412 
G01 X-16.0895 Y24.8943 
G01 X-16.1426 Y25.0577 
G01 X-16.1695 Y25.2274 
G00 Z2.0000 
G00 X-20.4205 Y25.2274 
G01 Z-0.2000 F600.00 
G01 X-20.4205 Y27.3805 
G01 X-20.3936 Y27.5502 
G01 X-20.3405 Y27.7136 
G01 X-20.2625 Y27.8667 
G01 X-20.1615 Y28.0057 
G01 X-20.0401 Y28.1271 
G01 X-19.9011 Y28.2281 
G01 X-19.7480 Y28.3061 
G01 X-19.5846 Y28.3592 
G01 X-19.4149 Y28.3861 
G01 X-19.2430 Y28.3861 
G01 X-19.0733 Y28.3592 
G01 X-18.9099 Y28.3061 
G01 X-18.7568 Y28.2281 
G01 X-18.6178 Y28.1271 
G01 X-18.4964 Y28.0057 
G01 X-18.3954 Y27.8667 
G01 X-18.3174 Y27.7136 
G01 X-18.2643 Y27.5502 
G01 X-18.2374 Y27.3805 
G01 X-18.2374 Y25.2274 
G01 X-18.2643 Y25.0577 
G01 X-18.3174 Y24.8943 
G01 X-18.3954 Y24.7412 
G01 X-18.4964 Y24.6022 
G01 X-18.6178 Y24.4808 
G01 X-18.7568 Y24.3798 
G01 X-18.8958 Y24.3090 
G01 X-18.8958 Y16.4599 
G01 X-18.9165 Y16.3825 
G01 X-18.9566 Y16.3132 
G01 X-19.0132 Y16.2566 
G01 X-27.4132 Y7.8566 
G01 X-27.4825 Y7.8165 
G01 X-27.5599 Y7.7958 
G01 X-27.6400 Y7.7958 
G01 X-42.1740 Y7.7958 
G01 X-43.4746 Y6.4952 
G01 X-43.5009 Y6.3631 
G01 X-43.5702 Y6.1957 
G01 X-43.6709 Y6.0450 
G01 X-43.7991 Y5.9168 
G01 X-43.9498 Y5.8161 
G01 X-44.1172 Y5.7468 
G01 X-44.2950 Y5.7114 
G01 X-44.4763 Y5.7114 
G01 X-44.6541 Y5.7468 
G01 X-44.8215 Y5.8161 
G01 X-44.9722 Y5.9168 
G01 X-45.1004 Y6.0450 
G01 X-45.2011 Y6.1957 
G01 X-45.2704 Y6.3631 
G01 X-45.3058 Y6.5409 
G01 X-45.3058 Y6.7222 
G01 X-45.2704 Y6.9000 
G01 X-45.2011 Y7.0674 
G01 X-45.1004 Y7.2181 
G01 X-44.9722 Y7.3463 
G01 X-44.8215 Y7.4470 
G01 X-44.6541 Y7.5163 
G01 X-44.4763 Y7.5517 
G01 X-44.2950 Y7.5517 
G01 X-44.1172 Y7.5163 
G01 X-43.9498 Y7.4470 
G01 X-43.7991 Y7.3463 
G01 X-43.6709 Y7.2181 
G01 X-43.6473 Y7.1827 
G01 X-42.5433 Y8.2867 
G01 X-42.4867 Y8.3433 
G01 X-42.4174 Y8.3834 
G01 X-42.3400 Y8.4041 
G01 X-27.7259 Y8.4041 
G01 X-19.5041 Y16.6259 
G01 X-19.5041 Y24.2360 
G01 X-19.5846 Y24.2487 
G01 X-19.7480 Y24.3018 
G01 X-19.9011 Y24.3798 
G01 X-20.0401 Y24.4808 
G01 X-20.1615 Y24.6022 
G01 X-20.2625 Y24.7412 
G01 X-20.3405 Y24.8943 
G01 X-20.3936 Y25.0577 
G01 X-20.4205 Y25.2274 
G00 Z2.0000 
G00 X-24.6715 Y25.2274 
G01 Z-0.2000 F600.00 
G01 X-24.6715 Y27.3805 
G01 X-24.6446 Y27.5502 
G01 X-24.5915 Y27.7136 
G01 X-24.5135 Y27.8667 
G01 X-24.4125 Y28.0057 
G01 X-24.2911 Y28.1271 
G01 X-24.1521 Y28.2281 
G01 X-23.9990 Y28.3061 
G01 X-23.8356 Y28.3592 
G01 X-23.6659 Y28.3861 
G01 X-23.4940 Y28.3861 
G01 X-23.3243 Y28.3592 
G01 X-23.1609 Y28.3061 
G01 X-23.0078 Y28.2281 
G01 X-22.8688 Y28.1271 
G01 X-22.7474 Y28.0057 
G01 X-22.6464 Y27.8667 
G01 X-22.5684 Y27.7136 
G01 X-22.5153 Y27.5502 
G01 X-22.4884 Y27.3805 
G01 X-22.4884 Y25.2274 
G01 X-22.5153 Y25.0577 
G01 X-22.5684 Y24.8943 
G01 X-22.6464 Y24.7412 
G01 X-22.7474 Y24.6022 
G01 X-22.8688 Y24.4808 
G01 X-23.0078 Y24.3798 
G01 X-23.1609 Y24.3018 
G01 X-23.3243 Y24.2487 
G01 X-23.4940 Y24.2218 
G01 X-23.6659 Y24.2218 
G01 X-23.8356 Y24.2487 
G01 X-23.9990 Y24.3018 
G01 X-24.1521 Y24.3798 
G01 X-24.2911 Y24.4808 
G01 X-24.4125 Y24.6022 
G01 X-24.5135 Y24.7412 
G01 X-24.5915 Y24.8943 
G01 X-24.6446 Y25.0577 
G01 X-24.6715 Y25.2274 
G00 Z2.0000 
G00 X-28.9225 Y25.2274 
G01 Z-0.2000 F600.00 
G01 X-28.9225 Y27.3805 
G01 X-28.8956 Y27.5502 
G01 X-28.8425 Y27.7136 
G01 X-28.7645 Y27.8667 
G01 X-28.6635 Y28.0057 
G01 X-28.5421 Y28.1271 
G01 X-28.4031 Y28.2281 
G01 X-28.2500 Y28.3061 
G01 X-28.0866 Y28.3592 
G01 X-27.9169 Y28.3861 
G01 X-27.7450 Y28.3861 
G01 X-27.5753 Y28.3592 
G01 X-27.4119 Y28.3061 
G01 X-27.2588 Y28.2281 
G01 X-27.1198 Y28.1271 
G01 X-26.9984 Y28.0057 
G01 X-26.8974 Y27.8667 
G01 X-26.8194 Y27.7136 
G01 X-26.7663 Y27.5502 
G01 X-26.7394 Y27.3805 
G01 X-26.7394 Y25.2274 
G01 X-26.7663 Y25.0577 
G01 X-26.8194 Y24.8943 
G01 X-26.8974 Y24.7412 
G01 X-26.9984 Y24.6022 
G01 X-27.1198 Y24.4808 
G01 X-27.2588 Y24.3798 
G01 X-27.4119 Y24.3018 
G01 X-27.5753 Y24.2487 
G01 X-27.7450 Y24.2218 
G01 X-27.9169 Y24.2218 
G01 X-28.0866 Y24.2487 
G01 X-28.2500 Y24.3018 
G01 X-28.4031 Y24.3798 
G01 X-28.5421 Y24.4808 
G01 X-28.6635 Y24.6022 
G01 X-28.7645 Y24.7412 
G01 X-28.8425 Y24.8943 
G01 X-28.8956 Y25.0577 
G01 X-28.9225 Y25.2274 
G00 Z2.0000 
G00 X-33.1735 Y25.2274 
G01 Z-0.2000 F600.00 
G01 X-33.1735 Y27.3805 
G01 X-33.1466 Y27.5502 
G01 X-33.0935 Y27.7136 
G01 X-33.0155 Y27.8667 
G01 X-32.9145 Y28.0057 
G01 X-32.7931 Y28.1271 
G01 X-32.6541 Y28.2281 
G01 X-32.5010 Y28.3061 
G01 X-32.3376 Y28.3592 
G01 X-32.1679 Y28.3861 
G01 X-31.9960 Y28.3861 
G01 X-31.8263 Y28.3592 
G01 X-31.6629 Y28.3061 
G01 X-31.5098 Y28.2281 
G01 X-31.3708 Y28.1271 
G01 X-31.2494 Y28.0057 
G01 X-31.1484 Y27.8667 
G01 X-31.0704 Y27.7136 
G01 X-31.0173 Y27.5502 
G01 X-30.9904 Y27.3805 
G01 X-30.9904 Y25.2274 
G01 X-31.0173 Y25.0577 
G01 X-31.0704 Y24.8943 
G01 X-31.1484 Y24.7412 
G01 X-31.2494 Y24.6022 
G01 X-31.3708 Y24.4808 
G01 X-31.5098 Y24.3798 
G01 X-31.6629 Y24.3018 
G01 X-31.8263 Y24.2487 
G01 X-31.9960 Y24.2218 
G01 X-32.1679 Y24.2218 
G01 X-32.3376 Y24.2487 
G01 X-32.5010 Y24.3018 
G01 X-32.6541 Y24.3798 
G01 X-32.7931 Y24.4808 
G01 X-32.9145 Y24.6022 
G01 X-33.0155 Y24.7412 
G01 X-33.0935 Y24.8943 
G01 X-33.1466 Y25.0577 
G01 X-33.1735 Y25.2274 
G00 Z2.0000 
G00 X-37.4245 Y25.2274 
G01 Z-0.2000 F600.00 
G01 X-37.4245 Y27.3805 
G01 X-37.3976 Y27.5502 
G01 X-37.3445 Y27.7136 
G01 X-37.2665 Y27.8667 
G01 X-37.1655 Y28.0057 
G01 X-37.0441 Y28.1271 
G01 X-36.9051 Y28.2281 
G01 X-36.7520 Y28.3061 
G01 X-36.5886 Y28.3592 
G01 X-36.4189 Y28.3861 
G01 X-36.2470 Y28.3861 
G01 X-36.0773 Y28.3592 
G01 X-35.9139 Y28.3061 
G01 X-35.7608 Y28.2281 
G01 X-35.6218 Y28.1271 
G01 X-35.5004 Y28.0057 
G01 X-35.3994 Y27.8667 
G01 X-35.3214 Y27.7136 
G01 X-35.2683 Y27.5502 
G01 X-35.2414 Y27.3805 
G01 X-35.2414 Y25.2274 
G01 X-35.2683 Y25.0577 
G01 X-35.3214 Y24.8943 
G01 X-35.3994 Y24.7412 
G01 X-35.5004 Y24.6022 
G01 X-35.6218 Y24.4808 
G01 X-35.7608 Y24.3798 
G01 X-35.9139 Y24.3018 
G01 X-36.0773 Y24.2487 
G01 X-36.2470 Y24.2218 
G01 X-36.4189 Y24.2218 
G01 X-36.5886 Y24.2487 
G01 X-36.7520 Y24.3018 
G01 X-36.9051 Y24.3798 
G01 X-37.0441 Y24.4808 
G01 X-37.1655 Y24.6022 
G01 X-37.2665 Y24.7412 
G01 X-37.3445 Y24.8943 
G01 X-37.3976 Y25.0577 
G01 X-37.4245 Y25.2274 
G00 Z2.0000 
G00 X-50.1775 Y25.2274 
G01 Z-0.2000 F600.00 
G01 X-50.1775 Y27.3805 
G01 X-50.1506 Y27.5502 
G01 X-50.0975 Y27.7136 
G01 X-50.0195 Y27.8667 
G01 X-49.9185 Y28.0057 
G01 X-49.7971 Y28.1271 
G01 X-49.6581 Y28.2281 
G01 X-49.5050 Y28.3061 
G01 X-49.3416 Y28.3592 
G01 X-49.1719 Y28.3861 
G01 X-49.0000 Y28.3861 
G01 X-48.8303 Y28.3592 
G01 X-48.6669 Y28.3061 
G01 X-48.5138 Y28.2281 
G01 X-48.3748 Y28.1271 
G01 X-48.2534 Y28.0057 
G01 X-48.1524 Y27.8667 
G01 X-48.0744 Y27.7136 
G01 X-48.0213 Y27.5502 
G01 X-47.9944 Y27.3805 
G01 X-47.9944 Y25.6425 
G01 X-45.1560 Y22.8041 
G01 X-38.0599 Y22.8041 
G01 X-37.9825 Y22.7834 
G01 X-37.9132 Y22.7433 
G01 X-37.8566 Y22.6867 
G01 X-29.1566 Y13.9867 
G01 X-29.1165 Y13.9174 
G01 X-29.0958 Y13.8400 
G01 X-29.0958 Y13.7599 
G01 X-29.0958 Y10.3965 
G01 X-29.0677 Y10.3965 
G01 X-28.8899 Y10.3611 
G01 X-28.7225 Y10.2918 
G01 X-28.5718 Y10.1911 
G01 X-28.4436 Y10.0629 
G01 X-28.3429 Y9.9122 
G01 X-28.2736 Y9.7448 
G01 X-28.2382 Y9.5670 
G01 X-28.2382 Y9.3857 
G01 X-28.2736 Y9.2079 
G01 X-28.3429 Y9.0405 
G01 X-28.4436 Y8.8898 
G01 X-28.5718 Y8.7616 
G01 X-28.7225 Y8.6609 
G01 X-28.8899 Y8.5916 
G01 X-29.0677 Y8.5562 
G01 X-29.2490 Y8.5562 
G01 X-29.4268 Y8.5916 
G01 X-29.5942 Y8.6609 
G01 X-29.7449 Y8.7616 
G01 X-29.8731 Y8.8898 
G01 X-29.9738 Y9.0405 
G01 X-30.0431 Y9.2079 
G01 X-30.0785 Y9.3857 
G01 X-30.0785 Y9.5670 
G01 X-30.0431 Y9.7448 
G01 X-29.9738 Y9.9122 
G01 X-29.8731 Y10.0629 
G01 X-29.7449 Y10.1911 
G01 X-29.7041 Y10.2183 
G01 X-29.7041 Y13.6740 
G01 X-38.2259 Y22.1958 
G01 X-45.2419 Y22.1958 
G01 X-45.3220 Y22.1958 
G01 X-45.3994 Y22.2165 
G01 X-45.4687 Y22.2566 
G01 X-48.0852 Y24.8732 
G01 X-48.1524 Y24.7412 
G01 X-48.2534 Y24.6022 
G01 X-48.3748 Y24.4808 
G01 X-48.5138 Y24.3798 
G01 X-48.6669 Y24.3018 
G01 X-48.8303 Y24.2487 
G01 X-49.0000 Y24.2218 
G01 X-49.1719 Y24.2218 
G01 X-49.3416 Y24.2487 
G01 X-49.5050 Y24.3018 
G01 X-49.6581 Y24.3798 
G01 X-49.7971 Y24.4808 
G01 X-49.9185 Y24.6022 
G01 X-50.0195 Y24.7412 
G01 X-50.0975 Y24.8943 
G01 X-50.1506 Y25.0577 
G01 X-50.1775 Y25.2274 
G00 Z2.0000 
G00 X-54.4285 Y25.2274 
G01 Z-0.2000 F600.00 
G01 X-54.4285 Y27.3805 
G01 X-54.4016 Y27.5502 
G01 X-54.3485 Y27.7136 
G01 X-54.2705 Y27.8667 
G01 X-54.1695 Y28.0057 
G01 X-54.0481 Y28.1271 
G01 X-53.9091 Y28.2281 
G01 X-53.7560 Y28.3061 
G01 X-53.5926 Y28.3592 
G01 X-53.4229 Y28.3861 
G01 X-53.2510 Y28.3861 
G01 X-53.0813 Y28.3592 
G01 X-52.9179 Y28.3061 
G01 X-52.7648 Y28.2281 
G01 X-52.6258 Y28.1271 
G01 X-52.5044 Y28.0057 
G01 X-52.4034 Y27.8667 
G01 X-52.3254 Y27.7136 
G01 X-52.2723 Y27.5502 
G01 X-52.2454 Y27.3805 
G01 X-52.2454 Y26.2755 
G01 X-47.8740 Y21.9041 
G01 X-39.0400 Y21.9041 
G01 X-38.9599 Y21.9041 
G01 X-38.8825 Y21.8834 
G01 X-38.8132 Y21.8433 
G01 X-31.9132 Y14.9433 
G01 X-31.8566 Y14.8867 
G01 X-31.8165 Y14.8174 
G01 X-31.7958 Y14.7400 
G01 X-31.7958 Y10.3884 
G01 X-31.6585 Y10.3611 
G01 X-31.4911 Y10.2918 
G01 X-31.3404 Y10.1911 
G01 X-31.2122 Y10.0629 
G01 X-31.1115 Y9.9122 
G01 X-31.0422 Y9.7448 
G01 X-31.0068 Y9.5670 
G01 X-31.0068 Y9.3857 
G01 X-31.0422 Y9.2079 
G01 X-31.1115 Y9.0405 
G01 X-31.2122 Y8.8898 
G01 X-31.3404 Y8.7616 
G01 X-31.4911 Y8.6609 
G01 X-31.6585 Y8.5916 
G01 X-31.8363 Y8.5562 
G01 X-32.0176 Y8.5562 
G01 X-32.1954 Y8.5916 
G01 X-32.3628 Y8.6609 
G01 X-32.5135 Y8.7616 
G01 X-32.6417 Y8.8898 
G01 X-32.7424 Y9.0405 
G01 X-32.8117 Y9.2079 
G01 X-32.8471 Y9.3857 
G01 X-32.8471 Y9.5670 
G01 X-32.8117 Y9.7448 
G01 X-32.7424 Y9.9122 
G01 X-32.6417 Y10.0629 
G01 X-32.5135 Y10.1911 
G01 X-32.4041 Y10.2642 
G01 X-32.4041 Y14.5740 
G01 X-39.1259 Y21.2958 
G01 X-48.0400 Y21.2958 
G01 X-48.1174 Y21.3165 
G01 X-48.1867 Y21.3566 
G01 X-48.2433 Y21.4132 
G01 X-52.2454 Y25.4154 
G01 X-52.2454 Y25.2274 
G01 X-52.2723 Y25.0577 
G01 X-52.3254 Y24.8943 
G01 X-52.4034 Y24.7412 
G01 X-52.5044 Y24.6022 
G01 X-52.6258 Y24.4808 
G01 X-52.7648 Y24.3798 
G01 X-52.9179 Y24.3018 
G01 X-53.0813 Y24.2487 
G01 X-53.2510 Y24.2218 
G01 X-53.4229 Y24.2218 
G01 X-53.5926 Y24.2487 
G01 X-53.7560 Y24.3018 
G01 X-53.9091 Y24.3798 
G01 X-54.0481 Y24.4808 
G01 X-54.1695 Y24.6022 
G01 X-54.2705 Y24.7412 
G01 X-54.3485 Y24.8943 
G01 X-54.4016 Y25.0577 
G01 X-54.4285 Y25.2274 
G00 Z2.0000 
G00 X-58.6795 Y25.2274 
G01 Z-0.2000 F600.00 
G01 X-58.6795 Y27.3805 
G01 X-58.6526 Y27.5502 
G01 X-58.5995 Y27.7136 
G01 X-58.5215 Y27.8667 
G01 X-58.4205 Y28.0057 
G01 X-58.2991 Y28.1271 
G01 X-58.1601 Y28.2281 
G01 X-58.0070 Y28.3061 
G01 X-57.8436 Y28.3592 
G01 X-57.6739 Y28.3861 
G01 X-57.5020 Y28.3861 
G01 X-57.3323 Y28.3592 
G01 X-57.1689 Y28.3061 
G01 X-57.0158 Y28.2281 
G01 X-56.8768 Y28.1271 
G01 X-56.7554 Y28.0057 
G01 X-56.6544 Y27.8667 
G01 X-56.5764 Y27.7136 
G01 X-56.5233 Y27.5502 
G01 X-56.4964 Y27.3805 
G01 X-56.4964 Y25.6425 
G01 X-51.8580 Y21.0041 
G01 X-40.1599 Y21.0041 
G01 X-40.0825 Y20.9834 
G01 X-40.0132 Y20.9433 
G01 X-39.9566 Y20.8867 
G01 X-34.4522 Y15.3823 
G01 X-34.4121 Y15.3130 
G01 X-34.3914 Y15.2356 
G01 X-34.3914 Y15.1555 
G01 X-34.3914 Y10.3463 
G01 X-34.2597 Y10.2918 
G01 X-34.1090 Y10.1911 
G01 X-33.9808 Y10.0629 
G01 X-33.8801 Y9.9122 
G01 X-33.8108 Y9.7448 
G01 X-33.7754 Y9.5670 
G01 X-33.7754 Y9.3857 
G01 X-33.8108 Y9.2079 
G01 X-33.8801 Y9.0405 
G01 X-33.9808 Y8.8898 
G01 X-34.1090 Y8.7616 
G01 X-34.2597 Y8.6609 
G01 X-34.4271 Y8.5916 
G01 X-34.6049 Y8.5562 
G01 X-34.7862 Y8.5562 
G01 X-34.9640 Y8.5916 
G01 X-35.1314 Y8.6609 
G01 X-35.2821 Y8.7616 
G01 X-35.4103 Y8.8898 
G01 X-35.5110 Y9.0405 
G01 X-35.5803 Y9.2079 
G01 X-35.6157 Y9.3857 
G01 X-35.6157 Y9.5670 
G01 X-35.5803 Y9.7448 
G01 X-35.5110 Y9.9122 
G01 X-35.4103 Y10.0629 
G01 X-35.2821 Y10.1911 
G01 X-35.1314 Y10.2918 
G01 X-34.9997 Y10.3463 
G01 X-34.9997 Y15.0696 
G01 X-40.3259 Y20.3958 
G01 X-51.9439 Y20.3958 
G01 X-52.0240 Y20.3958 
G01 X-52.1014 Y20.4165 
G01 X-52.1707 Y20.4566 
G01 X-56.5872 Y24.8732 
G01 X-56.6544 Y24.7412 
G01 X-56.7554 Y24.6022 
G01 X-56.8768 Y24.4808 
G01 X-57.0158 Y24.3798 
G01 X-57.1689 Y24.3018 
G01 X-57.3323 Y24.2487 
G01 X-57.5020 Y24.2218 
G01 X-57.6739 Y24.2218 
G01 X-57.8436 Y24.2487 
G01 X-58.0070 Y24.3018 
G01 X-58.1601 Y24.3798 
G01 X-58.2991 Y24.4808 
G01 X-58.4205 Y24.6022 
G01 X-58.5215 Y24.7412 
G01 X-58.5995 Y24.8943 
G01 X-58.6526 Y25.0577 
G01 X-58.6795 Y25.2274 
G00 Z2.0000 
G00 X-31.4628 Y6.5409 
G01 Z-0.2000 F600.00 
G01 X-31.4628 Y6.7222 
G01 X-31.4274 Y6.9000 
G01 X-31.3581 Y7.0674 
G01 X-31.2574 Y7.2181 
G01 X-31.1292 Y7.3463 
G01 X-30.9785 Y7.4470 
G01 X-30.8111 Y7.5163 
G01 X-30.6333 Y7.5517 
G01 X-30.4520 Y7.5517 
G01 X-30.2742 Y7.5163 
G01 X-30.1068 Y7.4470 
G01 X-29.9561 Y7.3463 
G01 X-29.8279 Y7.2181 
G01 X-29.7272 Y7.0674 
G01 X-29.6579 Y6.9000 
G01 X-29.6225 Y6.7222 
G01 X-29.6225 Y6.5409 
G01 X-29.6579 Y6.3631 
G01 X-29.7272 Y6.1957 
G01 X-29.8279 Y6.0450 
G01 X-29.9561 Y5.9168 
G01 X-30.1068 Y5.8161 
G01 X-30.2742 Y5.7468 
G01 X-30.4520 Y5.7114 
G01 X-30.6333 Y5.7114 
G01 X-30.8111 Y5.7468 
G01 X-30.9785 Y5.8161 
G01 X-31.1292 Y5.9168 
G01 X-31.2574 Y6.0450 
G01 X-31.3581 Y6.1957 
G01 X-31.4274 Y6.3631 
G01 X-31.4628 Y6.5409 
G00 Z2.0000 
G00 X-34.2314 Y6.5409 
G01 Z-0.2000 F600.00 
G01 X-34.2314 Y6.7222 
G01 X-34.1960 Y6.9000 
G01 X-34.1267 Y7.0674 
G01 X-34.0260 Y7.2181 
G01 X-33.8978 Y7.3463 
G01 X-33.7471 Y7.4470 
G01 X-33.5797 Y7.5163 
G01 X-33.4019 Y7.5517 
G01 X-33.2206 Y7.5517 
G01 X-33.0428 Y7.5163 
G01 X-32.8754 Y7.4470 
G01 X-32.7247 Y7.3463 
G01 X-32.5965 Y7.2181 
G01 X-32.4958 Y7.0674 
G01 X-32.4265 Y6.9000 
G01 X-32.3911 Y6.7222 
G01 X-32.3911 Y6.5409 
G01 X-32.4265 Y6.3631 
G01 X-32.4958 Y6.1957 
G01 X-32.5965 Y6.0450 
G01 X-32.7247 Y5.9168 
G01 X-32.8754 Y5.8161 
G01 X-33.0428 Y5.7468 
G01 X-33.2206 Y5.7114 
G01 X-33.4019 Y5.7114 
G01 X-33.5797 Y5.7468 
G01 X-33.7471 Y5.8161 
G01 X-33.8978 Y5.9168 
G01 X-34.0260 Y6.0450 
G01 X-34.1267 Y6.1957 
G01 X-34.1960 Y6.3631 
G01 X-34.2314 Y6.5409 
G00 Z2.0000 
G00 X-50.8430 Y6.5409 
G01 Z-0.2000 F600.00 
G01 X-50.8430 Y6.7222 
G01 X-50.8076 Y6.9000 
G01 X-50.7383 Y7.0674 
G01 X-50.6376 Y7.2181 
G01 X-50.5094 Y7.3463 
G01 X-50.3587 Y7.4470 
G01 X-50.2270 Y7.5015 
G01 X-50.2270 Y12.0979 
G01 X-50.3089 Y12.5958 
G01 X-50.6233 Y12.5958 
G01 X-50.6604 Y12.6112 
G01 X-50.6887 Y12.6395 
G01 X-50.7041 Y12.6766 
G01 X-50.7041 Y13.7233 
G01 X-50.6887 Y13.7604 
G01 X-50.6604 Y13.7887 
G01 X-50.6233 Y13.8041 
G01 X-49.5766 Y13.8041 
G01 X-49.5395 Y13.7887 
G01 X-49.5112 Y13.7604 
G01 X-49.4958 Y13.7233 
G01 X-49.4958 Y12.6766 
G01 X-49.5112 Y12.6395 
G01 X-49.5395 Y12.6112 
G01 X-49.5766 Y12.5958 
G01 X-49.6924 Y12.5958 
G01 X-49.6251 Y12.1868 
G01 X-49.6187 Y12.1629 
G01 X-49.6187 Y12.1479 
G01 X-49.6162 Y12.1327 
G01 X-49.6187 Y12.1074 
G01 X-49.6187 Y7.5015 
G01 X-49.4870 Y7.4470 
G01 X-49.3363 Y7.3463 
G01 X-49.2081 Y7.2181 
G01 X-49.1074 Y7.0674 
G01 X-49.0381 Y6.9000 
G01 X-49.0027 Y6.7222 
G01 X-49.0027 Y6.5409 
G01 X-49.0381 Y6.3631 
G01 X-49.1074 Y6.1957 
G01 X-49.2081 Y6.0450 
G01 X-49.3363 Y5.9168 
G01 X-49.4870 Y5.8161 
G01 X-49.6544 Y5.7468 
G01 X-49.8322 Y5.7114 
G01 X-50.0135 Y5.7114 
G01 X-50.1913 Y5.7468 
G01 X-50.3587 Y5.8161 
G01 X-50.5094 Y5.9168 
G01 X-50.6376 Y6.0450 
G01 X-50.7383 Y6.1957 
G01 X-50.8076 Y6.3631 
G01 X-50.8430 Y6.5409 
G00 Z2.0000 
G00 X-53.6116 Y6.5409 
G01 Z-0.2000 F600.00 
G01 X-53.6116 Y6.7222 
G01 X-53.5762 Y6.9000 
G01 X-53.5069 Y7.0674 
G01 X-53.4062 Y7.2181 
G01 X-53.2780 Y7.3463 
G01 X-53.1273 Y7.4470 
G01 X-52.9956 Y7.5015 
G01 X-52.9956 Y11.5814 
G01 X-53.0640 Y12.5958 
G01 X-53.3233 Y12.5958 
G01 X-53.3604 Y12.6112 
G01 X-53.3887 Y12.6395 
G01 X-53.4041 Y12.6766 
G01 X-53.4041 Y13.7233 
G01 X-53.3887 Y13.7604 
G01 X-53.3604 Y13.7887 
G01 X-53.3233 Y13.8041 
G01 X-52.2766 Y13.8041 
G01 X-52.2395 Y13.7887 
G01 X-52.2112 Y13.7604 
G01 X-52.1958 Y13.7233 
G01 X-52.1958 Y12.6766 
G01 X-52.2112 Y12.6395 
G01 X-52.2395 Y12.6112 
G01 X-52.2766 Y12.5958 
G01 X-52.4544 Y12.5958 
G01 X-52.3900 Y11.6415 
G01 X-52.3873 Y11.6315 
G01 X-52.3873 Y11.6016 
G01 X-52.3853 Y11.5719 
G01 X-52.3873 Y11.5618 
G01 X-52.3873 Y7.5015 
G01 X-52.2556 Y7.4470 
G01 X-52.1049 Y7.3463 
G01 X-51.9767 Y7.2181 
G01 X-51.8760 Y7.0674 
G01 X-51.8067 Y6.9000 
G01 X-51.7713 Y6.7222 
G01 X-51.7713 Y6.5409 
G01 X-51.8067 Y6.3631 
G01 X-51.8760 Y6.1957 
G01 X-51.9767 Y6.0450 
G01 X-52.1049 Y5.9168 
G01 X-52.2556 Y5.8161 
G01 X-52.4230 Y5.7468 
G01 X-52.6008 Y5.7114 
G01 X-52.7821 Y5.7114 
G01 X-52.9599 Y5.7468 
G01 X-53.1273 Y5.8161 
G01 X-53.2780 Y5.9168 
G01 X-53.4062 Y6.0450 
G01 X-53.5069 Y6.1957 
G01 X-53.5762 Y6.3631 
G01 X-53.6116 Y6.5409 
G00 Z2.0000 
G00 X-56.3802 Y6.5409 
G01 Z-0.2000 F600.00 
G01 X-56.3802 Y6.7222 
G01 X-56.3448 Y6.9000 
G01 X-56.2755 Y7.0674 
G01 X-56.1748 Y7.2181 
G01 X-56.0466 Y7.3463 
G01 X-55.8959 Y7.4470 
G01 X-55.7642 Y7.5015 
G01 X-55.7642 Y12.5958 
G01 X-56.3233 Y12.5958 
G01 X-56.3604 Y12.6112 
G01 X-56.3887 Y12.6395 
G01 X-56.4041 Y12.6766 
G01 X-56.4041 Y13.7233 
G01 X-56.3887 Y13.7604 
G01 X-56.3604 Y13.7887 
G01 X-56.3233 Y13.8041 
G01 X-55.2766 Y13.8041 
G01 X-55.2395 Y13.7887 
G01 X-55.2112 Y13.7604 
G01 X-55.1958 Y13.7233 
G01 X-55.1958 Y13.0106 
G01 X-55.1766 Y12.9775 
G01 X-55.1559 Y12.9001 
G01 X-55.1559 Y12.8200 
G01 X-55.1559 Y7.5015 
G01 X-55.0242 Y7.4470 
G01 X-54.8735 Y7.3463 
G01 X-54.7453 Y7.2181 
G01 X-54.6446 Y7.0674 
G01 X-54.5753 Y6.9000 
G01 X-54.5399 Y6.7222 
G01 X-54.5399 Y6.5409 
G01 X-54.5753 Y6.3631 
G01 X-54.6446 Y6.1957 
G01 X-54.7453 Y6.0450 
G01 X-54.8735 Y5.9168 
G01 X-55.0242 Y5.8161 
G01 X-55.1916 Y5.7468 
G01 X-55.3694 Y5.7114 
G01 X-55.5507 Y5.7114 
G01 X-55.7285 Y5.7468 
G01 X-55.8959 Y5.8161 
G01 X-56.0466 Y5.9168 
G01 X-56.1748 Y6.0450 
G01 X-56.2755 Y6.1957 
G01 X-56.3448 Y6.3631 
G01 X-56.3802 Y6.5409 
G00 Z2.0000 
G00 X-59.1488 Y6.5409 
G01 Z-0.2000 F600.00 
G01 X-59.1488 Y6.7222 
G01 X-59.1134 Y6.9000 
G01 X-59.0441 Y7.0674 
G01 X-58.9434 Y7.2181 
G01 X-58.8152 Y7.3463 
G01 X-58.6645 Y7.4470 
G01 X-58.4971 Y7.5163 
G01 X-58.3193 Y7.5517 
G01 X-58.1380 Y7.5517 
G01 X-57.9602 Y7.5163 
G01 X-57.7928 Y7.4470 
G01 X-57.6421 Y7.3463 
G01 X-57.5139 Y7.2181 
G01 X-57.4132 Y7.0674 
G01 X-57.3439 Y6.9000 
G01 X-57.3085 Y6.7222 
G01 X-57.3085 Y6.5409 
G01 X-57.3439 Y6.3631 
G01 X-57.4132 Y6.1957 
G01 X-57.5139 Y6.0450 
G01 X-57.6421 Y5.9168 
G01 X-57.7928 Y5.8161 
G01 X-57.9602 Y5.7468 
G01 X-57.9940 Y5.7401 
G01 X-58.1561 Y3.6879 
G01 X-58.1561 Y3.6599 
G01 X-58.1593 Y3.6482 
G01 X-58.1602 Y3.6360 
G01 X-58.1696 Y3.6096 
G01 X-58.1768 Y3.5825 
G01 X-58.1829 Y3.5721 
G01 X-58.1869 Y3.5606 
G01 X-58.2031 Y3.5371 
G01 X-58.2169 Y3.5132 
G01 X-58.2253 Y3.5049 
G01 X-58.2323 Y3.4946 
G01 X-58.2542 Y3.4759 
G01 X-58.2735 Y3.4566 
G01 X-58.2838 Y3.4507 
G01 X-58.2932 Y3.4426 
G01 X-58.3185 Y3.4306 
G01 X-58.3428 Y3.4165 
G01 X-58.3548 Y3.4133 
G01 X-58.3655 Y3.4082 
G01 X-58.3928 Y3.4032 
G01 X-58.4202 Y3.3958 
G01 X-58.4324 Y3.3958 
G01 X-58.4442 Y3.3936 
G01 X-58.4722 Y3.3958 
G01 X-84.4627 Y3.3958 
G01 X-84.4655 Y3.3951 
G01 X-84.5029 Y3.3958 
G01 X-84.5400 Y3.3958 
G01 X-84.5427 Y3.3966 
G01 X-84.5457 Y3.3966 
G01 X-84.5797 Y3.4065 
G01 X-84.6174 Y3.4165 
G01 X-84.6201 Y3.4181 
G01 X-84.6226 Y3.4188 
G01 X-84.6528 Y3.4370 
G01 X-84.6867 Y3.4566 
G01 X-84.6887 Y3.4586 
G01 X-84.6912 Y3.4601 
G01 X-84.7174 Y3.4874 
G01 X-84.7433 Y3.5132 
G01 X-84.7447 Y3.5157 
G01 X-103.1179 Y22.5879 
G01 X-103.1433 Y22.6132 
G01 X-103.1447 Y22.6157 
G01 X-103.1468 Y22.6178 
G01 X-103.1648 Y22.6504 
G01 X-103.1834 Y22.6825 
G01 X-103.1841 Y22.6854 
G01 X-103.1855 Y22.6878 
G01 X-103.1944 Y22.7237 
G01 X-103.2041 Y22.7599 
G01 X-103.2041 Y22.7627 
G01 X-103.2048 Y22.7655 
G01 X-103.2041 Y22.8030 
G01 X-103.2041 Y29.1400 
G01 X-103.1834 Y29.2174 
G01 X-103.1433 Y29.2867 
G01 X-103.0867 Y29.3433 
G01 X-100.0867 Y32.3433 
G01 X-100.0174 Y32.3834 
G01 X-99.9400 Y32.4041 
G01 X-99.8599 Y32.4041 
G01 X-44.0599 Y32.4041 
G01 X-43.9825 Y32.3834 
G01 X-43.9132 Y32.3433 
G01 X-43.8566 Y32.2867 
G01 X-40.3406 Y28.7707 
G01 X-40.3005 Y28.7014 
G01 X-40.2798 Y28.6240 
G01 X-40.2798 Y28.5439 
G01 X-40.2798 Y28.3434 
G01 X-40.1649 Y28.3061 
G01 X-40.0118 Y28.2281 
G01 X-39.8728 Y28.1271 
G01 X-39.7514 Y28.0057 
G01 X-39.6504 Y27.8667 
G01 X-39.5724 Y27.7136 
G01 X-39.5193 Y27.5502 
G01 X-39.4924 Y27.3805 
G01 X-39.4924 Y25.2274 
G01 X-39.5193 Y25.0577 
G01 X-39.5724 Y24.8943 
G01 X-39.6504 Y24.7412 
G01 X-39.7514 Y24.6022 
G01 X-39.8728 Y24.4808 
G01 X-40.0118 Y24.3798 
G01 X-40.1649 Y24.3018 
G01 X-40.3283 Y24.2487 
G01 X-40.4980 Y24.2218 
G01 X-40.6699 Y24.2218 
G01 X-40.8396 Y24.2487 
G01 X-41.0030 Y24.3018 
G01 X-41.1561 Y24.3798 
G01 X-41.2951 Y24.4808 
G01 X-41.4165 Y24.6022 
G01 X-41.5175 Y24.7412 
G01 X-41.5955 Y24.8943 
G01 X-41.6486 Y25.0577 
G01 X-41.6755 Y25.2274 
G01 X-41.6755 Y27.3805 
G01 X-41.6486 Y27.5502 
G01 X-41.5955 Y27.7136 
G01 X-41.5175 Y27.8667 
G01 X-41.4165 Y28.0057 
G01 X-41.2951 Y28.1271 
G01 X-41.1561 Y28.2281 
G01 X-41.0030 Y28.3061 
G01 X-40.8881 Y28.3434 
G01 X-40.8881 Y28.4580 
G01 X-44.2259 Y31.7958 
G01 X-99.7740 Y31.7958 
G01 X-102.5958 Y28.9740 
G01 X-102.5958 Y22.9226 
G01 X-84.3707 Y4.0041 
G01 X-58.7413 Y4.0041 
G01 X-58.6002 Y5.7895 
G01 X-58.6645 Y5.8161 
G01 X-58.8152 Y5.9168 
G01 X-58.9434 Y6.0450 
G01 X-59.0441 Y6.1957 
G01 X-59.1134 Y6.3631 
G01 X-59.1488 Y6.5409 
G00 Z2.0000 
G00 X-61.9174 Y6.5409 
G01 Z-0.2000 F600.00 
G01 X-61.9174 Y6.7222 
G01 X-61.8820 Y6.9000 
G01 X-61.8127 Y7.0674 
G01 X-61.7120 Y7.2181 
G01 X-61.5838 Y7.3463 
G01 X-61.4331 Y7.4470 
G01 X-61.2657 Y7.5163 
G01 X-61.0879 Y7.5517 
G01 X-60.9066 Y7.5517 
G01 X-60.7288 Y7.5163 
G01 X-60.5614 Y7.4470 
G01 X-60.4107 Y7.3463 
G01 X-60.2825 Y7.2181 
G01 X-60.1818 Y7.0674 
G01 X-60.1125 Y6.9000 
G01 X-60.0771 Y6.7222 
G01 X-60.0771 Y6.5409 
G01 X-60.1125 Y6.3631 
G01 X-60.1818 Y6.1957 
G01 X-60.2825 Y6.0450 
G01 X-60.4107 Y5.9168 
G01 X-60.5614 Y5.8161 
G01 X-60.7288 Y5.7468 
G01 X-60.9066 Y5.7114 
G01 X-61.0879 Y5.7114 
G01 X-61.1458 Y5.7230 
G01 X-61.0981 Y4.8482 
G01 X-61.0957 Y4.8396 
G01 X-61.0958 Y4.8073 
G01 X-61.0941 Y4.7765 
G01 X-61.0959 Y4.7681 
G01 X-61.0959 Y4.7594 
G01 X-61.1039 Y4.7298 
G01 X-61.1105 Y4.6981 
G01 X-61.1146 Y4.6902 
G01 X-61.1167 Y4.6821 
G01 X-61.1322 Y4.6554 
G01 X-61.1467 Y4.6267 
G01 X-61.1525 Y4.6203 
G01 X-61.1568 Y4.6128 
G01 X-61.1794 Y4.5904 
G01 X-61.2002 Y4.5671 
G01 X-61.2074 Y4.5625 
G01 X-61.2135 Y4.5563 
G01 X-61.2403 Y4.5410 
G01 X-61.2672 Y4.5233 
G01 X-61.2758 Y4.5205 
G01 X-61.2829 Y4.5164 
G01 X-61.3125 Y4.5086 
G01 X-61.3433 Y4.4984 
G01 X-61.3520 Y4.4980 
G01 X-61.3603 Y4.4957 
G01 X-61.3928 Y4.4958 
G01 X-61.4234 Y4.4941 
G01 X-61.4315 Y4.4958 
G01 X-84.1960 Y4.5274 
G01 X-84.2006 Y4.5263 
G01 X-84.2392 Y4.5275 
G01 X-84.2721 Y4.5275 
G01 X-84.2760 Y4.5286 
G01 X-84.2807 Y4.5287 
G01 X-84.3154 Y4.5392 
G01 X-84.3494 Y4.5483 
G01 X-84.3533 Y4.5506 
G01 X-84.3574 Y4.5518 
G01 X-84.3859 Y4.5695 
G01 X-84.4187 Y4.5884 
G01 X-84.4220 Y4.5918 
G01 X-84.4255 Y4.5939 
G01 X-84.4482 Y4.6181 
G01 X-84.4752 Y4.6451 
G01 X-84.4775 Y4.6492 
G01 X-102.2180 Y23.4880 
G01 X-102.2433 Y23.5132 
G01 X-102.2456 Y23.5173 
G01 X-102.2488 Y23.5206 
G01 X-102.2653 Y23.5513 
G01 X-102.2834 Y23.5825 
G01 X-102.2846 Y23.5871 
G01 X-102.2868 Y23.5911 
G01 X-102.2951 Y23.6263 
G01 X-102.3041 Y23.6599 
G01 X-102.3041 Y23.6644 
G01 X-102.3052 Y23.6690 
G01 X-102.3041 Y23.7057 
G01 X-102.3041 Y28.1914 
G01 X-102.3059 Y28.2221 
G01 X-102.3041 Y28.2308 
G01 X-102.3041 Y28.2400 
G01 X-102.2960 Y28.2701 
G01 X-102.2898 Y28.3005 
G01 X-102.2857 Y28.3085 
G01 X-102.2834 Y28.3174 
G01 X-102.2678 Y28.3442 
G01 X-102.2539 Y28.3721 
G01 X-102.2477 Y28.3790 
G01 X-102.2433 Y28.3867 
G01 X-102.2219 Y28.4080 
G01 X-99.8476 Y31.0791 
G01 X-99.8433 Y31.0867 
G01 X-99.8222 Y31.1077 
G01 X-99.8007 Y31.1320 
G01 X-99.7928 Y31.1371 
G01 X-99.7867 Y31.1433 
G01 X-99.7602 Y31.1586 
G01 X-99.7338 Y31.1760 
G01 X-99.7253 Y31.1788 
G01 X-99.7174 Y31.1834 
G01 X-99.6867 Y31.1915 
G01 X-99.6578 Y31.2012 
G01 X-99.6488 Y31.2017 
G01 X-99.6400 Y31.2041 
G01 X-99.6084 Y31.2041 
G01 X-99.5778 Y31.2059 
G01 X-99.5691 Y31.2041 
G01 X-49.4710 Y31.2041 
G01 X-49.3909 Y31.2041 
G01 X-49.3135 Y31.1834 
G01 X-49.2442 Y31.1433 
G01 X-45.8357 Y27.7347 
G01 X-45.7685 Y27.8667 
G01 X-45.6675 Y28.0057 
G01 X-45.5461 Y28.1271 
G01 X-45.4071 Y28.2281 
G01 X-45.2540 Y28.3061 
G01 X-45.0906 Y28.3592 
G01 X-44.9209 Y28.3861 
G01 X-44.7490 Y28.3861 
G01 X-44.5793 Y28.3592 
G01 X-44.4159 Y28.3061 
G01 X-44.2628 Y28.2281 
G01 X-44.1238 Y28.1271 
G01 X-44.0024 Y28.0057 
G01 X-43.9014 Y27.8667 
G01 X-43.8234 Y27.7136 
G01 X-43.7703 Y27.5502 
G01 X-43.7434 Y27.3805 
G01 X-43.7434 Y25.2274 
G01 X-43.7703 Y25.0577 
G01 X-43.8234 Y24.8943 
G01 X-43.9014 Y24.7412 
G01 X-44.0024 Y24.6022 
G01 X-44.1238 Y24.4808 
G01 X-44.2628 Y24.3798 
G01 X-44.4159 Y24.3018 
G01 X-44.5793 Y24.2487 
G01 X-44.7490 Y24.2218 
G01 X-44.9209 Y24.2218 
G01 X-45.0906 Y24.2487 
G01 X-45.2540 Y24.3018 
G01 X-45.4071 Y24.3798 
G01 X-45.5461 Y24.4808 
G01 X-45.6675 Y24.6022 
G01 X-45.7685 Y24.7412 
G01 X-45.8465 Y24.8943 
G01 X-45.8996 Y25.0577 
G01 X-45.9265 Y25.2274 
G01 X-45.9265 Y26.9654 
G01 X-49.5569 Y30.5958 
G01 X-99.4634 Y30.5958 
G01 X-101.6958 Y28.0843 
G01 X-101.6958 Y23.8205 
G01 X-84.1001 Y5.1355 
G01 X-61.7212 Y5.1045 
G01 X-61.7779 Y6.1436 
G01 X-61.8127 Y6.1957 
G01 X-61.8820 Y6.3631 
G01 X-61.9174 Y6.5409 
G00 Z2.0000 
G00 X-41.1529 Y9.3857 
G01 Z-0.2000 F600.00 
G01 X-41.1529 Y9.5670 
G01 X-41.1175 Y9.7448 
G01 X-41.0482 Y9.9122 
G01 X-40.9475 Y10.0629 
G01 X-40.8193 Y10.1911 
G01 X-40.6686 Y10.2918 
G01 X-40.5369 Y10.3463 
G01 X-40.5369 Y16.1068 
G01 X-43.0259 Y18.5958 
G01 X-58.6459 Y18.5958 
G01 X-58.7260 Y18.5958 
G01 X-58.8034 Y18.6165 
G01 X-58.8727 Y18.6566 
G01 X-65.0892 Y24.8732 
G01 X-65.1564 Y24.7412 
G01 X-65.2574 Y24.6022 
G01 X-65.3788 Y24.4808 
G01 X-65.5178 Y24.3798 
G01 X-65.6709 Y24.3018 
G01 X-65.8343 Y24.2487 
G01 X-66.0040 Y24.2218 
G01 X-66.1759 Y24.2218 
G01 X-66.3456 Y24.2487 
G01 X-66.5090 Y24.3018 
G01 X-66.6621 Y24.3798 
G01 X-66.8011 Y24.4808 
G01 X-66.9225 Y24.6022 
G01 X-67.0235 Y24.7412 
G01 X-67.1015 Y24.8943 
G01 X-67.1546 Y25.0577 
G01 X-67.1815 Y25.2274 
G01 X-67.1815 Y27.3805 
G01 X-67.1546 Y27.5502 
G01 X-67.1015 Y27.7136 
G01 X-67.0235 Y27.8667 
G01 X-66.9225 Y28.0057 
G01 X-66.8011 Y28.1271 
G01 X-66.6621 Y28.2281 
G01 X-66.5090 Y28.3061 
G01 X-66.3456 Y28.3592 
G01 X-66.1759 Y28.3861 
G01 X-66.0040 Y28.3861 
G01 X-65.8343 Y28.3592 
G01 X-65.6709 Y28.3061 
G01 X-65.5178 Y28.2281 
G01 X-65.3788 Y28.1271 
G01 X-65.2574 Y28.0057 
G01 X-65.1564 Y27.8667 
G01 X-65.0784 Y27.7136 
G01 X-65.0253 Y27.5502 
G01 X-64.9984 Y27.3805 
G01 X-64.9984 Y25.6425 
G01 X-58.5600 Y19.2041 
G01 X-42.8599 Y19.2041 
G01 X-42.7825 Y19.1834 
G01 X-42.7132 Y19.1433 
G01 X-42.6566 Y19.0867 
G01 X-39.9894 Y16.4195 
G01 X-39.9493 Y16.3502 
G01 X-39.9286 Y16.2728 
G01 X-39.9286 Y16.1927 
G01 X-39.9286 Y10.3463 
G01 X-39.7969 Y10.2918 
G01 X-39.6462 Y10.1911 
G01 X-39.5180 Y10.0629 
G01 X-39.4173 Y9.9122 
G01 X-39.3480 Y9.7448 
G01 X-39.3126 Y9.5670 
G01 X-39.3126 Y9.3857 
G01 X-39.3480 Y9.2079 
G01 X-39.4173 Y9.0405 
G01 X-39.5180 Y8.8898 
G01 X-39.6462 Y8.7616 
G01 X-39.7969 Y8.6609 
G01 X-39.9643 Y8.5916 
G01 X-40.1421 Y8.5562 
G01 X-40.3234 Y8.5562 
G01 X-40.5012 Y8.5916 
G01 X-40.6686 Y8.6609 
G01 X-40.8193 Y8.7616 
G01 X-40.9475 Y8.8898 
G01 X-41.0482 Y9.0405 
G01 X-41.1175 Y9.2079 
G01 X-41.1529 Y9.3857 
G00 Z2.0000 
G00 X-43.9215 Y9.3857 
G01 Z-0.2000 F600.00 
G01 X-43.9215 Y9.5670 
G01 X-43.8861 Y9.7448 
G01 X-43.8168 Y9.9122 
G01 X-43.7161 Y10.0629 
G01 X-43.5879 Y10.1911 
G01 X-43.4372 Y10.2918 
G01 X-43.2698 Y10.3611 
G01 X-43.2041 Y10.3741 
G01 X-43.2041 Y16.9479 
G01 X-44.2014 Y17.6958 
G01 X-62.6599 Y17.6958 
G01 X-62.7400 Y17.6958 
G01 X-62.8174 Y17.7165 
G01 X-62.8867 Y17.7566 
G01 X-69.6203 Y24.4903 
G01 X-69.6298 Y24.4808 
G01 X-69.7688 Y24.3798 
G01 X-69.9219 Y24.3018 
G01 X-70.0853 Y24.2487 
G01 X-70.2550 Y24.2218 
G01 X-70.4269 Y24.2218 
G01 X-70.5966 Y24.2487 
G01 X-70.7600 Y24.3018 
G01 X-70.9131 Y24.3798 
G01 X-71.0521 Y24.4808 
G01 X-71.1735 Y24.6022 
G01 X-71.2745 Y24.7412 
G01 X-71.3525 Y24.8943 
G01 X-71.4056 Y25.0577 
G01 X-71.4325 Y25.2274 
G01 X-71.4325 Y27.3805 
G01 X-71.4056 Y27.5502 
G01 X-71.3525 Y27.7136 
G01 X-71.2745 Y27.8667 
G01 X-71.1735 Y28.0057 
G01 X-71.0521 Y28.1271 
G01 X-70.9131 Y28.2281 
G01 X-70.7600 Y28.3061 
G01 X-70.5966 Y28.3592 
G01 X-70.4269 Y28.3861 
G01 X-70.2550 Y28.3861 
G01 X-70.0853 Y28.3592 
G01 X-69.9219 Y28.3061 
G01 X-69.7688 Y28.2281 
G01 X-69.6298 Y28.1271 
G01 X-69.5084 Y28.0057 
G01 X-69.4074 Y27.8667 
G01 X-69.3294 Y27.7136 
G01 X-69.2763 Y27.5502 
G01 X-69.2494 Y27.3805 
G01 X-69.2494 Y25.2274 
G01 X-69.2763 Y25.0577 
G01 X-69.2889 Y25.0190 
G01 X-62.5740 Y18.3041 
G01 X-44.1216 Y18.3041 
G01 X-44.1034 Y18.3067 
G01 X-44.0818 Y18.3041 
G01 X-44.0599 Y18.3041 
G01 X-44.0419 Y18.2992 
G01 X-44.0238 Y18.2971 
G01 X-44.0040 Y18.2891 
G01 X-43.9825 Y18.2834 
G01 X-43.9664 Y18.2740 
G01 X-43.9495 Y18.2673 
G01 X-43.9321 Y18.2541 
G01 X-43.9132 Y18.2433 
G01 X-43.9004 Y18.2304 
G01 X-42.7316 Y17.3539 
G01 X-42.7132 Y17.3433 
G01 X-42.7006 Y17.3307 
G01 X-42.6854 Y17.3193 
G01 X-42.6716 Y17.3016 
G01 X-42.6566 Y17.2867 
G01 X-42.6475 Y17.2709 
G01 X-42.6360 Y17.2563 
G01 X-42.6275 Y17.2363 
G01 X-42.6165 Y17.2174 
G01 X-42.6117 Y17.1994 
G01 X-42.6045 Y17.1826 
G01 X-42.6015 Y17.1610 
G01 X-42.5958 Y17.1400 
G01 X-42.5958 Y17.1216 
G01 X-42.5932 Y17.1034 
G01 X-42.5958 Y17.0818 
G01 X-42.5958 Y10.3043 
G01 X-42.5655 Y10.2918 
G01 X-42.4148 Y10.1911 
G01 X-42.2866 Y10.0629 
G01 X-42.1859 Y9.9122 
G01 X-42.1166 Y9.7448 
G01 X-42.0812 Y9.5670 
G01 X-42.0812 Y9.3857 
G01 X-42.1166 Y9.2079 
G01 X-42.1859 Y9.0405 
G01 X-42.2866 Y8.8898 
G01 X-42.4148 Y8.7616 
G01 X-42.5655 Y8.6609 
G01 X-42.7329 Y8.5916 
G01 X-42.9107 Y8.5562 
G01 X-43.0920 Y8.5562 
G01 X-43.2698 Y8.5916 
G01 X-43.4372 Y8.6609 
G01 X-43.5879 Y8.7616 
G01 X-43.7161 Y8.8898 
G01 X-43.8168 Y9.0405 
G01 X-43.8861 Y9.2079 
G01 X-43.9215 Y9.3857 
G00 Z2.0000 
G00 X-49.4587 Y9.3857 
G01 Z-0.2000 F600.00 
G01 X-49.4587 Y9.5670 
G01 X-49.4233 Y9.7448 
G01 X-49.3540 Y9.9122 
G01 X-49.2533 Y10.0629 
G01 X-49.1251 Y10.1911 
G01 X-48.9744 Y10.2918 
G01 X-48.8207 Y10.3554 
G01 X-48.6740 Y16.1958 
G01 X-68.6847 Y16.1958 
G01 X-68.7103 Y16.1933 
G01 X-68.7253 Y16.1958 
G01 X-68.7400 Y16.1958 
G01 X-68.7639 Y16.2022 
G01 X-68.7892 Y16.2064 
G01 X-68.8029 Y16.2127 
G01 X-68.8174 Y16.2165 
G01 X-68.8388 Y16.2289 
G01 X-68.8622 Y16.2395 
G01 X-68.8742 Y16.2494 
G01 X-68.8867 Y16.2566 
G01 X-68.9037 Y16.2737 
G01 X-78.6041 Y24.2461 
G01 X-78.7570 Y24.2218 
G01 X-78.9289 Y24.2218 
G01 X-79.0986 Y24.2487 
G01 X-79.2620 Y24.3018 
G01 X-79.4151 Y24.3798 
G01 X-79.5541 Y24.4808 
G01 X-79.6755 Y24.6022 
G01 X-79.7765 Y24.7412 
G01 X-79.8545 Y24.8943 
G01 X-79.9076 Y25.0577 
G01 X-79.9345 Y25.2274 
G01 X-79.9345 Y27.3805 
G01 X-79.9076 Y27.5502 
G01 X-79.8545 Y27.7136 
G01 X-79.7765 Y27.8667 
G01 X-79.6755 Y28.0057 
G01 X-79.5541 Y28.1271 
G01 X-79.4151 Y28.2281 
G01 X-79.2620 Y28.3061 
G01 X-79.0986 Y28.3592 
G01 X-78.9289 Y28.3861 
G01 X-78.7570 Y28.3861 
G01 X-78.5873 Y28.3592 
G01 X-78.4239 Y28.3061 
G01 X-78.2708 Y28.2281 
G01 X-78.1318 Y28.1271 
G01 X-78.0104 Y28.0057 
G01 X-77.9094 Y27.8667 
G01 X-77.8314 Y27.7136 
G01 X-77.7783 Y27.5502 
G01 X-77.7514 Y27.3805 
G01 X-77.7514 Y25.2274 
G01 X-77.7783 Y25.0577 
G01 X-77.8314 Y24.8943 
G01 X-77.9094 Y24.7412 
G01 X-78.0104 Y24.6022 
G01 X-78.0416 Y24.5711 
G01 X-68.5910 Y16.8041 
G01 X-48.3983 Y16.8041 
G01 X-48.3946 Y16.8050 
G01 X-48.3585 Y16.8041 
G01 X-48.3221 Y16.8041 
G01 X-48.3184 Y16.8031 
G01 X-48.3144 Y16.8030 
G01 X-48.2803 Y16.7929 
G01 X-48.2447 Y16.7834 
G01 X-48.2412 Y16.7813 
G01 X-48.2376 Y16.7803 
G01 X-48.2060 Y16.7610 
G01 X-48.1754 Y16.7433 
G01 X-48.1729 Y16.7408 
G01 X-48.1693 Y16.7386 
G01 X-48.1417 Y16.7095 
G01 X-48.1188 Y16.6867 
G01 X-48.1171 Y16.6837 
G01 X-48.1141 Y16.6806 
G01 X-48.0965 Y16.6481 
G01 X-48.0787 Y16.6174 
G01 X-48.0776 Y16.6133 
G01 X-48.0759 Y16.6102 
G01 X-48.0677 Y16.5762 
G01 X-48.0580 Y16.5400 
G01 X-48.0580 Y16.5361 
G01 X-48.0571 Y16.5324 
G01 X-48.0580 Y16.4965 
G01 X-48.0580 Y16.4599 
G01 X-48.0590 Y16.4562 
G01 X-48.2127 Y10.3373 
G01 X-48.1027 Y10.2918 
G01 X-47.9520 Y10.1911 
G01 X-47.8238 Y10.0629 
G01 X-47.7231 Y9.9122 
G01 X-47.6538 Y9.7448 
G01 X-47.6184 Y9.5670 
G01 X-47.6184 Y9.3857 
G01 X-47.6538 Y9.2079 
G01 X-47.7231 Y9.0405 
G01 X-47.8238 Y8.8898 
G01 X-47.9520 Y8.7616 
G01 X-48.1027 Y8.6609 
G01 X-48.2701 Y8.5916 
G01 X-48.4479 Y8.5562 
G01 X-48.6292 Y8.5562 
G01 X-48.8070 Y8.5916 
G01 X-48.9744 Y8.6609 
G01 X-49.1251 Y8.7616 
G01 X-49.2533 Y8.8898 
G01 X-49.3540 Y9.0405 
G01 X-49.4233 Y9.2079 
G01 X-49.4587 Y9.3857 
G00 Z2.0000 
G00 X-52.2273 Y9.3857 
G01 Z-0.2000 F600.00 
G01 X-52.2273 Y9.5670 
G01 X-52.1919 Y9.7448 
G01 X-52.1226 Y9.9122 
G01 X-52.0219 Y10.0629 
G01 X-51.8937 Y10.1911 
G01 X-51.7430 Y10.2918 
G01 X-51.6111 Y10.3463 
G01 X-51.6044 Y15.2958 
G01 X-69.9744 Y15.2958 
G01 X-69.9993 Y15.2933 
G01 X-70.0146 Y15.2958 
G01 X-70.0300 Y15.2958 
G01 X-70.0540 Y15.3022 
G01 X-70.0784 Y15.3062 
G01 X-70.0923 Y15.3125 
G01 X-70.1074 Y15.3165 
G01 X-70.1290 Y15.3290 
G01 X-70.1514 Y15.3391 
G01 X-70.1634 Y15.3489 
G01 X-70.1767 Y15.3566 
G01 X-70.1940 Y15.3739 
G01 X-82.0335 Y25.0450 
G01 X-82.0824 Y24.8943 
G01 X-82.1604 Y24.7412 
G01 X-82.2614 Y24.6022 
G01 X-82.3828 Y24.4808 
G01 X-82.5218 Y24.3798 
G01 X-82.6749 Y24.3018 
G01 X-82.8383 Y24.2487 
G01 X-83.0080 Y24.2218 
G01 X-83.1799 Y24.2218 
G01 X-83.3496 Y24.2487 
G01 X-83.5130 Y24.3018 
G01 X-83.6661 Y24.3798 
G01 X-83.8051 Y24.4808 
G01 X-83.9265 Y24.6022 
G01 X-84.0275 Y24.7412 
G01 X-84.1055 Y24.8943 
G01 X-84.1586 Y25.0577 
G01 X-84.1855 Y25.2274 
G01 X-84.1855 Y27.3805 
G01 X-84.1586 Y27.5502 
G01 X-84.1055 Y27.7136 
G01 X-84.0275 Y27.8667 
G01 X-83.9265 Y28.0057 
G01 X-83.8051 Y28.1271 
G01 X-83.6661 Y28.2281 
G01 X-83.5130 Y28.3061 
G01 X-83.3496 Y28.3592 
G01 X-83.1799 Y28.3861 
G01 X-83.0080 Y28.3861 
G01 X-82.8383 Y28.3592 
G01 X-82.6749 Y28.3061 
G01 X-82.5218 Y28.2281 
G01 X-82.3828 Y28.1271 
G01 X-82.2614 Y28.0057 
G01 X-82.1604 Y27.8667 
G01 X-82.0824 Y27.7136 
G01 X-82.0293 Y27.5502 
G01 X-82.0024 Y27.3805 
G01 X-82.0024 Y25.8050 
G01 X-69.8815 Y15.9041 
G01 X-51.3399 Y15.9041 
G01 X-51.3396 Y15.9042 
G01 X-51.3000 Y15.9041 
G01 X-51.2599 Y15.9041 
G01 X-51.2596 Y15.9040 
G01 X-51.2595 Y15.9040 
G01 X-51.2550 Y15.9028 
G01 X-51.1825 Y15.8834 
G01 X-51.1822 Y15.8832 
G01 X-51.1821 Y15.8832 
G01 X-51.1460 Y15.8623 
G01 X-51.1132 Y15.8433 
G01 X-51.1132 Y15.8432 
G01 X-51.1129 Y15.8431 
G01 X-51.0572 Y15.7873 
G01 X-51.0566 Y15.7867 
G01 X-51.0563 Y15.7864 
G01 X-51.0370 Y15.7527 
G01 X-51.0165 Y15.7174 
G01 X-50.9958 Y15.6400 
G01 X-50.9958 Y15.6399 
G01 X-50.9957 Y15.6396 
G01 X-50.9958 Y15.5664 
G01 X-50.9958 Y15.5599 
G01 X-51.0029 Y10.3462 
G01 X-50.8713 Y10.2918 
G01 X-50.7206 Y10.1911 
G01 X-50.5924 Y10.0629 
G01 X-50.4917 Y9.9122 
G01 X-50.4224 Y9.7448 
G01 X-50.3870 Y9.5670 
G01 X-50.3870 Y9.3857 
G01 X-50.4224 Y9.2079 
G01 X-50.4917 Y9.0405 
G01 X-50.5924 Y8.8898 
G01 X-50.7206 Y8.7616 
G01 X-50.8713 Y8.6609 
G01 X-51.0387 Y8.5916 
G01 X-51.2165 Y8.5562 
G01 X-51.3978 Y8.5562 
G01 X-51.5756 Y8.5916 
G01 X-51.7430 Y8.6609 
G01 X-51.8937 Y8.7616 
G01 X-52.0219 Y8.8898 
G01 X-52.1226 Y9.0405 
G01 X-52.1919 Y9.2079 
G01 X-52.2273 Y9.3857 
G00 Z2.0000 
G00 X-54.9959 Y9.3857 
G01 Z-0.2000 F600.00 
G01 X-54.9959 Y9.5670 
G01 X-54.9605 Y9.7448 
G01 X-54.8912 Y9.9122 
G01 X-54.7905 Y10.0629 
G01 X-54.6623 Y10.1911 
G01 X-54.5116 Y10.2918 
G01 X-54.3799 Y10.3463 
G01 X-54.3799 Y10.8389 
G01 X-54.3806 Y10.8417 
G01 X-54.3799 Y10.8771 
G01 X-54.3799 Y10.9158 
G01 X-54.3790 Y10.9188 
G01 X-54.3101 Y14.3958 
G01 X-72.7234 Y14.3958 
G01 X-72.7462 Y14.3932 
G01 X-72.7636 Y14.3958 
G01 X-72.7810 Y14.3958 
G01 X-72.8028 Y14.4017 
G01 X-72.8254 Y14.4050 
G01 X-72.8414 Y14.4120 
G01 X-72.8584 Y14.4165 
G01 X-72.8781 Y14.4279 
G01 X-72.8988 Y14.4369 
G01 X-72.9126 Y14.4479 
G01 X-72.9277 Y14.4566 
G01 X-72.9435 Y14.4725 
G01 X-86.2787 Y25.0683 
G01 X-86.2803 Y25.0577 
G01 X-86.3334 Y24.8943 
G01 X-86.4114 Y24.7412 
G01 X-86.5124 Y24.6022 
G01 X-86.6338 Y24.4808 
G01 X-86.7728 Y24.3798 
G01 X-86.9259 Y24.3018 
G01 X-87.0893 Y24.2487 
G01 X-87.2590 Y24.2218 
G01 X-87.4309 Y24.2218 
G01 X-87.6006 Y24.2487 
G01 X-87.7640 Y24.3018 
G01 X-87.9171 Y24.3798 
G01 X-88.0561 Y24.4808 
G01 X-88.1775 Y24.6022 
G01 X-88.2785 Y24.7412 
G01 X-88.3565 Y24.8943 
G01 X-88.4096 Y25.0577 
G01 X-88.4365 Y25.2274 
G01 X-88.4365 Y27.3805 
G01 X-88.4096 Y27.5502 
G01 X-88.3565 Y27.7136 
G01 X-88.2785 Y27.8667 
G01 X-88.1775 Y28.0057 
G01 X-88.0561 Y28.1271 
G01 X-87.9171 Y28.2281 
G01 X-87.7640 Y28.3061 
G01 X-87.6006 Y28.3592 
G01 X-87.4309 Y28.3861 
G01 X-87.2590 Y28.3861 
G01 X-87.0893 Y28.3592 
G01 X-86.9259 Y28.3061 
G01 X-86.7728 Y28.2281 
G01 X-86.6338 Y28.1271 
G01 X-86.5124 Y28.0057 
G01 X-86.4114 Y27.8667 
G01 X-86.3334 Y27.7136 
G01 X-86.2803 Y27.5502 
G01 X-86.2534 Y27.3805 
G01 X-86.2534 Y25.8251 
G01 X-72.6348 Y15.0041 
G01 X-54.0368 Y15.0041 
G01 X-54.0340 Y15.0048 
G01 X-53.9990 Y15.0041 
G01 X-53.9599 Y15.0041 
G01 X-53.9568 Y15.0032 
G01 X-53.9538 Y15.0032 
G01 X-53.9195 Y14.9933 
G01 X-53.8825 Y14.9834 
G01 X-53.8798 Y14.9818 
G01 X-53.8769 Y14.9810 
G01 X-53.8443 Y14.9613 
G01 X-53.8132 Y14.9433 
G01 X-53.8112 Y14.9412 
G01 X-53.8084 Y14.9396 
G01 X-53.7807 Y14.9108 
G01 X-53.7566 Y14.8867 
G01 X-53.7552 Y14.8843 
G01 X-53.7529 Y14.8819 
G01 X-53.7353 Y14.8499 
G01 X-53.7165 Y14.8174 
G01 X-53.7156 Y14.8140 
G01 X-53.7143 Y14.8117 
G01 X-53.7061 Y14.7785 
G01 X-53.6958 Y14.7400 
G01 X-53.6958 Y14.7368 
G01 X-53.6951 Y14.7340 
G01 X-53.6958 Y14.6987 
G01 X-53.6958 Y14.6599 
G01 X-53.6967 Y14.6568 
G01 X-53.7716 Y10.8750 
G01 X-53.7716 Y10.3463 
G01 X-53.6399 Y10.2918 
G01 X-53.4892 Y10.1911 
G01 X-53.3610 Y10.0629 
G01 X-53.2603 Y9.9122 
G01 X-53.1910 Y9.7448 
G01 X-53.1556 Y9.5670 
G01 X-53.1556 Y9.3857 
G01 X-53.1910 Y9.2079 
G01 X-53.2603 Y9.0405 
G01 X-53.3610 Y8.8898 
G01 X-53.4892 Y8.7616 
G01 X-53.6399 Y8.6609 
G01 X-53.8073 Y8.5916 
G01 X-53.9851 Y8.5562 
G01 X-54.1664 Y8.5562 
G01 X-54.3442 Y8.5916 
G01 X-54.5116 Y8.6609 
G01 X-54.6623 Y8.7616 
G01 X-54.7905 Y8.8898 
G01 X-54.8912 Y9.0405 
G01 X-54.9605 Y9.2079 
G01 X-54.9959 Y9.3857 
G00 Z2.0000 
G00 X-57.7645 Y9.3857 
G01 Z-0.2000 F600.00 
G01 X-57.7645 Y9.5670 
G01 X-57.7291 Y9.7448 
G01 X-57.6598 Y9.9122 
G01 X-57.5591 Y10.0629 
G01 X-57.4309 Y10.1911 
G01 X-57.3264 Y10.2608 
G01 X-57.8543 Y13.1958 
G01 X-77.8861 Y13.1958 
G01 X-77.9217 Y13.1946 
G01 X-77.9268 Y13.1958 
G01 X-77.9320 Y13.1958 
G01 X-77.9656 Y13.2048 
G01 X-77.9997 Y13.2127 
G01 X-78.0042 Y13.2151 
G01 X-78.0094 Y13.2165 
G01 X-78.0396 Y13.2340 
G01 X-78.0704 Y13.2504 
G01 X-78.0743 Y13.2541 
G01 X-78.0787 Y13.2566 
G01 X-78.1023 Y13.2803 
G01 X-90.5724 Y24.9314 
G01 X-90.5844 Y24.8943 
G01 X-90.6624 Y24.7412 
G01 X-90.7634 Y24.6022 
G01 X-90.8848 Y24.4808 
G01 X-91.0238 Y24.3798 
G01 X-91.1769 Y24.3018 
G01 X-91.3403 Y24.2487 
G01 X-91.5100 Y24.2218 
G01 X-91.6819 Y24.2218 
G01 X-91.8516 Y24.2487 
G01 X-92.0150 Y24.3018 
G01 X-92.1681 Y24.3798 
G01 X-92.3071 Y24.4808 
G01 X-92.4285 Y24.6022 
G01 X-92.5295 Y24.7412 
G01 X-92.6075 Y24.8943 
G01 X-92.6606 Y25.0577 
G01 X-92.6875 Y25.2274 
G01 X-92.6875 Y27.3805 
G01 X-92.6606 Y27.5502 
G01 X-92.6075 Y27.7136 
G01 X-92.5295 Y27.8667 
G01 X-92.4285 Y28.0057 
G01 X-92.3071 Y28.1271 
G01 X-92.1681 Y28.2281 
G01 X-92.0150 Y28.3061 
G01 X-91.8516 Y28.3592 
G01 X-91.6819 Y28.3861 
G01 X-91.5100 Y28.3861 
G01 X-91.3403 Y28.3592 
G01 X-91.1769 Y28.3061 
G01 X-91.0238 Y28.2281 
G01 X-90.8848 Y28.1271 
G01 X-90.7634 Y28.0057 
G01 X-90.6624 Y27.8667 
G01 X-90.5844 Y27.7136 
G01 X-90.5313 Y27.5502 
G01 X-90.5044 Y27.3805 
G01 X-90.5044 Y25.7004 
G01 X-77.7719 Y13.8041 
G01 X-57.6271 Y13.8041 
G01 X-57.6144 Y13.8064 
G01 X-57.5870 Y13.8041 
G01 X-57.5599 Y13.8041 
G01 X-57.5476 Y13.8008 
G01 X-57.5345 Y13.7997 
G01 X-57.5090 Y13.7905 
G01 X-57.4825 Y13.7834 
G01 X-57.4711 Y13.7768 
G01 X-57.4592 Y13.7725 
G01 X-57.4372 Y13.7571 
G01 X-57.4132 Y13.7433 
G01 X-57.4040 Y13.7341 
G01 X-57.3935 Y13.7268 
G01 X-57.3759 Y13.7060 
G01 X-57.3566 Y13.6867 
G01 X-57.3502 Y13.6756 
G01 X-57.3418 Y13.6657 
G01 X-57.3303 Y13.6412 
G01 X-57.3165 Y13.6174 
G01 X-57.3131 Y13.6046 
G01 X-57.3077 Y13.5932 
G01 X-57.3030 Y13.5666 
G01 X-57.2958 Y13.5400 
G01 X-57.2958 Y13.5270 
G01 X-56.7320 Y10.3921 
G01 X-56.5759 Y10.3611 
G01 X-56.4085 Y10.2918 
G01 X-56.2578 Y10.1911 
G01 X-56.1296 Y10.0629 
G01 X-56.0289 Y9.9122 
G01 X-55.9596 Y9.7448 
G01 X-55.9242 Y9.5670 
G01 X-55.9242 Y9.3857 
G01 X-55.9596 Y9.2079 
G01 X-56.0289 Y9.0405 
G01 X-56.1296 Y8.8898 
G01 X-56.2578 Y8.7616 
G01 X-56.4085 Y8.6609 
G01 X-56.5759 Y8.5916 
G01 X-56.7537 Y8.5562 
G01 X-56.9350 Y8.5562 
G01 X-57.1128 Y8.5916 
G01 X-57.2802 Y8.6609 
G01 X-57.4309 Y8.7616 
G01 X-57.5591 Y8.8898 
G01 X-57.6598 Y9.0405 
G01 X-57.7291 Y9.2079 
G01 X-57.7645 Y9.3857 
G00 Z2.0000 
G00 X-60.5331 Y9.3857 
G01 Z-0.2000 F600.00 
G01 X-60.5331 Y9.5670 
G01 X-60.4977 Y9.7448 
G01 X-60.4284 Y9.9122 
G01 X-60.3277 Y10.0629 
G01 X-60.1995 Y10.1911 
G01 X-60.0488 Y10.2918 
G01 X-59.9135 Y10.3478 
G01 X-59.9054 Y12.1958 
G01 X-80.8363 Y12.1958 
G01 X-80.8703 Y12.1944 
G01 X-80.8765 Y12.1958 
G01 X-80.8830 Y12.1958 
G01 X-80.9160 Y12.2047 
G01 X-80.9485 Y12.2119 
G01 X-80.9540 Y12.2148 
G01 X-80.9604 Y12.2165 
G01 X-80.9897 Y12.2335 
G01 X-81.0194 Y12.2490 
G01 X-81.0242 Y12.2535 
G01 X-81.0297 Y12.2566 
G01 X-81.0531 Y12.2801 
G01 X-94.8190 Y24.9449 
G01 X-94.8354 Y24.8943 
G01 X-94.9134 Y24.7412 
G01 X-95.0144 Y24.6022 
G01 X-95.1358 Y24.4808 
G01 X-95.2748 Y24.3798 
G01 X-95.4279 Y24.3018 
G01 X-95.5913 Y24.2487 
G01 X-95.7610 Y24.2218 
G01 X-95.9329 Y24.2218 
G01 X-96.1026 Y24.2487 
G01 X-96.2660 Y24.3018 
G01 X-96.4191 Y24.3798 
G01 X-96.5581 Y24.4808 
G01 X-96.6795 Y24.6022 
G01 X-96.7805 Y24.7412 
G01 X-96.8585 Y24.8943 
G01 X-96.9116 Y25.0577 
G01 X-96.9385 Y25.2274 
G01 X-96.9385 Y27.3805 
G01 X-96.9116 Y27.5502 
G01 X-96.8585 Y27.7136 
G01 X-96.7805 Y27.8667 
G01 X-96.6795 Y28.0057 
G01 X-96.5581 Y28.1271 
G01 X-96.4191 Y28.2281 
G01 X-96.2660 Y28.3061 
G01 X-96.1026 Y28.3592 
G01 X-95.9329 Y28.3861 
G01 X-95.7610 Y28.3861 
G01 X-95.5913 Y28.3592 
G01 X-95.4279 Y28.3061 
G01 X-95.2748 Y28.2281 
G01 X-95.1358 Y28.1271 
G01 X-95.0144 Y28.0057 
G01 X-94.9134 Y27.8667 
G01 X-94.8354 Y27.7136 
G01 X-94.7823 Y27.5502 
G01 X-94.7554 Y27.3805 
G01 X-94.7554 Y25.7130 
G01 X-80.7243 Y12.8041 
G01 X-59.6394 Y12.8041 
G01 X-59.6387 Y12.8043 
G01 X-59.5993 Y12.8041 
G01 X-59.5599 Y12.8041 
G01 X-59.5592 Y12.8039 
G01 X-59.5585 Y12.8039 
G01 X-59.5212 Y12.7937 
G01 X-59.4825 Y12.7834 
G01 X-59.4820 Y12.7830 
G01 X-59.4813 Y12.7829 
G01 X-59.4445 Y12.7614 
G01 X-59.4132 Y12.7433 
G01 X-59.4128 Y12.7429 
G01 X-59.4121 Y12.7425 
G01 X-59.3705 Y12.7005 
G01 X-59.3566 Y12.6867 
G01 X-59.3565 Y12.6864 
G01 X-59.3557 Y12.6857 
G01 X-59.3338 Y12.6471 
G01 X-59.3165 Y12.6174 
G01 X-59.3163 Y12.6165 
G01 X-59.3160 Y12.6161 
G01 X-59.3059 Y12.5776 
G01 X-59.2958 Y12.5400 
G01 X-59.2958 Y12.5394 
G01 X-59.2956 Y12.5387 
G01 X-59.2958 Y12.4936 
G01 X-59.2958 Y12.4599 
G01 X-59.2960 Y12.4594 
G01 X-59.3052 Y10.3448 
G01 X-59.1771 Y10.2918 
G01 X-59.0264 Y10.1911 
G01 X-58.8982 Y10.0629 
G01 X-58.7975 Y9.9122 
G01 X-58.7282 Y9.7448 
G01 X-58.6928 Y9.5670 
G01 X-58.6928 Y9.3857 
G01 X-58.7282 Y9.2079 
G01 X-58.7975 Y9.0405 
G01 X-58.8982 Y8.8898 
G01 X-59.0264 Y8.7616 
G01 X-59.1771 Y8.6609 
G01 X-59.3445 Y8.5916 
G01 X-59.5223 Y8.5562 
G01 X-59.7036 Y8.5562 
G01 X-59.8814 Y8.5916 
G01 X-60.0488 Y8.6609 
G01 X-60.1995 Y8.7616 
G01 X-60.3277 Y8.8898 
G01 X-60.4284 Y9.0405 
G01 X-60.4977 Y9.2079 
G01 X-60.5331 Y9.3857 
G00 Z2.0000 
G00 X-62.9305 Y25.2274 
G01 Z-0.2000 F600.00 
G01 X-62.9305 Y27.3805 
G01 X-62.9036 Y27.5502 
G01 X-62.8505 Y27.7136 
G01 X-62.7725 Y27.8667 
G01 X-62.6715 Y28.0057 
G01 X-62.5501 Y28.1271 
G01 X-62.4111 Y28.2281 
G01 X-62.2580 Y28.3061 
G01 X-62.0946 Y28.3592 
G01 X-61.9249 Y28.3861 
G01 X-61.7530 Y28.3861 
G01 X-61.5833 Y28.3592 
G01 X-61.4199 Y28.3061 
G01 X-61.2668 Y28.2281 
G01 X-61.1278 Y28.1271 
G01 X-61.0064 Y28.0057 
G01 X-60.9054 Y27.8667 
G01 X-60.8274 Y27.7136 
G01 X-60.7743 Y27.5502 
G01 X-60.7474 Y27.3805 
G01 X-60.7474 Y25.2274 
G01 X-60.7543 Y25.1843 
G01 X-55.6740 Y20.1041 
G01 X-41.7400 Y20.1041 
G01 X-41.6599 Y20.1041 
G01 X-41.5825 Y20.0834 
G01 X-41.5132 Y20.0433 
G01 X-37.3132 Y15.8433 
G01 X-37.2566 Y15.7867 
G01 X-37.2165 Y15.7174 
G01 X-37.1958 Y15.6400 
G01 X-37.1958 Y10.3611 
G01 X-37.1957 Y10.3611 
G01 X-37.0283 Y10.2918 
G01 X-36.8776 Y10.1911 
G01 X-36.7494 Y10.0629 
G01 X-36.6487 Y9.9122 
G01 X-36.5794 Y9.7448 
G01 X-36.5440 Y9.5670 
G01 X-36.5440 Y9.3857 
G01 X-36.5794 Y9.2079 
G01 X-36.6487 Y9.0405 
G01 X-36.7494 Y8.8898 
G01 X-36.8776 Y8.7616 
G01 X-37.0283 Y8.6609 
G01 X-37.1957 Y8.5916 
G01 X-37.3735 Y8.5562 
G01 X-37.5548 Y8.5562 
G01 X-37.7326 Y8.5916 
G01 X-37.9000 Y8.6609 
G01 X-38.0507 Y8.7616 
G01 X-38.1789 Y8.8898 
G01 X-38.2796 Y9.0405 
G01 X-38.3489 Y9.2079 
G01 X-38.3843 Y9.3857 
G01 X-38.3843 Y9.5670 
G01 X-38.3489 Y9.7448 
G01 X-38.2796 Y9.9122 
G01 X-38.1789 Y10.0629 
G01 X-38.0507 Y10.1911 
G01 X-37.9000 Y10.2918 
G01 X-37.8041 Y10.3315 
G01 X-37.8041 Y15.4740 
G01 X-41.8259 Y19.4958 
G01 X-55.8400 Y19.4958 
G01 X-55.9174 Y19.5165 
G01 X-55.9867 Y19.5566 
G01 X-56.0433 Y19.6132 
G01 X-61.0194 Y24.5893 
G01 X-61.1278 Y24.4808 
G01 X-61.2668 Y24.3798 
G01 X-61.4199 Y24.3018 
G01 X-61.5833 Y24.2487 
G01 X-61.7530 Y24.2218 
G01 X-61.9249 Y24.2218 
G01 X-62.0946 Y24.2487 
G01 X-62.2580 Y24.3018 
G01 X-62.4111 Y24.3798 
G01 X-62.5501 Y24.4808 
G01 X-62.6715 Y24.6022 
G01 X-62.7725 Y24.7412 
G01 X-62.8505 Y24.8943 
G01 X-62.9036 Y25.0577 
G01 X-62.9305 Y25.2274 
G00 Z2.0000 
G00 X-75.6835 Y25.2274 
G01 Z-0.2000 F600.00 
G01 X-75.6835 Y27.3805 
G01 X-75.6566 Y27.5502 
G01 X-75.6035 Y27.7136 
G01 X-75.5255 Y27.8667 
G01 X-75.4245 Y28.0057 
G01 X-75.3031 Y28.1271 
G01 X-75.1641 Y28.2281 
G01 X-75.0110 Y28.3061 
G01 X-74.8476 Y28.3592 
G01 X-74.6779 Y28.3861 
G01 X-74.5060 Y28.3861 
G01 X-74.3363 Y28.3592 
G01 X-74.1729 Y28.3061 
G01 X-74.0198 Y28.2281 
G01 X-73.8808 Y28.1271 
G01 X-73.7594 Y28.0057 
G01 X-73.6584 Y27.8667 
G01 X-73.5804 Y27.7136 
G01 X-73.5273 Y27.5502 
G01 X-73.5004 Y27.3805 
G01 X-73.5004 Y25.6425 
G01 X-65.4320 Y17.5741 
G01 X-45.7299 Y17.5741 
G01 X-45.6525 Y17.5534 
G01 X-45.5832 Y17.5133 
G01 X-45.5266 Y17.4567 
G01 X-45.4865 Y17.3874 
G01 X-45.4658 Y17.3100 
G01 X-45.4658 Y17.2299 
G01 X-45.4658 Y10.3463 
G01 X-45.3341 Y10.2918 
G01 X-45.1834 Y10.1911 
G01 X-45.0552 Y10.0629 
G01 X-44.9545 Y9.9122 
G01 X-44.8852 Y9.7448 
G01 X-44.8498 Y9.5670 
G01 X-44.8498 Y9.3857 
G01 X-44.8852 Y9.2079 
G01 X-44.9545 Y9.0405 
G01 X-45.0552 Y8.8898 
G01 X-45.1834 Y8.7616 
G01 X-45.3341 Y8.6609 
G01 X-45.5015 Y8.5916 
G01 X-45.6793 Y8.5562 
G01 X-45.8606 Y8.5562 
G01 X-46.0384 Y8.5916 
G01 X-46.2058 Y8.6609 
G01 X-46.3565 Y8.7616 
G01 X-46.4847 Y8.8898 
G01 X-46.5854 Y9.0405 
G01 X-46.6547 Y9.2079 
G01 X-46.6901 Y9.3857 
G01 X-46.6901 Y9.5670 
G01 X-46.6547 Y9.7448 
G01 X-46.5854 Y9.9122 
G01 X-46.4847 Y10.0629 
G01 X-46.3565 Y10.1911 
G01 X-46.2058 Y10.2918 
G01 X-46.0741 Y10.3463 
G01 X-46.0741 Y16.9658 
G01 X-65.5179 Y16.9658 
G01 X-65.5980 Y16.9658 
G01 X-65.6754 Y16.9865 
G01 X-65.7447 Y17.0266 
G01 X-73.5912 Y24.8732 
G01 X-73.6584 Y24.7412 
G01 X-73.7594 Y24.6022 
G01 X-73.8808 Y24.4808 
G01 X-74.0198 Y24.3798 
G01 X-74.1729 Y24.3018 
G01 X-74.3363 Y24.2487 
G01 X-74.5060 Y24.2218 
G01 X-74.6779 Y24.2218 
G01 X-74.8476 Y24.2487 
G01 X-75.0110 Y24.3018 
G01 X-75.1641 Y24.3798 
G01 X-75.3031 Y24.4808 
G01 X-75.4245 Y24.6022 
G01 X-75.5255 Y24.7412 
G01 X-75.6035 Y24.8943 
G01 X-75.6566 Y25.0577 
G01 X-75.6835 Y25.2274 
G00 Z2.0000 
G00 X-101.1895 Y25.2274 
G01 Z-0.2000 F600.00 
G01 X-101.1895 Y27.3805 
G01 X-101.1626 Y27.5502 
G01 X-101.1095 Y27.7136 
G01 X-101.0315 Y27.8667 
G01 X-100.9305 Y28.0057 
G01 X-100.8091 Y28.1271 
G01 X-100.6701 Y28.2281 
G01 X-100.5170 Y28.3061 
G01 X-100.3536 Y28.3592 
G01 X-100.1839 Y28.3861 
G01 X-100.0120 Y28.3861 
G01 X-99.8423 Y28.3592 
G01 X-99.6789 Y28.3061 
G01 X-99.5258 Y28.2281 
G01 X-99.3868 Y28.1271 
G01 X-99.2654 Y28.0057 
G01 X-99.1644 Y27.8667 
G01 X-99.0864 Y27.7136 
G01 X-99.0333 Y27.5502 
G01 X-99.0064 Y27.3805 
G01 X-99.0064 Y25.7859 
G01 X-82.0599 Y11.5806 
G01 X-64.1313 Y11.6041 
G01 X-64.1233 Y11.6058 
G01 X-64.0928 Y11.6041 
G01 X-64.0603 Y11.6042 
G01 X-64.0520 Y11.6019 
G01 X-64.0433 Y11.6015 
G01 X-64.0131 Y11.5915 
G01 X-63.9829 Y11.5835 
G01 X-63.9755 Y11.5792 
G01 X-63.9672 Y11.5765 
G01 X-63.9407 Y11.5592 
G01 X-63.9135 Y11.5436 
G01 X-63.9076 Y11.5376 
G01 X-63.9001 Y11.5328 
G01 X-63.8786 Y11.5087 
G01 X-63.8568 Y11.4870 
G01 X-63.8526 Y11.4796 
G01 X-63.8467 Y11.4731 
G01 X-63.8322 Y11.4444 
G01 X-63.8167 Y11.4177 
G01 X-63.8146 Y11.4096 
G01 X-63.8105 Y11.4017 
G01 X-63.8039 Y11.3700 
G01 X-63.7959 Y11.3404 
G01 X-63.7959 Y11.3317 
G01 X-63.7941 Y11.3233 
G01 X-63.7958 Y11.2926 
G01 X-63.7957 Y11.2603 
G01 X-63.7981 Y11.2517 
G01 X-63.8787 Y9.7805 
G01 X-63.2515 Y9.7805 
G01 X-63.1970 Y9.9122 
G01 X-63.0963 Y10.0629 
G01 X-62.9681 Y10.1911 
G01 X-62.8174 Y10.2918 
G01 X-62.6500 Y10.3611 
G01 X-62.4722 Y10.3965 
G01 X-62.2909 Y10.3965 
G01 X-62.1131 Y10.3611 
G01 X-61.9457 Y10.2918 
G01 X-61.7950 Y10.1911 
G01 X-61.6668 Y10.0629 
G01 X-61.5661 Y9.9122 
G01 X-61.4968 Y9.7448 
G01 X-61.4614 Y9.5670 
G01 X-61.4614 Y9.3857 
G01 X-61.4968 Y9.2079 
G01 X-61.5661 Y9.0405 
G01 X-61.6668 Y8.8898 
G01 X-61.7950 Y8.7616 
G01 X-61.9457 Y8.6609 
G01 X-62.1131 Y8.5916 
G01 X-62.2909 Y8.5562 
G01 X-62.4722 Y8.5562 
G01 X-62.6500 Y8.5916 
G01 X-62.8174 Y8.6609 
G01 X-62.9681 Y8.7616 
G01 X-63.0963 Y8.8898 
G01 X-63.1970 Y9.0405 
G01 X-63.2515 Y9.1722 
G01 X-64.1685 Y9.1722 
G01 X-64.1766 Y9.1705 
G01 X-64.2083 Y9.1722 
G01 X-64.2400 Y9.1722 
G01 X-64.2479 Y9.1744 
G01 X-64.2566 Y9.1748 
G01 X-64.2867 Y9.1847 
G01 X-64.3174 Y9.1929 
G01 X-64.3248 Y9.1973 
G01 X-64.3327 Y9.1998 
G01 X-64.3596 Y9.2174 
G01 X-64.3867 Y9.2330 
G01 X-64.3923 Y9.2387 
G01 X-64.3998 Y9.2435 
G01 X-64.4218 Y9.2682 
G01 X-64.4433 Y9.2896 
G01 X-64.4474 Y9.2968 
G01 X-64.4532 Y9.3032 
G01 X-64.4675 Y9.3316 
G01 X-64.4834 Y9.3589 
G01 X-64.4855 Y9.3671 
G01 X-64.4894 Y9.3746 
G01 X-64.4958 Y9.4056 
G01 X-64.5041 Y9.4363 
G01 X-64.5041 Y9.4449 
G01 X-64.5058 Y9.4530 
G01 X-64.5041 Y9.4841 
G01 X-64.5041 Y9.5164 
G01 X-64.5018 Y9.5247 
G01 X-64.4212 Y10.9955 
G01 X-82.1577 Y10.9722 
G01 X-82.1836 Y10.9699 
G01 X-82.1962 Y10.9722 
G01 X-82.2100 Y10.9721 
G01 X-82.2361 Y10.9791 
G01 X-82.2625 Y10.9837 
G01 X-82.2748 Y10.9895 
G01 X-82.2874 Y10.9928 
G01 X-82.3101 Y11.0059 
G01 X-82.3351 Y11.0175 
G01 X-82.3454 Y11.0262 
G01 X-82.3568 Y11.0327 
G01 X-82.3754 Y11.0514 
G01 X-99.0443 Y25.0240 
G01 X-99.0864 Y24.8943 
G01 X-99.1644 Y24.7412 
G01 X-99.2654 Y24.6022 
G01 X-99.3868 Y24.4808 
G01 X-99.5258 Y24.3798 
G01 X-99.6789 Y24.3018 
G01 X-99.8423 Y24.2487 
G01 X-100.0120 Y24.2218 
G01 X-100.1839 Y24.2218 
G01 X-100.3536 Y24.2487 
G01 X-100.5170 Y24.3018 
G01 X-100.6701 Y24.3798 
G01 X-100.8091 Y24.4808 
G01 X-100.9305 Y24.6022 
G01 X-101.0315 Y24.7412 
G01 X-101.1095 Y24.8943 
G01 X-101.1626 Y25.0577 
G01 X-101.1895 Y25.2274 
G00 Z2.0000 
G00 X-47.7041 Y12.6766 
G01 Z-0.2000 F600.00 
G01 X-47.7041 Y13.7233 
G01 X-47.6887 Y13.7604 
G01 X-47.6604 Y13.7887 
G01 X-47.6233 Y13.8041 
G01 X-46.5766 Y13.8041 
G01 X-46.5395 Y13.7887 
G01 X-46.5112 Y13.7604 
G01 X-46.4958 Y13.7233 
G01 X-46.4958 Y12.6766 
G01 X-46.5112 Y12.6395 
G01 X-46.5395 Y12.6112 
G01 X-46.5766 Y12.5958 
G01 X-46.7958 Y12.5958 
G01 X-46.7958 Y7.4790 
G01 X-46.7184 Y7.4470 
G01 X-46.5677 Y7.3463 
G01 X-46.4395 Y7.2181 
G01 X-46.3388 Y7.0674 
G01 X-46.2695 Y6.9000 
G01 X-46.2341 Y6.7222 
G01 X-46.2341 Y6.5409 
G01 X-46.2695 Y6.3631 
G01 X-46.3388 Y6.1957 
G01 X-46.4395 Y6.0450 
G01 X-46.5677 Y5.9168 
G01 X-46.7184 Y5.8161 
G01 X-46.8858 Y5.7468 
G01 X-47.0636 Y5.7114 
G01 X-47.2449 Y5.7114 
G01 X-47.4227 Y5.7468 
G01 X-47.5901 Y5.8161 
G01 X-47.7408 Y5.9168 
G01 X-47.8690 Y6.0450 
G01 X-47.9697 Y6.1957 
G01 X-48.0390 Y6.3631 
G01 X-48.0744 Y6.5409 
G01 X-48.0744 Y6.7222 
G01 X-48.0390 Y6.9000 
G01 X-47.9697 Y7.0674 
G01 X-47.8690 Y7.2181 
G01 X-47.7408 Y7.3463 
G01 X-47.5901 Y7.4470 
G01 X-47.4227 Y7.5163 
G01 X-47.4041 Y7.5200 
G01 X-47.4041 Y12.5958 
G01 X-47.6233 Y12.5958 
G01 X-47.6604 Y12.6112 
G01 X-47.6887 Y12.6395 
G01 X-47.7041 Y12.6766 
(File Footer)
G00 Z2.0000 
G00 Z10.0000 
M05
M02
