( This gcode generated by /home/mattvenn/.eagle/ulp/pcb-gcode.ulp )
( Copyright 2005 by John Johnson. See readme.txt for licensing terms. )

( This file generated from the board /home/mattvenn/eagle-circuit-designs/cvm/hymera.brd )
( This file generated 30/01/2012 17:15 )

G21

G90
G00 Z10.0000 
G00 X0 Y0
M03
G04 P3.000000
G00 Z2.0000 
G00 X103.4304 Y13.0354 
G01 Z-0.1000 F600.00 
G01 X103.4304 Y13.9925 
G01 X102.7535 Y14.6694 
G01 X101.7964 Y14.6694 
G01 X101.1195 Y13.9925 
G01 X101.1195 Y13.0354 
G01 X101.7964 Y12.3585 
G01 X102.7535 Y12.3585 
G01 X103.4304 Y13.0354 
G00 Z2.0000 
G00 X99.1794 Y13.0354 
G01 Z-0.1000 F600.00 
G01 X99.1794 Y13.9925 
G01 X98.5025 Y14.6694 
G01 X97.5454 Y14.6694 
G01 X96.8685 Y13.9925 
G01 X96.8685 Y13.0354 
G01 X97.5454 Y12.3585 
G01 X98.5025 Y12.3585 
G01 X99.1794 Y13.0354 
G00 Z2.0000 
G00 X94.9284 Y13.0354 
G01 Z-0.1000 F600.00 
G01 X94.9284 Y13.9925 
G01 X94.2515 Y14.6694 
G01 X93.2944 Y14.6694 
G01 X92.6175 Y13.9925 
G01 X92.6175 Y13.0354 
G01 X93.2944 Y12.3585 
G01 X94.2515 Y12.3585 
G01 X94.9284 Y13.0354 
G00 Z2.0000 
G00 X90.6774 Y13.0354 
G01 Z-0.1000 F600.00 
G01 X90.6774 Y13.9925 
G01 X90.0005 Y14.6694 
G01 X89.0434 Y14.6694 
G01 X88.3665 Y13.9925 
G01 X88.3665 Y13.0354 
G01 X89.0434 Y12.3585 
G01 X90.0005 Y12.3585 
G01 X90.6774 Y13.0354 
G00 Z2.0000 
G00 X86.4264 Y13.0354 
G01 Z-0.1000 F600.00 
G01 X86.4264 Y13.9925 
G01 X85.7495 Y14.6694 
G01 X84.7924 Y14.6694 
G01 X84.1155 Y13.9925 
G01 X84.1155 Y13.0354 
G01 X84.7924 Y12.3585 
G01 X85.7495 Y12.3585 
G01 X86.4264 Y13.0354 
G00 Z2.0000 
G00 X82.1754 Y13.0354 
G01 Z-0.1000 F600.00 
G01 X82.1754 Y13.9925 
G01 X81.4985 Y14.6694 
G01 X80.5414 Y14.6694 
G01 X79.8645 Y13.9925 
G01 X79.8645 Y13.0354 
G01 X80.5414 Y12.3585 
G01 X81.4985 Y12.3585 
G01 X82.1754 Y13.0354 
G00 Z2.0000 
G00 X77.9244 Y13.0354 
G01 Z-0.1000 F600.00 
G01 X77.9244 Y13.9925 
G01 X77.2475 Y14.6694 
G01 X76.2904 Y14.6694 
G01 X75.6135 Y13.9925 
G01 X75.6135 Y13.0354 
G01 X76.2904 Y12.3585 
G01 X77.2475 Y12.3585 
G01 X77.9244 Y13.0354 
G00 Z2.0000 
G00 X73.6734 Y13.0354 
G01 Z-0.1000 F600.00 
G01 X73.6734 Y13.9925 
G01 X72.9965 Y14.6694 
G01 X72.0394 Y14.6694 
G01 X71.3625 Y13.9925 
G01 X71.3625 Y13.0354 
G01 X72.0394 Y12.3585 
G01 X72.9965 Y12.3585 
G01 X73.6734 Y13.0354 
G00 Z2.0000 
G00 X69.4224 Y13.0354 
G01 Z-0.1000 F600.00 
G01 X69.4224 Y13.9925 
G01 X68.7455 Y14.6694 
G01 X67.7884 Y14.6694 
G01 X67.1115 Y13.9925 
G01 X67.1115 Y13.0354 
G01 X67.7884 Y12.3585 
G01 X68.7455 Y12.3585 
G01 X69.4224 Y13.0354 
G00 Z2.0000 
G00 X65.1714 Y13.0354 
G01 Z-0.1000 F600.00 
G01 X65.1714 Y13.9925 
G01 X64.4945 Y14.6694 
G01 X63.5374 Y14.6694 
G01 X62.8605 Y13.9925 
G01 X62.8605 Y13.0354 
G01 X63.5374 Y12.3585 
G01 X64.4945 Y12.3585 
G01 X65.1714 Y13.0354 
G00 Z2.0000 
G00 X123.9135 Y12.0353 
G01 Z-0.1000 F600.00 
G01 X123.9135 Y12.2118 
G01 X123.8791 Y12.3847 
G01 X123.8116 Y12.5476 
G01 X123.7137 Y12.6942 
G01 X123.5890 Y12.8189 
G01 X123.4424 Y12.9168 
G01 X123.2795 Y12.9843 
G01 X123.1066 Y13.0187 
G01 X122.9301 Y13.0187 
G01 X122.7572 Y12.9843 
G01 X122.5943 Y12.9168 
G01 X122.4477 Y12.8189 
G01 X122.3230 Y12.6942 
G01 X122.2251 Y12.5476 
G01 X122.1576 Y12.3847 
G01 X122.1232 Y12.2118 
G01 X122.1232 Y12.0353 
G01 X122.1576 Y11.8624 
G01 X122.2251 Y11.6995 
G01 X122.3230 Y11.5529 
G01 X122.4477 Y11.4282 
G01 X122.5943 Y11.3303 
G01 X122.7572 Y11.2628 
G01 X122.9301 Y11.2284 
G01 X123.1066 Y11.2284 
G01 X123.2795 Y11.2628 
G01 X123.4424 Y11.3303 
G01 X123.5890 Y11.4282 
G01 X123.7137 Y11.5529 
G01 X123.8116 Y11.6995 
G01 X123.8791 Y11.8624 
G01 X123.9135 Y12.0353 
G00 Z2.0000 
G00 X126.6821 Y12.0353 
G01 Z-0.1000 F600.00 
G01 X126.6821 Y12.2118 
G01 X126.6477 Y12.3847 
G01 X126.5802 Y12.5476 
G01 X126.4823 Y12.6942 
G01 X126.3576 Y12.8189 
G01 X126.2110 Y12.9168 
G01 X126.0481 Y12.9843 
G01 X125.8752 Y13.0187 
G01 X125.6987 Y13.0187 
G01 X125.5258 Y12.9843 
G01 X125.3629 Y12.9168 
G01 X125.2163 Y12.8189 
G01 X125.0916 Y12.6942 
G01 X124.9937 Y12.5476 
G01 X124.9262 Y12.3847 
G01 X124.8918 Y12.2118 
G01 X124.8918 Y12.0353 
G01 X124.9262 Y11.8624 
G01 X124.9937 Y11.6995 
G01 X125.0916 Y11.5529 
G01 X125.2163 Y11.4282 
G01 X125.3629 Y11.3303 
G01 X125.5258 Y11.2628 
G01 X125.6987 Y11.2284 
G01 X125.8752 Y11.2284 
G01 X126.0481 Y11.2628 
G01 X126.2110 Y11.3303 
G01 X126.3576 Y11.4282 
G01 X126.4823 Y11.5529 
G01 X126.5802 Y11.6995 
G01 X126.6477 Y11.8624 
G01 X126.6821 Y12.0353 
G00 Z2.0000 
G00 X129.4507 Y12.0353 
G01 Z-0.1000 F600.00 
G01 X129.4507 Y12.2118 
G01 X129.4163 Y12.3847 
G01 X129.3488 Y12.5476 
G01 X129.2509 Y12.6942 
G01 X129.1262 Y12.8189 
G01 X128.9796 Y12.9168 
G01 X128.8167 Y12.9843 
G01 X128.6438 Y13.0187 
G01 X128.4673 Y13.0187 
G01 X128.2944 Y12.9843 
G01 X128.1315 Y12.9168 
G01 X127.9849 Y12.8189 
G01 X127.8602 Y12.6942 
G01 X127.7623 Y12.5476 
G01 X127.6948 Y12.3847 
G01 X127.6604 Y12.2118 
G01 X127.6604 Y12.0353 
G01 X127.6948 Y11.8624 
G01 X127.7623 Y11.6995 
G01 X127.8602 Y11.5529 
G01 X127.9849 Y11.4282 
G01 X128.1315 Y11.3303 
G01 X128.2944 Y11.2628 
G01 X128.4673 Y11.2284 
G01 X128.6438 Y11.2284 
G01 X128.8167 Y11.2628 
G01 X128.9796 Y11.3303 
G01 X129.1262 Y11.4282 
G01 X129.2509 Y11.5529 
G01 X129.3488 Y11.6995 
G01 X129.4163 Y11.8624 
G01 X129.4507 Y12.0353 
G00 Z2.0000 
G00 X132.2193 Y12.0353 
G01 Z-0.1000 F600.00 
G01 X132.2193 Y12.2118 
G01 X132.1849 Y12.3847 
G01 X132.1174 Y12.5476 
G01 X132.0195 Y12.6942 
G01 X131.8948 Y12.8189 
G01 X131.7482 Y12.9168 
G01 X131.5853 Y12.9843 
G01 X131.4124 Y13.0187 
G01 X131.2359 Y13.0187 
G01 X131.0630 Y12.9843 
G01 X130.9001 Y12.9168 
G01 X130.7535 Y12.8189 
G01 X130.6288 Y12.6942 
G01 X130.5309 Y12.5476 
G01 X130.4634 Y12.3847 
G01 X130.4290 Y12.2118 
G01 X130.4290 Y12.0353 
G01 X130.4634 Y11.8624 
G01 X130.5309 Y11.6995 
G01 X130.6288 Y11.5529 
G01 X130.7535 Y11.4282 
G01 X130.9001 Y11.3303 
G01 X131.0630 Y11.2628 
G01 X131.2359 Y11.2284 
G01 X131.4124 Y11.2284 
G01 X131.5853 Y11.2628 
G01 X131.7482 Y11.3303 
G01 X131.8948 Y11.4282 
G01 X132.0195 Y11.5529 
G01 X132.1174 Y11.6995 
G01 X132.1849 Y11.8624 
G01 X132.2193 Y12.0353 
G00 Z2.0000 
G00 X134.9879 Y12.0353 
G01 Z-0.1000 F600.00 
G01 X134.9879 Y12.2118 
G01 X134.9535 Y12.3847 
G01 X134.8860 Y12.5476 
G01 X134.7881 Y12.6942 
G01 X134.6634 Y12.8189 
G01 X134.5168 Y12.9168 
G01 X134.3539 Y12.9843 
G01 X134.1810 Y13.0187 
G01 X134.0045 Y13.0187 
G01 X133.8316 Y12.9843 
G01 X133.6687 Y12.9168 
G01 X133.5221 Y12.8189 
G01 X133.3974 Y12.6942 
G01 X133.2995 Y12.5476 
G01 X133.2320 Y12.3847 
G01 X133.1976 Y12.2118 
G01 X133.1976 Y12.0353 
G01 X133.2320 Y11.8624 
G01 X133.2995 Y11.6995 
G01 X133.3974 Y11.5529 
G01 X133.5221 Y11.4282 
G01 X133.6687 Y11.3303 
G01 X133.8316 Y11.2628 
G01 X134.0045 Y11.2284 
G01 X134.1810 Y11.2284 
G01 X134.3539 Y11.2628 
G01 X134.5168 Y11.3303 
G01 X134.6634 Y11.4282 
G01 X134.7881 Y11.5529 
G01 X134.8860 Y11.6995 
G01 X134.9535 Y11.8624 
G01 X134.9879 Y12.0353 
G00 Z2.0000 
G00 X137.7565 Y12.0353 
G01 Z-0.1000 F600.00 
G01 X137.7565 Y12.2118 
G01 X137.7221 Y12.3847 
G01 X137.6546 Y12.5476 
G01 X137.5567 Y12.6942 
G01 X137.4320 Y12.8189 
G01 X137.2854 Y12.9168 
G01 X137.1225 Y12.9843 
G01 X136.9496 Y13.0187 
G01 X136.7731 Y13.0187 
G01 X136.6002 Y12.9843 
G01 X136.4373 Y12.9168 
G01 X136.2907 Y12.8189 
G01 X136.1660 Y12.6942 
G01 X136.0681 Y12.5476 
G01 X136.0006 Y12.3847 
G01 X135.9662 Y12.2118 
G01 X135.9662 Y12.0353 
G01 X136.0006 Y11.8624 
G01 X136.0681 Y11.6995 
G01 X136.1660 Y11.5529 
G01 X136.2907 Y11.4282 
G01 X136.4373 Y11.3303 
G01 X136.6002 Y11.2628 
G01 X136.7731 Y11.2284 
G01 X136.9496 Y11.2284 
G01 X137.1225 Y11.2628 
G01 X137.2854 Y11.3303 
G01 X137.4320 Y11.4282 
G01 X137.5567 Y11.5529 
G01 X137.6546 Y11.6995 
G01 X137.7221 Y11.8624 
G01 X137.7565 Y12.0353 
G00 Z2.0000 
G00 X140.5251 Y12.0353 
G01 Z-0.1000 F600.00 
G01 X140.5251 Y12.2118 
G01 X140.4907 Y12.3847 
G01 X140.4232 Y12.5476 
G01 X140.3253 Y12.6942 
G01 X140.2006 Y12.8189 
G01 X140.0540 Y12.9168 
G01 X139.8911 Y12.9843 
G01 X139.7182 Y13.0187 
G01 X139.5417 Y13.0187 
G01 X139.3688 Y12.9843 
G01 X139.2059 Y12.9168 
G01 X139.0593 Y12.8189 
G01 X138.9346 Y12.6942 
G01 X138.8367 Y12.5476 
G01 X138.7692 Y12.3847 
G01 X138.7348 Y12.2118 
G01 X138.7348 Y12.0353 
G01 X138.7692 Y11.8624 
G01 X138.8367 Y11.6995 
G01 X138.9346 Y11.5529 
G01 X139.0593 Y11.4282 
G01 X139.2059 Y11.3303 
G01 X139.3688 Y11.2628 
G01 X139.5417 Y11.2284 
G01 X139.7182 Y11.2284 
G01 X139.8911 Y11.2628 
G01 X140.0540 Y11.3303 
G01 X140.2006 Y11.4282 
G01 X140.3253 Y11.5529 
G01 X140.4232 Y11.6995 
G01 X140.4907 Y11.8624 
G01 X140.5251 Y12.0353 
G00 Z2.0000 
G00 X143.2937 Y12.0353 
G01 Z-0.1000 F600.00 
G01 X143.2937 Y12.2118 
G01 X143.2593 Y12.3847 
G01 X143.1918 Y12.5476 
G01 X143.0939 Y12.6942 
G01 X142.9692 Y12.8189 
G01 X142.8226 Y12.9168 
G01 X142.6597 Y12.9843 
G01 X142.4868 Y13.0187 
G01 X142.3103 Y13.0187 
G01 X142.1374 Y12.9843 
G01 X141.9745 Y12.9168 
G01 X141.8279 Y12.8189 
G01 X141.7032 Y12.6942 
G01 X141.6053 Y12.5476 
G01 X141.5378 Y12.3847 
G01 X141.5034 Y12.2118 
G01 X141.5034 Y12.0353 
G01 X141.5378 Y11.8624 
G01 X141.6053 Y11.6995 
G01 X141.7032 Y11.5529 
G01 X141.8279 Y11.4282 
G01 X141.9745 Y11.3303 
G01 X142.1374 Y11.2628 
G01 X142.3103 Y11.2284 
G01 X142.4868 Y11.2284 
G01 X142.6597 Y11.2628 
G01 X142.8226 Y11.3303 
G01 X142.9692 Y11.4282 
G01 X143.0939 Y11.5529 
G01 X143.1918 Y11.6995 
G01 X143.2593 Y11.8624 
G01 X143.2937 Y12.0353 
G00 Z2.0000 
G00 X146.0623 Y12.0353 
G01 Z-0.1000 F600.00 
G01 X146.0623 Y12.2118 
G01 X146.0279 Y12.3847 
G01 X145.9604 Y12.5476 
G01 X145.8625 Y12.6942 
G01 X145.7378 Y12.8189 
G01 X145.5912 Y12.9168 
G01 X145.4283 Y12.9843 
G01 X145.2554 Y13.0187 
G01 X145.0789 Y13.0187 
G01 X144.9060 Y12.9843 
G01 X144.7431 Y12.9168 
G01 X144.5965 Y12.8189 
G01 X144.4718 Y12.6942 
G01 X144.3739 Y12.5476 
G01 X144.3064 Y12.3847 
G01 X144.2720 Y12.2118 
G01 X144.2720 Y12.0353 
G01 X144.3064 Y11.8624 
G01 X144.3739 Y11.6995 
G01 X144.4718 Y11.5529 
G01 X144.5965 Y11.4282 
G01 X144.7431 Y11.3303 
G01 X144.9060 Y11.2628 
G01 X145.0789 Y11.2284 
G01 X145.2554 Y11.2284 
G01 X145.4283 Y11.2628 
G01 X145.5912 Y11.3303 
G01 X145.7378 Y11.4282 
G01 X145.8625 Y11.5529 
G01 X145.9604 Y11.6995 
G01 X146.0279 Y11.8624 
G01 X146.0623 Y12.0353 
G00 Z2.0000 
G00 X148.8309 Y12.0353 
G01 Z-0.1000 F600.00 
G01 X148.8309 Y12.2118 
G01 X148.7965 Y12.3847 
G01 X148.7290 Y12.5476 
G01 X148.6311 Y12.6942 
G01 X148.5064 Y12.8189 
G01 X148.3598 Y12.9168 
G01 X148.1969 Y12.9843 
G01 X148.0240 Y13.0187 
G01 X147.8475 Y13.0187 
G01 X147.6746 Y12.9843 
G01 X147.5117 Y12.9168 
G01 X147.3651 Y12.8189 
G01 X147.2404 Y12.6942 
G01 X147.1425 Y12.5476 
G01 X147.0750 Y12.3847 
G01 X147.0406 Y12.2118 
G01 X147.0406 Y12.0353 
G01 X147.0750 Y11.8624 
G01 X147.1425 Y11.6995 
G01 X147.2404 Y11.5529 
G01 X147.3651 Y11.4282 
G01 X147.5117 Y11.3303 
G01 X147.6746 Y11.2628 
G01 X147.8475 Y11.2284 
G01 X148.0240 Y11.2284 
G01 X148.1969 Y11.2628 
G01 X148.3598 Y11.3303 
G01 X148.5064 Y11.4282 
G01 X148.6311 Y11.5529 
G01 X148.7290 Y11.6995 
G01 X148.7965 Y11.8624 
G01 X148.8309 Y12.0353 
G00 Z2.0000 
G00 X151.5995 Y12.0353 
G01 Z-0.1000 F600.00 
G01 X151.5995 Y12.2118 
G01 X151.5651 Y12.3847 
G01 X151.4976 Y12.5476 
G01 X151.3997 Y12.6942 
G01 X151.2750 Y12.8189 
G01 X151.1284 Y12.9168 
G01 X150.9655 Y12.9843 
G01 X150.7926 Y13.0187 
G01 X150.6161 Y13.0187 
G01 X150.4432 Y12.9843 
G01 X150.2803 Y12.9168 
G01 X150.1337 Y12.8189 
G01 X150.0090 Y12.6942 
G01 X149.9111 Y12.5476 
G01 X149.8436 Y12.3847 
G01 X149.8092 Y12.2118 
G01 X149.8092 Y12.0353 
G01 X149.8436 Y11.8624 
G01 X149.9111 Y11.6995 
G01 X150.0090 Y11.5529 
G01 X150.1337 Y11.4282 
G01 X150.2803 Y11.3303 
G01 X150.4432 Y11.2628 
G01 X150.6161 Y11.2284 
G01 X150.7926 Y11.2284 
G01 X150.9655 Y11.2628 
G01 X151.1284 Y11.3303 
G01 X151.2750 Y11.4282 
G01 X151.3997 Y11.5529 
G01 X151.4976 Y11.6995 
G01 X151.5651 Y11.8624 
G01 X151.5995 Y12.0353 
G00 Z2.0000 
G00 X154.3681 Y12.0353 
G01 Z-0.1000 F600.00 
G01 X154.3681 Y12.2118 
G01 X154.3337 Y12.3847 
G01 X154.2662 Y12.5476 
G01 X154.1683 Y12.6942 
G01 X154.0436 Y12.8189 
G01 X153.8970 Y12.9168 
G01 X153.7341 Y12.9843 
G01 X153.5612 Y13.0187 
G01 X153.3847 Y13.0187 
G01 X153.2118 Y12.9843 
G01 X153.0489 Y12.9168 
G01 X152.9023 Y12.8189 
G01 X152.7776 Y12.6942 
G01 X152.6797 Y12.5476 
G01 X152.6122 Y12.3847 
G01 X152.5778 Y12.2118 
G01 X152.5778 Y12.0353 
G01 X152.6122 Y11.8624 
G01 X152.6797 Y11.6995 
G01 X152.7776 Y11.5529 
G01 X152.9023 Y11.4282 
G01 X153.0489 Y11.3303 
G01 X153.2118 Y11.2628 
G01 X153.3847 Y11.2284 
G01 X153.5612 Y11.2284 
G01 X153.7341 Y11.2628 
G01 X153.8970 Y11.3303 
G01 X154.0436 Y11.4282 
G01 X154.1683 Y11.5529 
G01 X154.2662 Y11.6995 
G01 X154.3337 Y11.8624 
G01 X154.3681 Y12.0353 
G00 Z2.0000 
G00 X157.1367 Y12.0353 
G01 Z-0.1000 F600.00 
G01 X157.1367 Y12.2118 
G01 X157.1023 Y12.3847 
G01 X157.0348 Y12.5476 
G01 X156.9369 Y12.6942 
G01 X156.8122 Y12.8189 
G01 X156.6656 Y12.9168 
G01 X156.5027 Y12.9843 
G01 X156.3298 Y13.0187 
G01 X156.1533 Y13.0187 
G01 X155.9804 Y12.9843 
G01 X155.8175 Y12.9168 
G01 X155.6709 Y12.8189 
G01 X155.5462 Y12.6942 
G01 X155.4483 Y12.5476 
G01 X155.3808 Y12.3847 
G01 X155.3464 Y12.2118 
G01 X155.3464 Y12.0353 
G01 X155.3808 Y11.8624 
G01 X155.4483 Y11.6995 
G01 X155.5462 Y11.5529 
G01 X155.6709 Y11.4282 
G01 X155.8175 Y11.3303 
G01 X155.9804 Y11.2628 
G01 X156.1533 Y11.2284 
G01 X156.3298 Y11.2284 
G01 X156.5027 Y11.2628 
G01 X156.6656 Y11.3303 
G01 X156.8122 Y11.4282 
G01 X156.9369 Y11.5529 
G01 X157.0348 Y11.6995 
G01 X157.1023 Y11.8624 
G01 X157.1367 Y12.0353 
G00 Z2.0000 
G00 X125.2978 Y14.8801 
G01 Z-0.1000 F600.00 
G01 X125.2978 Y15.0566 
G01 X125.2634 Y15.2295 
G01 X125.1959 Y15.3924 
G01 X125.0980 Y15.5390 
G01 X124.9733 Y15.6637 
G01 X124.8267 Y15.7616 
G01 X124.6638 Y15.8291 
G01 X124.4909 Y15.8635 
G01 X124.3144 Y15.8635 
G01 X124.1415 Y15.8291 
G01 X123.9786 Y15.7616 
G01 X123.8320 Y15.6637 
G01 X123.7073 Y15.5390 
G01 X123.6094 Y15.3924 
G01 X123.5419 Y15.2295 
G01 X123.5075 Y15.0566 
G01 X123.5075 Y14.8801 
G01 X123.5419 Y14.7072 
G01 X123.6094 Y14.5443 
G01 X123.7073 Y14.3977 
G01 X123.8320 Y14.2730 
G01 X123.9786 Y14.1751 
G01 X124.1415 Y14.1076 
G01 X124.3144 Y14.0732 
G01 X124.4909 Y14.0732 
G01 X124.6638 Y14.1076 
G01 X124.8267 Y14.1751 
G01 X124.9733 Y14.2730 
G01 X125.0980 Y14.3977 
G01 X125.1959 Y14.5443 
G01 X125.2634 Y14.7072 
G01 X125.2978 Y14.8801 
G00 Z2.0000 
G00 X128.0664 Y14.8801 
G01 Z-0.1000 F600.00 
G01 X128.0664 Y15.0566 
G01 X128.0320 Y15.2295 
G01 X127.9645 Y15.3924 
G01 X127.8666 Y15.5390 
G01 X127.7419 Y15.6637 
G01 X127.5953 Y15.7616 
G01 X127.4324 Y15.8291 
G01 X127.2595 Y15.8635 
G01 X127.0830 Y15.8635 
G01 X126.9101 Y15.8291 
G01 X126.7472 Y15.7616 
G01 X126.6006 Y15.6637 
G01 X126.4759 Y15.5390 
G01 X126.3780 Y15.3924 
G01 X126.3105 Y15.2295 
G01 X126.2761 Y15.0566 
G01 X126.2761 Y14.8801 
G01 X126.3105 Y14.7072 
G01 X126.3780 Y14.5443 
G01 X126.4759 Y14.3977 
G01 X126.6006 Y14.2730 
G01 X126.7472 Y14.1751 
G01 X126.9101 Y14.1076 
G01 X127.0830 Y14.0732 
G01 X127.2595 Y14.0732 
G01 X127.4324 Y14.1076 
G01 X127.5953 Y14.1751 
G01 X127.7419 Y14.2730 
G01 X127.8666 Y14.3977 
G01 X127.9645 Y14.5443 
G01 X128.0320 Y14.7072 
G01 X128.0664 Y14.8801 
G00 Z2.0000 
G00 X130.8350 Y14.8801 
G01 Z-0.1000 F600.00 
G01 X130.8350 Y15.0566 
G01 X130.8006 Y15.2295 
G01 X130.7331 Y15.3924 
G01 X130.6352 Y15.5390 
G01 X130.5105 Y15.6637 
G01 X130.3639 Y15.7616 
G01 X130.2010 Y15.8291 
G01 X130.0281 Y15.8635 
G01 X129.8516 Y15.8635 
G01 X129.6787 Y15.8291 
G01 X129.5158 Y15.7616 
G01 X129.3692 Y15.6637 
G01 X129.2445 Y15.5390 
G01 X129.1466 Y15.3924 
G01 X129.0791 Y15.2295 
G01 X129.0447 Y15.0566 
G01 X129.0447 Y14.8801 
G01 X129.0791 Y14.7072 
G01 X129.1466 Y14.5443 
G01 X129.2445 Y14.3977 
G01 X129.3692 Y14.2730 
G01 X129.5158 Y14.1751 
G01 X129.6787 Y14.1076 
G01 X129.8516 Y14.0732 
G01 X130.0281 Y14.0732 
G01 X130.2010 Y14.1076 
G01 X130.3639 Y14.1751 
G01 X130.5105 Y14.2730 
G01 X130.6352 Y14.3977 
G01 X130.7331 Y14.5443 
G01 X130.8006 Y14.7072 
G01 X130.8350 Y14.8801 
G00 Z2.0000 
G00 X133.6036 Y14.8801 
G01 Z-0.1000 F600.00 
G01 X133.6036 Y15.0566 
G01 X133.5692 Y15.2295 
G01 X133.5017 Y15.3924 
G01 X133.4038 Y15.5390 
G01 X133.2791 Y15.6637 
G01 X133.1325 Y15.7616 
G01 X132.9696 Y15.8291 
G01 X132.7967 Y15.8635 
G01 X132.6202 Y15.8635 
G01 X132.4473 Y15.8291 
G01 X132.2844 Y15.7616 
G01 X132.1378 Y15.6637 
G01 X132.0131 Y15.5390 
G01 X131.9152 Y15.3924 
G01 X131.8477 Y15.2295 
G01 X131.8133 Y15.0566 
G01 X131.8133 Y14.8801 
G01 X131.8477 Y14.7072 
G01 X131.9152 Y14.5443 
G01 X132.0131 Y14.3977 
G01 X132.1378 Y14.2730 
G01 X132.2844 Y14.1751 
G01 X132.4473 Y14.1076 
G01 X132.6202 Y14.0732 
G01 X132.7967 Y14.0732 
G01 X132.9696 Y14.1076 
G01 X133.1325 Y14.1751 
G01 X133.2791 Y14.2730 
G01 X133.4038 Y14.3977 
G01 X133.5017 Y14.5443 
G01 X133.5692 Y14.7072 
G01 X133.6036 Y14.8801 
G00 Z2.0000 
G00 X136.3722 Y14.8801 
G01 Z-0.1000 F600.00 
G01 X136.3722 Y15.0566 
G01 X136.3378 Y15.2295 
G01 X136.2703 Y15.3924 
G01 X136.1724 Y15.5390 
G01 X136.0477 Y15.6637 
G01 X135.9011 Y15.7616 
G01 X135.7382 Y15.8291 
G01 X135.5653 Y15.8635 
G01 X135.3888 Y15.8635 
G01 X135.2159 Y15.8291 
G01 X135.0530 Y15.7616 
G01 X134.9064 Y15.6637 
G01 X134.7817 Y15.5390 
G01 X134.6838 Y15.3924 
G01 X134.6163 Y15.2295 
G01 X134.5819 Y15.0566 
G01 X134.5819 Y14.8801 
G01 X134.6163 Y14.7072 
G01 X134.6838 Y14.5443 
G01 X134.7817 Y14.3977 
G01 X134.9064 Y14.2730 
G01 X135.0530 Y14.1751 
G01 X135.2159 Y14.1076 
G01 X135.3888 Y14.0732 
G01 X135.5653 Y14.0732 
G01 X135.7382 Y14.1076 
G01 X135.9011 Y14.1751 
G01 X136.0477 Y14.2730 
G01 X136.1724 Y14.3977 
G01 X136.2703 Y14.5443 
G01 X136.3378 Y14.7072 
G01 X136.3722 Y14.8801 
G00 Z2.0000 
G00 X139.1408 Y14.8801 
G01 Z-0.1000 F600.00 
G01 X139.1408 Y15.0566 
G01 X139.1064 Y15.2295 
G01 X139.0389 Y15.3924 
G01 X138.9410 Y15.5390 
G01 X138.8163 Y15.6637 
G01 X138.6697 Y15.7616 
G01 X138.5068 Y15.8291 
G01 X138.3339 Y15.8635 
G01 X138.1574 Y15.8635 
G01 X137.9845 Y15.8291 
G01 X137.8216 Y15.7616 
G01 X137.6750 Y15.6637 
G01 X137.5503 Y15.5390 
G01 X137.4524 Y15.3924 
G01 X137.3849 Y15.2295 
G01 X137.3505 Y15.0566 
G01 X137.3505 Y14.8801 
G01 X137.3849 Y14.7072 
G01 X137.4524 Y14.5443 
G01 X137.5503 Y14.3977 
G01 X137.6750 Y14.2730 
G01 X137.8216 Y14.1751 
G01 X137.9845 Y14.1076 
G01 X138.1574 Y14.0732 
G01 X138.3339 Y14.0732 
G01 X138.5068 Y14.1076 
G01 X138.6697 Y14.1751 
G01 X138.8163 Y14.2730 
G01 X138.9410 Y14.3977 
G01 X139.0389 Y14.5443 
G01 X139.1064 Y14.7072 
G01 X139.1408 Y14.8801 
G00 Z2.0000 
G00 X141.9094 Y14.8801 
G01 Z-0.1000 F600.00 
G01 X141.9094 Y15.0566 
G01 X141.8750 Y15.2295 
G01 X141.8075 Y15.3924 
G01 X141.7096 Y15.5390 
G01 X141.5849 Y15.6637 
G01 X141.4383 Y15.7616 
G01 X141.2754 Y15.8291 
G01 X141.1025 Y15.8635 
G01 X140.9260 Y15.8635 
G01 X140.7531 Y15.8291 
G01 X140.5902 Y15.7616 
G01 X140.4436 Y15.6637 
G01 X140.3189 Y15.5390 
G01 X140.2210 Y15.3924 
G01 X140.1535 Y15.2295 
G01 X140.1191 Y15.0566 
G01 X140.1191 Y14.8801 
G01 X140.1535 Y14.7072 
G01 X140.2210 Y14.5443 
G01 X140.3189 Y14.3977 
G01 X140.4436 Y14.2730 
G01 X140.5902 Y14.1751 
G01 X140.7531 Y14.1076 
G01 X140.9260 Y14.0732 
G01 X141.1025 Y14.0732 
G01 X141.2754 Y14.1076 
G01 X141.4383 Y14.1751 
G01 X141.5849 Y14.2730 
G01 X141.7096 Y14.3977 
G01 X141.8075 Y14.5443 
G01 X141.8750 Y14.7072 
G01 X141.9094 Y14.8801 
G00 Z2.0000 
G00 X144.6780 Y14.8801 
G01 Z-0.1000 F600.00 
G01 X144.6780 Y15.0566 
G01 X144.6436 Y15.2295 
G01 X144.5761 Y15.3924 
G01 X144.4782 Y15.5390 
G01 X144.3535 Y15.6637 
G01 X144.2069 Y15.7616 
G01 X144.0440 Y15.8291 
G01 X143.8711 Y15.8635 
G01 X143.6946 Y15.8635 
G01 X143.5217 Y15.8291 
G01 X143.3588 Y15.7616 
G01 X143.2122 Y15.6637 
G01 X143.0875 Y15.5390 
G01 X142.9896 Y15.3924 
G01 X142.9221 Y15.2295 
G01 X142.8877 Y15.0566 
G01 X142.8877 Y14.8801 
G01 X142.9221 Y14.7072 
G01 X142.9896 Y14.5443 
G01 X143.0875 Y14.3977 
G01 X143.2122 Y14.2730 
G01 X143.3588 Y14.1751 
G01 X143.5217 Y14.1076 
G01 X143.6946 Y14.0732 
G01 X143.8711 Y14.0732 
G01 X144.0440 Y14.1076 
G01 X144.2069 Y14.1751 
G01 X144.3535 Y14.2730 
G01 X144.4782 Y14.3977 
G01 X144.5761 Y14.5443 
G01 X144.6436 Y14.7072 
G01 X144.6780 Y14.8801 
G00 Z2.0000 
G00 X147.4466 Y14.8801 
G01 Z-0.1000 F600.00 
G01 X147.4466 Y15.0566 
G01 X147.4122 Y15.2295 
G01 X147.3447 Y15.3924 
G01 X147.2468 Y15.5390 
G01 X147.1221 Y15.6637 
G01 X146.9755 Y15.7616 
G01 X146.8126 Y15.8291 
G01 X146.6397 Y15.8635 
G01 X146.4632 Y15.8635 
G01 X146.2903 Y15.8291 
G01 X146.1274 Y15.7616 
G01 X145.9808 Y15.6637 
G01 X145.8561 Y15.5390 
G01 X145.7582 Y15.3924 
G01 X145.6907 Y15.2295 
G01 X145.6563 Y15.0566 
G01 X145.6563 Y14.8801 
G01 X145.6907 Y14.7072 
G01 X145.7582 Y14.5443 
G01 X145.8561 Y14.3977 
G01 X145.9808 Y14.2730 
G01 X146.1274 Y14.1751 
G01 X146.2903 Y14.1076 
G01 X146.4632 Y14.0732 
G01 X146.6397 Y14.0732 
G01 X146.8126 Y14.1076 
G01 X146.9755 Y14.1751 
G01 X147.1221 Y14.2730 
G01 X147.2468 Y14.3977 
G01 X147.3447 Y14.5443 
G01 X147.4122 Y14.7072 
G01 X147.4466 Y14.8801 
G00 Z2.0000 
G00 X150.2152 Y14.8801 
G01 Z-0.1000 F600.00 
G01 X150.2152 Y15.0566 
G01 X150.1808 Y15.2295 
G01 X150.1133 Y15.3924 
G01 X150.0154 Y15.5390 
G01 X149.8907 Y15.6637 
G01 X149.7441 Y15.7616 
G01 X149.5812 Y15.8291 
G01 X149.4083 Y15.8635 
G01 X149.2318 Y15.8635 
G01 X149.0589 Y15.8291 
G01 X148.8960 Y15.7616 
G01 X148.7494 Y15.6637 
G01 X148.6247 Y15.5390 
G01 X148.5268 Y15.3924 
G01 X148.4593 Y15.2295 
G01 X148.4249 Y15.0566 
G01 X148.4249 Y14.8801 
G01 X148.4593 Y14.7072 
G01 X148.5268 Y14.5443 
G01 X148.6247 Y14.3977 
G01 X148.7494 Y14.2730 
G01 X148.8960 Y14.1751 
G01 X149.0589 Y14.1076 
G01 X149.2318 Y14.0732 
G01 X149.4083 Y14.0732 
G01 X149.5812 Y14.1076 
G01 X149.7441 Y14.1751 
G01 X149.8907 Y14.2730 
G01 X150.0154 Y14.3977 
G01 X150.1133 Y14.5443 
G01 X150.1808 Y14.7072 
G01 X150.2152 Y14.8801 
G00 Z2.0000 
G00 X152.9838 Y14.8801 
G01 Z-0.1000 F600.00 
G01 X152.9838 Y15.0566 
G01 X152.9494 Y15.2295 
G01 X152.8819 Y15.3924 
G01 X152.7840 Y15.5390 
G01 X152.6593 Y15.6637 
G01 X152.5127 Y15.7616 
G01 X152.3498 Y15.8291 
G01 X152.1769 Y15.8635 
G01 X152.0004 Y15.8635 
G01 X151.8275 Y15.8291 
G01 X151.6646 Y15.7616 
G01 X151.5180 Y15.6637 
G01 X151.3933 Y15.5390 
G01 X151.2954 Y15.3924 
G01 X151.2279 Y15.2295 
G01 X151.1935 Y15.0566 
G01 X151.1935 Y14.8801 
G01 X151.2279 Y14.7072 
G01 X151.2954 Y14.5443 
G01 X151.3933 Y14.3977 
G01 X151.5180 Y14.2730 
G01 X151.6646 Y14.1751 
G01 X151.8275 Y14.1076 
G01 X152.0004 Y14.0732 
G01 X152.1769 Y14.0732 
G01 X152.3498 Y14.1076 
G01 X152.5127 Y14.1751 
G01 X152.6593 Y14.2730 
G01 X152.7840 Y14.3977 
G01 X152.8819 Y14.5443 
G01 X152.9494 Y14.7072 
G01 X152.9838 Y14.8801 
G00 Z2.0000 
G00 X155.7524 Y14.8801 
G01 Z-0.1000 F600.00 
G01 X155.7524 Y15.0566 
G01 X155.7180 Y15.2295 
G01 X155.6505 Y15.3924 
G01 X155.5526 Y15.5390 
G01 X155.4279 Y15.6637 
G01 X155.2813 Y15.7616 
G01 X155.1184 Y15.8291 
G01 X154.9455 Y15.8635 
G01 X154.7690 Y15.8635 
G01 X154.5961 Y15.8291 
G01 X154.4332 Y15.7616 
G01 X154.2866 Y15.6637 
G01 X154.1619 Y15.5390 
G01 X154.0640 Y15.3924 
G01 X153.9965 Y15.2295 
G01 X153.9621 Y15.0566 
G01 X153.9621 Y14.8801 
G01 X153.9965 Y14.7072 
G01 X154.0640 Y14.5443 
G01 X154.1619 Y14.3977 
G01 X154.2866 Y14.2730 
G01 X154.4332 Y14.1751 
G01 X154.5961 Y14.1076 
G01 X154.7690 Y14.0732 
G01 X154.9455 Y14.0732 
G01 X155.1184 Y14.1076 
G01 X155.2813 Y14.1751 
G01 X155.4279 Y14.2730 
G01 X155.5526 Y14.3977 
G01 X155.6505 Y14.5443 
G01 X155.7180 Y14.7072 
G01 X155.7524 Y14.8801 
G00 Z2.0000 
G00 X60.9204 Y13.0354 
G01 Z-0.1000 F600.00 
G01 X60.9204 Y13.9925 
G01 X60.2435 Y14.6694 
G01 X59.2864 Y14.6694 
G01 X58.6095 Y13.9925 
G01 X58.6095 Y13.0354 
G01 X59.2864 Y12.3585 
G01 X60.2435 Y12.3585 
G01 X60.9204 Y13.0354 
G00 Z2.0000 
G00 X56.6694 Y13.0354 
G01 Z-0.1000 F600.00 
G01 X56.6694 Y13.9925 
G01 X55.9925 Y14.6694 
G01 X55.0354 Y14.6694 
G01 X54.3585 Y13.9925 
G01 X54.3585 Y13.0354 
G01 X55.0354 Y12.3585 
G01 X55.9925 Y12.3585 
G01 X56.6694 Y13.0354 
G00 Z2.0000 
G00 X52.4184 Y13.0354 
G01 Z-0.1000 F600.00 
G01 X52.4184 Y13.9925 
G01 X51.7415 Y14.6694 
G01 X50.7844 Y14.6694 
G01 X50.1075 Y13.9925 
G01 X50.1075 Y13.0354 
G01 X50.7844 Y12.3585 
G01 X51.7415 Y12.3585 
G01 X52.4184 Y13.0354 
G00 Z2.0000 
G00 X48.1674 Y13.0354 
G01 Z-0.1000 F600.00 
G01 X48.1674 Y13.9925 
G01 X47.4905 Y14.6694 
G01 X46.5334 Y14.6694 
G01 X45.8565 Y13.9925 
G01 X45.8565 Y13.0354 
G01 X46.5334 Y12.3585 
G01 X47.4905 Y12.3585 
G01 X48.1674 Y13.0354 
G00 Z2.0000 
G00 X43.9164 Y13.0354 
G01 Z-0.1000 F600.00 
G01 X43.9164 Y13.9925 
G01 X43.2395 Y14.6694 
G01 X42.2824 Y14.6694 
G01 X41.6055 Y13.9925 
G01 X41.6055 Y13.0354 
G01 X42.2824 Y12.3585 
G01 X43.2395 Y12.3585 
G01 X43.9164 Y13.0354 
G00 Z2.0000 
G00 X39.6654 Y13.0354 
G01 Z-0.1000 F600.00 
G01 X39.6654 Y13.9925 
G01 X38.9885 Y14.6694 
G01 X38.0314 Y14.6694 
G01 X37.3545 Y13.9925 
G01 X37.3545 Y13.0354 
G01 X38.0314 Y12.3585 
G01 X38.9885 Y12.3585 
G01 X39.6654 Y13.0354 
G00 Z2.0000 
G00 X35.4144 Y13.0354 
G01 Z-0.1000 F600.00 
G01 X35.4144 Y13.9925 
G01 X34.7375 Y14.6694 
G01 X33.7804 Y14.6694 
G01 X33.1035 Y13.9925 
G01 X33.1035 Y13.0354 
G01 X33.7804 Y12.3585 
G01 X34.7375 Y12.3585 
G01 X35.4144 Y13.0354 
G00 Z2.0000 
G00 X31.1634 Y13.0354 
G01 Z-0.1000 F600.00 
G01 X31.1634 Y13.9925 
G01 X30.4865 Y14.6694 
G01 X29.5294 Y14.6694 
G01 X28.8525 Y13.9925 
G01 X28.8525 Y13.0354 
G01 X29.5294 Y12.3585 
G01 X30.4865 Y12.3585 
G01 X31.1634 Y13.0354 
G00 Z2.0000 
G00 X26.9124 Y13.0354 
G01 Z-0.1000 F600.00 
G01 X26.9124 Y13.9925 
G01 X26.2355 Y14.6694 
G01 X25.2784 Y14.6694 
G01 X24.6015 Y13.9925 
G01 X24.6015 Y13.0354 
G01 X25.2784 Y12.3585 
G01 X26.2355 Y12.3585 
G01 X26.9124 Y13.0354 
G00 Z2.0000 
G00 X22.6614 Y13.0354 
G01 Z-0.1000 F600.00 
G01 X22.6614 Y13.9925 
G01 X21.9845 Y14.6694 
G01 X21.0274 Y14.6694 
G01 X20.3505 Y13.9925 
G01 X20.3505 Y13.0354 
G01 X21.0274 Y12.3585 
G01 X21.9845 Y12.3585 
G01 X22.6614 Y13.0354 
G00 Z2.0000 
G00 X18.4104 Y13.0354 
G01 Z-0.1000 F600.00 
G01 X18.4104 Y13.9925 
G01 X17.7335 Y14.6694 
G01 X16.7764 Y14.6694 
G01 X16.0995 Y13.9925 
G01 X16.0995 Y13.0354 
G01 X16.7764 Y12.3585 
G01 X17.7335 Y12.3585 
G01 X18.4104 Y13.0354 
G00 Z2.0000 
G00 X14.1594 Y13.0354 
G01 Z-0.1000 F600.00 
G01 X14.1594 Y13.9925 
G01 X13.4825 Y14.6694 
G01 X12.5254 Y14.6694 
G01 X11.8485 Y13.9925 
G01 X11.8485 Y13.0354 
G01 X12.5254 Y12.3585 
G01 X13.4825 Y12.3585 
G01 X14.1594 Y13.0354 
G00 Z2.0000 
G00 X9.9084 Y13.0354 
G01 Z-0.1000 F600.00 
G01 X9.9084 Y13.9925 
G01 X9.2315 Y14.6694 
G01 X8.2744 Y14.6694 
G01 X7.5975 Y13.9925 
G01 X7.5975 Y13.0354 
G01 X8.2744 Y12.3585 
G01 X9.2315 Y12.3585 
G01 X9.9084 Y13.0354 
(File Footer)
G00 Z2.0000 
G00 Z10.0000 
M05
M02
