( This gcode generated by /home/mattvenn/.eagle/ulp/pcb-gcode.ulp )
( Copyright 2005 by John Johnson. See readme.txt for licensing terms. )

( This file generated from the board /home/mattvenn/eagle-circuit-designs/cvm/hymera.brd )
( This file generated 03/02/2012 13:22 )

( T01 1.092200 )
( T02 1.320800 )
( T03 3.048000 )
( T04 3.200000 )
G21

G90
M05
G00 X0.0000 Y0.0000 Z30.0000 
M06 T01  ; 1.0922 
G00 Z2.0000 
M03
G04 P3.000000
G82 X22.1584 Y12.4764 Z-2.0000 F127.00 R2.0000 P0.100000
G82 X23.5427 Y9.6316 
G82 X24.9270 Y12.4764 
G82 X26.3113 Y9.6316 
G82 X27.6956 Y12.4764 
G82 X29.0799 Y9.6316 
G82 X30.4642 Y12.4764 
G82 X31.8485 Y9.6316 
G82 X33.2328 Y12.4764 
G82 X34.6171 Y9.6316 
G82 X36.0014 Y12.4764 
G82 X37.3857 Y9.6316 
G82 X38.7700 Y12.4764 
G82 X40.1543 Y9.6316 
G82 X41.5386 Y12.4764 
G82 X42.9229 Y9.6316 
G82 X44.3072 Y12.4764 
G82 X45.6915 Y9.6316 
G82 X47.0758 Y12.4764 
G82 X48.4601 Y9.6316 
G82 X49.8444 Y12.4764 
G82 X51.2287 Y9.6316 
G82 X52.6130 Y12.4764 
G82 X53.9973 Y9.6316 
G82 X55.3816 Y12.4764 
M05
G00 X0.0000 Y0.0000 Z30.0000 
M06 T02  ; 1.3208 
G00 Z2.0000 
M03
G04 P3.000000
G82 X4.9020 Y28.3040 Z-2.0000 F127.00 R2.0000 P0.100000
G82 X9.1530 Y28.3040 
G82 X102.6750 Y28.3040 
G82 X106.9260 Y28.3040 
G82 X13.4040 Y28.3040 
G82 X17.6550 Y28.3040 
G82 X21.9060 Y28.3040 
G82 X26.1570 Y28.3040 
G82 X30.4080 Y28.3040 
G82 X34.6590 Y28.3040 
G82 X38.9100 Y28.3040 
G82 X43.1610 Y28.3040 
G82 X47.4120 Y28.3040 
G82 X51.6630 Y28.3040 
G82 X55.9140 Y28.3040 
G82 X60.1650 Y28.3040 
G82 X64.4160 Y28.3040 
G82 X68.6670 Y28.3040 
G82 X72.9180 Y28.3040 
G82 X77.1690 Y28.3040 
G82 X81.4200 Y28.3040 
G82 X85.6710 Y28.3040 
G82 X89.9220 Y28.3040 
G82 X94.1730 Y28.3040 
G82 X98.4240 Y28.3040 
M05
G00 X0.0000 Y0.0000 Z30.0000 
M06 T03  ; 3.0480 
G00 Z2.0000 
M03
G04 P3.000000
G82 X15.2496 Y11.0540 Z-2.0000 F127.00 R2.0000 P0.100000
G82 X62.2904 Y11.0540 
M05
G00 X0.0000 Y0.0000 Z30.0000 
M06 T04  ; 3.2000 
G00 Z2.0000 
M03
G04 P3.000000
G82 X7.4000 Y11.0000 Z-2.0000 F127.00 R2.0000 P0.100000
G82 X59.4000 Y20.0000 
G82 X92.9000 Y10.5000 
(File Footer)
T01 
G00 Z10.0000 
M05
M02
