( This gcode generated by /home/mattvenn/.eagle/ulp/pcb-gcode.ulp )
( Copyright 2005 by John Johnson. See readme.txt for licensing terms. )

( This file generated from the board /home/mattvenn/eagle-circuit-designs/cvm/hymera2.brd )
( This file generated 07/02/2012 14:18 )

G21

G90
G00 Z10.0000 
G00 X0 Y0
M03
G04 P3.000000
G00 Z2.0000 
G00 X-7.6425 Y27.3785 
G01 Z-0.2000 F600.00 
G01 X-7.6162 Y27.5443 
G01 X-7.5644 Y27.7040 
G01 X-7.4882 Y27.8536 
G01 X-7.3895 Y27.9894 
G01 X-7.2708 Y28.1081 
G01 X-7.1350 Y28.2068 
G01 X-6.9854 Y28.2830 
G01 X-6.8257 Y28.3348 
G01 X-6.6599 Y28.3611 
G01 X-6.4920 Y28.3611 
G01 X-6.3262 Y28.3348 
G01 X-6.1665 Y28.2830 
G01 X-6.0169 Y28.2068 
G01 X-5.8811 Y28.1081 
G01 X-5.7624 Y27.9894 
G01 X-5.6637 Y27.8536 
G01 X-5.5875 Y27.7040 
G01 X-5.5357 Y27.5443 
G01 X-5.5094 Y27.3785 
G01 X-5.5094 Y25.2294 
G01 X-5.5357 Y25.0636 
G01 X-5.5875 Y24.9039 
G01 X-5.6637 Y24.7543 
G01 X-5.7624 Y24.6185 
G01 X-5.8811 Y24.4998 
G01 X-6.0169 Y24.4011 
G01 X-6.1665 Y24.3249 
G01 X-6.3262 Y24.2731 
G01 X-6.4920 Y24.2468 
G01 X-6.6599 Y24.2468 
G01 X-6.8257 Y24.2731 
G01 X-6.9854 Y24.3249 
G01 X-7.1350 Y24.4011 
G01 X-7.2708 Y24.4998 
G01 X-7.3895 Y24.6185 
G01 X-7.4882 Y24.7543 
G01 X-7.5376 Y24.8514 
G01 X-24.5498 Y7.8391 
G01 X-24.6241 Y7.7962 
G01 X-24.7070 Y7.7740 
G01 X-24.7929 Y7.7740 
G01 X-32.5650 Y7.7740 
G01 X-33.2857 Y7.0533 
G01 X-33.2191 Y6.8927 
G01 X-33.1847 Y6.7198 
G01 X-33.1847 Y6.5433 
G01 X-33.2191 Y6.3704 
G01 X-33.2866 Y6.2075 
G01 X-33.3845 Y6.0609 
G01 X-33.5092 Y5.9362 
G01 X-33.6558 Y5.8383 
G01 X-33.8187 Y5.7708 
G01 X-33.9916 Y5.7364 
G01 X-34.1681 Y5.7364 
G01 X-34.3410 Y5.7708 
G01 X-34.5039 Y5.8383 
G01 X-34.6505 Y5.9362 
G01 X-34.7752 Y6.0609 
G01 X-34.8731 Y6.2075 
G01 X-34.9406 Y6.3704 
G01 X-34.9750 Y6.5433 
G01 X-34.9750 Y6.7198 
G01 X-34.9406 Y6.8927 
G01 X-34.8731 Y7.0556 
G01 X-34.7752 Y7.2022 
G01 X-34.6505 Y7.3269 
G01 X-34.5039 Y7.4248 
G01 X-34.3410 Y7.4923 
G01 X-34.1681 Y7.5267 
G01 X-33.9916 Y7.5267 
G01 X-33.8187 Y7.4923 
G01 X-33.7832 Y7.4776 
G01 X-32.9608 Y8.3000 
G01 X-32.9608 Y8.3001 
G01 X-32.9001 Y8.3608 
G01 X-32.8258 Y8.4037 
G01 X-32.7429 Y8.4259 
G01 X-24.8850 Y8.4259 
G01 X-7.6425 Y25.6683 
G01 X-7.6425 Y27.3785 
G00 Z2.0000 
G00 X-11.8935 Y25.2294 
G01 Z-0.2000 F600.00 
G01 X-11.8935 Y27.3785 
G01 X-11.8672 Y27.5443 
G01 X-11.8154 Y27.7040 
G01 X-11.7392 Y27.8536 
G01 X-11.6405 Y27.9894 
G01 X-11.5218 Y28.1081 
G01 X-11.3860 Y28.2068 
G01 X-11.2364 Y28.2830 
G01 X-11.0767 Y28.3348 
G01 X-10.9109 Y28.3611 
G01 X-10.7430 Y28.3611 
G01 X-10.5772 Y28.3348 
G01 X-10.4175 Y28.2830 
G01 X-10.2679 Y28.2068 
G01 X-10.1321 Y28.1081 
G01 X-10.0134 Y27.9894 
G01 X-9.9147 Y27.8536 
G01 X-9.8385 Y27.7040 
G01 X-9.7867 Y27.5443 
G01 X-9.7604 Y27.3785 
G01 X-9.7604 Y25.2294 
G01 X-9.7867 Y25.0636 
G01 X-9.8385 Y24.9039 
G01 X-9.9147 Y24.7543 
G01 X-10.0134 Y24.6185 
G01 X-10.1321 Y24.4998 
G01 X-10.2679 Y24.4011 
G01 X-10.4175 Y24.3249 
G01 X-10.5772 Y24.2731 
G01 X-10.7430 Y24.2468 
G01 X-10.9109 Y24.2468 
G01 X-11.0767 Y24.2731 
G01 X-11.2364 Y24.3249 
G01 X-11.3860 Y24.4011 
G01 X-11.5218 Y24.4998 
G01 X-11.6405 Y24.6185 
G01 X-11.7392 Y24.7543 
G01 X-11.8154 Y24.9039 
G01 X-11.8672 Y25.0636 
G01 X-11.8935 Y25.2294 
G00 Z2.0000 
G00 X-16.1445 Y25.2294 
G01 Z-0.2000 F600.00 
G01 X-16.1445 Y27.3785 
G01 X-16.1182 Y27.5443 
G01 X-16.0664 Y27.7040 
G01 X-15.9902 Y27.8536 
G01 X-15.8915 Y27.9894 
G01 X-15.7728 Y28.1081 
G01 X-15.6370 Y28.2068 
G01 X-15.4874 Y28.2830 
G01 X-15.3277 Y28.3348 
G01 X-15.1619 Y28.3611 
G01 X-14.9940 Y28.3611 
G01 X-14.8282 Y28.3348 
G01 X-14.6685 Y28.2830 
G01 X-14.5189 Y28.2068 
G01 X-14.3831 Y28.1081 
G01 X-14.2644 Y27.9894 
G01 X-14.1657 Y27.8536 
G01 X-14.0895 Y27.7040 
G01 X-14.0377 Y27.5443 
G01 X-14.0114 Y27.3785 
G01 X-14.0114 Y25.2294 
G01 X-14.0377 Y25.0636 
G01 X-14.0895 Y24.9039 
G01 X-14.1657 Y24.7543 
G01 X-14.2644 Y24.6185 
G01 X-14.3831 Y24.4998 
G01 X-14.5189 Y24.4011 
G01 X-14.6685 Y24.3249 
G01 X-14.8282 Y24.2731 
G01 X-14.9940 Y24.2468 
G01 X-15.1619 Y24.2468 
G01 X-15.3277 Y24.2731 
G01 X-15.4874 Y24.3249 
G01 X-15.6370 Y24.4011 
G01 X-15.7728 Y24.4998 
G01 X-15.8915 Y24.6185 
G01 X-15.9902 Y24.7543 
G01 X-16.0664 Y24.9039 
G01 X-16.1182 Y25.0636 
G01 X-16.1445 Y25.2294 
G00 Z2.0000 
G00 X-20.3955 Y25.2294 
G01 Z-0.2000 F600.00 
G01 X-20.3955 Y27.3785 
G01 X-20.3692 Y27.5443 
G01 X-20.3174 Y27.7040 
G01 X-20.2412 Y27.8536 
G01 X-20.1425 Y27.9894 
G01 X-20.0238 Y28.1081 
G01 X-19.8880 Y28.2068 
G01 X-19.7384 Y28.2830 
G01 X-19.5787 Y28.3348 
G01 X-19.4129 Y28.3611 
G01 X-19.2450 Y28.3611 
G01 X-19.0792 Y28.3348 
G01 X-18.9195 Y28.2830 
G01 X-18.7699 Y28.2068 
G01 X-18.6341 Y28.1081 
G01 X-18.5154 Y27.9894 
G01 X-18.4167 Y27.8536 
G01 X-18.3405 Y27.7040 
G01 X-18.2887 Y27.5443 
G01 X-18.2624 Y27.3785 
G01 X-18.2624 Y25.2294 
G01 X-18.2887 Y25.0636 
G01 X-18.3405 Y24.9039 
G01 X-18.4167 Y24.7543 
G01 X-18.5154 Y24.6185 
G01 X-18.6341 Y24.4998 
G01 X-18.7699 Y24.4011 
G01 X-18.9195 Y24.3249 
G01 X-19.0792 Y24.2731 
G01 X-19.2450 Y24.2468 
G01 X-19.4129 Y24.2468 
G01 X-19.5787 Y24.2731 
G01 X-19.7384 Y24.3249 
G01 X-19.8880 Y24.4011 
G01 X-20.0238 Y24.4998 
G01 X-20.1425 Y24.6185 
G01 X-20.2412 Y24.7543 
G01 X-20.3174 Y24.9039 
G01 X-20.3692 Y25.0636 
G01 X-20.3955 Y25.2294 
G00 Z2.0000 
G00 X-24.6465 Y25.2294 
G01 Z-0.2000 F600.00 
G01 X-24.6465 Y27.3785 
G01 X-24.6202 Y27.5443 
G01 X-24.5684 Y27.7040 
G01 X-24.4922 Y27.8536 
G01 X-24.3935 Y27.9894 
G01 X-24.2748 Y28.1081 
G01 X-24.1390 Y28.2068 
G01 X-23.9894 Y28.2830 
G01 X-23.8297 Y28.3348 
G01 X-23.6639 Y28.3611 
G01 X-23.4960 Y28.3611 
G01 X-23.3302 Y28.3348 
G01 X-23.1705 Y28.2830 
G01 X-23.0209 Y28.2068 
G01 X-22.8851 Y28.1081 
G01 X-22.7664 Y27.9894 
G01 X-22.6677 Y27.8536 
G01 X-22.5915 Y27.7040 
G01 X-22.5397 Y27.5443 
G01 X-22.5134 Y27.3785 
G01 X-22.5134 Y25.2294 
G01 X-22.5397 Y25.0636 
G01 X-22.5915 Y24.9039 
G01 X-22.6677 Y24.7543 
G01 X-22.7664 Y24.6185 
G01 X-22.8851 Y24.4998 
G01 X-23.0209 Y24.4011 
G01 X-23.1705 Y24.3249 
G01 X-23.3302 Y24.2731 
G01 X-23.4960 Y24.2468 
G01 X-23.6639 Y24.2468 
G01 X-23.8297 Y24.2731 
G01 X-23.9894 Y24.3249 
G01 X-24.1390 Y24.4011 
G01 X-24.2748 Y24.4998 
G01 X-24.3935 Y24.6185 
G01 X-24.4922 Y24.7543 
G01 X-24.5684 Y24.9039 
G01 X-24.6202 Y25.0636 
G01 X-24.6465 Y25.2294 
G00 Z2.0000 
G00 X-28.8975 Y25.2294 
G01 Z-0.2000 F600.00 
G01 X-28.8975 Y27.3785 
G01 X-28.8712 Y27.5443 
G01 X-28.8194 Y27.7040 
G01 X-28.7432 Y27.8536 
G01 X-28.6445 Y27.9894 
G01 X-28.5258 Y28.1081 
G01 X-28.3900 Y28.2068 
G01 X-28.2404 Y28.2830 
G01 X-28.0807 Y28.3348 
G01 X-27.9149 Y28.3611 
G01 X-27.7470 Y28.3611 
G01 X-27.5812 Y28.3348 
G01 X-27.4215 Y28.2830 
G01 X-27.2719 Y28.2068 
G01 X-27.1361 Y28.1081 
G01 X-27.0174 Y27.9894 
G01 X-26.9187 Y27.8536 
G01 X-26.8425 Y27.7040 
G01 X-26.7907 Y27.5443 
G01 X-26.7644 Y27.3785 
G01 X-26.7644 Y25.2294 
G01 X-26.7907 Y25.0636 
G01 X-26.8425 Y24.9039 
G01 X-26.9187 Y24.7543 
G01 X-27.0174 Y24.6185 
G01 X-27.1361 Y24.4998 
G01 X-27.2719 Y24.4011 
G01 X-27.4215 Y24.3249 
G01 X-27.5812 Y24.2731 
G01 X-27.7470 Y24.2468 
G01 X-27.9149 Y24.2468 
G01 X-28.0807 Y24.2731 
G01 X-28.2404 Y24.3249 
G01 X-28.3900 Y24.4011 
G01 X-28.5258 Y24.4998 
G01 X-28.6445 Y24.6185 
G01 X-28.7432 Y24.7543 
G01 X-28.8194 Y24.9039 
G01 X-28.8712 Y25.0636 
G01 X-28.8975 Y25.2294 
G00 Z2.0000 
G00 X-33.1485 Y25.2294 
G01 Z-0.2000 F600.00 
G01 X-33.1485 Y27.3785 
G01 X-33.1222 Y27.5443 
G01 X-33.0704 Y27.7040 
G01 X-32.9942 Y27.8536 
G01 X-32.8955 Y27.9894 
G01 X-32.7768 Y28.1081 
G01 X-32.6410 Y28.2068 
G01 X-32.4914 Y28.2830 
G01 X-32.3317 Y28.3348 
G01 X-32.1659 Y28.3611 
G01 X-31.9980 Y28.3611 
G01 X-31.8322 Y28.3348 
G01 X-31.6725 Y28.2830 
G01 X-31.5229 Y28.2068 
G01 X-31.3871 Y28.1081 
G01 X-31.2684 Y27.9894 
G01 X-31.1697 Y27.8536 
G01 X-31.0935 Y27.7040 
G01 X-31.0417 Y27.5443 
G01 X-31.0154 Y27.3785 
G01 X-31.0154 Y25.2294 
G01 X-31.0417 Y25.0636 
G01 X-31.0935 Y24.9039 
G01 X-31.1697 Y24.7543 
G01 X-31.2684 Y24.6185 
G01 X-31.3871 Y24.4998 
G01 X-31.5229 Y24.4011 
G01 X-31.6725 Y24.3249 
G01 X-31.8322 Y24.2731 
G01 X-31.9980 Y24.2468 
G01 X-32.1659 Y24.2468 
G01 X-32.3317 Y24.2731 
G01 X-32.4914 Y24.3249 
G01 X-32.6410 Y24.4011 
G01 X-32.7768 Y24.4998 
G01 X-32.8955 Y24.6185 
G01 X-32.9942 Y24.7543 
G01 X-33.0704 Y24.9039 
G01 X-33.1222 Y25.0636 
G01 X-33.1485 Y25.2294 
G00 Z2.0000 
G00 X-37.3995 Y25.2294 
G01 Z-0.2000 F600.00 
G01 X-37.3995 Y27.3785 
G01 X-37.3732 Y27.5443 
G01 X-37.3214 Y27.7040 
G01 X-37.2452 Y27.8536 
G01 X-37.1465 Y27.9894 
G01 X-37.0278 Y28.1081 
G01 X-36.8920 Y28.2068 
G01 X-36.7424 Y28.2830 
G01 X-36.5827 Y28.3348 
G01 X-36.4169 Y28.3611 
G01 X-36.2490 Y28.3611 
G01 X-36.0832 Y28.3348 
G01 X-35.9235 Y28.2830 
G01 X-35.7739 Y28.2068 
G01 X-35.6381 Y28.1081 
G01 X-35.5194 Y27.9894 
G01 X-35.4207 Y27.8536 
G01 X-35.3445 Y27.7040 
G01 X-35.2927 Y27.5443 
G01 X-35.2664 Y27.3785 
G01 X-35.2664 Y25.2294 
G01 X-35.2927 Y25.0636 
G01 X-35.3445 Y24.9039 
G01 X-35.4207 Y24.7543 
G01 X-35.5194 Y24.6185 
G01 X-35.6381 Y24.4998 
G01 X-35.7739 Y24.4011 
G01 X-35.9235 Y24.3249 
G01 X-36.0832 Y24.2731 
G01 X-36.2490 Y24.2468 
G01 X-36.4169 Y24.2468 
G01 X-36.5827 Y24.2731 
G01 X-36.7424 Y24.3249 
G01 X-36.8920 Y24.4011 
G01 X-37.0278 Y24.4998 
G01 X-37.1465 Y24.6185 
G01 X-37.2452 Y24.7543 
G01 X-37.3214 Y24.9039 
G01 X-37.3732 Y25.0636 
G01 X-37.3995 Y25.2294 
G00 Z2.0000 
G00 X-41.6505 Y25.2294 
G01 Z-0.2000 F600.00 
G01 X-41.6505 Y27.3785 
G01 X-41.6242 Y27.5443 
G01 X-41.5724 Y27.7040 
G01 X-41.4962 Y27.8536 
G01 X-41.3975 Y27.9894 
G01 X-41.2788 Y28.1081 
G01 X-41.1430 Y28.2068 
G01 X-40.9934 Y28.2830 
G01 X-40.8337 Y28.3348 
G01 X-40.6679 Y28.3611 
G01 X-40.5000 Y28.3611 
G01 X-40.3342 Y28.3348 
G01 X-40.1745 Y28.2830 
G01 X-40.0249 Y28.2068 
G01 X-39.8891 Y28.1081 
G01 X-39.7704 Y27.9894 
G01 X-39.6717 Y27.8536 
G01 X-39.5955 Y27.7040 
G01 X-39.5437 Y27.5443 
G01 X-39.5174 Y27.3785 
G01 X-39.5174 Y25.2294 
G01 X-39.5437 Y25.0636 
G01 X-39.5955 Y24.9039 
G01 X-39.6717 Y24.7543 
G01 X-39.7704 Y24.6185 
G01 X-39.8891 Y24.4998 
G01 X-40.0249 Y24.4011 
G01 X-40.1745 Y24.3249 
G01 X-40.3342 Y24.2731 
G01 X-40.5000 Y24.2468 
G01 X-40.6679 Y24.2468 
G01 X-40.8337 Y24.2731 
G01 X-40.9934 Y24.3249 
G01 X-41.1430 Y24.4011 
G01 X-41.2788 Y24.4998 
G01 X-41.3975 Y24.6185 
G01 X-41.4962 Y24.7543 
G01 X-41.5724 Y24.9039 
G01 X-41.6242 Y25.0636 
G01 X-41.6505 Y25.2294 
G00 Z2.0000 
G00 X-45.9015 Y25.2294 
G01 Z-0.2000 F600.00 
G01 X-45.9015 Y27.3785 
G01 X-45.8752 Y27.5443 
G01 X-45.8234 Y27.7040 
G01 X-45.7472 Y27.8536 
G01 X-45.6485 Y27.9894 
G01 X-45.5298 Y28.1081 
G01 X-45.3940 Y28.2068 
G01 X-45.2444 Y28.2830 
G01 X-45.0847 Y28.3348 
G01 X-44.9189 Y28.3611 
G01 X-44.7510 Y28.3611 
G01 X-44.5852 Y28.3348 
G01 X-44.4255 Y28.2830 
G01 X-44.2759 Y28.2068 
G01 X-44.1401 Y28.1081 
G01 X-44.0214 Y27.9894 
G01 X-43.9227 Y27.8536 
G01 X-43.8465 Y27.7040 
G01 X-43.7947 Y27.5443 
G01 X-43.7684 Y27.3785 
G01 X-43.7684 Y25.2294 
G01 X-43.7947 Y25.0636 
G01 X-43.8465 Y24.9039 
G01 X-43.9227 Y24.7543 
G01 X-44.0214 Y24.6185 
G01 X-44.1401 Y24.4998 
G01 X-44.2759 Y24.4011 
G01 X-44.4255 Y24.3249 
G01 X-44.5852 Y24.2731 
G01 X-44.7510 Y24.2468 
G01 X-44.9189 Y24.2468 
G01 X-45.0847 Y24.2731 
G01 X-45.2444 Y24.3249 
G01 X-45.3940 Y24.4011 
G01 X-45.5298 Y24.4998 
G01 X-45.6485 Y24.6185 
G01 X-45.7472 Y24.7543 
G01 X-45.8234 Y24.9039 
G01 X-45.8752 Y25.0636 
G01 X-45.9015 Y25.2294 
G00 Z2.0000 
G00 X-50.1525 Y25.2294 
G01 Z-0.2000 F600.00 
G01 X-50.1525 Y27.3785 
G01 X-50.1262 Y27.5443 
G01 X-50.0744 Y27.7040 
G01 X-49.9982 Y27.8536 
G01 X-49.8995 Y27.9894 
G01 X-49.7808 Y28.1081 
G01 X-49.6450 Y28.2068 
G01 X-49.4954 Y28.2830 
G01 X-49.3357 Y28.3348 
G01 X-49.1699 Y28.3611 
G01 X-49.0020 Y28.3611 
G01 X-48.8362 Y28.3348 
G01 X-48.6765 Y28.2830 
G01 X-48.5269 Y28.2068 
G01 X-48.3911 Y28.1081 
G01 X-48.2724 Y27.9894 
G01 X-48.1737 Y27.8536 
G01 X-48.0975 Y27.7040 
G01 X-48.0457 Y27.5443 
G01 X-48.0194 Y27.3785 
G01 X-48.0194 Y26.4304 
G01 X-45.7649 Y24.1759 
G01 X-33.2570 Y24.1759 
G01 X-33.1741 Y24.1537 
G01 X-33.0998 Y24.1108 
G01 X-33.0391 Y24.0501 
G01 X-32.9962 Y23.9758 
G01 X-32.9740 Y23.8929 
G01 X-32.9740 Y23.8070 
G01 X-32.9740 Y15.7350 
G01 X-27.5302 Y10.2912 
G01 X-27.4195 Y10.3371 
G01 X-27.2466 Y10.3715 
G01 X-27.0701 Y10.3715 
G01 X-26.8972 Y10.3371 
G01 X-26.7343 Y10.2696 
G01 X-26.5877 Y10.1717 
G01 X-26.4630 Y10.0470 
G01 X-26.3651 Y9.9004 
G01 X-26.2976 Y9.7375 
G01 X-26.2632 Y9.5646 
G01 X-26.2632 Y9.3881 
G01 X-26.2976 Y9.2152 
G01 X-26.3651 Y9.0523 
G01 X-26.4630 Y8.9057 
G01 X-26.5877 Y8.7810 
G01 X-26.7343 Y8.6831 
G01 X-26.8972 Y8.6156 
G01 X-27.0701 Y8.5812 
G01 X-27.2466 Y8.5812 
G01 X-27.4195 Y8.6156 
G01 X-27.5824 Y8.6831 
G01 X-27.7290 Y8.7810 
G01 X-27.8537 Y8.9057 
G01 X-27.9516 Y9.0523 
G01 X-28.0191 Y9.2152 
G01 X-28.0535 Y9.3881 
G01 X-28.0535 Y9.5646 
G01 X-28.0191 Y9.7375 
G01 X-27.9837 Y9.8228 
G01 X-33.5001 Y15.3391 
G01 X-33.5608 Y15.3998 
G01 X-33.6037 Y15.4741 
G01 X-33.6259 Y15.5570 
G01 X-33.6259 Y23.5240 
G01 X-45.8570 Y23.5240 
G01 X-45.9429 Y23.5240 
G01 X-46.0258 Y23.5462 
G01 X-46.1001 Y23.5891 
G01 X-48.0194 Y25.5085 
G01 X-48.0194 Y25.2294 
G01 X-48.0457 Y25.0636 
G01 X-48.0975 Y24.9039 
G01 X-48.1737 Y24.7543 
G01 X-48.2724 Y24.6185 
G01 X-48.3911 Y24.4998 
G01 X-48.5269 Y24.4011 
G01 X-48.6765 Y24.3249 
G01 X-48.8362 Y24.2731 
G01 X-49.0020 Y24.2468 
G01 X-49.1699 Y24.2468 
G01 X-49.3357 Y24.2731 
G01 X-49.4954 Y24.3249 
G01 X-49.6450 Y24.4011 
G01 X-49.7808 Y24.4998 
G01 X-49.8995 Y24.6185 
G01 X-49.9982 Y24.7543 
G01 X-50.0744 Y24.9039 
G01 X-50.1262 Y25.0636 
G01 X-50.1525 Y25.2294 
G00 Z2.0000 
G00 X-58.6545 Y25.2294 
G01 Z-0.2000 F600.00 
G01 X-58.6545 Y27.3785 
G01 X-58.6282 Y27.5443 
G01 X-58.5764 Y27.7040 
G01 X-58.5002 Y27.8536 
G01 X-58.4015 Y27.9894 
G01 X-58.2828 Y28.1081 
G01 X-58.1470 Y28.2068 
G01 X-57.9974 Y28.2830 
G01 X-57.8377 Y28.3348 
G01 X-57.6719 Y28.3611 
G01 X-57.5040 Y28.3611 
G01 X-57.3382 Y28.3348 
G01 X-57.1785 Y28.2830 
G01 X-57.0289 Y28.2068 
G01 X-56.8931 Y28.1081 
G01 X-56.7744 Y27.9894 
G01 X-56.6757 Y27.8536 
G01 X-56.5995 Y27.7040 
G01 X-56.5477 Y27.5443 
G01 X-56.5214 Y27.3785 
G01 X-56.5214 Y26.3823 
G01 X-54.3149 Y24.1759 
G01 X-51.1070 Y24.1759 
G01 X-51.0241 Y24.1537 
G01 X-50.9498 Y24.1108 
G01 X-50.8891 Y24.0501 
G01 X-50.2649 Y23.4259 
G01 X-47.2070 Y23.4259 
G01 X-47.1241 Y23.4037 
G01 X-47.0498 Y23.3608 
G01 X-46.9891 Y23.3001 
G01 X-46.3649 Y22.6759 
G01 X-38.8070 Y22.6759 
G01 X-38.7241 Y22.6537 
G01 X-38.6498 Y22.6108 
G01 X-38.5891 Y22.5501 
G01 X-38.5462 Y22.4758 
G01 X-38.5240 Y22.3929 
G01 X-38.5240 Y22.3070 
G01 X-38.5240 Y19.1850 
G01 X-32.4391 Y13.1001 
G01 X-32.3962 Y13.0258 
G01 X-32.3740 Y12.9429 
G01 X-32.3740 Y12.8570 
G01 X-32.3740 Y10.3120 
G01 X-32.2715 Y10.2696 
G01 X-32.1249 Y10.1717 
G01 X-32.0002 Y10.0470 
G01 X-31.9023 Y9.9004 
G01 X-31.8348 Y9.7375 
G01 X-31.8004 Y9.5646 
G01 X-31.8004 Y9.3881 
G01 X-31.8348 Y9.2152 
G01 X-31.9023 Y9.0523 
G01 X-32.0002 Y8.9057 
G01 X-32.1249 Y8.7810 
G01 X-32.2715 Y8.6831 
G01 X-32.4344 Y8.6156 
G01 X-32.6073 Y8.5812 
G01 X-32.7838 Y8.5812 
G01 X-32.9567 Y8.6156 
G01 X-33.1196 Y8.6831 
G01 X-33.2662 Y8.7810 
G01 X-33.3909 Y8.9057 
G01 X-33.4888 Y9.0523 
G01 X-33.5563 Y9.2152 
G01 X-33.5907 Y9.3881 
G01 X-33.5907 Y9.5646 
G01 X-33.5563 Y9.7375 
G01 X-33.4888 Y9.9004 
G01 X-33.3909 Y10.0470 
G01 X-33.2662 Y10.1717 
G01 X-33.1196 Y10.2696 
G01 X-33.0259 Y10.3084 
G01 X-33.0259 Y12.7649 
G01 X-39.0501 Y18.7891 
G01 X-39.1108 Y18.8498 
G01 X-39.1537 Y18.9241 
G01 X-39.1759 Y19.0070 
G01 X-39.1759 Y22.0240 
G01 X-46.4570 Y22.0240 
G01 X-46.5429 Y22.0240 
G01 X-46.6258 Y22.0462 
G01 X-46.7001 Y22.0891 
G01 X-47.3850 Y22.7740 
G01 X-50.3570 Y22.7740 
G01 X-50.4429 Y22.7740 
G01 X-50.5258 Y22.7962 
G01 X-50.6001 Y22.8391 
G01 X-51.2850 Y23.5240 
G01 X-54.4070 Y23.5240 
G01 X-54.4929 Y23.5240 
G01 X-54.5758 Y23.5462 
G01 X-54.6501 Y23.5891 
G01 X-56.5214 Y25.4605 
G01 X-56.5214 Y25.2294 
G01 X-56.5477 Y25.0636 
G01 X-56.5995 Y24.9039 
G01 X-56.6757 Y24.7543 
G01 X-56.7744 Y24.6185 
G01 X-56.8931 Y24.4998 
G01 X-57.0289 Y24.4011 
G01 X-57.1785 Y24.3249 
G01 X-57.3382 Y24.2731 
G01 X-57.5040 Y24.2468 
G01 X-57.6719 Y24.2468 
G01 X-57.8377 Y24.2731 
G01 X-57.9974 Y24.3249 
G01 X-58.1470 Y24.4011 
G01 X-58.2828 Y24.4998 
G01 X-58.4015 Y24.6185 
G01 X-58.5002 Y24.7543 
G01 X-58.5764 Y24.9039 
G01 X-58.6282 Y25.0636 
G01 X-58.6545 Y25.2294 
G00 Z2.0000 
G00 X-29.4378 Y6.5433 
G01 Z-0.2000 F600.00 
G01 X-29.4378 Y6.7198 
G01 X-29.4034 Y6.8927 
G01 X-29.3359 Y7.0556 
G01 X-29.2380 Y7.2022 
G01 X-29.1133 Y7.3269 
G01 X-28.9667 Y7.4248 
G01 X-28.8038 Y7.4923 
G01 X-28.6309 Y7.5267 
G01 X-28.4544 Y7.5267 
G01 X-28.2815 Y7.4923 
G01 X-28.1186 Y7.4248 
G01 X-27.9720 Y7.3269 
G01 X-27.8473 Y7.2022 
G01 X-27.7494 Y7.0556 
G01 X-27.6819 Y6.8927 
G01 X-27.6475 Y6.7198 
G01 X-27.6475 Y6.5433 
G01 X-27.6819 Y6.3704 
G01 X-27.7494 Y6.2075 
G01 X-27.8473 Y6.0609 
G01 X-27.9720 Y5.9362 
G01 X-28.1186 Y5.8383 
G01 X-28.2815 Y5.7708 
G01 X-28.4544 Y5.7364 
G01 X-28.6309 Y5.7364 
G01 X-28.8038 Y5.7708 
G01 X-28.9667 Y5.8383 
G01 X-29.1133 Y5.9362 
G01 X-29.2380 Y6.0609 
G01 X-29.3359 Y6.2075 
G01 X-29.4034 Y6.3704 
G01 X-29.4378 Y6.5433 
G00 Z2.0000 
G00 X-32.2064 Y6.5433 
G01 Z-0.2000 F600.00 
G01 X-32.2064 Y6.7198 
G01 X-32.1720 Y6.8927 
G01 X-32.1045 Y7.0556 
G01 X-32.0066 Y7.2022 
G01 X-31.8819 Y7.3269 
G01 X-31.7353 Y7.4248 
G01 X-31.5724 Y7.4923 
G01 X-31.3995 Y7.5267 
G01 X-31.2230 Y7.5267 
G01 X-31.0501 Y7.4923 
G01 X-30.8872 Y7.4248 
G01 X-30.7406 Y7.3269 
G01 X-30.6159 Y7.2022 
G01 X-30.5180 Y7.0556 
G01 X-30.4505 Y6.8927 
G01 X-30.4161 Y6.7198 
G01 X-30.4161 Y6.5433 
G01 X-30.4505 Y6.3704 
G01 X-30.5180 Y6.2075 
G01 X-30.6159 Y6.0609 
G01 X-30.7406 Y5.9362 
G01 X-30.8872 Y5.8383 
G01 X-31.0501 Y5.7708 
G01 X-31.2230 Y5.7364 
G01 X-31.3995 Y5.7364 
G01 X-31.5724 Y5.7708 
G01 X-31.7353 Y5.8383 
G01 X-31.8819 Y5.9362 
G01 X-32.0066 Y6.0609 
G01 X-32.1045 Y6.2075 
G01 X-32.1720 Y6.3704 
G01 X-32.2064 Y6.5433 
G00 Z2.0000 
G00 X-37.7436 Y6.5433 
G01 Z-0.2000 F600.00 
G01 X-37.7436 Y6.7198 
G01 X-37.7092 Y6.8927 
G01 X-37.6417 Y7.0556 
G01 X-37.5438 Y7.2022 
G01 X-37.4191 Y7.3269 
G01 X-37.2725 Y7.4248 
G01 X-37.1096 Y7.4923 
G01 X-36.9367 Y7.5267 
G01 X-36.7602 Y7.5267 
G01 X-36.5873 Y7.4923 
G01 X-36.4244 Y7.4248 
G01 X-36.2778 Y7.3269 
G01 X-36.1531 Y7.2022 
G01 X-36.0552 Y7.0556 
G01 X-35.9877 Y6.8927 
G01 X-35.9533 Y6.7198 
G01 X-35.9533 Y6.5433 
G01 X-35.9877 Y6.3704 
G01 X-36.0552 Y6.2075 
G01 X-36.1531 Y6.0609 
G01 X-36.2778 Y5.9362 
G01 X-36.4244 Y5.8383 
G01 X-36.5873 Y5.7708 
G01 X-36.7602 Y5.7364 
G01 X-36.9367 Y5.7364 
G01 X-37.1096 Y5.7708 
G01 X-37.2725 Y5.8383 
G01 X-37.4191 Y5.9362 
G01 X-37.5438 Y6.0609 
G01 X-37.6417 Y6.2075 
G01 X-37.7092 Y6.3704 
G01 X-37.7436 Y6.5433 
G00 Z2.0000 
G00 X-40.5122 Y6.5433 
G01 Z-0.2000 F600.00 
G01 X-40.5122 Y6.7198 
G01 X-40.4778 Y6.8927 
G01 X-40.4103 Y7.0556 
G01 X-40.3124 Y7.2022 
G01 X-40.1877 Y7.3269 
G01 X-40.0411 Y7.4248 
G01 X-39.8782 Y7.4923 
G01 X-39.7053 Y7.5267 
G01 X-39.5288 Y7.5267 
G01 X-39.3559 Y7.4923 
G01 X-39.1930 Y7.4248 
G01 X-39.0464 Y7.3269 
G01 X-38.9217 Y7.2022 
G01 X-38.8238 Y7.0556 
G01 X-38.7563 Y6.8927 
G01 X-38.7219 Y6.7198 
G01 X-38.7219 Y6.5433 
G01 X-38.7563 Y6.3704 
G01 X-38.8238 Y6.2075 
G01 X-38.9217 Y6.0609 
G01 X-39.0464 Y5.9362 
G01 X-39.1930 Y5.8383 
G01 X-39.3559 Y5.7708 
G01 X-39.5288 Y5.7364 
G01 X-39.7053 Y5.7364 
G01 X-39.8782 Y5.7708 
G01 X-40.0411 Y5.8383 
G01 X-40.1877 Y5.9362 
G01 X-40.3124 Y6.0609 
G01 X-40.4103 Y6.2075 
G01 X-40.4778 Y6.3704 
G01 X-40.5122 Y6.5433 
G00 Z2.0000 
G00 X-43.2808 Y6.5433 
G01 Z-0.2000 F600.00 
G01 X-43.2808 Y6.7198 
G01 X-43.2464 Y6.8927 
G01 X-43.1789 Y7.0556 
G01 X-43.0810 Y7.2022 
G01 X-42.9563 Y7.3269 
G01 X-42.8097 Y7.4248 
G01 X-42.6468 Y7.4923 
G01 X-42.4739 Y7.5267 
G01 X-42.2974 Y7.5267 
G01 X-42.1245 Y7.4923 
G01 X-41.9616 Y7.4248 
G01 X-41.8150 Y7.3269 
G01 X-41.6903 Y7.2022 
G01 X-41.5924 Y7.0556 
G01 X-41.5249 Y6.8927 
G01 X-41.4905 Y6.7198 
G01 X-41.4905 Y6.5433 
G01 X-41.5249 Y6.3704 
G01 X-41.5924 Y6.2075 
G01 X-41.6903 Y6.0609 
G01 X-41.8150 Y5.9362 
G01 X-41.9616 Y5.8383 
G01 X-42.1245 Y5.7708 
G01 X-42.2974 Y5.7364 
G01 X-42.4739 Y5.7364 
G01 X-42.6468 Y5.7708 
G01 X-42.8097 Y5.8383 
G01 X-42.9563 Y5.9362 
G01 X-43.0810 Y6.0609 
G01 X-43.1789 Y6.2075 
G01 X-43.2464 Y6.3704 
G01 X-43.2808 Y6.5433 
G00 Z2.0000 
G00 X-46.0494 Y6.5433 
G01 Z-0.2000 F600.00 
G01 X-46.0494 Y6.7198 
G01 X-46.0150 Y6.8927 
G01 X-45.9475 Y7.0556 
G01 X-45.8496 Y7.2022 
G01 X-45.7249 Y7.3269 
G01 X-45.5783 Y7.4248 
G01 X-45.4154 Y7.4923 
G01 X-45.2425 Y7.5267 
G01 X-45.0660 Y7.5267 
G01 X-44.8931 Y7.4923 
G01 X-44.7302 Y7.4248 
G01 X-44.5836 Y7.3269 
G01 X-44.4589 Y7.2022 
G01 X-44.3610 Y7.0556 
G01 X-44.2935 Y6.8927 
G01 X-44.2591 Y6.7198 
G01 X-44.2591 Y6.5433 
G01 X-44.2935 Y6.3704 
G01 X-44.3610 Y6.2075 
G01 X-44.4589 Y6.0609 
G01 X-44.5836 Y5.9362 
G01 X-44.7302 Y5.8383 
G01 X-44.8931 Y5.7708 
G01 X-45.0660 Y5.7364 
G01 X-45.2425 Y5.7364 
G01 X-45.4154 Y5.7708 
G01 X-45.5783 Y5.8383 
G01 X-45.7249 Y5.9362 
G01 X-45.8496 Y6.0609 
G01 X-45.9475 Y6.2075 
G01 X-46.0150 Y6.3704 
G01 X-46.0494 Y6.5433 
G00 Z2.0000 
G00 X-48.8180 Y6.5433 
G01 Z-0.2000 F600.00 
G01 X-48.8180 Y6.7198 
G01 X-48.7836 Y6.8927 
G01 X-48.7161 Y7.0556 
G01 X-48.6182 Y7.2022 
G01 X-48.4935 Y7.3269 
G01 X-48.3469 Y7.4248 
G01 X-48.1840 Y7.4923 
G01 X-48.0111 Y7.5267 
G01 X-47.8346 Y7.5267 
G01 X-47.6617 Y7.4923 
G01 X-47.4988 Y7.4248 
G01 X-47.3522 Y7.3269 
G01 X-47.2275 Y7.2022 
G01 X-47.1296 Y7.0556 
G01 X-47.0621 Y6.8927 
G01 X-47.0277 Y6.7198 
G01 X-47.0277 Y6.5433 
G01 X-47.0621 Y6.3704 
G01 X-47.1296 Y6.2075 
G01 X-47.2275 Y6.0609 
G01 X-47.3522 Y5.9362 
G01 X-47.4988 Y5.8383 
G01 X-47.6617 Y5.7708 
G01 X-47.8346 Y5.7364 
G01 X-48.0111 Y5.7364 
G01 X-48.1840 Y5.7708 
G01 X-48.3469 Y5.8383 
G01 X-48.4935 Y5.9362 
G01 X-48.6182 Y6.0609 
G01 X-48.7161 Y6.2075 
G01 X-48.7836 Y6.3704 
G01 X-48.8180 Y6.5433 
G00 Z2.0000 
G00 X-51.5866 Y6.5433 
G01 Z-0.2000 F600.00 
G01 X-51.5866 Y6.7198 
G01 X-51.5522 Y6.8927 
G01 X-51.4847 Y7.0556 
G01 X-51.3868 Y7.2022 
G01 X-51.2621 Y7.3269 
G01 X-51.1155 Y7.4248 
G01 X-50.9526 Y7.4923 
G01 X-50.7797 Y7.5267 
G01 X-50.6032 Y7.5267 
G01 X-50.4303 Y7.4923 
G01 X-50.2674 Y7.4248 
G01 X-50.1208 Y7.3269 
G01 X-49.9961 Y7.2022 
G01 X-49.8982 Y7.0556 
G01 X-49.8307 Y6.8927 
G01 X-49.7963 Y6.7198 
G01 X-49.7963 Y6.5433 
G01 X-49.8307 Y6.3704 
G01 X-49.8982 Y6.2075 
G01 X-49.9961 Y6.0609 
G01 X-50.1208 Y5.9362 
G01 X-50.2674 Y5.8383 
G01 X-50.4303 Y5.7708 
G01 X-50.6032 Y5.7364 
G01 X-50.7797 Y5.7364 
G01 X-50.9526 Y5.7708 
G01 X-51.1155 Y5.8383 
G01 X-51.2621 Y5.9362 
G01 X-51.3868 Y6.0609 
G01 X-51.4847 Y6.2075 
G01 X-51.5522 Y6.3704 
G01 X-51.5866 Y6.5433 
G00 Z2.0000 
G00 X-54.3552 Y6.5433 
G01 Z-0.2000 F600.00 
G01 X-54.3552 Y6.7198 
G01 X-54.3208 Y6.8927 
G01 X-54.2533 Y7.0556 
G01 X-54.1554 Y7.2022 
G01 X-54.0307 Y7.3269 
G01 X-53.8841 Y7.4248 
G01 X-53.7212 Y7.4923 
G01 X-53.5483 Y7.5267 
G01 X-53.3718 Y7.5267 
G01 X-53.1989 Y7.4923 
G01 X-53.0360 Y7.4248 
G01 X-52.8894 Y7.3269 
G01 X-52.7647 Y7.2022 
G01 X-52.6668 Y7.0556 
G01 X-52.5993 Y6.8927 
G01 X-52.5649 Y6.7198 
G01 X-52.5649 Y6.5433 
G01 X-52.5993 Y6.3704 
G01 X-52.6668 Y6.2075 
G01 X-52.7647 Y6.0609 
G01 X-52.8894 Y5.9362 
G01 X-53.0360 Y5.8383 
G01 X-53.1989 Y5.7708 
G01 X-53.3718 Y5.7364 
G01 X-53.5483 Y5.7364 
G01 X-53.7212 Y5.7708 
G01 X-53.8841 Y5.8383 
G01 X-54.0307 Y5.9362 
G01 X-54.1554 Y6.0609 
G01 X-54.2533 Y6.2075 
G01 X-54.3208 Y6.3704 
G01 X-54.3552 Y6.5433 
G00 Z2.0000 
G00 X-57.1238 Y6.5433 
G01 Z-0.2000 F600.00 
G01 X-57.1238 Y6.7198 
G01 X-57.0894 Y6.8927 
G01 X-57.0219 Y7.0556 
G01 X-56.9240 Y7.2022 
G01 X-56.7993 Y7.3269 
G01 X-56.6527 Y7.4248 
G01 X-56.4898 Y7.4923 
G01 X-56.3169 Y7.5267 
G01 X-56.1404 Y7.5267 
G01 X-55.9675 Y7.4923 
G01 X-55.8046 Y7.4248 
G01 X-55.6580 Y7.3269 
G01 X-55.5333 Y7.2022 
G01 X-55.4354 Y7.0556 
G01 X-55.3679 Y6.8927 
G01 X-55.3335 Y6.7198 
G01 X-55.3335 Y6.5433 
G01 X-55.3679 Y6.3704 
G01 X-55.4354 Y6.2075 
G01 X-55.5333 Y6.0609 
G01 X-55.6580 Y5.9362 
G01 X-55.8046 Y5.8383 
G01 X-55.9675 Y5.7708 
G01 X-56.1404 Y5.7364 
G01 X-56.3169 Y5.7364 
G01 X-56.4898 Y5.7708 
G01 X-56.6527 Y5.8383 
G01 X-56.7993 Y5.9362 
G01 X-56.9240 Y6.0609 
G01 X-57.0219 Y6.2075 
G01 X-57.0894 Y6.3704 
G01 X-57.1238 Y6.5433 
G00 Z2.0000 
G00 X-59.8924 Y6.5433 
G01 Z-0.2000 F600.00 
G01 X-59.8924 Y6.7198 
G01 X-59.8580 Y6.8927 
G01 X-59.7905 Y7.0556 
G01 X-59.6926 Y7.2022 
G01 X-59.5679 Y7.3269 
G01 X-59.4213 Y7.4248 
G01 X-59.2584 Y7.4923 
G01 X-59.0855 Y7.5267 
G01 X-58.9090 Y7.5267 
G01 X-58.7361 Y7.4923 
G01 X-58.5732 Y7.4248 
G01 X-58.4266 Y7.3269 
G01 X-58.3019 Y7.2022 
G01 X-58.2040 Y7.0556 
G01 X-58.1365 Y6.8927 
G01 X-58.1021 Y6.7198 
G01 X-58.1021 Y6.5433 
G01 X-58.1365 Y6.3704 
G01 X-58.2040 Y6.2075 
G01 X-58.3019 Y6.0609 
G01 X-58.4266 Y5.9362 
G01 X-58.5732 Y5.8383 
G01 X-58.7361 Y5.7708 
G01 X-58.9090 Y5.7364 
G01 X-59.0855 Y5.7364 
G01 X-59.2584 Y5.7708 
G01 X-59.4213 Y5.8383 
G01 X-59.5679 Y5.9362 
G01 X-59.6926 Y6.0609 
G01 X-59.7905 Y6.2075 
G01 X-59.8580 Y6.3704 
G01 X-59.8924 Y6.5433 
G00 Z2.0000 
G00 X-30.8221 Y9.3881 
G01 Z-0.2000 F600.00 
G01 X-30.8221 Y9.5646 
G01 X-30.7877 Y9.7375 
G01 X-30.7202 Y9.9004 
G01 X-30.6223 Y10.0470 
G01 X-30.4976 Y10.1717 
G01 X-30.3510 Y10.2696 
G01 X-30.3259 Y10.2800 
G01 X-30.3259 Y11.1149 
G01 X-36.2001 Y16.9891 
G01 X-36.2608 Y17.0498 
G01 X-36.3037 Y17.1241 
G01 X-36.3259 Y17.2070 
G01 X-36.3259 Y22.7740 
G01 X-46.1570 Y22.7740 
G01 X-46.2429 Y22.7740 
G01 X-46.3258 Y22.7962 
G01 X-46.4001 Y22.8391 
G01 X-47.0850 Y23.5240 
G01 X-50.0570 Y23.5240 
G01 X-50.1429 Y23.5240 
G01 X-50.2258 Y23.5462 
G01 X-50.3001 Y23.5891 
G01 X-52.2704 Y25.5595 
G01 X-52.2704 Y25.2294 
G01 X-52.2967 Y25.0636 
G01 X-52.3485 Y24.9039 
G01 X-52.4247 Y24.7543 
G01 X-52.5234 Y24.6185 
G01 X-52.6421 Y24.4998 
G01 X-52.7779 Y24.4011 
G01 X-52.9275 Y24.3249 
G01 X-53.0872 Y24.2731 
G01 X-53.2530 Y24.2468 
G01 X-53.4209 Y24.2468 
G01 X-53.5867 Y24.2731 
G01 X-53.7464 Y24.3249 
G01 X-53.8960 Y24.4011 
G01 X-54.0318 Y24.4998 
G01 X-54.1505 Y24.6185 
G01 X-54.2492 Y24.7543 
G01 X-54.3254 Y24.9039 
G01 X-54.3772 Y25.0636 
G01 X-54.4035 Y25.2294 
G01 X-54.4035 Y27.3785 
G01 X-54.3772 Y27.5443 
G01 X-54.3254 Y27.7040 
G01 X-54.2492 Y27.8536 
G01 X-54.1505 Y27.9894 
G01 X-54.0318 Y28.1081 
G01 X-53.8960 Y28.2068 
G01 X-53.7464 Y28.2830 
G01 X-53.5867 Y28.3348 
G01 X-53.4209 Y28.3611 
G01 X-53.2530 Y28.3611 
G01 X-53.0872 Y28.3348 
G01 X-52.9275 Y28.2830 
G01 X-52.7779 Y28.2068 
G01 X-52.6421 Y28.1081 
G01 X-52.5234 Y27.9894 
G01 X-52.4247 Y27.8536 
G01 X-52.3485 Y27.7040 
G01 X-52.2967 Y27.5443 
G01 X-52.2704 Y27.3785 
G01 X-52.2704 Y26.4814 
G01 X-52.2391 Y26.4501 
G01 X-49.9649 Y24.1759 
G01 X-46.9070 Y24.1759 
G01 X-46.8241 Y24.1537 
G01 X-46.7498 Y24.1108 
G01 X-46.6891 Y24.0501 
G01 X-46.0649 Y23.4259 
G01 X-35.9570 Y23.4259 
G01 X-35.8741 Y23.4037 
G01 X-35.7998 Y23.3608 
G01 X-35.7391 Y23.3001 
G01 X-35.6962 Y23.2258 
G01 X-35.6740 Y23.1429 
G01 X-35.6740 Y23.0570 
G01 X-35.6740 Y17.3850 
G01 X-29.7391 Y11.4501 
G01 X-29.6962 Y11.3758 
G01 X-29.6740 Y11.2929 
G01 X-29.6740 Y11.2070 
G01 X-29.6740 Y10.3387 
G01 X-29.6658 Y10.3371 
G01 X-29.5029 Y10.2696 
G01 X-29.3563 Y10.1717 
G01 X-29.2316 Y10.0470 
G01 X-29.1337 Y9.9004 
G01 X-29.0662 Y9.7375 
G01 X-29.0318 Y9.5646 
G01 X-29.0318 Y9.3881 
G01 X-29.0662 Y9.2152 
G01 X-29.1337 Y9.0523 
G01 X-29.2316 Y8.9057 
G01 X-29.3563 Y8.7810 
G01 X-29.5029 Y8.6831 
G01 X-29.6658 Y8.6156 
G01 X-29.8387 Y8.5812 
G01 X-30.0152 Y8.5812 
G01 X-30.1881 Y8.6156 
G01 X-30.3510 Y8.6831 
G01 X-30.4976 Y8.7810 
G01 X-30.6223 Y8.9057 
G01 X-30.7202 Y9.0523 
G01 X-30.7877 Y9.2152 
G01 X-30.8221 Y9.3881 
G00 Z2.0000 
G00 X-36.3593 Y9.3881 
G01 Z-0.2000 F600.00 
G01 X-36.3593 Y9.5646 
G01 X-36.3249 Y9.7375 
G01 X-36.2574 Y9.9004 
G01 X-36.1595 Y10.0470 
G01 X-36.0348 Y10.1717 
G01 X-35.8882 Y10.2696 
G01 X-35.8759 Y10.2747 
G01 X-35.8759 Y14.5649 
G01 X-42.5850 Y21.2740 
G01 X-46.7570 Y21.2740 
G01 X-46.8429 Y21.2740 
G01 X-46.9258 Y21.2962 
G01 X-47.0001 Y21.3391 
G01 X-47.6850 Y22.0240 
G01 X-50.6570 Y22.0240 
G01 X-50.7429 Y22.0240 
G01 X-50.8258 Y22.0462 
G01 X-50.9001 Y22.0891 
G01 X-51.5850 Y22.7740 
G01 X-54.7070 Y22.7740 
G01 X-54.7929 Y22.7740 
G01 X-54.8758 Y22.7962 
G01 X-54.9501 Y22.8391 
G01 X-55.6350 Y23.5240 
G01 X-58.6070 Y23.5240 
G01 X-58.6929 Y23.5240 
G01 X-58.7758 Y23.5462 
G01 X-58.8501 Y23.5891 
G01 X-60.7724 Y25.5115 
G01 X-60.7724 Y25.2294 
G01 X-60.7987 Y25.0636 
G01 X-60.8505 Y24.9039 
G01 X-60.9267 Y24.7543 
G01 X-61.0254 Y24.6185 
G01 X-61.1441 Y24.4998 
G01 X-61.2799 Y24.4011 
G01 X-61.4295 Y24.3249 
G01 X-61.5892 Y24.2731 
G01 X-61.7550 Y24.2468 
G01 X-61.9229 Y24.2468 
G01 X-62.0887 Y24.2731 
G01 X-62.2484 Y24.3249 
G01 X-62.3980 Y24.4011 
G01 X-62.5338 Y24.4998 
G01 X-62.6525 Y24.6185 
G01 X-62.7512 Y24.7543 
G01 X-62.8274 Y24.9039 
G01 X-62.8792 Y25.0636 
G01 X-62.9055 Y25.2294 
G01 X-62.9055 Y27.3785 
G01 X-62.8792 Y27.5443 
G01 X-62.8274 Y27.7040 
G01 X-62.7512 Y27.8536 
G01 X-62.6525 Y27.9894 
G01 X-62.5338 Y28.1081 
G01 X-62.3980 Y28.2068 
G01 X-62.2484 Y28.2830 
G01 X-62.0887 Y28.3348 
G01 X-61.9229 Y28.3611 
G01 X-61.7550 Y28.3611 
G01 X-61.5892 Y28.3348 
G01 X-61.4295 Y28.2830 
G01 X-61.2799 Y28.2068 
G01 X-61.1441 Y28.1081 
G01 X-61.0254 Y27.9894 
G01 X-60.9267 Y27.8536 
G01 X-60.8505 Y27.7040 
G01 X-60.7987 Y27.5443 
G01 X-60.7724 Y27.3785 
G01 X-60.7724 Y26.4334 
G01 X-58.5149 Y24.1759 
G01 X-55.4570 Y24.1759 
G01 X-55.3741 Y24.1537 
G01 X-55.2998 Y24.1108 
G01 X-55.2391 Y24.0501 
G01 X-54.6149 Y23.4259 
G01 X-51.4070 Y23.4259 
G01 X-51.3241 Y23.4037 
G01 X-51.2498 Y23.3608 
G01 X-51.1891 Y23.3001 
G01 X-50.5649 Y22.6759 
G01 X-47.5070 Y22.6759 
G01 X-47.4241 Y22.6537 
G01 X-47.3498 Y22.6108 
G01 X-47.2891 Y22.5501 
G01 X-46.6649 Y21.9259 
G01 X-42.4070 Y21.9259 
G01 X-42.3241 Y21.9037 
G01 X-42.2498 Y21.8608 
G01 X-42.1891 Y21.8001 
G01 X-35.2891 Y14.9001 
G01 X-35.2462 Y14.8258 
G01 X-35.2240 Y14.7429 
G01 X-35.2240 Y14.6570 
G01 X-35.2240 Y10.3412 
G01 X-35.2030 Y10.3371 
G01 X-35.0401 Y10.2696 
G01 X-34.8935 Y10.1717 
G01 X-34.7688 Y10.0470 
G01 X-34.6709 Y9.9004 
G01 X-34.6034 Y9.7375 
G01 X-34.5690 Y9.5646 
G01 X-34.5690 Y9.3881 
G01 X-34.6034 Y9.2152 
G01 X-34.6709 Y9.0523 
G01 X-34.7688 Y8.9057 
G01 X-34.8935 Y8.7810 
G01 X-35.0401 Y8.6831 
G01 X-35.2030 Y8.6156 
G01 X-35.3759 Y8.5812 
G01 X-35.5524 Y8.5812 
G01 X-35.7253 Y8.6156 
G01 X-35.8882 Y8.6831 
G01 X-36.0348 Y8.7810 
G01 X-36.1595 Y8.9057 
G01 X-36.2574 Y9.0523 
G01 X-36.3249 Y9.2152 
G01 X-36.3593 Y9.3881 
G00 Z2.0000 
G00 X-41.8965 Y9.3881 
G01 Z-0.2000 F600.00 
G01 X-41.8965 Y9.5646 
G01 X-41.8621 Y9.7375 
G01 X-41.7946 Y9.9004 
G01 X-41.6967 Y10.0470 
G01 X-41.5720 Y10.1717 
G01 X-41.4259 Y10.2692 
G01 X-41.4259 Y11.2649 
G01 X-48.3501 Y18.1891 
G01 X-48.4108 Y18.2498 
G01 X-48.4537 Y18.3241 
G01 X-48.4759 Y18.4070 
G01 X-48.4759 Y20.5240 
G01 X-52.0070 Y20.5240 
G01 X-52.0929 Y20.5240 
G01 X-52.1758 Y20.5462 
G01 X-52.2501 Y20.5891 
G01 X-52.9350 Y21.2740 
G01 X-55.6070 Y21.2740 
G01 X-55.6929 Y21.2740 
G01 X-55.7758 Y21.2962 
G01 X-55.8501 Y21.3391 
G01 X-56.5349 Y22.0240 
G01 X-59.2070 Y22.0240 
G01 X-59.2929 Y22.0240 
G01 X-59.3758 Y22.0462 
G01 X-59.4501 Y22.0891 
G01 X-60.1350 Y22.7740 
G01 X-63.1070 Y22.7740 
G01 X-63.1929 Y22.7740 
G01 X-63.2758 Y22.7962 
G01 X-63.3501 Y22.8391 
G01 X-64.0350 Y23.5240 
G01 X-67.1570 Y23.5240 
G01 X-67.2429 Y23.5240 
G01 X-67.3258 Y23.5462 
G01 X-67.4001 Y23.5891 
G01 X-69.2744 Y25.4635 
G01 X-69.2744 Y25.2294 
G01 X-69.3007 Y25.0636 
G01 X-69.3525 Y24.9039 
G01 X-69.4287 Y24.7543 
G01 X-69.5274 Y24.6185 
G01 X-69.6461 Y24.4998 
G01 X-69.7819 Y24.4011 
G01 X-69.9315 Y24.3249 
G01 X-70.0912 Y24.2731 
G01 X-70.2570 Y24.2468 
G01 X-70.4249 Y24.2468 
G01 X-70.5907 Y24.2731 
G01 X-70.7504 Y24.3249 
G01 X-70.9000 Y24.4011 
G01 X-71.0358 Y24.4998 
G01 X-71.1545 Y24.6185 
G01 X-71.2532 Y24.7543 
G01 X-71.3294 Y24.9039 
G01 X-71.3812 Y25.0636 
G01 X-71.4075 Y25.2294 
G01 X-71.4075 Y27.3785 
G01 X-71.3812 Y27.5443 
G01 X-71.3294 Y27.7040 
G01 X-71.2532 Y27.8536 
G01 X-71.1545 Y27.9894 
G01 X-71.0358 Y28.1081 
G01 X-70.9000 Y28.2068 
G01 X-70.7504 Y28.2830 
G01 X-70.5907 Y28.3348 
G01 X-70.4249 Y28.3611 
G01 X-70.2570 Y28.3611 
G01 X-70.0912 Y28.3348 
G01 X-69.9315 Y28.2830 
G01 X-69.7819 Y28.2068 
G01 X-69.6461 Y28.1081 
G01 X-69.5274 Y27.9894 
G01 X-69.4287 Y27.8536 
G01 X-69.3525 Y27.7040 
G01 X-69.3007 Y27.5443 
G01 X-69.2744 Y27.3785 
G01 X-69.2744 Y26.3854 
G01 X-67.0649 Y24.1759 
G01 X-63.8570 Y24.1759 
G01 X-63.7741 Y24.1537 
G01 X-63.6998 Y24.1108 
G01 X-63.6391 Y24.0501 
G01 X-63.0149 Y23.4259 
G01 X-59.9570 Y23.4259 
G01 X-59.8741 Y23.4037 
G01 X-59.7998 Y23.3608 
G01 X-59.7391 Y23.3001 
G01 X-59.7391 Y23.3000 
G01 X-59.1149 Y22.6759 
G01 X-56.3570 Y22.6759 
G01 X-56.2741 Y22.6537 
G01 X-56.1998 Y22.6108 
G01 X-56.1391 Y22.5501 
G01 X-56.1391 Y22.5500 
G01 X-55.5149 Y21.9259 
G01 X-52.8430 Y21.9259 
G01 X-52.8429 Y21.9259 
G01 X-52.7570 Y21.9259 
G01 X-52.6741 Y21.9037 
G01 X-52.5998 Y21.8608 
G01 X-51.9149 Y21.1759 
G01 X-48.1070 Y21.1759 
G01 X-48.0241 Y21.1537 
G01 X-47.9498 Y21.1108 
G01 X-47.8891 Y21.0501 
G01 X-47.8462 Y20.9758 
G01 X-47.8240 Y20.8929 
G01 X-47.8240 Y20.8070 
G01 X-47.8240 Y18.5850 
G01 X-40.8391 Y11.6001 
G01 X-40.7962 Y11.5258 
G01 X-40.7740 Y11.4429 
G01 X-40.7740 Y11.3570 
G01 X-40.7740 Y10.3438 
G01 X-40.7402 Y10.3371 
G01 X-40.5773 Y10.2696 
G01 X-40.4307 Y10.1717 
G01 X-40.3060 Y10.0470 
G01 X-40.2081 Y9.9004 
G01 X-40.1406 Y9.7375 
G01 X-40.1062 Y9.5646 
G01 X-40.1062 Y9.3881 
G01 X-40.1406 Y9.2152 
G01 X-40.2081 Y9.0523 
G01 X-40.3060 Y8.9057 
G01 X-40.4307 Y8.7810 
G01 X-40.5773 Y8.6831 
G01 X-40.7402 Y8.6156 
G01 X-40.9131 Y8.5812 
G01 X-41.0896 Y8.5812 
G01 X-41.2625 Y8.6156 
G01 X-41.4254 Y8.6831 
G01 X-41.5720 Y8.7810 
G01 X-41.6967 Y8.9057 
G01 X-41.7946 Y9.0523 
G01 X-41.8621 Y9.2152 
G01 X-41.8965 Y9.3881 
G00 Z2.0000 
G00 X-44.6651 Y9.3881 
G01 Z-0.2000 F600.00 
G01 X-44.6651 Y9.5646 
G01 X-44.6307 Y9.7375 
G01 X-44.5632 Y9.9004 
G01 X-44.4653 Y10.0470 
G01 X-44.3406 Y10.1717 
G01 X-44.1940 Y10.2696 
G01 X-44.1259 Y10.2978 
G01 X-44.1259 Y12.7240 
G01 X-44.3570 Y12.7240 
G01 X-44.4429 Y12.7240 
G01 X-44.5258 Y12.7462 
G01 X-44.6001 Y12.7891 
G01 X-51.5850 Y19.7740 
G01 X-52.3070 Y19.7740 
G01 X-52.3929 Y19.7740 
G01 X-52.4758 Y19.7962 
G01 X-52.5501 Y19.8391 
G01 X-53.2350 Y20.5240 
G01 X-55.9070 Y20.5240 
G01 X-55.9929 Y20.5240 
G01 X-56.0758 Y20.5462 
G01 X-56.1501 Y20.5891 
G01 X-56.8350 Y21.2740 
G01 X-59.5070 Y21.2740 
G01 X-59.5929 Y21.2740 
G01 X-59.6758 Y21.2962 
G01 X-59.7501 Y21.3391 
G01 X-60.4350 Y22.0240 
G01 X-66.7070 Y22.0240 
G01 X-66.7929 Y22.0240 
G01 X-66.8758 Y22.0462 
G01 X-66.9501 Y22.0891 
G01 X-68.3850 Y23.5240 
G01 X-72.1070 Y23.5240 
G01 X-72.1929 Y23.5240 
G01 X-72.2758 Y23.5462 
G01 X-72.3501 Y23.5891 
G01 X-73.6242 Y24.8633 
G01 X-73.6797 Y24.7543 
G01 X-73.7784 Y24.6185 
G01 X-73.8971 Y24.4998 
G01 X-74.0329 Y24.4011 
G01 X-74.1825 Y24.3249 
G01 X-74.3422 Y24.2731 
G01 X-74.5080 Y24.2468 
G01 X-74.6759 Y24.2468 
G01 X-74.8417 Y24.2731 
G01 X-75.0014 Y24.3249 
G01 X-75.1510 Y24.4011 
G01 X-75.2868 Y24.4998 
G01 X-75.4055 Y24.6185 
G01 X-75.5042 Y24.7543 
G01 X-75.5804 Y24.9039 
G01 X-75.6322 Y25.0636 
G01 X-75.6585 Y25.2294 
G01 X-75.6585 Y27.3785 
G01 X-75.6322 Y27.5443 
G01 X-75.5804 Y27.7040 
G01 X-75.5042 Y27.8536 
G01 X-75.4055 Y27.9894 
G01 X-75.2868 Y28.1081 
G01 X-75.1510 Y28.2068 
G01 X-75.0014 Y28.2830 
G01 X-74.8417 Y28.3348 
G01 X-74.6759 Y28.3611 
G01 X-74.5080 Y28.3611 
G01 X-74.3422 Y28.3348 
G01 X-74.1825 Y28.2830 
G01 X-74.0329 Y28.2068 
G01 X-73.8971 Y28.1081 
G01 X-73.7784 Y27.9894 
G01 X-73.6797 Y27.8536 
G01 X-73.6035 Y27.7040 
G01 X-73.5517 Y27.5443 
G01 X-73.5254 Y27.3785 
G01 X-73.5254 Y25.6864 
G01 X-72.0149 Y24.1759 
G01 X-68.2070 Y24.1759 
G01 X-68.1241 Y24.1537 
G01 X-68.0498 Y24.1108 
G01 X-67.9891 Y24.0501 
G01 X-66.6149 Y22.6759 
G01 X-60.2570 Y22.6759 
G01 X-60.1741 Y22.6537 
G01 X-60.0998 Y22.6108 
G01 X-60.0391 Y22.5501 
G01 X-59.4149 Y21.9259 
G01 X-56.6570 Y21.9259 
G01 X-56.5741 Y21.9037 
G01 X-56.4998 Y21.8608 
G01 X-56.4391 Y21.8001 
G01 X-55.8149 Y21.1759 
G01 X-53.0570 Y21.1759 
G01 X-52.9741 Y21.1537 
G01 X-52.8998 Y21.1108 
G01 X-52.8391 Y21.0501 
G01 X-52.2149 Y20.4259 
G01 X-51.4070 Y20.4259 
G01 X-51.3241 Y20.4037 
G01 X-51.2498 Y20.3608 
G01 X-51.1891 Y20.3001 
G01 X-44.2649 Y13.3759 
G01 X-43.7570 Y13.3759 
G01 X-43.6741 Y13.3537 
G01 X-43.5998 Y13.3108 
G01 X-43.5391 Y13.2501 
G01 X-43.4962 Y13.1758 
G01 X-43.4740 Y13.0929 
G01 X-43.4740 Y13.0070 
G01 X-43.4740 Y10.3226 
G01 X-43.3459 Y10.2696 
G01 X-43.1993 Y10.1717 
G01 X-43.0746 Y10.0470 
G01 X-42.9767 Y9.9004 
G01 X-42.9092 Y9.7375 
G01 X-42.8748 Y9.5646 
G01 X-42.8748 Y9.3881 
G01 X-42.9092 Y9.2152 
G01 X-42.9767 Y9.0523 
G01 X-43.0746 Y8.9057 
G01 X-43.1993 Y8.7810 
G01 X-43.3459 Y8.6831 
G01 X-43.5088 Y8.6156 
G01 X-43.6817 Y8.5812 
G01 X-43.8582 Y8.5812 
G01 X-44.0311 Y8.6156 
G01 X-44.1940 Y8.6831 
G01 X-44.3406 Y8.7810 
G01 X-44.4653 Y8.9057 
G01 X-44.5632 Y9.0523 
G01 X-44.6307 Y9.2152 
G01 X-44.6651 Y9.3881 
G00 Z2.0000 
G00 X-52.9709 Y9.3881 
G01 Z-0.2000 F600.00 
G01 X-52.9709 Y9.5646 
G01 X-52.9365 Y9.7375 
G01 X-52.8960 Y9.8351 
G01 X-62.8350 Y19.7740 
G01 X-71.2070 Y19.7740 
G01 X-71.2929 Y19.7740 
G01 X-71.3758 Y19.7962 
G01 X-71.4501 Y19.8391 
G01 X-72.8850 Y21.2740 
G01 X-82.6070 Y21.2740 
G01 X-82.6929 Y21.2740 
G01 X-82.7758 Y21.2962 
G01 X-82.8501 Y21.3391 
G01 X-86.3762 Y24.8653 
G01 X-86.4327 Y24.7543 
G01 X-86.5314 Y24.6185 
G01 X-86.6501 Y24.4998 
G01 X-86.7859 Y24.4011 
G01 X-86.9355 Y24.3249 
G01 X-87.0952 Y24.2731 
G01 X-87.2610 Y24.2468 
G01 X-87.4289 Y24.2468 
G01 X-87.5947 Y24.2731 
G01 X-87.7544 Y24.3249 
G01 X-87.9040 Y24.4011 
G01 X-88.0398 Y24.4998 
G01 X-88.1585 Y24.6185 
G01 X-88.2572 Y24.7543 
G01 X-88.3334 Y24.9039 
G01 X-88.3852 Y25.0636 
G01 X-88.4115 Y25.2294 
G01 X-88.4115 Y27.3785 
G01 X-88.3852 Y27.5443 
G01 X-88.3334 Y27.7040 
G01 X-88.2572 Y27.8536 
G01 X-88.1585 Y27.9894 
G01 X-88.0398 Y28.1081 
G01 X-87.9040 Y28.2068 
G01 X-87.7544 Y28.2830 
G01 X-87.5947 Y28.3348 
G01 X-87.4289 Y28.3611 
G01 X-87.2610 Y28.3611 
G01 X-87.0952 Y28.3348 
G01 X-86.9355 Y28.2830 
G01 X-86.7859 Y28.2068 
G01 X-86.6501 Y28.1081 
G01 X-86.5314 Y27.9894 
G01 X-86.4327 Y27.8536 
G01 X-86.3565 Y27.7040 
G01 X-86.3047 Y27.5443 
G01 X-86.2784 Y27.3785 
G01 X-86.2784 Y25.6894 
G01 X-82.5149 Y21.9259 
G01 X-72.7070 Y21.9259 
G01 X-72.6241 Y21.9037 
G01 X-72.5498 Y21.8608 
G01 X-72.4891 Y21.8001 
G01 X-71.1149 Y20.4259 
G01 X-62.6570 Y20.4259 
G01 X-62.5741 Y20.4037 
G01 X-62.4998 Y20.3608 
G01 X-62.4391 Y20.3001 
G01 X-52.4353 Y10.2963 
G01 X-52.3369 Y10.3371 
G01 X-52.1640 Y10.3715 
G01 X-51.9875 Y10.3715 
G01 X-51.8146 Y10.3371 
G01 X-51.6517 Y10.2696 
G01 X-51.5051 Y10.1717 
G01 X-51.3804 Y10.0470 
G01 X-51.2825 Y9.9004 
G01 X-51.2150 Y9.7375 
G01 X-51.1806 Y9.5646 
G01 X-51.1806 Y9.3881 
G01 X-51.2150 Y9.2152 
G01 X-51.2825 Y9.0523 
G01 X-51.3804 Y8.9057 
G01 X-51.5051 Y8.7810 
G01 X-51.6517 Y8.6831 
G01 X-51.8146 Y8.6156 
G01 X-51.9875 Y8.5812 
G01 X-52.1640 Y8.5812 
G01 X-52.3369 Y8.6156 
G01 X-52.4998 Y8.6831 
G01 X-52.6464 Y8.7810 
G01 X-52.7711 Y8.9057 
G01 X-52.8690 Y9.0523 
G01 X-52.9365 Y9.2152 
G01 X-52.9709 Y9.3881 
G00 Z2.0000 
G00 X-61.2767 Y9.3881 
G01 Z-0.2000 F600.00 
G01 X-61.2767 Y9.5646 
G01 X-61.2423 Y9.7375 
G01 X-61.1855 Y9.8745 
G01 X-68.5350 Y17.2240 
G01 X-91.3070 Y17.2240 
G01 X-91.3929 Y17.2240 
G01 X-91.4758 Y17.2462 
G01 X-91.5501 Y17.2891 
G01 X-99.1282 Y24.8673 
G01 X-99.1857 Y24.7543 
G01 X-99.2844 Y24.6185 
G01 X-99.4031 Y24.4998 
G01 X-99.5389 Y24.4011 
G01 X-99.6885 Y24.3249 
G01 X-99.8482 Y24.2731 
G01 X-100.0140 Y24.2468 
G01 X-100.1819 Y24.2468 
G01 X-100.3477 Y24.2731 
G01 X-100.5074 Y24.3249 
G01 X-100.6570 Y24.4011 
G01 X-100.7928 Y24.4998 
G01 X-100.9115 Y24.6185 
G01 X-101.0102 Y24.7543 
G01 X-101.0864 Y24.9039 
G01 X-101.1382 Y25.0636 
G01 X-101.1645 Y25.2294 
G01 X-101.1645 Y27.3785 
G01 X-101.1382 Y27.5443 
G01 X-101.0864 Y27.7040 
G01 X-101.0102 Y27.8536 
G01 X-100.9115 Y27.9894 
G01 X-100.7928 Y28.1081 
G01 X-100.6570 Y28.2068 
G01 X-100.5074 Y28.2830 
G01 X-100.3477 Y28.3348 
G01 X-100.1819 Y28.3611 
G01 X-100.0140 Y28.3611 
G01 X-99.8482 Y28.3348 
G01 X-99.6885 Y28.2830 
G01 X-99.5389 Y28.2068 
G01 X-99.4031 Y28.1081 
G01 X-99.2844 Y27.9894 
G01 X-99.1857 Y27.8536 
G01 X-99.1095 Y27.7040 
G01 X-99.0577 Y27.5443 
G01 X-99.0314 Y27.3785 
G01 X-99.0314 Y25.6924 
G01 X-91.2149 Y17.8759 
G01 X-68.3570 Y17.8759 
G01 X-68.2741 Y17.8537 
G01 X-68.1998 Y17.8108 
G01 X-68.1391 Y17.7501 
G01 X-60.7017 Y10.3126 
G01 X-60.6427 Y10.3371 
G01 X-60.4698 Y10.3715 
G01 X-60.2933 Y10.3715 
G01 X-60.1204 Y10.3371 
G01 X-59.9575 Y10.2696 
G01 X-59.8109 Y10.1717 
G01 X-59.6862 Y10.0470 
G01 X-59.5883 Y9.9004 
G01 X-59.5208 Y9.7375 
G01 X-59.4864 Y9.5646 
G01 X-59.4864 Y9.3881 
G01 X-59.5208 Y9.2152 
G01 X-59.5883 Y9.0523 
G01 X-59.6862 Y8.9057 
G01 X-59.8109 Y8.7810 
G01 X-59.9575 Y8.6831 
G01 X-60.1204 Y8.6156 
G01 X-60.2933 Y8.5812 
G01 X-60.4698 Y8.5812 
G01 X-60.6427 Y8.6156 
G01 X-60.8056 Y8.6831 
G01 X-60.9522 Y8.7810 
G01 X-61.0769 Y8.9057 
G01 X-61.1748 Y9.0523 
G01 X-61.2423 Y9.2152 
G01 X-61.2767 Y9.3881 
G00 Z2.0000 
G00 X-67.1565 Y25.2294 
G01 Z-0.2000 F600.00 
G01 X-67.1565 Y27.3785 
G01 X-67.1302 Y27.5443 
G01 X-67.0784 Y27.7040 
G01 X-67.0022 Y27.8536 
G01 X-66.9035 Y27.9894 
G01 X-66.7848 Y28.1081 
G01 X-66.6490 Y28.2068 
G01 X-66.4994 Y28.2830 
G01 X-66.3397 Y28.3348 
G01 X-66.1739 Y28.3611 
G01 X-66.0060 Y28.3611 
G01 X-65.8402 Y28.3348 
G01 X-65.6805 Y28.2830 
G01 X-65.5309 Y28.2068 
G01 X-65.3951 Y28.1081 
G01 X-65.2764 Y27.9894 
G01 X-65.1777 Y27.8536 
G01 X-65.1015 Y27.7040 
G01 X-65.0497 Y27.5443 
G01 X-65.0234 Y27.3785 
G01 X-65.0234 Y26.4844 
G01 X-64.9891 Y26.4501 
G01 X-62.7149 Y24.1759 
G01 X-59.6570 Y24.1759 
G01 X-59.5741 Y24.1537 
G01 X-59.4998 Y24.1108 
G01 X-59.4391 Y24.0501 
G01 X-58.8149 Y23.4259 
G01 X-55.7570 Y23.4259 
G01 X-55.6741 Y23.4037 
G01 X-55.5998 Y23.3608 
G01 X-55.5391 Y23.3001 
G01 X-54.9149 Y22.6759 
G01 X-51.7070 Y22.6759 
G01 X-51.6241 Y22.6537 
G01 X-51.5498 Y22.6108 
G01 X-51.4891 Y22.5501 
G01 X-50.8649 Y21.9259 
G01 X-47.8070 Y21.9259 
G01 X-47.7241 Y21.9037 
G01 X-47.6498 Y21.8608 
G01 X-47.5891 Y21.8001 
G01 X-46.9649 Y21.1759 
G01 X-44.3570 Y21.1759 
G01 X-44.2741 Y21.1537 
G01 X-44.1998 Y21.1108 
G01 X-44.1391 Y21.0501 
G01 X-44.0962 Y20.9758 
G01 X-44.0740 Y20.8929 
G01 X-44.0740 Y20.8070 
G01 X-44.0740 Y15.8850 
G01 X-38.5167 Y10.3276 
G01 X-38.4939 Y10.3371 
G01 X-38.3210 Y10.3715 
G01 X-38.1445 Y10.3715 
G01 X-37.9716 Y10.3371 
G01 X-37.8087 Y10.2696 
G01 X-37.6621 Y10.1717 
G01 X-37.5374 Y10.0470 
G01 X-37.4395 Y9.9004 
G01 X-37.3720 Y9.7375 
G01 X-37.3376 Y9.5646 
G01 X-37.3376 Y9.3881 
G01 X-37.3720 Y9.2152 
G01 X-37.4395 Y9.0523 
G01 X-37.5374 Y8.9057 
G01 X-37.6621 Y8.7810 
G01 X-37.8087 Y8.6831 
G01 X-37.9716 Y8.6156 
G01 X-38.1445 Y8.5812 
G01 X-38.3210 Y8.5812 
G01 X-38.4939 Y8.6156 
G01 X-38.6568 Y8.6831 
G01 X-38.8034 Y8.7810 
G01 X-38.9281 Y8.9057 
G01 X-39.0260 Y9.0523 
G01 X-39.0935 Y9.2152 
G01 X-39.1279 Y9.3881 
G01 X-39.1279 Y9.5646 
G01 X-39.0935 Y9.7375 
G01 X-39.0260 Y9.9004 
G01 X-39.0201 Y9.9092 
G01 X-44.6001 Y15.4891 
G01 X-44.6608 Y15.5498 
G01 X-44.7037 Y15.6241 
G01 X-44.7259 Y15.7070 
G01 X-44.7259 Y20.5240 
G01 X-47.0570 Y20.5240 
G01 X-47.1429 Y20.5240 
G01 X-47.2258 Y20.5462 
G01 X-47.3001 Y20.5891 
G01 X-47.9850 Y21.2740 
G01 X-50.9570 Y21.2740 
G01 X-51.0429 Y21.2740 
G01 X-51.1258 Y21.2962 
G01 X-51.2001 Y21.3391 
G01 X-51.8850 Y22.0240 
G01 X-55.0070 Y22.0240 
G01 X-55.0929 Y22.0240 
G01 X-55.1758 Y22.0462 
G01 X-55.2501 Y22.0891 
G01 X-55.9350 Y22.7740 
G01 X-58.9070 Y22.7740 
G01 X-58.9929 Y22.7740 
G01 X-59.0758 Y22.7962 
G01 X-59.1501 Y22.8391 
G01 X-59.8350 Y23.5240 
G01 X-62.8070 Y23.5240 
G01 X-62.8929 Y23.5240 
G01 X-62.9758 Y23.5462 
G01 X-63.0501 Y23.5891 
G01 X-65.0234 Y25.5625 
G01 X-65.0234 Y25.2294 
G01 X-65.0497 Y25.0636 
G01 X-65.1015 Y24.9039 
G01 X-65.1777 Y24.7543 
G01 X-65.2764 Y24.6185 
G01 X-65.3951 Y24.4998 
G01 X-65.5309 Y24.4011 
G01 X-65.6805 Y24.3249 
G01 X-65.8402 Y24.2731 
G01 X-66.0060 Y24.2468 
G01 X-66.1739 Y24.2468 
G01 X-66.3397 Y24.2731 
G01 X-66.4994 Y24.3249 
G01 X-66.6490 Y24.4011 
G01 X-66.7848 Y24.4998 
G01 X-66.9035 Y24.6185 
G01 X-67.0022 Y24.7543 
G01 X-67.0784 Y24.9039 
G01 X-67.1302 Y25.0636 
G01 X-67.1565 Y25.2294 
G00 Z2.0000 
G00 X-79.9095 Y25.2294 
G01 Z-0.2000 F600.00 
G01 X-79.9095 Y27.3785 
G01 X-79.8832 Y27.5443 
G01 X-79.8314 Y27.7040 
G01 X-79.7552 Y27.8536 
G01 X-79.6565 Y27.9894 
G01 X-79.5378 Y28.1081 
G01 X-79.4020 Y28.2068 
G01 X-79.2524 Y28.2830 
G01 X-79.0927 Y28.3348 
G01 X-78.9269 Y28.3611 
G01 X-78.7590 Y28.3611 
G01 X-78.5932 Y28.3348 
G01 X-78.4335 Y28.2830 
G01 X-78.2839 Y28.2068 
G01 X-78.1481 Y28.1081 
G01 X-78.0294 Y27.9894 
G01 X-77.9307 Y27.8536 
G01 X-77.8545 Y27.7040 
G01 X-77.8027 Y27.5443 
G01 X-77.7764 Y27.3785 
G01 X-77.7764 Y26.3374 
G01 X-74.8649 Y23.4259 
G01 X-68.6570 Y23.4259 
G01 X-68.5741 Y23.4037 
G01 X-68.4998 Y23.3608 
G01 X-68.4391 Y23.3001 
G01 X-67.0649 Y21.9259 
G01 X-60.5570 Y21.9259 
G01 X-60.4741 Y21.9037 
G01 X-60.3998 Y21.8608 
G01 X-60.3391 Y21.8001 
G01 X-59.7149 Y21.1759 
G01 X-56.9570 Y21.1759 
G01 X-56.8741 Y21.1537 
G01 X-56.7998 Y21.1108 
G01 X-56.7391 Y21.0501 
G01 X-56.1149 Y20.4259 
G01 X-53.3570 Y20.4259 
G01 X-53.2741 Y20.4037 
G01 X-53.1998 Y20.3608 
G01 X-53.1391 Y20.3001 
G01 X-52.5149 Y19.6759 
G01 X-51.7070 Y19.6759 
G01 X-51.6241 Y19.6537 
G01 X-51.5498 Y19.6108 
G01 X-51.4891 Y19.5501 
G01 X-51.4891 Y19.5500 
G01 X-46.3891 Y14.4501 
G01 X-46.3462 Y14.3758 
G01 X-46.3240 Y14.2929 
G01 X-46.3240 Y14.2070 
G01 X-46.3240 Y10.3463 
G01 X-46.2774 Y10.3371 
G01 X-46.1145 Y10.2696 
G01 X-45.9679 Y10.1717 
G01 X-45.8432 Y10.0470 
G01 X-45.7453 Y9.9004 
G01 X-45.6778 Y9.7375 
G01 X-45.6434 Y9.5646 
G01 X-45.6434 Y9.3881 
G01 X-45.6778 Y9.2152 
G01 X-45.7453 Y9.0523 
G01 X-45.8432 Y8.9057 
G01 X-45.9679 Y8.7810 
G01 X-46.1145 Y8.6831 
G01 X-46.2774 Y8.6156 
G01 X-46.4503 Y8.5812 
G01 X-46.6268 Y8.5812 
G01 X-46.7997 Y8.6156 
G01 X-46.9626 Y8.6831 
G01 X-47.1092 Y8.7810 
G01 X-47.2339 Y8.9057 
G01 X-47.3318 Y9.0523 
G01 X-47.3993 Y9.2152 
G01 X-47.4337 Y9.3881 
G01 X-47.4337 Y9.5646 
G01 X-47.3993 Y9.7375 
G01 X-47.3318 Y9.9004 
G01 X-47.2339 Y10.0470 
G01 X-47.1092 Y10.1717 
G01 X-46.9759 Y10.2607 
G01 X-46.9759 Y14.1149 
G01 X-51.8850 Y19.0240 
G01 X-52.6070 Y19.0240 
G01 X-52.6929 Y19.0240 
G01 X-52.7758 Y19.0462 
G01 X-52.8501 Y19.0891 
G01 X-53.5350 Y19.7740 
G01 X-56.2070 Y19.7740 
G01 X-56.2929 Y19.7740 
G01 X-56.3758 Y19.7962 
G01 X-56.4501 Y19.8391 
G01 X-57.1350 Y20.5240 
G01 X-59.8070 Y20.5240 
G01 X-59.8929 Y20.5240 
G01 X-59.9758 Y20.5462 
G01 X-60.0501 Y20.5891 
G01 X-60.7350 Y21.2740 
G01 X-67.1570 Y21.2740 
G01 X-67.2429 Y21.2740 
G01 X-67.3258 Y21.2962 
G01 X-67.4001 Y21.3391 
G01 X-68.8350 Y22.7740 
G01 X-74.9570 Y22.7740 
G01 X-75.0429 Y22.7740 
G01 X-75.1258 Y22.7962 
G01 X-75.2001 Y22.8391 
G01 X-77.7764 Y25.4155 
G01 X-77.7764 Y25.2294 
G01 X-77.8027 Y25.0636 
G01 X-77.8545 Y24.9039 
G01 X-77.9307 Y24.7543 
G01 X-78.0294 Y24.6185 
G01 X-78.1481 Y24.4998 
G01 X-78.2839 Y24.4011 
G01 X-78.4335 Y24.3249 
G01 X-78.5932 Y24.2731 
G01 X-78.7590 Y24.2468 
G01 X-78.9269 Y24.2468 
G01 X-79.0927 Y24.2731 
G01 X-79.2524 Y24.3249 
G01 X-79.4020 Y24.4011 
G01 X-79.5378 Y24.4998 
G01 X-79.6565 Y24.6185 
G01 X-79.7552 Y24.7543 
G01 X-79.8314 Y24.9039 
G01 X-79.8832 Y25.0636 
G01 X-79.9095 Y25.2294 
G00 Z2.0000 
G00 X-84.1605 Y25.2294 
G01 Z-0.2000 F600.00 
G01 X-84.1605 Y27.3785 
G01 X-84.1342 Y27.5443 
G01 X-84.0824 Y27.7040 
G01 X-84.0062 Y27.8536 
G01 X-83.9075 Y27.9894 
G01 X-83.7888 Y28.1081 
G01 X-83.6530 Y28.2068 
G01 X-83.5034 Y28.2830 
G01 X-83.3437 Y28.3348 
G01 X-83.1779 Y28.3611 
G01 X-83.0100 Y28.3611 
G01 X-82.8442 Y28.3348 
G01 X-82.6845 Y28.2830 
G01 X-82.5349 Y28.2068 
G01 X-82.3991 Y28.1081 
G01 X-82.2804 Y27.9894 
G01 X-82.1817 Y27.8536 
G01 X-82.1055 Y27.7040 
G01 X-82.0537 Y27.5443 
G01 X-82.0274 Y27.3785 
G01 X-82.0274 Y25.7884 
G01 X-78.9149 Y22.6759 
G01 X-69.2570 Y22.6759 
G01 X-69.1741 Y22.6537 
G01 X-69.0998 Y22.6108 
G01 X-69.0391 Y22.5501 
G01 X-67.6649 Y21.1759 
G01 X-62.3570 Y21.1759 
G01 X-62.2741 Y21.1537 
G01 X-62.1998 Y21.1108 
G01 X-62.1391 Y21.0501 
G01 X-55.5149 Y14.4259 
G01 X-53.8070 Y14.4259 
G01 X-53.7241 Y14.4037 
G01 X-53.6498 Y14.3608 
G01 X-53.5891 Y14.3001 
G01 X-49.6092 Y10.3201 
G01 X-49.5683 Y10.3371 
G01 X-49.3954 Y10.3715 
G01 X-49.2189 Y10.3715 
G01 X-49.0460 Y10.3371 
G01 X-48.8831 Y10.2696 
G01 X-48.7365 Y10.1717 
G01 X-48.6118 Y10.0470 
G01 X-48.5139 Y9.9004 
G01 X-48.4464 Y9.7375 
G01 X-48.4120 Y9.5646 
G01 X-48.4120 Y9.3881 
G01 X-48.4464 Y9.2152 
G01 X-48.5139 Y9.0523 
G01 X-48.6118 Y8.9057 
G01 X-48.7365 Y8.7810 
G01 X-48.8831 Y8.6831 
G01 X-49.0460 Y8.6156 
G01 X-49.2189 Y8.5812 
G01 X-49.3954 Y8.5812 
G01 X-49.5683 Y8.6156 
G01 X-49.7312 Y8.6831 
G01 X-49.8778 Y8.7810 
G01 X-50.0025 Y8.9057 
G01 X-50.1004 Y9.0523 
G01 X-50.1679 Y9.2152 
G01 X-50.2023 Y9.3881 
G01 X-50.2023 Y9.5646 
G01 X-50.1679 Y9.7375 
G01 X-50.1036 Y9.8926 
G01 X-53.9850 Y13.7740 
G01 X-55.6070 Y13.7740 
G01 X-55.6929 Y13.7740 
G01 X-55.7758 Y13.7962 
G01 X-55.8501 Y13.8391 
G01 X-62.5350 Y20.5240 
G01 X-67.7570 Y20.5240 
G01 X-67.8429 Y20.5240 
G01 X-67.9258 Y20.5462 
G01 X-68.0001 Y20.5891 
G01 X-69.4350 Y22.0240 
G01 X-79.0070 Y22.0240 
G01 X-79.0929 Y22.0240 
G01 X-79.1758 Y22.0462 
G01 X-79.2501 Y22.0891 
G01 X-82.0956 Y24.9346 
G01 X-82.1055 Y24.9039 
G01 X-82.1817 Y24.7543 
G01 X-82.2804 Y24.6185 
G01 X-82.3991 Y24.4998 
G01 X-82.5349 Y24.4011 
G01 X-82.6845 Y24.3249 
G01 X-82.8442 Y24.2731 
G01 X-83.0100 Y24.2468 
G01 X-83.1779 Y24.2468 
G01 X-83.3437 Y24.2731 
G01 X-83.5034 Y24.3249 
G01 X-83.6530 Y24.4011 
G01 X-83.7888 Y24.4998 
G01 X-83.9075 Y24.6185 
G01 X-84.0062 Y24.7543 
G01 X-84.0824 Y24.9039 
G01 X-84.1342 Y25.0636 
G01 X-84.1605 Y25.2294 
G00 Z2.0000 
G00 X-92.6625 Y25.2294 
G01 Z-0.2000 F600.00 
G01 X-92.6625 Y27.3785 
G01 X-92.6362 Y27.5443 
G01 X-92.5844 Y27.7040 
G01 X-92.5082 Y27.8536 
G01 X-92.4095 Y27.9894 
G01 X-92.2908 Y28.1081 
G01 X-92.1550 Y28.2068 
G01 X-92.0054 Y28.2830 
G01 X-91.8457 Y28.3348 
G01 X-91.6799 Y28.3611 
G01 X-91.5120 Y28.3611 
G01 X-91.3462 Y28.3348 
G01 X-91.1865 Y28.2830 
G01 X-91.0369 Y28.2068 
G01 X-90.9011 Y28.1081 
G01 X-90.7824 Y27.9894 
G01 X-90.6837 Y27.8536 
G01 X-90.6075 Y27.7040 
G01 X-90.5557 Y27.5443 
G01 X-90.5294 Y27.3785 
G01 X-90.5294 Y25.7978 
G01 X-84.0809 Y19.5259 
G01 X-64.1971 Y19.5259 
G01 X-64.1431 Y19.5563 
G01 X-64.0460 Y19.5812 
G01 X-63.9457 Y19.5801 
G01 X-63.8491 Y19.5531 
G01 X-63.7629 Y19.5021 
G01 X-54.8275 Y10.3715 
G01 X-54.7561 Y10.3715 
G01 X-54.5832 Y10.3371 
G01 X-54.4203 Y10.2696 
G01 X-54.2737 Y10.1717 
G01 X-54.1490 Y10.0470 
G01 X-54.0511 Y9.9004 
G01 X-53.9836 Y9.7375 
G01 X-53.9492 Y9.5646 
G01 X-53.9492 Y9.3881 
G01 X-53.9836 Y9.2152 
G01 X-54.0511 Y9.0523 
G01 X-54.1490 Y8.9057 
G01 X-54.2737 Y8.7810 
G01 X-54.4203 Y8.6831 
G01 X-54.5832 Y8.6156 
G01 X-54.7561 Y8.5812 
G01 X-54.9326 Y8.5812 
G01 X-55.1055 Y8.6156 
G01 X-55.2684 Y8.6831 
G01 X-55.4150 Y8.7810 
G01 X-55.5397 Y8.9057 
G01 X-55.6376 Y9.0523 
G01 X-55.7051 Y9.2152 
G01 X-55.7395 Y9.3881 
G01 X-55.7395 Y9.5646 
G01 X-55.7051 Y9.7375 
G01 X-55.6376 Y9.9004 
G01 X-55.5541 Y10.0253 
G01 X-64.2137 Y18.8740 
G01 X-84.0951 Y18.8740 
G01 X-84.1400 Y18.8472 
G01 X-84.2365 Y18.8199 
G01 X-84.3368 Y18.8185 
G01 X-84.4340 Y18.8431 
G01 X-84.5215 Y18.8920 
G01 X-90.6391 Y24.8421 
G01 X-90.6837 Y24.7543 
G01 X-90.7824 Y24.6185 
G01 X-90.9011 Y24.4998 
G01 X-91.0369 Y24.4011 
G01 X-91.1865 Y24.3249 
G01 X-91.3462 Y24.2731 
G01 X-91.5120 Y24.2468 
G01 X-91.6799 Y24.2468 
G01 X-91.8457 Y24.2731 
G01 X-92.0054 Y24.3249 
G01 X-92.1550 Y24.4011 
G01 X-92.2908 Y24.4998 
G01 X-92.4095 Y24.6185 
G01 X-92.5082 Y24.7543 
G01 X-92.5844 Y24.9039 
G01 X-92.6362 Y25.0636 
G01 X-92.6625 Y25.2294 
G00 Z2.0000 
G00 X-96.9135 Y25.2294 
G01 Z-0.2000 F600.00 
G01 X-96.9135 Y27.3785 
G01 X-96.8872 Y27.5443 
G01 X-96.8354 Y27.7040 
G01 X-96.7592 Y27.8536 
G01 X-96.6605 Y27.9894 
G01 X-96.5418 Y28.1081 
G01 X-96.4060 Y28.2068 
G01 X-96.2564 Y28.2830 
G01 X-96.0967 Y28.3348 
G01 X-95.9309 Y28.3611 
G01 X-95.7630 Y28.3611 
G01 X-95.5972 Y28.3348 
G01 X-95.4375 Y28.2830 
G01 X-95.2879 Y28.2068 
G01 X-95.1521 Y28.1081 
G01 X-95.0334 Y27.9894 
G01 X-94.9347 Y27.8536 
G01 X-94.8585 Y27.7040 
G01 X-94.8067 Y27.5443 
G01 X-94.7804 Y27.3785 
G01 X-94.7804 Y25.7914 
G01 X-87.6149 Y18.6259 
G01 X-66.4070 Y18.6259 
G01 X-66.3241 Y18.6037 
G01 X-66.2498 Y18.5608 
G01 X-66.1891 Y18.5001 
G01 X-57.9816 Y10.2925 
G01 X-57.8741 Y10.3371 
G01 X-57.7012 Y10.3715 
G01 X-57.5247 Y10.3715 
G01 X-57.3518 Y10.3371 
G01 X-57.1889 Y10.2696 
G01 X-57.0423 Y10.1717 
G01 X-56.9176 Y10.0470 
G01 X-56.8197 Y9.9004 
G01 X-56.7522 Y9.7375 
G01 X-56.7178 Y9.5646 
G01 X-56.7178 Y9.3881 
G01 X-56.7522 Y9.2152 
G01 X-56.8197 Y9.0523 
G01 X-56.9176 Y8.9057 
G01 X-57.0423 Y8.7810 
G01 X-57.1889 Y8.6831 
G01 X-57.3518 Y8.6156 
G01 X-57.5247 Y8.5812 
G01 X-57.7012 Y8.5812 
G01 X-57.8741 Y8.6156 
G01 X-58.0370 Y8.6831 
G01 X-58.1836 Y8.7810 
G01 X-58.3083 Y8.9057 
G01 X-58.4062 Y9.0523 
G01 X-58.4737 Y9.2152 
G01 X-58.5081 Y9.3881 
G01 X-58.5081 Y9.5646 
G01 X-58.4737 Y9.7375 
G01 X-58.4370 Y9.8260 
G01 X-66.5850 Y17.9740 
G01 X-87.7070 Y17.9740 
G01 X-87.7929 Y17.9740 
G01 X-87.8758 Y17.9962 
G01 X-87.9501 Y18.0391 
G01 X-94.8479 Y24.9369 
G01 X-94.8585 Y24.9039 
G01 X-94.9347 Y24.7543 
G01 X-95.0334 Y24.6185 
G01 X-95.1521 Y24.4998 
G01 X-95.2879 Y24.4011 
G01 X-95.4375 Y24.3249 
G01 X-95.5972 Y24.2731 
G01 X-95.7630 Y24.2468 
G01 X-95.9309 Y24.2468 
G01 X-96.0967 Y24.2731 
G01 X-96.2564 Y24.3249 
G01 X-96.4060 Y24.4011 
G01 X-96.5418 Y24.4998 
G01 X-96.6605 Y24.6185 
G01 X-96.7592 Y24.7543 
G01 X-96.8354 Y24.9039 
G01 X-96.8872 Y25.0636 
G01 X-96.9135 Y25.2294 
(File Footer)
G00 Z2.0000 
G00 Z10.0000 
M05
M02
