( This gcode generated by /home/mattvenn/.eagle/ulp/pcb-gcode.ulp )
( Copyright 2005 by John Johnson. See readme.txt for licensing terms. )

( This file generated from the board /home/mattvenn/eagle-circuit-designs/cvm/hymera2.brd )
( This file generated 13/02/2012 12:12 )

G21

G90
G00 Z10.0000 
G00 X0 Y0
M03
G04 P3.000000
G00 Z2.0000 
G00 X7.6675 Y25.2274 
G01 Z-0.2000 F600.00 
G01 X7.6675 Y27.3805 
G01 X7.6406 Y27.5502 
G01 X7.5875 Y27.7136 
G01 X7.5095 Y27.8667 
G01 X7.4085 Y28.0057 
G01 X7.2871 Y28.1271 
G01 X7.1481 Y28.2281 
G01 X6.9950 Y28.3061 
G01 X6.8316 Y28.3592 
G01 X6.6619 Y28.3861 
G01 X6.4900 Y28.3861 
G01 X6.3203 Y28.3592 
G01 X6.1569 Y28.3061 
G01 X6.0038 Y28.2281 
G01 X5.8648 Y28.1271 
G01 X5.7434 Y28.0057 
G01 X5.6424 Y27.8667 
G01 X5.5644 Y27.7136 
G01 X5.5113 Y27.5502 
G01 X5.4844 Y27.3805 
G01 X5.4844 Y25.2274 
G01 X5.5113 Y25.0577 
G01 X5.5644 Y24.8943 
G01 X5.6424 Y24.7412 
G01 X5.7434 Y24.6022 
G01 X5.8648 Y24.4808 
G01 X6.0038 Y24.3798 
G01 X6.1569 Y24.3018 
G01 X6.3203 Y24.2487 
G01 X6.4900 Y24.2218 
G01 X6.6619 Y24.2218 
G01 X6.8316 Y24.2487 
G01 X6.9950 Y24.3018 
G01 X7.1481 Y24.3798 
G01 X7.2871 Y24.4808 
G01 X7.4085 Y24.6022 
G01 X7.5095 Y24.7412 
G01 X7.5875 Y24.8943 
G01 X7.6406 Y25.0577 
G01 X7.6675 Y25.2274 
G00 Z2.0000 
G00 X11.9185 Y25.2274 
G01 Z-0.2000 F600.00 
G01 X11.9185 Y27.3805 
G01 X11.8916 Y27.5502 
G01 X11.8385 Y27.7136 
G01 X11.7605 Y27.8667 
G01 X11.6595 Y28.0057 
G01 X11.5381 Y28.1271 
G01 X11.3991 Y28.2281 
G01 X11.2460 Y28.3061 
G01 X11.0826 Y28.3592 
G01 X10.9129 Y28.3861 
G01 X10.7410 Y28.3861 
G01 X10.5713 Y28.3592 
G01 X10.4079 Y28.3061 
G01 X10.2548 Y28.2281 
G01 X10.1158 Y28.1271 
G01 X9.9944 Y28.0057 
G01 X9.8934 Y27.8667 
G01 X9.8154 Y27.7136 
G01 X9.7623 Y27.5502 
G01 X9.7354 Y27.3805 
G01 X9.7354 Y25.2274 
G01 X9.7623 Y25.0577 
G01 X9.8154 Y24.8943 
G01 X9.8934 Y24.7412 
G01 X9.9944 Y24.6022 
G01 X10.1158 Y24.4808 
G01 X10.2548 Y24.3798 
G01 X10.4079 Y24.3018 
G01 X10.5713 Y24.2487 
G01 X10.7410 Y24.2218 
G01 X10.9129 Y24.2218 
G01 X11.0826 Y24.2487 
G01 X11.2460 Y24.3018 
G01 X11.3991 Y24.3798 
G01 X11.5381 Y24.4808 
G01 X11.6595 Y24.6022 
G01 X11.7605 Y24.7412 
G01 X11.8385 Y24.8943 
G01 X11.8916 Y25.0577 
G01 X11.9185 Y25.2274 
G00 Z2.0000 
G00 X16.1695 Y25.2274 
G01 Z-0.2000 F600.00 
G01 X16.1695 Y27.3805 
G01 X16.1426 Y27.5502 
G01 X16.0895 Y27.7136 
G01 X16.0115 Y27.8667 
G01 X15.9105 Y28.0057 
G01 X15.7891 Y28.1271 
G01 X15.6501 Y28.2281 
G01 X15.4970 Y28.3061 
G01 X15.3336 Y28.3592 
G01 X15.1639 Y28.3861 
G01 X14.9920 Y28.3861 
G01 X14.8223 Y28.3592 
G01 X14.6589 Y28.3061 
G01 X14.5058 Y28.2281 
G01 X14.3668 Y28.1271 
G01 X14.2454 Y28.0057 
G01 X14.1444 Y27.8667 
G01 X14.0664 Y27.7136 
G01 X14.0133 Y27.5502 
G01 X13.9864 Y27.3805 
G01 X13.9864 Y25.2274 
G01 X14.0133 Y25.0577 
G01 X14.0664 Y24.8943 
G01 X14.1444 Y24.7412 
G01 X14.2454 Y24.6022 
G01 X14.3668 Y24.4808 
G01 X14.5058 Y24.3798 
G01 X14.6589 Y24.3018 
G01 X14.8223 Y24.2487 
G01 X14.9920 Y24.2218 
G01 X15.1639 Y24.2218 
G01 X15.3336 Y24.2487 
G01 X15.4970 Y24.3018 
G01 X15.6501 Y24.3798 
G01 X15.7891 Y24.4808 
G01 X15.9105 Y24.6022 
G01 X16.0115 Y24.7412 
G01 X16.0895 Y24.8943 
G01 X16.1426 Y25.0577 
G01 X16.1695 Y25.2274 
G00 Z2.0000 
G00 X20.4205 Y25.2274 
G01 Z-0.2000 F600.00 
G01 X20.4205 Y27.3805 
G01 X20.3936 Y27.5502 
G01 X20.3405 Y27.7136 
G01 X20.2625 Y27.8667 
G01 X20.1615 Y28.0057 
G01 X20.0401 Y28.1271 
G01 X19.9011 Y28.2281 
G01 X19.7480 Y28.3061 
G01 X19.5846 Y28.3592 
G01 X19.4149 Y28.3861 
G01 X19.2430 Y28.3861 
G01 X19.0733 Y28.3592 
G01 X18.9099 Y28.3061 
G01 X18.7568 Y28.2281 
G01 X18.6178 Y28.1271 
G01 X18.4964 Y28.0057 
G01 X18.3954 Y27.8667 
G01 X18.3174 Y27.7136 
G01 X18.2643 Y27.5502 
G01 X18.2374 Y27.3805 
G01 X18.2374 Y25.2274 
G01 X18.2643 Y25.0577 
G01 X18.3174 Y24.8943 
G01 X18.3954 Y24.7412 
G01 X18.4964 Y24.6022 
G01 X18.6178 Y24.4808 
G01 X18.7568 Y24.3798 
G01 X18.9099 Y24.3018 
G01 X19.0733 Y24.2487 
G01 X19.2430 Y24.2218 
G01 X19.4149 Y24.2218 
G01 X19.5846 Y24.2487 
G01 X19.7480 Y24.3018 
G01 X19.9011 Y24.3798 
G01 X20.0401 Y24.4808 
G01 X20.1615 Y24.6022 
G01 X20.2625 Y24.7412 
G01 X20.3405 Y24.8943 
G01 X20.3936 Y25.0577 
G01 X20.4205 Y25.2274 
G00 Z2.0000 
G00 X24.6715 Y25.2274 
G01 Z-0.2000 F600.00 
G01 X24.6715 Y27.3805 
G01 X24.6446 Y27.5502 
G01 X24.5915 Y27.7136 
G01 X24.5135 Y27.8667 
G01 X24.4125 Y28.0057 
G01 X24.2911 Y28.1271 
G01 X24.1521 Y28.2281 
G01 X23.9990 Y28.3061 
G01 X23.8356 Y28.3592 
G01 X23.6659 Y28.3861 
G01 X23.4940 Y28.3861 
G01 X23.3243 Y28.3592 
G01 X23.1609 Y28.3061 
G01 X23.0078 Y28.2281 
G01 X22.8688 Y28.1271 
G01 X22.7474 Y28.0057 
G01 X22.6464 Y27.8667 
G01 X22.5684 Y27.7136 
G01 X22.5153 Y27.5502 
G01 X22.4884 Y27.3805 
G01 X22.4884 Y25.2274 
G01 X22.5153 Y25.0577 
G01 X22.5684 Y24.8943 
G01 X22.6464 Y24.7412 
G01 X22.7474 Y24.6022 
G01 X22.8688 Y24.4808 
G01 X23.0078 Y24.3798 
G01 X23.1609 Y24.3018 
G01 X23.2758 Y24.2645 
G01 X23.2758 Y22.3600 
G01 X23.2758 Y22.2799 
G01 X23.2965 Y22.2025 
G01 X23.3366 Y22.1332 
G01 X30.0566 Y15.4132 
G01 X30.1132 Y15.3566 
G01 X30.1825 Y15.3165 
G01 X30.2599 Y15.2958 
G01 X44.5740 Y15.2958 
G01 X46.4958 Y13.3740 
G01 X46.4958 Y12.6766 
G01 X46.5112 Y12.6395 
G01 X46.5395 Y12.6112 
G01 X46.5766 Y12.5958 
G01 X47.6233 Y12.5958 
G01 X47.6604 Y12.6112 
G01 X47.6887 Y12.6395 
G01 X47.7041 Y12.6766 
G01 X47.7041 Y13.7233 
G01 X47.6887 Y13.7604 
G01 X47.6604 Y13.7887 
G01 X47.6233 Y13.8041 
G01 X46.9259 Y13.8041 
G01 X44.8867 Y15.8433 
G01 X44.8174 Y15.8834 
G01 X44.7400 Y15.9041 
G01 X44.6599 Y15.9041 
G01 X30.4259 Y15.9041 
G01 X23.8841 Y22.4459 
G01 X23.8841 Y24.2645 
G01 X23.9990 Y24.3018 
G01 X24.1521 Y24.3798 
G01 X24.2911 Y24.4808 
G01 X24.4125 Y24.6022 
G01 X24.5135 Y24.7412 
G01 X24.5915 Y24.8943 
G01 X24.6446 Y25.0577 
G01 X24.6715 Y25.2274 
G00 Z2.0000 
G00 X28.9225 Y27.3805 
G01 Z-0.2000 F600.00 
G01 X28.8956 Y27.5502 
G01 X28.8425 Y27.7136 
G01 X28.7645 Y27.8667 
G01 X28.6635 Y28.0057 
G01 X28.5421 Y28.1271 
G01 X28.4031 Y28.2281 
G01 X28.2500 Y28.3061 
G01 X28.0866 Y28.3592 
G01 X27.9169 Y28.3861 
G01 X27.7450 Y28.3861 
G01 X27.5753 Y28.3592 
G01 X27.4119 Y28.3061 
G01 X27.2588 Y28.2281 
G01 X27.1198 Y28.1271 
G01 X26.9984 Y28.0057 
G01 X26.8974 Y27.8667 
G01 X26.8194 Y27.7136 
G01 X26.7663 Y27.5502 
G01 X26.7394 Y27.3805 
G01 X26.7394 Y25.2274 
G01 X26.7663 Y25.0577 
G01 X26.8194 Y24.8943 
G01 X26.8974 Y24.7412 
G01 X26.9984 Y24.6022 
G01 X27.1198 Y24.4808 
G01 X27.2588 Y24.3798 
G01 X27.4119 Y24.3018 
G01 X27.5753 Y24.2487 
G01 X27.7450 Y24.2218 
G01 X27.9169 Y24.2218 
G01 X28.0866 Y24.2487 
G01 X28.2500 Y24.3018 
G01 X28.4031 Y24.3798 
G01 X28.5421 Y24.4808 
G01 X28.6635 Y24.6022 
G01 X28.7645 Y24.7412 
G01 X28.8317 Y24.8732 
G01 X37.1482 Y16.5566 
G01 X37.2175 Y16.5165 
G01 X37.2949 Y16.4958 
G01 X37.3750 Y16.4958 
G01 X48.7740 Y16.4958 
G01 X49.7958 Y15.4740 
G01 X49.7958 Y13.8041 
G01 X49.5766 Y13.8041 
G01 X49.5395 Y13.7887 
G01 X49.5112 Y13.7604 
G01 X49.4958 Y13.7233 
G01 X49.4958 Y12.6766 
G01 X49.5112 Y12.6395 
G01 X49.5395 Y12.6112 
G01 X49.5766 Y12.5958 
G01 X50.6233 Y12.5958 
G01 X50.6604 Y12.6112 
G01 X50.6887 Y12.6395 
G01 X50.7041 Y12.6766 
G01 X50.7041 Y13.7233 
G01 X50.6887 Y13.7604 
G01 X50.6604 Y13.7887 
G01 X50.6233 Y13.8041 
G01 X50.4041 Y13.8041 
G01 X50.4041 Y15.5599 
G01 X50.4041 Y15.6400 
G01 X50.3834 Y15.7174 
G01 X50.3433 Y15.7867 
G01 X49.1433 Y16.9867 
G01 X49.0867 Y17.0433 
G01 X49.0174 Y17.0834 
G01 X48.9400 Y17.1041 
G01 X37.4609 Y17.1041 
G01 X28.9225 Y25.6425 
G01 X28.9225 Y27.3805 
G00 Z2.0000 
G00 X33.1735 Y27.3805 
G01 Z-0.2000 F600.00 
G01 X33.1466 Y27.5502 
G01 X33.0935 Y27.7136 
G01 X33.0155 Y27.8667 
G01 X32.9145 Y28.0057 
G01 X32.7931 Y28.1271 
G01 X32.6541 Y28.2281 
G01 X32.5010 Y28.3061 
G01 X32.3376 Y28.3592 
G01 X32.1679 Y28.3861 
G01 X31.9960 Y28.3861 
G01 X31.8263 Y28.3592 
G01 X31.6629 Y28.3061 
G01 X31.5098 Y28.2281 
G01 X31.3708 Y28.1271 
G01 X31.2494 Y28.0057 
G01 X31.1484 Y27.8667 
G01 X31.0704 Y27.7136 
G01 X31.0173 Y27.5502 
G01 X30.9904 Y27.3805 
G01 X30.9904 Y25.2274 
G01 X31.0173 Y25.0577 
G01 X31.0704 Y24.8943 
G01 X31.1484 Y24.7412 
G01 X31.2494 Y24.6022 
G01 X31.3708 Y24.4808 
G01 X31.5098 Y24.3798 
G01 X31.6629 Y24.3018 
G01 X31.8263 Y24.2487 
G01 X31.9960 Y24.2218 
G01 X32.1679 Y24.2218 
G01 X32.3376 Y24.2487 
G01 X32.5010 Y24.3018 
G01 X32.6541 Y24.3798 
G01 X32.7931 Y24.4808 
G01 X32.9145 Y24.6022 
G01 X33.0155 Y24.7412 
G01 X33.0199 Y24.7500 
G01 X38.5132 Y19.2566 
G01 X38.5825 Y19.2165 
G01 X38.6599 Y19.1958 
G01 X38.7400 Y19.1958 
G01 X49.0740 Y19.1958 
G01 X52.4958 Y15.7740 
G01 X52.4958 Y13.8041 
G01 X52.2766 Y13.8041 
G01 X52.2395 Y13.7887 
G01 X52.2112 Y13.7604 
G01 X52.1958 Y13.7233 
G01 X52.1958 Y12.6766 
G01 X52.2112 Y12.6395 
G01 X52.2395 Y12.6112 
G01 X52.2766 Y12.5958 
G01 X53.3233 Y12.5958 
G01 X53.3604 Y12.6112 
G01 X53.3887 Y12.6395 
G01 X53.4041 Y12.6766 
G01 X53.4041 Y13.7233 
G01 X53.3887 Y13.7604 
G01 X53.3604 Y13.7887 
G01 X53.3233 Y13.8041 
G01 X53.1041 Y13.8041 
G01 X53.1041 Y15.8599 
G01 X53.1041 Y15.9400 
G01 X53.0834 Y16.0174 
G01 X53.0433 Y16.0867 
G01 X49.4433 Y19.6867 
G01 X49.3867 Y19.7433 
G01 X49.3174 Y19.7834 
G01 X49.2400 Y19.8041 
G01 X38.8259 Y19.8041 
G01 X33.1735 Y25.4565 
G01 X33.1735 Y27.3805 
G00 Z2.0000 
G00 X37.4245 Y27.3805 
G01 Z-0.2000 F600.00 
G01 X37.3976 Y27.5502 
G01 X37.3445 Y27.7136 
G01 X37.2665 Y27.8667 
G01 X37.1655 Y28.0057 
G01 X37.0441 Y28.1271 
G01 X36.9051 Y28.2281 
G01 X36.7520 Y28.3061 
G01 X36.5886 Y28.3592 
G01 X36.4189 Y28.3861 
G01 X36.2470 Y28.3861 
G01 X36.0773 Y28.3592 
G01 X35.9139 Y28.3061 
G01 X35.7608 Y28.2281 
G01 X35.6218 Y28.1271 
G01 X35.5004 Y28.0057 
G01 X35.3994 Y27.8667 
G01 X35.3214 Y27.7136 
G01 X35.2683 Y27.5502 
G01 X35.2414 Y27.3805 
G01 X35.2414 Y25.2274 
G01 X35.2683 Y25.0577 
G01 X35.3214 Y24.8943 
G01 X35.3994 Y24.7412 
G01 X35.5004 Y24.6022 
G01 X35.6218 Y24.4808 
G01 X35.7608 Y24.3798 
G01 X35.9139 Y24.3018 
G01 X36.0773 Y24.2487 
G01 X36.2470 Y24.2218 
G01 X36.4189 Y24.2218 
G01 X36.5886 Y24.2487 
G01 X36.7520 Y24.3018 
G01 X36.9051 Y24.3798 
G01 X37.0441 Y24.4808 
G01 X37.1655 Y24.6022 
G01 X37.2665 Y24.7412 
G01 X37.3337 Y24.8732 
G01 X40.2502 Y21.9566 
G01 X40.3195 Y21.9165 
G01 X40.3969 Y21.8958 
G01 X40.4770 Y21.8958 
G01 X49.6740 Y21.8958 
G01 X55.4958 Y16.0740 
G01 X55.4958 Y13.8041 
G01 X55.2766 Y13.8041 
G01 X55.2395 Y13.7887 
G01 X55.2112 Y13.7604 
G01 X55.1958 Y13.7233 
G01 X55.1958 Y12.6766 
G01 X55.2112 Y12.6395 
G01 X55.2395 Y12.6112 
G01 X55.2766 Y12.5958 
G01 X56.3233 Y12.5958 
G01 X56.3604 Y12.6112 
G01 X56.3887 Y12.6395 
G01 X56.4041 Y12.6766 
G01 X56.4041 Y13.7233 
G01 X56.3887 Y13.7604 
G01 X56.3604 Y13.7887 
G01 X56.3233 Y13.8041 
G01 X56.1041 Y13.8041 
G01 X56.1041 Y16.1599 
G01 X56.1041 Y16.2400 
G01 X56.0834 Y16.3174 
G01 X56.0433 Y16.3867 
G01 X50.0433 Y22.3867 
G01 X49.9867 Y22.4433 
G01 X49.9174 Y22.4834 
G01 X49.8400 Y22.5041 
G01 X40.5629 Y22.5041 
G01 X37.4245 Y25.6425 
G01 X37.4245 Y27.3805 
G00 Z2.0000 
G00 X41.6755 Y25.2274 
G01 Z-0.2000 F600.00 
G01 X41.6755 Y27.3805 
G01 X41.6486 Y27.5502 
G01 X41.5955 Y27.7136 
G01 X41.5175 Y27.8667 
G01 X41.4165 Y28.0057 
G01 X41.2951 Y28.1271 
G01 X41.1561 Y28.2281 
G01 X41.0030 Y28.3061 
G01 X40.8396 Y28.3592 
G01 X40.6699 Y28.3861 
G01 X40.4980 Y28.3861 
G01 X40.3283 Y28.3592 
G01 X40.1649 Y28.3061 
G01 X40.0118 Y28.2281 
G01 X39.8728 Y28.1271 
G01 X39.7514 Y28.0057 
G01 X39.6504 Y27.8667 
G01 X39.5724 Y27.7136 
G01 X39.5193 Y27.5502 
G01 X39.4924 Y27.3805 
G01 X39.4924 Y25.2274 
G01 X39.5193 Y25.0577 
G01 X39.5724 Y24.8943 
G01 X39.6504 Y24.7412 
G01 X39.7514 Y24.6022 
G01 X39.8728 Y24.4808 
G01 X40.0118 Y24.3798 
G01 X40.1649 Y24.3018 
G01 X40.3283 Y24.2487 
G01 X40.4980 Y24.2218 
G01 X40.6699 Y24.2218 
G01 X40.8396 Y24.2487 
G01 X41.0030 Y24.3018 
G01 X41.1561 Y24.3798 
G01 X41.2951 Y24.4808 
G01 X41.4165 Y24.6022 
G01 X41.5175 Y24.7412 
G01 X41.5955 Y24.8943 
G01 X41.6486 Y25.0577 
G01 X41.6755 Y25.2274 
G00 Z2.0000 
G00 X45.9265 Y25.2274 
G01 Z-0.2000 F600.00 
G01 X45.9265 Y27.3805 
G01 X45.8996 Y27.5502 
G01 X45.8465 Y27.7136 
G01 X45.7685 Y27.8667 
G01 X45.6675 Y28.0057 
G01 X45.5461 Y28.1271 
G01 X45.4071 Y28.2281 
G01 X45.2540 Y28.3061 
G01 X45.0906 Y28.3592 
G01 X44.9209 Y28.3861 
G01 X44.7490 Y28.3861 
G01 X44.5793 Y28.3592 
G01 X44.4159 Y28.3061 
G01 X44.2628 Y28.2281 
G01 X44.1238 Y28.1271 
G01 X44.0024 Y28.0057 
G01 X43.9014 Y27.8667 
G01 X43.8234 Y27.7136 
G01 X43.7703 Y27.5502 
G01 X43.7434 Y27.3805 
G01 X43.7434 Y25.2274 
G01 X43.7703 Y25.0577 
G01 X43.8234 Y24.8943 
G01 X43.9014 Y24.7412 
G01 X44.0024 Y24.6022 
G01 X44.1238 Y24.4808 
G01 X44.2628 Y24.3798 
G01 X44.4159 Y24.3018 
G01 X44.5793 Y24.2487 
G01 X44.7490 Y24.2218 
G01 X44.9209 Y24.2218 
G01 X45.0906 Y24.2487 
G01 X45.2540 Y24.3018 
G01 X45.4071 Y24.3798 
G01 X45.5461 Y24.4808 
G01 X45.6675 Y24.6022 
G01 X45.7685 Y24.7412 
G01 X45.8465 Y24.8943 
G01 X45.8996 Y25.0577 
G01 X45.9265 Y25.2274 
G00 Z2.0000 
G00 X50.1775 Y25.2274 
G01 Z-0.2000 F600.00 
G01 X50.1775 Y27.3805 
G01 X50.1506 Y27.5502 
G01 X50.0975 Y27.7136 
G01 X50.0195 Y27.8667 
G01 X49.9185 Y28.0057 
G01 X49.7971 Y28.1271 
G01 X49.6581 Y28.2281 
G01 X49.5050 Y28.3061 
G01 X49.3416 Y28.3592 
G01 X49.1719 Y28.3861 
G01 X49.0000 Y28.3861 
G01 X48.8303 Y28.3592 
G01 X48.6669 Y28.3061 
G01 X48.5138 Y28.2281 
G01 X48.3748 Y28.1271 
G01 X48.2534 Y28.0057 
G01 X48.1524 Y27.8667 
G01 X48.0744 Y27.7136 
G01 X48.0213 Y27.5502 
G01 X47.9944 Y27.3805 
G01 X47.9944 Y25.2274 
G01 X48.0213 Y25.0577 
G01 X48.0744 Y24.8943 
G01 X48.1524 Y24.7412 
G01 X48.2534 Y24.6022 
G01 X48.3748 Y24.4808 
G01 X48.5138 Y24.3798 
G01 X48.6669 Y24.3018 
G01 X48.8303 Y24.2487 
G01 X49.0000 Y24.2218 
G01 X49.1719 Y24.2218 
G01 X49.3416 Y24.2487 
G01 X49.5050 Y24.3018 
G01 X49.6581 Y24.3798 
G01 X49.7971 Y24.4808 
G01 X49.9185 Y24.6022 
G01 X50.0195 Y24.7412 
G01 X50.0975 Y24.8943 
G01 X50.1506 Y25.0577 
G01 X50.1775 Y25.2274 
G00 Z2.0000 
G00 X54.4285 Y25.2274 
G01 Z-0.2000 F600.00 
G01 X54.4285 Y27.3805 
G01 X54.4016 Y27.5502 
G01 X54.3485 Y27.7136 
G01 X54.2705 Y27.8667 
G01 X54.1695 Y28.0057 
G01 X54.0481 Y28.1271 
G01 X53.9091 Y28.2281 
G01 X53.7560 Y28.3061 
G01 X53.5926 Y28.3592 
G01 X53.4229 Y28.3861 
G01 X53.2510 Y28.3861 
G01 X53.0813 Y28.3592 
G01 X52.9179 Y28.3061 
G01 X52.7648 Y28.2281 
G01 X52.6258 Y28.1271 
G01 X52.5044 Y28.0057 
G01 X52.4034 Y27.8667 
G01 X52.3254 Y27.7136 
G01 X52.2723 Y27.5502 
G01 X52.2454 Y27.3805 
G01 X52.2454 Y25.2274 
G01 X52.2723 Y25.0577 
G01 X52.3254 Y24.8943 
G01 X52.4034 Y24.7412 
G01 X52.5044 Y24.6022 
G01 X52.6258 Y24.4808 
G01 X52.7648 Y24.3798 
G01 X52.9179 Y24.3018 
G01 X53.0813 Y24.2487 
G01 X53.2510 Y24.2218 
G01 X53.4229 Y24.2218 
G01 X53.5926 Y24.2487 
G01 X53.7560 Y24.3018 
G01 X53.9091 Y24.3798 
G01 X54.0481 Y24.4808 
G01 X54.1695 Y24.6022 
G01 X54.2705 Y24.7412 
G01 X54.3485 Y24.8943 
G01 X54.4016 Y25.0577 
G01 X54.4285 Y25.2274 
G00 Z2.0000 
G00 X58.6795 Y25.2274 
G01 Z-0.2000 F600.00 
G01 X58.6795 Y27.3805 
G01 X58.6526 Y27.5502 
G01 X58.5995 Y27.7136 
G01 X58.5215 Y27.8667 
G01 X58.4205 Y28.0057 
G01 X58.2991 Y28.1271 
G01 X58.1601 Y28.2281 
G01 X58.0070 Y28.3061 
G01 X57.8436 Y28.3592 
G01 X57.6739 Y28.3861 
G01 X57.5020 Y28.3861 
G01 X57.3323 Y28.3592 
G01 X57.1689 Y28.3061 
G01 X57.0158 Y28.2281 
G01 X56.8768 Y28.1271 
G01 X56.7554 Y28.0057 
G01 X56.6544 Y27.8667 
G01 X56.5764 Y27.7136 
G01 X56.5233 Y27.5502 
G01 X56.4964 Y27.3805 
G01 X56.4964 Y25.2274 
G01 X56.5233 Y25.0577 
G01 X56.5764 Y24.8943 
G01 X56.6544 Y24.7412 
G01 X56.7554 Y24.6022 
G01 X56.8768 Y24.4808 
G01 X57.0158 Y24.3798 
G01 X57.1689 Y24.3018 
G01 X57.3323 Y24.2487 
G01 X57.5020 Y24.2218 
G01 X57.6739 Y24.2218 
G01 X57.8436 Y24.2487 
G01 X58.0070 Y24.3018 
G01 X58.1601 Y24.3798 
G01 X58.2991 Y24.4808 
G01 X58.4205 Y24.6022 
G01 X58.5215 Y24.7412 
G01 X58.5995 Y24.8943 
G01 X58.6526 Y25.0577 
G01 X58.6795 Y25.2274 
G00 Z2.0000 
G00 X31.4628 Y6.5409 
G01 Z-0.2000 F600.00 
G01 X31.4628 Y6.7222 
G01 X31.4274 Y6.9000 
G01 X31.3581 Y7.0674 
G01 X31.2574 Y7.2181 
G01 X31.1292 Y7.3463 
G01 X30.9785 Y7.4470 
G01 X30.8111 Y7.5163 
G01 X30.6333 Y7.5517 
G01 X30.4520 Y7.5517 
G01 X30.2742 Y7.5163 
G01 X30.1068 Y7.4470 
G01 X29.9561 Y7.3463 
G01 X29.8279 Y7.2181 
G01 X29.7272 Y7.0674 
G01 X29.6579 Y6.9000 
G01 X29.6225 Y6.7222 
G01 X29.6225 Y6.5409 
G01 X29.6579 Y6.3631 
G01 X29.7272 Y6.1957 
G01 X29.8279 Y6.0450 
G01 X29.9561 Y5.9168 
G01 X30.1068 Y5.8161 
G01 X30.2742 Y5.7468 
G01 X30.4520 Y5.7114 
G01 X30.6333 Y5.7114 
G01 X30.8111 Y5.7468 
G01 X30.9785 Y5.8161 
G01 X31.1292 Y5.9168 
G01 X31.2574 Y6.0450 
G01 X31.3581 Y6.1957 
G01 X31.4274 Y6.3631 
G01 X31.4628 Y6.5409 
G00 Z2.0000 
G00 X34.2314 Y6.5409 
G01 Z-0.2000 F600.00 
G01 X34.2314 Y6.7222 
G01 X34.1960 Y6.9000 
G01 X34.1267 Y7.0674 
G01 X34.0260 Y7.2181 
G01 X33.8978 Y7.3463 
G01 X33.7471 Y7.4470 
G01 X33.5797 Y7.5163 
G01 X33.4019 Y7.5517 
G01 X33.2206 Y7.5517 
G01 X33.0428 Y7.5163 
G01 X32.8754 Y7.4470 
G01 X32.7247 Y7.3463 
G01 X32.5965 Y7.2181 
G01 X32.4958 Y7.0674 
G01 X32.4265 Y6.9000 
G01 X32.3911 Y6.7222 
G01 X32.3911 Y6.5409 
G01 X32.4265 Y6.3631 
G01 X32.4958 Y6.1957 
G01 X32.5965 Y6.0450 
G01 X32.7247 Y5.9168 
G01 X32.8754 Y5.8161 
G01 X33.0428 Y5.7468 
G01 X33.2206 Y5.7114 
G01 X33.4019 Y5.7114 
G01 X33.5797 Y5.7468 
G01 X33.7471 Y5.8161 
G01 X33.8978 Y5.9168 
G01 X34.0260 Y6.0450 
G01 X34.1267 Y6.1957 
G01 X34.1960 Y6.3631 
G01 X34.2314 Y6.5409 
G00 Z2.0000 
G00 X37.0000 Y6.5409 
G01 Z-0.2000 F600.00 
G01 X37.0000 Y6.7222 
G01 X36.9646 Y6.9000 
G01 X36.8953 Y7.0674 
G01 X36.7946 Y7.2181 
G01 X36.6664 Y7.3463 
G01 X36.5157 Y7.4470 
G01 X36.3483 Y7.5163 
G01 X36.1705 Y7.5517 
G01 X35.9892 Y7.5517 
G01 X35.8114 Y7.5163 
G01 X35.6440 Y7.4470 
G01 X35.4933 Y7.3463 
G01 X35.3651 Y7.2181 
G01 X35.2644 Y7.0674 
G01 X35.1951 Y6.9000 
G01 X35.1597 Y6.7222 
G01 X35.1597 Y6.5409 
G01 X35.1951 Y6.3631 
G01 X35.2644 Y6.1957 
G01 X35.3651 Y6.0450 
G01 X35.4933 Y5.9168 
G01 X35.6440 Y5.8161 
G01 X35.8114 Y5.7468 
G01 X35.9892 Y5.7114 
G01 X36.1705 Y5.7114 
G01 X36.3483 Y5.7468 
G01 X36.5157 Y5.8161 
G01 X36.6664 Y5.9168 
G01 X36.7946 Y6.0450 
G01 X36.8953 Y6.1957 
G01 X36.9646 Y6.3631 
G01 X37.0000 Y6.5409 
G00 Z2.0000 
G00 X39.7686 Y6.5409 
G01 Z-0.2000 F600.00 
G01 X39.7686 Y6.7222 
G01 X39.7332 Y6.9000 
G01 X39.6639 Y7.0674 
G01 X39.5632 Y7.2181 
G01 X39.4350 Y7.3463 
G01 X39.2843 Y7.4470 
G01 X39.1169 Y7.5163 
G01 X38.9391 Y7.5517 
G01 X38.7578 Y7.5517 
G01 X38.5800 Y7.5163 
G01 X38.4126 Y7.4470 
G01 X38.2619 Y7.3463 
G01 X38.1337 Y7.2181 
G01 X38.0330 Y7.0674 
G01 X37.9637 Y6.9000 
G01 X37.9283 Y6.7222 
G01 X37.9283 Y6.5409 
G01 X37.9637 Y6.3631 
G01 X38.0330 Y6.1957 
G01 X38.1337 Y6.0450 
G01 X38.2619 Y5.9168 
G01 X38.4126 Y5.8161 
G01 X38.5800 Y5.7468 
G01 X38.7578 Y5.7114 
G01 X38.9391 Y5.7114 
G01 X39.1169 Y5.7468 
G01 X39.2843 Y5.8161 
G01 X39.4350 Y5.9168 
G01 X39.5632 Y6.0450 
G01 X39.6639 Y6.1957 
G01 X39.7332 Y6.3631 
G01 X39.7686 Y6.5409 
G00 Z2.0000 
G00 X42.5372 Y6.5409 
G01 Z-0.2000 F600.00 
G01 X42.5372 Y6.7222 
G01 X42.5018 Y6.9000 
G01 X42.4325 Y7.0674 
G01 X42.3318 Y7.2181 
G01 X42.2036 Y7.3463 
G01 X42.0529 Y7.4470 
G01 X41.8855 Y7.5163 
G01 X41.7077 Y7.5517 
G01 X41.5264 Y7.5517 
G01 X41.3486 Y7.5163 
G01 X41.1812 Y7.4470 
G01 X41.0305 Y7.3463 
G01 X40.9023 Y7.2181 
G01 X40.8016 Y7.0674 
G01 X40.7323 Y6.9000 
G01 X40.6969 Y6.7222 
G01 X40.6969 Y6.5409 
G01 X40.7323 Y6.3631 
G01 X40.8016 Y6.1957 
G01 X40.9023 Y6.0450 
G01 X41.0305 Y5.9168 
G01 X41.1812 Y5.8161 
G01 X41.3486 Y5.7468 
G01 X41.5264 Y5.7114 
G01 X41.7077 Y5.7114 
G01 X41.8855 Y5.7468 
G01 X42.0529 Y5.8161 
G01 X42.2036 Y5.9168 
G01 X42.3318 Y6.0450 
G01 X42.4325 Y6.1957 
G01 X42.5018 Y6.3631 
G01 X42.5372 Y6.5409 
G00 Z2.0000 
G00 X45.3058 Y6.5409 
G01 Z-0.2000 F600.00 
G01 X45.3058 Y6.7222 
G01 X45.2704 Y6.9000 
G01 X45.2011 Y7.0674 
G01 X45.1004 Y7.2181 
G01 X44.9722 Y7.3463 
G01 X44.8215 Y7.4470 
G01 X44.6541 Y7.5163 
G01 X44.4763 Y7.5517 
G01 X44.2950 Y7.5517 
G01 X44.1172 Y7.5163 
G01 X43.9498 Y7.4470 
G01 X43.7991 Y7.3463 
G01 X43.6709 Y7.2181 
G01 X43.5702 Y7.0674 
G01 X43.5009 Y6.9000 
G01 X43.4655 Y6.7222 
G01 X43.4655 Y6.5409 
G01 X43.5009 Y6.3631 
G01 X43.5702 Y6.1957 
G01 X43.6709 Y6.0450 
G01 X43.7991 Y5.9168 
G01 X43.9498 Y5.8161 
G01 X44.1172 Y5.7468 
G01 X44.2950 Y5.7114 
G01 X44.4763 Y5.7114 
G01 X44.6541 Y5.7468 
G01 X44.8215 Y5.8161 
G01 X44.9722 Y5.9168 
G01 X45.1004 Y6.0450 
G01 X45.2011 Y6.1957 
G01 X45.2704 Y6.3631 
G01 X45.3058 Y6.5409 
G00 Z2.0000 
G00 X48.0744 Y6.5409 
G01 Z-0.2000 F600.00 
G01 X48.0744 Y6.7222 
G01 X48.0390 Y6.9000 
G01 X47.9697 Y7.0674 
G01 X47.8690 Y7.2181 
G01 X47.7408 Y7.3463 
G01 X47.5901 Y7.4470 
G01 X47.4227 Y7.5163 
G01 X47.2449 Y7.5517 
G01 X47.0636 Y7.5517 
G01 X46.8858 Y7.5163 
G01 X46.7184 Y7.4470 
G01 X46.5677 Y7.3463 
G01 X46.4395 Y7.2181 
G01 X46.3388 Y7.0674 
G01 X46.2695 Y6.9000 
G01 X46.2341 Y6.7222 
G01 X46.2341 Y6.5409 
G01 X46.2695 Y6.3631 
G01 X46.3388 Y6.1957 
G01 X46.4395 Y6.0450 
G01 X46.5677 Y5.9168 
G01 X46.7184 Y5.8161 
G01 X46.8858 Y5.7468 
G01 X47.0636 Y5.7114 
G01 X47.2449 Y5.7114 
G01 X47.4227 Y5.7468 
G01 X47.5901 Y5.8161 
G01 X47.7408 Y5.9168 
G01 X47.8690 Y6.0450 
G01 X47.9697 Y6.1957 
G01 X48.0390 Y6.3631 
G01 X48.0744 Y6.5409 
G00 Z2.0000 
G00 X50.8430 Y6.5409 
G01 Z-0.2000 F600.00 
G01 X50.8430 Y6.7222 
G01 X50.8076 Y6.9000 
G01 X50.7383 Y7.0674 
G01 X50.6376 Y7.2181 
G01 X50.5094 Y7.3463 
G01 X50.3587 Y7.4470 
G01 X50.1913 Y7.5163 
G01 X50.0135 Y7.5517 
G01 X49.8322 Y7.5517 
G01 X49.6544 Y7.5163 
G01 X49.4870 Y7.4470 
G01 X49.3363 Y7.3463 
G01 X49.2081 Y7.2181 
G01 X49.1074 Y7.0674 
G01 X49.0381 Y6.9000 
G01 X49.0027 Y6.7222 
G01 X49.0027 Y6.5409 
G01 X49.0381 Y6.3631 
G01 X49.1074 Y6.1957 
G01 X49.2081 Y6.0450 
G01 X49.3363 Y5.9168 
G01 X49.4870 Y5.8161 
G01 X49.6544 Y5.7468 
G01 X49.8322 Y5.7114 
G01 X50.0135 Y5.7114 
G01 X50.1913 Y5.7468 
G01 X50.3587 Y5.8161 
G01 X50.5094 Y5.9168 
G01 X50.6376 Y6.0450 
G01 X50.7383 Y6.1957 
G01 X50.8076 Y6.3631 
G01 X50.8430 Y6.5409 
G00 Z2.0000 
G00 X53.6116 Y6.5409 
G01 Z-0.2000 F600.00 
G01 X53.6116 Y6.7222 
G01 X53.5762 Y6.9000 
G01 X53.5069 Y7.0674 
G01 X53.4062 Y7.2181 
G01 X53.2780 Y7.3463 
G01 X53.1273 Y7.4470 
G01 X52.9599 Y7.5163 
G01 X52.7821 Y7.5517 
G01 X52.6008 Y7.5517 
G01 X52.4230 Y7.5163 
G01 X52.2556 Y7.4470 
G01 X52.1049 Y7.3463 
G01 X51.9767 Y7.2181 
G01 X51.8760 Y7.0674 
G01 X51.8067 Y6.9000 
G01 X51.7713 Y6.7222 
G01 X51.7713 Y6.5409 
G01 X51.8067 Y6.3631 
G01 X51.8760 Y6.1957 
G01 X51.9767 Y6.0450 
G01 X52.1049 Y5.9168 
G01 X52.2556 Y5.8161 
G01 X52.4230 Y5.7468 
G01 X52.6008 Y5.7114 
G01 X52.7821 Y5.7114 
G01 X52.9599 Y5.7468 
G01 X53.1273 Y5.8161 
G01 X53.2780 Y5.9168 
G01 X53.4062 Y6.0450 
G01 X53.5069 Y6.1957 
G01 X53.5762 Y6.3631 
G01 X53.6116 Y6.5409 
G00 Z2.0000 
G00 X56.3802 Y6.5409 
G01 Z-0.2000 F600.00 
G01 X56.3802 Y6.7222 
G01 X56.3448 Y6.9000 
G01 X56.2755 Y7.0674 
G01 X56.1748 Y7.2181 
G01 X56.0466 Y7.3463 
G01 X55.8959 Y7.4470 
G01 X55.7285 Y7.5163 
G01 X55.5507 Y7.5517 
G01 X55.3694 Y7.5517 
G01 X55.1916 Y7.5163 
G01 X55.0242 Y7.4470 
G01 X54.8735 Y7.3463 
G01 X54.7453 Y7.2181 
G01 X54.6446 Y7.0674 
G01 X54.5753 Y6.9000 
G01 X54.5399 Y6.7222 
G01 X54.5399 Y6.5409 
G01 X54.5753 Y6.3631 
G01 X54.6446 Y6.1957 
G01 X54.7453 Y6.0450 
G01 X54.8735 Y5.9168 
G01 X55.0242 Y5.8161 
G01 X55.1916 Y5.7468 
G01 X55.3694 Y5.7114 
G01 X55.5507 Y5.7114 
G01 X55.7285 Y5.7468 
G01 X55.8959 Y5.8161 
G01 X56.0466 Y5.9168 
G01 X56.1748 Y6.0450 
G01 X56.2755 Y6.1957 
G01 X56.3448 Y6.3631 
G01 X56.3802 Y6.5409 
G00 Z2.0000 
G00 X59.1488 Y6.5409 
G01 Z-0.2000 F600.00 
G01 X59.1488 Y6.7222 
G01 X59.1134 Y6.9000 
G01 X59.0441 Y7.0674 
G01 X58.9434 Y7.2181 
G01 X58.8152 Y7.3463 
G01 X58.6645 Y7.4470 
G01 X58.4971 Y7.5163 
G01 X58.3193 Y7.5517 
G01 X58.1380 Y7.5517 
G01 X57.9602 Y7.5163 
G01 X57.7928 Y7.4470 
G01 X57.6421 Y7.3463 
G01 X57.5139 Y7.2181 
G01 X57.4132 Y7.0674 
G01 X57.3439 Y6.9000 
G01 X57.3085 Y6.7222 
G01 X57.3085 Y6.5409 
G01 X57.3439 Y6.3631 
G01 X57.4132 Y6.1957 
G01 X57.5139 Y6.0450 
G01 X57.6421 Y5.9168 
G01 X57.7928 Y5.8161 
G01 X57.9602 Y5.7468 
G01 X58.1380 Y5.7114 
G01 X58.3193 Y5.7114 
G01 X58.4971 Y5.7468 
G01 X58.6645 Y5.8161 
G01 X58.8152 Y5.9168 
G01 X58.9434 Y6.0450 
G01 X59.0441 Y6.1957 
G01 X59.1134 Y6.3631 
G01 X59.1488 Y6.5409 
G00 Z2.0000 
G00 X61.9174 Y6.5409 
G01 Z-0.2000 F600.00 
G01 X61.9174 Y6.7222 
G01 X61.8820 Y6.9000 
G01 X61.8127 Y7.0674 
G01 X61.7120 Y7.2181 
G01 X61.5838 Y7.3463 
G01 X61.4331 Y7.4470 
G01 X61.2657 Y7.5163 
G01 X61.0879 Y7.5517 
G01 X60.9066 Y7.5517 
G01 X60.7288 Y7.5163 
G01 X60.5614 Y7.4470 
G01 X60.4107 Y7.3463 
G01 X60.2825 Y7.2181 
G01 X60.1818 Y7.0674 
G01 X60.1125 Y6.9000 
G01 X60.0771 Y6.7222 
G01 X60.0771 Y6.5409 
G01 X60.1125 Y6.3631 
G01 X60.1818 Y6.1957 
G01 X60.2825 Y6.0450 
G01 X60.4107 Y5.9168 
G01 X60.5614 Y5.8161 
G01 X60.7288 Y5.7468 
G01 X60.9066 Y5.7114 
G01 X61.0879 Y5.7114 
G01 X61.2657 Y5.7468 
G01 X61.4331 Y5.8161 
G01 X61.5838 Y5.9168 
G01 X61.7120 Y6.0450 
G01 X61.8127 Y6.1957 
G01 X61.8820 Y6.3631 
G01 X61.9174 Y6.5409 
G00 Z2.0000 
G00 X30.0785 Y9.3857 
G01 Z-0.2000 F600.00 
G01 X30.0785 Y9.5670 
G01 X30.0431 Y9.7448 
G01 X29.9738 Y9.9122 
G01 X29.8731 Y10.0629 
G01 X29.7449 Y10.1911 
G01 X29.5942 Y10.2918 
G01 X29.4268 Y10.3611 
G01 X29.2490 Y10.3965 
G01 X29.0677 Y10.3965 
G01 X28.8899 Y10.3611 
G01 X28.7225 Y10.2918 
G01 X28.5718 Y10.1911 
G01 X28.4436 Y10.0629 
G01 X28.3429 Y9.9122 
G01 X28.2736 Y9.7448 
G01 X28.2382 Y9.5670 
G01 X28.2382 Y9.3857 
G01 X28.2736 Y9.2079 
G01 X28.3429 Y9.0405 
G01 X28.4436 Y8.8898 
G01 X28.5718 Y8.7616 
G01 X28.7225 Y8.6609 
G01 X28.8899 Y8.5916 
G01 X29.0677 Y8.5562 
G01 X29.2490 Y8.5562 
G01 X29.4268 Y8.5916 
G01 X29.5942 Y8.6609 
G01 X29.7449 Y8.7616 
G01 X29.8731 Y8.8898 
G01 X29.9738 Y9.0405 
G01 X30.0431 Y9.2079 
G01 X30.0785 Y9.3857 
G00 Z2.0000 
G00 X32.8471 Y9.3857 
G01 Z-0.2000 F600.00 
G01 X32.8471 Y9.5670 
G01 X32.8117 Y9.7448 
G01 X32.7424 Y9.9122 
G01 X32.6417 Y10.0629 
G01 X32.5135 Y10.1911 
G01 X32.3628 Y10.2918 
G01 X32.1954 Y10.3611 
G01 X32.0176 Y10.3965 
G01 X31.8363 Y10.3965 
G01 X31.6585 Y10.3611 
G01 X31.4911 Y10.2918 
G01 X31.3404 Y10.1911 
G01 X31.2122 Y10.0629 
G01 X31.1115 Y9.9122 
G01 X31.0422 Y9.7448 
G01 X31.0068 Y9.5670 
G01 X31.0068 Y9.3857 
G01 X31.0422 Y9.2079 
G01 X31.1115 Y9.0405 
G01 X31.2122 Y8.8898 
G01 X31.3404 Y8.7616 
G01 X31.4911 Y8.6609 
G01 X31.6585 Y8.5916 
G01 X31.8363 Y8.5562 
G01 X32.0176 Y8.5562 
G01 X32.1954 Y8.5916 
G01 X32.3628 Y8.6609 
G01 X32.5135 Y8.7616 
G01 X32.6417 Y8.8898 
G01 X32.7424 Y9.0405 
G01 X32.8117 Y9.2079 
G01 X32.8471 Y9.3857 
G00 Z2.0000 
G00 X35.6157 Y9.3857 
G01 Z-0.2000 F600.00 
G01 X35.6157 Y9.5670 
G01 X35.5803 Y9.7448 
G01 X35.5110 Y9.9122 
G01 X35.4103 Y10.0629 
G01 X35.2821 Y10.1911 
G01 X35.1314 Y10.2918 
G01 X34.9640 Y10.3611 
G01 X34.7862 Y10.3965 
G01 X34.6049 Y10.3965 
G01 X34.4271 Y10.3611 
G01 X34.2597 Y10.2918 
G01 X34.1090 Y10.1911 
G01 X33.9808 Y10.0629 
G01 X33.8801 Y9.9122 
G01 X33.8108 Y9.7448 
G01 X33.7754 Y9.5670 
G01 X33.7754 Y9.3857 
G01 X33.8108 Y9.2079 
G01 X33.8801 Y9.0405 
G01 X33.9808 Y8.8898 
G01 X34.1090 Y8.7616 
G01 X34.2597 Y8.6609 
G01 X34.4271 Y8.5916 
G01 X34.6049 Y8.5562 
G01 X34.7862 Y8.5562 
G01 X34.9640 Y8.5916 
G01 X35.1314 Y8.6609 
G01 X35.2821 Y8.7616 
G01 X35.4103 Y8.8898 
G01 X35.5110 Y9.0405 
G01 X35.5803 Y9.2079 
G01 X35.6157 Y9.3857 
G00 Z2.0000 
G00 X38.3843 Y9.3857 
G01 Z-0.2000 F600.00 
G01 X38.3843 Y9.5670 
G01 X38.3489 Y9.7448 
G01 X38.2796 Y9.9122 
G01 X38.1789 Y10.0629 
G01 X38.0507 Y10.1911 
G01 X37.9000 Y10.2918 
G01 X37.7326 Y10.3611 
G01 X37.5548 Y10.3965 
G01 X37.3735 Y10.3965 
G01 X37.1957 Y10.3611 
G01 X37.0283 Y10.2918 
G01 X36.8776 Y10.1911 
G01 X36.7494 Y10.0629 
G01 X36.6487 Y9.9122 
G01 X36.5794 Y9.7448 
G01 X36.5440 Y9.5670 
G01 X36.5440 Y9.3857 
G01 X36.5794 Y9.2079 
G01 X36.6487 Y9.0405 
G01 X36.7494 Y8.8898 
G01 X36.8776 Y8.7616 
G01 X37.0283 Y8.6609 
G01 X37.1957 Y8.5916 
G01 X37.3735 Y8.5562 
G01 X37.5548 Y8.5562 
G01 X37.7326 Y8.5916 
G01 X37.9000 Y8.6609 
G01 X38.0507 Y8.7616 
G01 X38.1789 Y8.8898 
G01 X38.2796 Y9.0405 
G01 X38.3489 Y9.2079 
G01 X38.3843 Y9.3857 
G00 Z2.0000 
G00 X41.1529 Y9.3857 
G01 Z-0.2000 F600.00 
G01 X41.1529 Y9.5670 
G01 X41.1175 Y9.7448 
G01 X41.0482 Y9.9122 
G01 X40.9475 Y10.0629 
G01 X40.8193 Y10.1911 
G01 X40.6686 Y10.2918 
G01 X40.5012 Y10.3611 
G01 X40.3234 Y10.3965 
G01 X40.1421 Y10.3965 
G01 X39.9643 Y10.3611 
G01 X39.7969 Y10.2918 
G01 X39.6462 Y10.1911 
G01 X39.5180 Y10.0629 
G01 X39.4173 Y9.9122 
G01 X39.3480 Y9.7448 
G01 X39.3126 Y9.5670 
G01 X39.3126 Y9.3857 
G01 X39.3480 Y9.2079 
G01 X39.4173 Y9.0405 
G01 X39.5180 Y8.8898 
G01 X39.6462 Y8.7616 
G01 X39.7969 Y8.6609 
G01 X39.9643 Y8.5916 
G01 X40.1421 Y8.5562 
G01 X40.3234 Y8.5562 
G01 X40.5012 Y8.5916 
G01 X40.6686 Y8.6609 
G01 X40.8193 Y8.7616 
G01 X40.9475 Y8.8898 
G01 X41.0482 Y9.0405 
G01 X41.1175 Y9.2079 
G01 X41.1529 Y9.3857 
G00 Z2.0000 
G00 X43.9215 Y9.3857 
G01 Z-0.2000 F600.00 
G01 X43.9215 Y9.5670 
G01 X43.8861 Y9.7448 
G01 X43.8168 Y9.9122 
G01 X43.7161 Y10.0629 
G01 X43.5879 Y10.1911 
G01 X43.4372 Y10.2918 
G01 X43.2698 Y10.3611 
G01 X43.0920 Y10.3965 
G01 X42.9107 Y10.3965 
G01 X42.7329 Y10.3611 
G01 X42.5655 Y10.2918 
G01 X42.4148 Y10.1911 
G01 X42.2866 Y10.0629 
G01 X42.1859 Y9.9122 
G01 X42.1166 Y9.7448 
G01 X42.0812 Y9.5670 
G01 X42.0812 Y9.3857 
G01 X42.1166 Y9.2079 
G01 X42.1859 Y9.0405 
G01 X42.2866 Y8.8898 
G01 X42.4148 Y8.7616 
G01 X42.5655 Y8.6609 
G01 X42.7329 Y8.5916 
G01 X42.9107 Y8.5562 
G01 X43.0920 Y8.5562 
G01 X43.2698 Y8.5916 
G01 X43.4372 Y8.6609 
G01 X43.5879 Y8.7616 
G01 X43.7161 Y8.8898 
G01 X43.8168 Y9.0405 
G01 X43.8861 Y9.2079 
G01 X43.9215 Y9.3857 
G00 Z2.0000 
G00 X46.6901 Y9.3857 
G01 Z-0.2000 F600.00 
G01 X46.6901 Y9.5670 
G01 X46.6547 Y9.7448 
G01 X46.5854 Y9.9122 
G01 X46.4847 Y10.0629 
G01 X46.3565 Y10.1911 
G01 X46.2058 Y10.2918 
G01 X46.0384 Y10.3611 
G01 X45.8606 Y10.3965 
G01 X45.6793 Y10.3965 
G01 X45.5015 Y10.3611 
G01 X45.3341 Y10.2918 
G01 X45.1834 Y10.1911 
G01 X45.0552 Y10.0629 
G01 X44.9545 Y9.9122 
G01 X44.8852 Y9.7448 
G01 X44.8498 Y9.5670 
G01 X44.8498 Y9.3857 
G01 X44.8852 Y9.2079 
G01 X44.9545 Y9.0405 
G01 X45.0552 Y8.8898 
G01 X45.1834 Y8.7616 
G01 X45.3341 Y8.6609 
G01 X45.5015 Y8.5916 
G01 X45.6793 Y8.5562 
G01 X45.8606 Y8.5562 
G01 X46.0384 Y8.5916 
G01 X46.2058 Y8.6609 
G01 X46.3565 Y8.7616 
G01 X46.4847 Y8.8898 
G01 X46.5854 Y9.0405 
G01 X46.6547 Y9.2079 
G01 X46.6901 Y9.3857 
G00 Z2.0000 
G00 X49.4587 Y9.3857 
G01 Z-0.2000 F600.00 
G01 X49.4587 Y9.5670 
G01 X49.4233 Y9.7448 
G01 X49.3540 Y9.9122 
G01 X49.2533 Y10.0629 
G01 X49.1251 Y10.1911 
G01 X48.9744 Y10.2918 
G01 X48.8070 Y10.3611 
G01 X48.6292 Y10.3965 
G01 X48.4479 Y10.3965 
G01 X48.2701 Y10.3611 
G01 X48.1027 Y10.2918 
G01 X47.9520 Y10.1911 
G01 X47.8238 Y10.0629 
G01 X47.7231 Y9.9122 
G01 X47.6538 Y9.7448 
G01 X47.6184 Y9.5670 
G01 X47.6184 Y9.3857 
G01 X47.6538 Y9.2079 
G01 X47.7231 Y9.0405 
G01 X47.8238 Y8.8898 
G01 X47.9520 Y8.7616 
G01 X48.1027 Y8.6609 
G01 X48.2701 Y8.5916 
G01 X48.4479 Y8.5562 
G01 X48.6292 Y8.5562 
G01 X48.8070 Y8.5916 
G01 X48.9744 Y8.6609 
G01 X49.1251 Y8.7616 
G01 X49.2533 Y8.8898 
G01 X49.3540 Y9.0405 
G01 X49.4233 Y9.2079 
G01 X49.4587 Y9.3857 
G00 Z2.0000 
G00 X52.2273 Y9.3857 
G01 Z-0.2000 F600.00 
G01 X52.2273 Y9.5670 
G01 X52.1919 Y9.7448 
G01 X52.1226 Y9.9122 
G01 X52.0219 Y10.0629 
G01 X51.8937 Y10.1911 
G01 X51.7430 Y10.2918 
G01 X51.5756 Y10.3611 
G01 X51.3978 Y10.3965 
G01 X51.2165 Y10.3965 
G01 X51.0387 Y10.3611 
G01 X50.8713 Y10.2918 
G01 X50.7206 Y10.1911 
G01 X50.5924 Y10.0629 
G01 X50.4917 Y9.9122 
G01 X50.4224 Y9.7448 
G01 X50.3870 Y9.5670 
G01 X50.3870 Y9.3857 
G01 X50.4224 Y9.2079 
G01 X50.4917 Y9.0405 
G01 X50.5924 Y8.8898 
G01 X50.7206 Y8.7616 
G01 X50.8713 Y8.6609 
G01 X51.0387 Y8.5916 
G01 X51.2165 Y8.5562 
G01 X51.3978 Y8.5562 
G01 X51.5756 Y8.5916 
G01 X51.7430 Y8.6609 
G01 X51.8937 Y8.7616 
G01 X52.0219 Y8.8898 
G01 X52.1226 Y9.0405 
G01 X52.1919 Y9.2079 
G01 X52.2273 Y9.3857 
G00 Z2.0000 
G00 X54.9959 Y9.3857 
G01 Z-0.2000 F600.00 
G01 X54.9959 Y9.5670 
G01 X54.9605 Y9.7448 
G01 X54.8912 Y9.9122 
G01 X54.7905 Y10.0629 
G01 X54.6623 Y10.1911 
G01 X54.5116 Y10.2918 
G01 X54.3442 Y10.3611 
G01 X54.1664 Y10.3965 
G01 X53.9851 Y10.3965 
G01 X53.8073 Y10.3611 
G01 X53.6399 Y10.2918 
G01 X53.4892 Y10.1911 
G01 X53.3610 Y10.0629 
G01 X53.2603 Y9.9122 
G01 X53.1910 Y9.7448 
G01 X53.1556 Y9.5670 
G01 X53.1556 Y9.3857 
G01 X53.1910 Y9.2079 
G01 X53.2603 Y9.0405 
G01 X53.3610 Y8.8898 
G01 X53.4892 Y8.7616 
G01 X53.6399 Y8.6609 
G01 X53.8073 Y8.5916 
G01 X53.9851 Y8.5562 
G01 X54.1664 Y8.5562 
G01 X54.3442 Y8.5916 
G01 X54.5116 Y8.6609 
G01 X54.6623 Y8.7616 
G01 X54.7905 Y8.8898 
G01 X54.8912 Y9.0405 
G01 X54.9605 Y9.2079 
G01 X54.9959 Y9.3857 
G00 Z2.0000 
G00 X57.7645 Y9.3857 
G01 Z-0.2000 F600.00 
G01 X57.7645 Y9.5670 
G01 X57.7291 Y9.7448 
G01 X57.6598 Y9.9122 
G01 X57.5591 Y10.0629 
G01 X57.4309 Y10.1911 
G01 X57.2802 Y10.2918 
G01 X57.1128 Y10.3611 
G01 X56.9350 Y10.3965 
G01 X56.7537 Y10.3965 
G01 X56.5759 Y10.3611 
G01 X56.4085 Y10.2918 
G01 X56.2578 Y10.1911 
G01 X56.1296 Y10.0629 
G01 X56.0289 Y9.9122 
G01 X55.9596 Y9.7448 
G01 X55.9242 Y9.5670 
G01 X55.9242 Y9.3857 
G01 X55.9596 Y9.2079 
G01 X56.0289 Y9.0405 
G01 X56.1296 Y8.8898 
G01 X56.2578 Y8.7616 
G01 X56.4085 Y8.6609 
G01 X56.5759 Y8.5916 
G01 X56.7537 Y8.5562 
G01 X56.9350 Y8.5562 
G01 X57.1128 Y8.5916 
G01 X57.2802 Y8.6609 
G01 X57.4309 Y8.7616 
G01 X57.5591 Y8.8898 
G01 X57.6598 Y9.0405 
G01 X57.7291 Y9.2079 
G01 X57.7645 Y9.3857 
G00 Z2.0000 
G00 X60.5331 Y9.3857 
G01 Z-0.2000 F600.00 
G01 X60.5331 Y9.5670 
G01 X60.4977 Y9.7448 
G01 X60.4284 Y9.9122 
G01 X60.3277 Y10.0629 
G01 X60.1995 Y10.1911 
G01 X60.0488 Y10.2918 
G01 X59.8814 Y10.3611 
G01 X59.7036 Y10.3965 
G01 X59.5223 Y10.3965 
G01 X59.3445 Y10.3611 
G01 X59.1771 Y10.2918 
G01 X59.0264 Y10.1911 
G01 X58.8982 Y10.0629 
G01 X58.7975 Y9.9122 
G01 X58.7282 Y9.7448 
G01 X58.6928 Y9.5670 
G01 X58.6928 Y9.3857 
G01 X58.7282 Y9.2079 
G01 X58.7975 Y9.0405 
G01 X58.8982 Y8.8898 
G01 X59.0264 Y8.7616 
G01 X59.1771 Y8.6609 
G01 X59.3445 Y8.5916 
G01 X59.5223 Y8.5562 
G01 X59.7036 Y8.5562 
G01 X59.8814 Y8.5916 
G01 X60.0488 Y8.6609 
G01 X60.1995 Y8.7616 
G01 X60.3277 Y8.8898 
G01 X60.4284 Y9.0405 
G01 X60.4977 Y9.2079 
G01 X60.5331 Y9.3857 
G00 Z2.0000 
G00 X63.3017 Y9.3857 
G01 Z-0.2000 F600.00 
G01 X63.3017 Y9.5670 
G01 X63.2663 Y9.7448 
G01 X63.1970 Y9.9122 
G01 X63.0963 Y10.0629 
G01 X62.9681 Y10.1911 
G01 X62.8174 Y10.2918 
G01 X62.6500 Y10.3611 
G01 X62.4722 Y10.3965 
G01 X62.2909 Y10.3965 
G01 X62.1131 Y10.3611 
G01 X61.9457 Y10.2918 
G01 X61.7950 Y10.1911 
G01 X61.6668 Y10.0629 
G01 X61.5661 Y9.9122 
G01 X61.4968 Y9.7448 
G01 X61.4614 Y9.5670 
G01 X61.4614 Y9.3857 
G01 X61.4968 Y9.2079 
G01 X61.5661 Y9.0405 
G01 X61.6668 Y8.8898 
G01 X61.7950 Y8.7616 
G01 X61.9457 Y8.6609 
G01 X62.1131 Y8.5916 
G01 X62.2909 Y8.5562 
G01 X62.4722 Y8.5562 
G01 X62.6500 Y8.5916 
G01 X62.8174 Y8.6609 
G01 X62.9681 Y8.7616 
G01 X63.0963 Y8.8898 
G01 X63.1970 Y9.0405 
G01 X63.2663 Y9.2079 
G01 X63.3017 Y9.3857 
G00 Z2.0000 
G00 X62.9305 Y25.2274 
G01 Z-0.2000 F600.00 
G01 X62.9305 Y27.3805 
G01 X62.9036 Y27.5502 
G01 X62.8505 Y27.7136 
G01 X62.7725 Y27.8667 
G01 X62.6715 Y28.0057 
G01 X62.5501 Y28.1271 
G01 X62.4111 Y28.2281 
G01 X62.2580 Y28.3061 
G01 X62.0946 Y28.3592 
G01 X61.9249 Y28.3861 
G01 X61.7530 Y28.3861 
G01 X61.5833 Y28.3592 
G01 X61.4199 Y28.3061 
G01 X61.2668 Y28.2281 
G01 X61.1278 Y28.1271 
G01 X61.0064 Y28.0057 
G01 X60.9054 Y27.8667 
G01 X60.8274 Y27.7136 
G01 X60.7743 Y27.5502 
G01 X60.7474 Y27.3805 
G01 X60.7474 Y25.2274 
G01 X60.7743 Y25.0577 
G01 X60.8274 Y24.8943 
G01 X60.9054 Y24.7412 
G01 X61.0064 Y24.6022 
G01 X61.1278 Y24.4808 
G01 X61.2668 Y24.3798 
G01 X61.4199 Y24.3018 
G01 X61.5833 Y24.2487 
G01 X61.7530 Y24.2218 
G01 X61.9249 Y24.2218 
G01 X62.0946 Y24.2487 
G01 X62.2580 Y24.3018 
G01 X62.4111 Y24.3798 
G01 X62.5501 Y24.4808 
G01 X62.6715 Y24.6022 
G01 X62.7725 Y24.7412 
G01 X62.8505 Y24.8943 
G01 X62.9036 Y25.0577 
G01 X62.9305 Y25.2274 
G00 Z2.0000 
G00 X67.1815 Y25.2274 
G01 Z-0.2000 F600.00 
G01 X67.1815 Y27.3805 
G01 X67.1546 Y27.5502 
G01 X67.1015 Y27.7136 
G01 X67.0235 Y27.8667 
G01 X66.9225 Y28.0057 
G01 X66.8011 Y28.1271 
G01 X66.6621 Y28.2281 
G01 X66.5090 Y28.3061 
G01 X66.3456 Y28.3592 
G01 X66.1759 Y28.3861 
G01 X66.0040 Y28.3861 
G01 X65.8343 Y28.3592 
G01 X65.6709 Y28.3061 
G01 X65.5178 Y28.2281 
G01 X65.3788 Y28.1271 
G01 X65.2574 Y28.0057 
G01 X65.1564 Y27.8667 
G01 X65.0784 Y27.7136 
G01 X65.0253 Y27.5502 
G01 X64.9984 Y27.3805 
G01 X64.9984 Y25.2274 
G01 X65.0253 Y25.0577 
G01 X65.0784 Y24.8943 
G01 X65.1564 Y24.7412 
G01 X65.2574 Y24.6022 
G01 X65.3788 Y24.4808 
G01 X65.5178 Y24.3798 
G01 X65.6709 Y24.3018 
G01 X65.8343 Y24.2487 
G01 X66.0040 Y24.2218 
G01 X66.1759 Y24.2218 
G01 X66.3456 Y24.2487 
G01 X66.5090 Y24.3018 
G01 X66.6621 Y24.3798 
G01 X66.8011 Y24.4808 
G01 X66.9225 Y24.6022 
G01 X67.0235 Y24.7412 
G01 X67.1015 Y24.8943 
G01 X67.1546 Y25.0577 
G01 X67.1815 Y25.2274 
G00 Z2.0000 
G00 X71.4325 Y25.2274 
G01 Z-0.2000 F600.00 
G01 X71.4325 Y27.3805 
G01 X71.4056 Y27.5502 
G01 X71.3525 Y27.7136 
G01 X71.2745 Y27.8667 
G01 X71.1735 Y28.0057 
G01 X71.0521 Y28.1271 
G01 X70.9131 Y28.2281 
G01 X70.7600 Y28.3061 
G01 X70.5966 Y28.3592 
G01 X70.4269 Y28.3861 
G01 X70.2550 Y28.3861 
G01 X70.0853 Y28.3592 
G01 X69.9219 Y28.3061 
G01 X69.7688 Y28.2281 
G01 X69.6298 Y28.1271 
G01 X69.5084 Y28.0057 
G01 X69.4074 Y27.8667 
G01 X69.3294 Y27.7136 
G01 X69.2763 Y27.5502 
G01 X69.2494 Y27.3805 
G01 X69.2494 Y25.2274 
G01 X69.2763 Y25.0577 
G01 X69.3294 Y24.8943 
G01 X69.4074 Y24.7412 
G01 X69.5084 Y24.6022 
G01 X69.6298 Y24.4808 
G01 X69.7688 Y24.3798 
G01 X69.9219 Y24.3018 
G01 X70.0853 Y24.2487 
G01 X70.2550 Y24.2218 
G01 X70.4269 Y24.2218 
G01 X70.5966 Y24.2487 
G01 X70.7600 Y24.3018 
G01 X70.9131 Y24.3798 
G01 X71.0521 Y24.4808 
G01 X71.1735 Y24.6022 
G01 X71.2745 Y24.7412 
G01 X71.3525 Y24.8943 
G01 X71.4056 Y25.0577 
G01 X71.4325 Y25.2274 
G00 Z2.0000 
G00 X75.6835 Y25.2274 
G01 Z-0.2000 F600.00 
G01 X75.6835 Y27.3805 
G01 X75.6566 Y27.5502 
G01 X75.6035 Y27.7136 
G01 X75.5255 Y27.8667 
G01 X75.4245 Y28.0057 
G01 X75.3031 Y28.1271 
G01 X75.1641 Y28.2281 
G01 X75.0110 Y28.3061 
G01 X74.8476 Y28.3592 
G01 X74.6779 Y28.3861 
G01 X74.5060 Y28.3861 
G01 X74.3363 Y28.3592 
G01 X74.1729 Y28.3061 
G01 X74.0198 Y28.2281 
G01 X73.8808 Y28.1271 
G01 X73.7594 Y28.0057 
G01 X73.6584 Y27.8667 
G01 X73.5804 Y27.7136 
G01 X73.5273 Y27.5502 
G01 X73.5004 Y27.3805 
G01 X73.5004 Y25.2274 
G01 X73.5273 Y25.0577 
G01 X73.5804 Y24.8943 
G01 X73.6584 Y24.7412 
G01 X73.7594 Y24.6022 
G01 X73.8808 Y24.4808 
G01 X74.0198 Y24.3798 
G01 X74.1729 Y24.3018 
G01 X74.3363 Y24.2487 
G01 X74.5060 Y24.2218 
G01 X74.6779 Y24.2218 
G01 X74.8476 Y24.2487 
G01 X75.0110 Y24.3018 
G01 X75.1641 Y24.3798 
G01 X75.3031 Y24.4808 
G01 X75.4245 Y24.6022 
G01 X75.5255 Y24.7412 
G01 X75.6035 Y24.8943 
G01 X75.6566 Y25.0577 
G01 X75.6835 Y25.2274 
G00 Z2.0000 
G00 X79.9345 Y25.2274 
G01 Z-0.2000 F600.00 
G01 X79.9345 Y27.3805 
G01 X79.9076 Y27.5502 
G01 X79.8545 Y27.7136 
G01 X79.7765 Y27.8667 
G01 X79.6755 Y28.0057 
G01 X79.5541 Y28.1271 
G01 X79.4151 Y28.2281 
G01 X79.2620 Y28.3061 
G01 X79.0986 Y28.3592 
G01 X78.9289 Y28.3861 
G01 X78.7570 Y28.3861 
G01 X78.5873 Y28.3592 
G01 X78.4239 Y28.3061 
G01 X78.2708 Y28.2281 
G01 X78.1318 Y28.1271 
G01 X78.0104 Y28.0057 
G01 X77.9094 Y27.8667 
G01 X77.8314 Y27.7136 
G01 X77.7783 Y27.5502 
G01 X77.7514 Y27.3805 
G01 X77.7514 Y25.2274 
G01 X77.7783 Y25.0577 
G01 X77.8314 Y24.8943 
G01 X77.9094 Y24.7412 
G01 X78.0104 Y24.6022 
G01 X78.1318 Y24.4808 
G01 X78.2708 Y24.3798 
G01 X78.4239 Y24.3018 
G01 X78.5873 Y24.2487 
G01 X78.7570 Y24.2218 
G01 X78.9289 Y24.2218 
G01 X79.0986 Y24.2487 
G01 X79.2620 Y24.3018 
G01 X79.4151 Y24.3798 
G01 X79.5541 Y24.4808 
G01 X79.6755 Y24.6022 
G01 X79.7765 Y24.7412 
G01 X79.8545 Y24.8943 
G01 X79.9076 Y25.0577 
G01 X79.9345 Y25.2274 
G00 Z2.0000 
G00 X84.1855 Y25.2274 
G01 Z-0.2000 F600.00 
G01 X84.1855 Y27.3805 
G01 X84.1586 Y27.5502 
G01 X84.1055 Y27.7136 
G01 X84.0275 Y27.8667 
G01 X83.9265 Y28.0057 
G01 X83.8051 Y28.1271 
G01 X83.6661 Y28.2281 
G01 X83.5130 Y28.3061 
G01 X83.3496 Y28.3592 
G01 X83.1799 Y28.3861 
G01 X83.0080 Y28.3861 
G01 X82.8383 Y28.3592 
G01 X82.6749 Y28.3061 
G01 X82.5218 Y28.2281 
G01 X82.3828 Y28.1271 
G01 X82.2614 Y28.0057 
G01 X82.1604 Y27.8667 
G01 X82.0824 Y27.7136 
G01 X82.0293 Y27.5502 
G01 X82.0024 Y27.3805 
G01 X82.0024 Y25.2274 
G01 X82.0293 Y25.0577 
G01 X82.0824 Y24.8943 
G01 X82.1604 Y24.7412 
G01 X82.2614 Y24.6022 
G01 X82.3828 Y24.4808 
G01 X82.5218 Y24.3798 
G01 X82.6749 Y24.3018 
G01 X82.8383 Y24.2487 
G01 X83.0080 Y24.2218 
G01 X83.1799 Y24.2218 
G01 X83.3496 Y24.2487 
G01 X83.5130 Y24.3018 
G01 X83.6661 Y24.3798 
G01 X83.8051 Y24.4808 
G01 X83.9265 Y24.6022 
G01 X84.0275 Y24.7412 
G01 X84.1055 Y24.8943 
G01 X84.1586 Y25.0577 
G01 X84.1855 Y25.2274 
G00 Z2.0000 
G00 X88.4365 Y25.2274 
G01 Z-0.2000 F600.00 
G01 X88.4365 Y27.3805 
G01 X88.4096 Y27.5502 
G01 X88.3565 Y27.7136 
G01 X88.2785 Y27.8667 
G01 X88.1775 Y28.0057 
G01 X88.0561 Y28.1271 
G01 X87.9171 Y28.2281 
G01 X87.7640 Y28.3061 
G01 X87.6006 Y28.3592 
G01 X87.4309 Y28.3861 
G01 X87.2590 Y28.3861 
G01 X87.0893 Y28.3592 
G01 X86.9259 Y28.3061 
G01 X86.7728 Y28.2281 
G01 X86.6338 Y28.1271 
G01 X86.5124 Y28.0057 
G01 X86.4114 Y27.8667 
G01 X86.3334 Y27.7136 
G01 X86.2803 Y27.5502 
G01 X86.2534 Y27.3805 
G01 X86.2534 Y25.2274 
G01 X86.2803 Y25.0577 
G01 X86.3334 Y24.8943 
G01 X86.4114 Y24.7412 
G01 X86.5124 Y24.6022 
G01 X86.6338 Y24.4808 
G01 X86.7728 Y24.3798 
G01 X86.9259 Y24.3018 
G01 X87.0893 Y24.2487 
G01 X87.2590 Y24.2218 
G01 X87.4309 Y24.2218 
G01 X87.6006 Y24.2487 
G01 X87.7640 Y24.3018 
G01 X87.9171 Y24.3798 
G01 X88.0561 Y24.4808 
G01 X88.1775 Y24.6022 
G01 X88.2785 Y24.7412 
G01 X88.3565 Y24.8943 
G01 X88.4096 Y25.0577 
G01 X88.4365 Y25.2274 
G00 Z2.0000 
G00 X92.6875 Y25.2274 
G01 Z-0.2000 F600.00 
G01 X92.6875 Y27.3805 
G01 X92.6606 Y27.5502 
G01 X92.6075 Y27.7136 
G01 X92.5295 Y27.8667 
G01 X92.4285 Y28.0057 
G01 X92.3071 Y28.1271 
G01 X92.1681 Y28.2281 
G01 X92.0150 Y28.3061 
G01 X91.8516 Y28.3592 
G01 X91.6819 Y28.3861 
G01 X91.5100 Y28.3861 
G01 X91.3403 Y28.3592 
G01 X91.1769 Y28.3061 
G01 X91.0238 Y28.2281 
G01 X90.8848 Y28.1271 
G01 X90.7634 Y28.0057 
G01 X90.6624 Y27.8667 
G01 X90.5844 Y27.7136 
G01 X90.5313 Y27.5502 
G01 X90.5044 Y27.3805 
G01 X90.5044 Y25.2274 
G01 X90.5313 Y25.0577 
G01 X90.5844 Y24.8943 
G01 X90.6624 Y24.7412 
G01 X90.7634 Y24.6022 
G01 X90.8848 Y24.4808 
G01 X91.0238 Y24.3798 
G01 X91.1769 Y24.3018 
G01 X91.3403 Y24.2487 
G01 X91.5100 Y24.2218 
G01 X91.6819 Y24.2218 
G01 X91.8516 Y24.2487 
G01 X92.0150 Y24.3018 
G01 X92.1681 Y24.3798 
G01 X92.3071 Y24.4808 
G01 X92.4285 Y24.6022 
G01 X92.5295 Y24.7412 
G01 X92.6075 Y24.8943 
G01 X92.6606 Y25.0577 
G01 X92.6875 Y25.2274 
G00 Z2.0000 
G00 X96.9385 Y25.2274 
G01 Z-0.2000 F600.00 
G01 X96.9385 Y27.3805 
G01 X96.9116 Y27.5502 
G01 X96.8585 Y27.7136 
G01 X96.7805 Y27.8667 
G01 X96.6795 Y28.0057 
G01 X96.5581 Y28.1271 
G01 X96.4191 Y28.2281 
G01 X96.2660 Y28.3061 
G01 X96.1026 Y28.3592 
G01 X95.9329 Y28.3861 
G01 X95.7610 Y28.3861 
G01 X95.5913 Y28.3592 
G01 X95.4279 Y28.3061 
G01 X95.2748 Y28.2281 
G01 X95.1358 Y28.1271 
G01 X95.0144 Y28.0057 
G01 X94.9134 Y27.8667 
G01 X94.8354 Y27.7136 
G01 X94.7823 Y27.5502 
G01 X94.7554 Y27.3805 
G01 X94.7554 Y25.2274 
G01 X94.7823 Y25.0577 
G01 X94.8354 Y24.8943 
G01 X94.9134 Y24.7412 
G01 X95.0144 Y24.6022 
G01 X95.1358 Y24.4808 
G01 X95.2748 Y24.3798 
G01 X95.4279 Y24.3018 
G01 X95.5913 Y24.2487 
G01 X95.7610 Y24.2218 
G01 X95.9329 Y24.2218 
G01 X96.1026 Y24.2487 
G01 X96.2660 Y24.3018 
G01 X96.4191 Y24.3798 
G01 X96.5581 Y24.4808 
G01 X96.6795 Y24.6022 
G01 X96.7805 Y24.7412 
G01 X96.8585 Y24.8943 
G01 X96.9116 Y25.0577 
G01 X96.9385 Y25.2274 
G00 Z2.0000 
G00 X101.1895 Y25.2274 
G01 Z-0.2000 F600.00 
G01 X101.1895 Y27.3805 
G01 X101.1626 Y27.5502 
G01 X101.1095 Y27.7136 
G01 X101.0315 Y27.8667 
G01 X100.9305 Y28.0057 
G01 X100.8091 Y28.1271 
G01 X100.6701 Y28.2281 
G01 X100.5170 Y28.3061 
G01 X100.3536 Y28.3592 
G01 X100.1839 Y28.3861 
G01 X100.0120 Y28.3861 
G01 X99.8423 Y28.3592 
G01 X99.6789 Y28.3061 
G01 X99.5258 Y28.2281 
G01 X99.3868 Y28.1271 
G01 X99.2654 Y28.0057 
G01 X99.1644 Y27.8667 
G01 X99.0864 Y27.7136 
G01 X99.0333 Y27.5502 
G01 X99.0064 Y27.3805 
G01 X99.0064 Y25.2274 
G01 X99.0333 Y25.0577 
G01 X99.0864 Y24.8943 
G01 X99.1644 Y24.7412 
G01 X99.2654 Y24.6022 
G01 X99.3868 Y24.4808 
G01 X99.5258 Y24.3798 
G01 X99.6789 Y24.3018 
G01 X99.8423 Y24.2487 
G01 X100.0120 Y24.2218 
G01 X100.1839 Y24.2218 
G01 X100.3536 Y24.2487 
G01 X100.5170 Y24.3018 
G01 X100.6701 Y24.3798 
G01 X100.8091 Y24.4808 
G01 X100.9305 Y24.6022 
G01 X101.0315 Y24.7412 
G01 X101.1095 Y24.8943 
G01 X101.1626 Y25.0577 
G01 X101.1895 Y25.2274 
(File Footer)
G00 Z2.0000 
G00 Z10.0000 
M05
M02
