( This gcode generated by /home/mattvenn/.eagle/ulp/pcb-gcode.ulp )
( Copyright 2005 by John Johnson. See readme.txt for licensing terms. )

( This file generated from the board /home/mattvenn/eagle-circuit-designs/cvm/hymera.brd )
( This file generated 30/01/2012 17:06 )

G21

G90
G00 Z10.0000 
G00 X0 Y0
M03
G04 P3.000000
G00 Z2.0000 
G00 X103.4394 Y13.0316 
G01 Z-0.1000 F600.00 
G01 X103.4394 Y13.9963 
G01 X102.7573 Y14.6784 
G01 X101.7926 Y14.6784 
G01 X101.1105 Y13.9963 
G01 X101.1105 Y13.0316 
G01 X101.7926 Y12.3495 
G01 X102.7573 Y12.3495 
G01 X103.4394 Y13.0316 
G00 Z2.0000 
G00 X99.1884 Y13.0316 
G01 Z-0.1000 F600.00 
G01 X99.1884 Y13.9963 
G01 X98.5063 Y14.6784 
G01 X97.5416 Y14.6784 
G01 X96.8595 Y13.9963 
G01 X96.8595 Y13.0316 
G01 X97.5416 Y12.3495 
G01 X98.5063 Y12.3495 
G01 X99.1884 Y13.0316 
G00 Z2.0000 
G00 X94.9374 Y13.0316 
G01 Z-0.1000 F600.00 
G01 X94.9374 Y13.9963 
G01 X94.2553 Y14.6784 
G01 X93.2906 Y14.6784 
G01 X92.6085 Y13.9963 
G01 X92.6085 Y13.0316 
G01 X93.2906 Y12.3495 
G01 X94.2553 Y12.3495 
G01 X94.9374 Y13.0316 
G00 Z2.0000 
G00 X90.6864 Y13.0316 
G01 Z-0.1000 F600.00 
G01 X90.6864 Y13.9963 
G01 X90.0043 Y14.6784 
G01 X89.0396 Y14.6784 
G01 X88.3575 Y13.9963 
G01 X88.3575 Y13.0316 
G01 X89.0396 Y12.3495 
G01 X90.0043 Y12.3495 
G01 X90.6864 Y13.0316 
G00 Z2.0000 
G00 X86.4354 Y13.0316 
G01 Z-0.1000 F600.00 
G01 X86.4354 Y13.9963 
G01 X85.7533 Y14.6784 
G01 X84.7886 Y14.6784 
G01 X84.1065 Y13.9963 
G01 X84.1065 Y13.0316 
G01 X84.7886 Y12.3495 
G01 X85.7533 Y12.3495 
G01 X86.4354 Y13.0316 
G00 Z2.0000 
G00 X82.1844 Y13.0316 
G01 Z-0.1000 F600.00 
G01 X82.1844 Y13.9963 
G01 X81.5023 Y14.6784 
G01 X80.5376 Y14.6784 
G01 X79.8555 Y13.9963 
G01 X79.8555 Y13.0316 
G01 X80.5376 Y12.3495 
G01 X81.5023 Y12.3495 
G01 X82.1844 Y13.0316 
G00 Z2.0000 
G00 X77.9334 Y13.0316 
G01 Z-0.1000 F600.00 
G01 X77.9334 Y13.9963 
G01 X77.2513 Y14.6784 
G01 X76.2866 Y14.6784 
G01 X75.6045 Y13.9963 
G01 X75.6045 Y13.0316 
G01 X76.2866 Y12.3495 
G01 X77.2513 Y12.3495 
G01 X77.9334 Y13.0316 
G00 Z2.0000 
G00 X73.6824 Y13.0316 
G01 Z-0.1000 F600.00 
G01 X73.6824 Y13.9963 
G01 X73.0003 Y14.6784 
G01 X72.0356 Y14.6784 
G01 X71.3535 Y13.9963 
G01 X71.3535 Y13.0316 
G01 X72.0356 Y12.3495 
G01 X73.0003 Y12.3495 
G01 X73.6824 Y13.0316 
G00 Z2.0000 
G00 X69.4314 Y13.0316 
G01 Z-0.1000 F600.00 
G01 X69.4314 Y13.9963 
G01 X68.7493 Y14.6784 
G01 X67.7846 Y14.6784 
G01 X67.1025 Y13.9963 
G01 X67.1025 Y13.0316 
G01 X67.7846 Y12.3495 
G01 X68.7493 Y12.3495 
G01 X69.4314 Y13.0316 
G00 Z2.0000 
G00 X65.1804 Y13.0316 
G01 Z-0.1000 F600.00 
G01 X65.1804 Y13.9963 
G01 X64.4983 Y14.6784 
G01 X63.5336 Y14.6784 
G01 X62.8515 Y13.9963 
G01 X62.8515 Y13.0316 
G01 X63.5336 Y12.3495 
G01 X64.4983 Y12.3495 
G01 X65.1804 Y13.0316 
G00 Z2.0000 
G00 X123.9225 Y12.0345 
G01 Z-0.1000 F600.00 
G01 X123.9225 Y12.2126 
G01 X123.8878 Y12.3873 
G01 X123.8196 Y12.5519 
G01 X123.7207 Y12.6999 
G01 X123.5947 Y12.8259 
G01 X123.4467 Y12.9248 
G01 X123.2821 Y12.9930 
G01 X123.1074 Y13.0277 
G01 X122.9293 Y13.0277 
G01 X122.7546 Y12.9930 
G01 X122.5900 Y12.9248 
G01 X122.4420 Y12.8259 
G01 X122.3160 Y12.6999 
G01 X122.2171 Y12.5519 
G01 X122.1489 Y12.3873 
G01 X122.1142 Y12.2126 
G01 X122.1142 Y12.0345 
G01 X122.1489 Y11.8598 
G01 X122.2171 Y11.6952 
G01 X122.3160 Y11.5472 
G01 X122.4420 Y11.4212 
G01 X122.5900 Y11.3223 
G01 X122.7546 Y11.2541 
G01 X122.9293 Y11.2194 
G01 X123.1074 Y11.2194 
G01 X123.2821 Y11.2541 
G01 X123.4467 Y11.3223 
G01 X123.5947 Y11.4212 
G01 X123.7207 Y11.5472 
G01 X123.8196 Y11.6952 
G01 X123.8878 Y11.8598 
G01 X123.9225 Y12.0345 
G00 Z2.0000 
G00 X126.6911 Y12.0345 
G01 Z-0.1000 F600.00 
G01 X126.6911 Y12.2126 
G01 X126.6564 Y12.3873 
G01 X126.5882 Y12.5519 
G01 X126.4893 Y12.6999 
G01 X126.3633 Y12.8259 
G01 X126.2153 Y12.9248 
G01 X126.0507 Y12.9930 
G01 X125.8760 Y13.0277 
G01 X125.6979 Y13.0277 
G01 X125.5232 Y12.9930 
G01 X125.3586 Y12.9248 
G01 X125.2106 Y12.8259 
G01 X125.0846 Y12.6999 
G01 X124.9857 Y12.5519 
G01 X124.9175 Y12.3873 
G01 X124.8828 Y12.2126 
G01 X124.8828 Y12.0345 
G01 X124.9175 Y11.8598 
G01 X124.9857 Y11.6952 
G01 X125.0846 Y11.5472 
G01 X125.2106 Y11.4212 
G01 X125.3586 Y11.3223 
G01 X125.5232 Y11.2541 
G01 X125.6979 Y11.2194 
G01 X125.8760 Y11.2194 
G01 X126.0507 Y11.2541 
G01 X126.2153 Y11.3223 
G01 X126.3633 Y11.4212 
G01 X126.4893 Y11.5472 
G01 X126.5882 Y11.6952 
G01 X126.6564 Y11.8598 
G01 X126.6911 Y12.0345 
G00 Z2.0000 
G00 X129.4597 Y12.0345 
G01 Z-0.1000 F600.00 
G01 X129.4597 Y12.2126 
G01 X129.4250 Y12.3873 
G01 X129.3568 Y12.5519 
G01 X129.2579 Y12.6999 
G01 X129.1319 Y12.8259 
G01 X128.9839 Y12.9248 
G01 X128.8193 Y12.9930 
G01 X128.6446 Y13.0277 
G01 X128.4665 Y13.0277 
G01 X128.2918 Y12.9930 
G01 X128.1272 Y12.9248 
G01 X127.9792 Y12.8259 
G01 X127.8532 Y12.6999 
G01 X127.7543 Y12.5519 
G01 X127.6861 Y12.3873 
G01 X127.6514 Y12.2126 
G01 X127.6514 Y12.0345 
G01 X127.6861 Y11.8598 
G01 X127.7543 Y11.6952 
G01 X127.8532 Y11.5472 
G01 X127.9792 Y11.4212 
G01 X128.1272 Y11.3223 
G01 X128.2918 Y11.2541 
G01 X128.4665 Y11.2194 
G01 X128.6446 Y11.2194 
G01 X128.8193 Y11.2541 
G01 X128.9839 Y11.3223 
G01 X129.1319 Y11.4212 
G01 X129.2579 Y11.5472 
G01 X129.3568 Y11.6952 
G01 X129.4250 Y11.8598 
G01 X129.4597 Y12.0345 
G00 Z2.0000 
G00 X132.2283 Y12.0345 
G01 Z-0.1000 F600.00 
G01 X132.2283 Y12.2126 
G01 X132.1936 Y12.3873 
G01 X132.1254 Y12.5519 
G01 X132.0265 Y12.6999 
G01 X131.9005 Y12.8259 
G01 X131.7525 Y12.9248 
G01 X131.5879 Y12.9930 
G01 X131.4132 Y13.0277 
G01 X131.2351 Y13.0277 
G01 X131.0604 Y12.9930 
G01 X130.8958 Y12.9248 
G01 X130.7478 Y12.8259 
G01 X130.6218 Y12.6999 
G01 X130.5229 Y12.5519 
G01 X130.4547 Y12.3873 
G01 X130.4200 Y12.2126 
G01 X130.4200 Y12.0345 
G01 X130.4547 Y11.8598 
G01 X130.5229 Y11.6952 
G01 X130.6218 Y11.5472 
G01 X130.7478 Y11.4212 
G01 X130.8958 Y11.3223 
G01 X131.0604 Y11.2541 
G01 X131.2351 Y11.2194 
G01 X131.4132 Y11.2194 
G01 X131.5879 Y11.2541 
G01 X131.7525 Y11.3223 
G01 X131.9005 Y11.4212 
G01 X132.0265 Y11.5472 
G01 X132.1254 Y11.6952 
G01 X132.1936 Y11.8598 
G01 X132.2283 Y12.0345 
G00 Z2.0000 
G00 X134.9969 Y12.0345 
G01 Z-0.1000 F600.00 
G01 X134.9969 Y12.2126 
G01 X134.9622 Y12.3873 
G01 X134.8940 Y12.5519 
G01 X134.7951 Y12.6999 
G01 X134.6691 Y12.8259 
G01 X134.5211 Y12.9248 
G01 X134.3565 Y12.9930 
G01 X134.1818 Y13.0277 
G01 X134.0037 Y13.0277 
G01 X133.8290 Y12.9930 
G01 X133.6644 Y12.9248 
G01 X133.5164 Y12.8259 
G01 X133.3904 Y12.6999 
G01 X133.2915 Y12.5519 
G01 X133.2233 Y12.3873 
G01 X133.1886 Y12.2126 
G01 X133.1886 Y12.0345 
G01 X133.2233 Y11.8598 
G01 X133.2915 Y11.6952 
G01 X133.3904 Y11.5472 
G01 X133.5164 Y11.4212 
G01 X133.6644 Y11.3223 
G01 X133.8290 Y11.2541 
G01 X134.0037 Y11.2194 
G01 X134.1818 Y11.2194 
G01 X134.3565 Y11.2541 
G01 X134.5211 Y11.3223 
G01 X134.6691 Y11.4212 
G01 X134.7951 Y11.5472 
G01 X134.8940 Y11.6952 
G01 X134.9622 Y11.8598 
G01 X134.9969 Y12.0345 
G00 Z2.0000 
G00 X137.7655 Y12.0345 
G01 Z-0.1000 F600.00 
G01 X137.7655 Y12.2126 
G01 X137.7308 Y12.3873 
G01 X137.6626 Y12.5519 
G01 X137.5637 Y12.6999 
G01 X137.4377 Y12.8259 
G01 X137.2897 Y12.9248 
G01 X137.1251 Y12.9930 
G01 X136.9504 Y13.0277 
G01 X136.7723 Y13.0277 
G01 X136.5976 Y12.9930 
G01 X136.4330 Y12.9248 
G01 X136.2850 Y12.8259 
G01 X136.1590 Y12.6999 
G01 X136.0601 Y12.5519 
G01 X135.9919 Y12.3873 
G01 X135.9572 Y12.2126 
G01 X135.9572 Y12.0345 
G01 X135.9919 Y11.8598 
G01 X136.0601 Y11.6952 
G01 X136.1590 Y11.5472 
G01 X136.2850 Y11.4212 
G01 X136.4330 Y11.3223 
G01 X136.5976 Y11.2541 
G01 X136.7723 Y11.2194 
G01 X136.9504 Y11.2194 
G01 X137.1251 Y11.2541 
G01 X137.2897 Y11.3223 
G01 X137.4377 Y11.4212 
G01 X137.5637 Y11.5472 
G01 X137.6626 Y11.6952 
G01 X137.7308 Y11.8598 
G01 X137.7655 Y12.0345 
G00 Z2.0000 
G00 X140.5341 Y12.0345 
G01 Z-0.1000 F600.00 
G01 X140.5341 Y12.2126 
G01 X140.4994 Y12.3873 
G01 X140.4312 Y12.5519 
G01 X140.3323 Y12.6999 
G01 X140.2063 Y12.8259 
G01 X140.0583 Y12.9248 
G01 X139.8937 Y12.9930 
G01 X139.7190 Y13.0277 
G01 X139.5409 Y13.0277 
G01 X139.3662 Y12.9930 
G01 X139.2016 Y12.9248 
G01 X139.0536 Y12.8259 
G01 X138.9276 Y12.6999 
G01 X138.8287 Y12.5519 
G01 X138.7605 Y12.3873 
G01 X138.7258 Y12.2126 
G01 X138.7258 Y12.0345 
G01 X138.7605 Y11.8598 
G01 X138.8287 Y11.6952 
G01 X138.9276 Y11.5472 
G01 X139.0536 Y11.4212 
G01 X139.2016 Y11.3223 
G01 X139.3662 Y11.2541 
G01 X139.5409 Y11.2194 
G01 X139.7190 Y11.2194 
G01 X139.8937 Y11.2541 
G01 X140.0583 Y11.3223 
G01 X140.2063 Y11.4212 
G01 X140.3323 Y11.5472 
G01 X140.4312 Y11.6952 
G01 X140.4994 Y11.8598 
G01 X140.5341 Y12.0345 
G00 Z2.0000 
G00 X143.3027 Y12.0345 
G01 Z-0.1000 F600.00 
G01 X143.3027 Y12.2126 
G01 X143.2680 Y12.3873 
G01 X143.1998 Y12.5519 
G01 X143.1009 Y12.6999 
G01 X142.9749 Y12.8259 
G01 X142.8269 Y12.9248 
G01 X142.6623 Y12.9930 
G01 X142.4876 Y13.0277 
G01 X142.3095 Y13.0277 
G01 X142.1348 Y12.9930 
G01 X141.9702 Y12.9248 
G01 X141.8222 Y12.8259 
G01 X141.6962 Y12.6999 
G01 X141.5973 Y12.5519 
G01 X141.5291 Y12.3873 
G01 X141.4944 Y12.2126 
G01 X141.4944 Y12.0345 
G01 X141.5291 Y11.8598 
G01 X141.5973 Y11.6952 
G01 X141.6962 Y11.5472 
G01 X141.8222 Y11.4212 
G01 X141.9702 Y11.3223 
G01 X142.1348 Y11.2541 
G01 X142.3095 Y11.2194 
G01 X142.4876 Y11.2194 
G01 X142.6623 Y11.2541 
G01 X142.8269 Y11.3223 
G01 X142.9749 Y11.4212 
G01 X143.1009 Y11.5472 
G01 X143.1998 Y11.6952 
G01 X143.2680 Y11.8598 
G01 X143.3027 Y12.0345 
G00 Z2.0000 
G00 X146.0713 Y12.0345 
G01 Z-0.1000 F600.00 
G01 X146.0713 Y12.2126 
G01 X146.0366 Y12.3873 
G01 X145.9684 Y12.5519 
G01 X145.8695 Y12.6999 
G01 X145.7435 Y12.8259 
G01 X145.5955 Y12.9248 
G01 X145.4309 Y12.9930 
G01 X145.2562 Y13.0277 
G01 X145.0781 Y13.0277 
G01 X144.9034 Y12.9930 
G01 X144.7388 Y12.9248 
G01 X144.5908 Y12.8259 
G01 X144.4648 Y12.6999 
G01 X144.3659 Y12.5519 
G01 X144.2977 Y12.3873 
G01 X144.2630 Y12.2126 
G01 X144.2630 Y12.0345 
G01 X144.2977 Y11.8598 
G01 X144.3659 Y11.6952 
G01 X144.4648 Y11.5472 
G01 X144.5908 Y11.4212 
G01 X144.7388 Y11.3223 
G01 X144.9034 Y11.2541 
G01 X145.0781 Y11.2194 
G01 X145.2562 Y11.2194 
G01 X145.4309 Y11.2541 
G01 X145.5955 Y11.3223 
G01 X145.7435 Y11.4212 
G01 X145.8695 Y11.5472 
G01 X145.9684 Y11.6952 
G01 X146.0366 Y11.8598 
G01 X146.0713 Y12.0345 
G00 Z2.0000 
G00 X148.8399 Y12.0345 
G01 Z-0.1000 F600.00 
G01 X148.8399 Y12.2126 
G01 X148.8052 Y12.3873 
G01 X148.7370 Y12.5519 
G01 X148.6381 Y12.6999 
G01 X148.5121 Y12.8259 
G01 X148.3641 Y12.9248 
G01 X148.1995 Y12.9930 
G01 X148.0248 Y13.0277 
G01 X147.8467 Y13.0277 
G01 X147.6720 Y12.9930 
G01 X147.5074 Y12.9248 
G01 X147.3594 Y12.8259 
G01 X147.2334 Y12.6999 
G01 X147.1345 Y12.5519 
G01 X147.0663 Y12.3873 
G01 X147.0316 Y12.2126 
G01 X147.0316 Y12.0345 
G01 X147.0663 Y11.8598 
G01 X147.1345 Y11.6952 
G01 X147.2334 Y11.5472 
G01 X147.3594 Y11.4212 
G01 X147.5074 Y11.3223 
G01 X147.6720 Y11.2541 
G01 X147.8467 Y11.2194 
G01 X148.0248 Y11.2194 
G01 X148.1995 Y11.2541 
G01 X148.3641 Y11.3223 
G01 X148.5121 Y11.4212 
G01 X148.6381 Y11.5472 
G01 X148.7370 Y11.6952 
G01 X148.8052 Y11.8598 
G01 X148.8399 Y12.0345 
G00 Z2.0000 
G00 X151.6085 Y12.0345 
G01 Z-0.1000 F600.00 
G01 X151.6085 Y12.2126 
G01 X151.5738 Y12.3873 
G01 X151.5056 Y12.5519 
G01 X151.4067 Y12.6999 
G01 X151.2807 Y12.8259 
G01 X151.1327 Y12.9248 
G01 X150.9681 Y12.9930 
G01 X150.7934 Y13.0277 
G01 X150.6153 Y13.0277 
G01 X150.4406 Y12.9930 
G01 X150.2760 Y12.9248 
G01 X150.1280 Y12.8259 
G01 X150.0020 Y12.6999 
G01 X149.9031 Y12.5519 
G01 X149.8349 Y12.3873 
G01 X149.8002 Y12.2126 
G01 X149.8002 Y12.0345 
G01 X149.8349 Y11.8598 
G01 X149.9031 Y11.6952 
G01 X150.0020 Y11.5472 
G01 X150.1280 Y11.4212 
G01 X150.2760 Y11.3223 
G01 X150.4406 Y11.2541 
G01 X150.6153 Y11.2194 
G01 X150.7934 Y11.2194 
G01 X150.9681 Y11.2541 
G01 X151.1327 Y11.3223 
G01 X151.2807 Y11.4212 
G01 X151.4067 Y11.5472 
G01 X151.5056 Y11.6952 
G01 X151.5738 Y11.8598 
G01 X151.6085 Y12.0345 
G00 Z2.0000 
G00 X154.3771 Y12.0345 
G01 Z-0.1000 F600.00 
G01 X154.3771 Y12.2126 
G01 X154.3424 Y12.3873 
G01 X154.2742 Y12.5519 
G01 X154.1753 Y12.6999 
G01 X154.0493 Y12.8259 
G01 X153.9013 Y12.9248 
G01 X153.7367 Y12.9930 
G01 X153.5620 Y13.0277 
G01 X153.3839 Y13.0277 
G01 X153.2092 Y12.9930 
G01 X153.0446 Y12.9248 
G01 X152.8966 Y12.8259 
G01 X152.7706 Y12.6999 
G01 X152.6717 Y12.5519 
G01 X152.6035 Y12.3873 
G01 X152.5688 Y12.2126 
G01 X152.5688 Y12.0345 
G01 X152.6035 Y11.8598 
G01 X152.6717 Y11.6952 
G01 X152.7706 Y11.5472 
G01 X152.8966 Y11.4212 
G01 X153.0446 Y11.3223 
G01 X153.2092 Y11.2541 
G01 X153.3839 Y11.2194 
G01 X153.5620 Y11.2194 
G01 X153.7367 Y11.2541 
G01 X153.9013 Y11.3223 
G01 X154.0493 Y11.4212 
G01 X154.1753 Y11.5472 
G01 X154.2742 Y11.6952 
G01 X154.3424 Y11.8598 
G01 X154.3771 Y12.0345 
G00 Z2.0000 
G00 X157.1457 Y12.0345 
G01 Z-0.1000 F600.00 
G01 X157.1457 Y12.2126 
G01 X157.1110 Y12.3873 
G01 X157.0428 Y12.5519 
G01 X156.9439 Y12.6999 
G01 X156.8179 Y12.8259 
G01 X156.6699 Y12.9248 
G01 X156.5053 Y12.9930 
G01 X156.3306 Y13.0277 
G01 X156.1525 Y13.0277 
G01 X155.9778 Y12.9930 
G01 X155.8132 Y12.9248 
G01 X155.6652 Y12.8259 
G01 X155.5392 Y12.6999 
G01 X155.4403 Y12.5519 
G01 X155.3721 Y12.3873 
G01 X155.3374 Y12.2126 
G01 X155.3374 Y12.0345 
G01 X155.3721 Y11.8598 
G01 X155.4403 Y11.6952 
G01 X155.5392 Y11.5472 
G01 X155.6652 Y11.4212 
G01 X155.8132 Y11.3223 
G01 X155.9778 Y11.2541 
G01 X156.1525 Y11.2194 
G01 X156.3306 Y11.2194 
G01 X156.5053 Y11.2541 
G01 X156.6699 Y11.3223 
G01 X156.8179 Y11.4212 
G01 X156.9439 Y11.5472 
G01 X157.0428 Y11.6952 
G01 X157.1110 Y11.8598 
G01 X157.1457 Y12.0345 
G00 Z2.0000 
G00 X125.3068 Y14.8793 
G01 Z-0.1000 F600.00 
G01 X125.3068 Y15.0574 
G01 X125.2721 Y15.2321 
G01 X125.2039 Y15.3967 
G01 X125.1050 Y15.5447 
G01 X124.9790 Y15.6707 
G01 X124.8310 Y15.7696 
G01 X124.6664 Y15.8378 
G01 X124.4917 Y15.8725 
G01 X124.3136 Y15.8725 
G01 X124.1389 Y15.8378 
G01 X123.9743 Y15.7696 
G01 X123.8263 Y15.6707 
G01 X123.7003 Y15.5447 
G01 X123.6014 Y15.3967 
G01 X123.5332 Y15.2321 
G01 X123.4985 Y15.0574 
G01 X123.4985 Y14.8793 
G01 X123.5332 Y14.7046 
G01 X123.6014 Y14.5400 
G01 X123.7003 Y14.3920 
G01 X123.8263 Y14.2660 
G01 X123.9743 Y14.1671 
G01 X124.1389 Y14.0989 
G01 X124.3136 Y14.0642 
G01 X124.4917 Y14.0642 
G01 X124.6664 Y14.0989 
G01 X124.8310 Y14.1671 
G01 X124.9790 Y14.2660 
G01 X125.1050 Y14.3920 
G01 X125.2039 Y14.5400 
G01 X125.2721 Y14.7046 
G01 X125.3068 Y14.8793 
G00 Z2.0000 
G00 X128.0754 Y14.8793 
G01 Z-0.1000 F600.00 
G01 X128.0754 Y15.0574 
G01 X128.0407 Y15.2321 
G01 X127.9725 Y15.3967 
G01 X127.8736 Y15.5447 
G01 X127.7476 Y15.6707 
G01 X127.5996 Y15.7696 
G01 X127.4350 Y15.8378 
G01 X127.2603 Y15.8725 
G01 X127.0822 Y15.8725 
G01 X126.9075 Y15.8378 
G01 X126.7429 Y15.7696 
G01 X126.5949 Y15.6707 
G01 X126.4689 Y15.5447 
G01 X126.3700 Y15.3967 
G01 X126.3018 Y15.2321 
G01 X126.2671 Y15.0574 
G01 X126.2671 Y14.8793 
G01 X126.3018 Y14.7046 
G01 X126.3700 Y14.5400 
G01 X126.4689 Y14.3920 
G01 X126.5949 Y14.2660 
G01 X126.7429 Y14.1671 
G01 X126.9075 Y14.0989 
G01 X127.0822 Y14.0642 
G01 X127.2603 Y14.0642 
G01 X127.4350 Y14.0989 
G01 X127.5996 Y14.1671 
G01 X127.7476 Y14.2660 
G01 X127.8736 Y14.3920 
G01 X127.9725 Y14.5400 
G01 X128.0407 Y14.7046 
G01 X128.0754 Y14.8793 
G00 Z2.0000 
G00 X130.8440 Y14.8793 
G01 Z-0.1000 F600.00 
G01 X130.8440 Y15.0574 
G01 X130.8093 Y15.2321 
G01 X130.7411 Y15.3967 
G01 X130.6422 Y15.5447 
G01 X130.5162 Y15.6707 
G01 X130.3682 Y15.7696 
G01 X130.2036 Y15.8378 
G01 X130.0289 Y15.8725 
G01 X129.8508 Y15.8725 
G01 X129.6761 Y15.8378 
G01 X129.5115 Y15.7696 
G01 X129.3635 Y15.6707 
G01 X129.2375 Y15.5447 
G01 X129.1386 Y15.3967 
G01 X129.0704 Y15.2321 
G01 X129.0357 Y15.0574 
G01 X129.0357 Y14.8793 
G01 X129.0704 Y14.7046 
G01 X129.1386 Y14.5400 
G01 X129.2375 Y14.3920 
G01 X129.3635 Y14.2660 
G01 X129.5115 Y14.1671 
G01 X129.6761 Y14.0989 
G01 X129.8508 Y14.0642 
G01 X130.0289 Y14.0642 
G01 X130.2036 Y14.0989 
G01 X130.3682 Y14.1671 
G01 X130.5162 Y14.2660 
G01 X130.6422 Y14.3920 
G01 X130.7411 Y14.5400 
G01 X130.8093 Y14.7046 
G01 X130.8440 Y14.8793 
G00 Z2.0000 
G00 X133.6126 Y14.8793 
G01 Z-0.1000 F600.00 
G01 X133.6126 Y15.0574 
G01 X133.5779 Y15.2321 
G01 X133.5097 Y15.3967 
G01 X133.4108 Y15.5447 
G01 X133.2848 Y15.6707 
G01 X133.1368 Y15.7696 
G01 X132.9722 Y15.8378 
G01 X132.7975 Y15.8725 
G01 X132.6194 Y15.8725 
G01 X132.4447 Y15.8378 
G01 X132.2801 Y15.7696 
G01 X132.1321 Y15.6707 
G01 X132.0061 Y15.5447 
G01 X131.9072 Y15.3967 
G01 X131.8390 Y15.2321 
G01 X131.8043 Y15.0574 
G01 X131.8043 Y14.8793 
G01 X131.8390 Y14.7046 
G01 X131.9072 Y14.5400 
G01 X132.0061 Y14.3920 
G01 X132.1321 Y14.2660 
G01 X132.2801 Y14.1671 
G01 X132.4447 Y14.0989 
G01 X132.6194 Y14.0642 
G01 X132.7975 Y14.0642 
G01 X132.9722 Y14.0989 
G01 X133.1368 Y14.1671 
G01 X133.2848 Y14.2660 
G01 X133.4108 Y14.3920 
G01 X133.5097 Y14.5400 
G01 X133.5779 Y14.7046 
G01 X133.6126 Y14.8793 
G00 Z2.0000 
G00 X136.3812 Y14.8793 
G01 Z-0.1000 F600.00 
G01 X136.3812 Y15.0574 
G01 X136.3465 Y15.2321 
G01 X136.2783 Y15.3967 
G01 X136.1794 Y15.5447 
G01 X136.0534 Y15.6707 
G01 X135.9054 Y15.7696 
G01 X135.7408 Y15.8378 
G01 X135.5661 Y15.8725 
G01 X135.3880 Y15.8725 
G01 X135.2133 Y15.8378 
G01 X135.0487 Y15.7696 
G01 X134.9007 Y15.6707 
G01 X134.7747 Y15.5447 
G01 X134.6758 Y15.3967 
G01 X134.6076 Y15.2321 
G01 X134.5729 Y15.0574 
G01 X134.5729 Y14.8793 
G01 X134.6076 Y14.7046 
G01 X134.6758 Y14.5400 
G01 X134.7747 Y14.3920 
G01 X134.9007 Y14.2660 
G01 X135.0487 Y14.1671 
G01 X135.2133 Y14.0989 
G01 X135.3880 Y14.0642 
G01 X135.5661 Y14.0642 
G01 X135.7408 Y14.0989 
G01 X135.9054 Y14.1671 
G01 X136.0534 Y14.2660 
G01 X136.1794 Y14.3920 
G01 X136.2783 Y14.5400 
G01 X136.3465 Y14.7046 
G01 X136.3812 Y14.8793 
G00 Z2.0000 
G00 X139.1498 Y14.8793 
G01 Z-0.1000 F600.00 
G01 X139.1498 Y15.0574 
G01 X139.1151 Y15.2321 
G01 X139.0469 Y15.3967 
G01 X138.9480 Y15.5447 
G01 X138.8220 Y15.6707 
G01 X138.6740 Y15.7696 
G01 X138.5094 Y15.8378 
G01 X138.3347 Y15.8725 
G01 X138.1566 Y15.8725 
G01 X137.9819 Y15.8378 
G01 X137.8173 Y15.7696 
G01 X137.6693 Y15.6707 
G01 X137.5433 Y15.5447 
G01 X137.4444 Y15.3967 
G01 X137.3762 Y15.2321 
G01 X137.3415 Y15.0574 
G01 X137.3415 Y14.8793 
G01 X137.3762 Y14.7046 
G01 X137.4444 Y14.5400 
G01 X137.5433 Y14.3920 
G01 X137.6693 Y14.2660 
G01 X137.8173 Y14.1671 
G01 X137.9819 Y14.0989 
G01 X138.1566 Y14.0642 
G01 X138.3347 Y14.0642 
G01 X138.5094 Y14.0989 
G01 X138.6740 Y14.1671 
G01 X138.8220 Y14.2660 
G01 X138.9480 Y14.3920 
G01 X139.0469 Y14.5400 
G01 X139.1151 Y14.7046 
G01 X139.1498 Y14.8793 
G00 Z2.0000 
G00 X141.9184 Y14.8793 
G01 Z-0.1000 F600.00 
G01 X141.9184 Y15.0574 
G01 X141.8837 Y15.2321 
G01 X141.8155 Y15.3967 
G01 X141.7166 Y15.5447 
G01 X141.5906 Y15.6707 
G01 X141.4426 Y15.7696 
G01 X141.2780 Y15.8378 
G01 X141.1033 Y15.8725 
G01 X140.9252 Y15.8725 
G01 X140.7505 Y15.8378 
G01 X140.5859 Y15.7696 
G01 X140.4379 Y15.6707 
G01 X140.3119 Y15.5447 
G01 X140.2130 Y15.3967 
G01 X140.1448 Y15.2321 
G01 X140.1101 Y15.0574 
G01 X140.1101 Y14.8793 
G01 X140.1448 Y14.7046 
G01 X140.2130 Y14.5400 
G01 X140.3119 Y14.3920 
G01 X140.4379 Y14.2660 
G01 X140.5859 Y14.1671 
G01 X140.7505 Y14.0989 
G01 X140.9252 Y14.0642 
G01 X141.1033 Y14.0642 
G01 X141.2780 Y14.0989 
G01 X141.4426 Y14.1671 
G01 X141.5906 Y14.2660 
G01 X141.7166 Y14.3920 
G01 X141.8155 Y14.5400 
G01 X141.8837 Y14.7046 
G01 X141.9184 Y14.8793 
G00 Z2.0000 
G00 X144.6870 Y14.8793 
G01 Z-0.1000 F600.00 
G01 X144.6870 Y15.0574 
G01 X144.6523 Y15.2321 
G01 X144.5841 Y15.3967 
G01 X144.4852 Y15.5447 
G01 X144.3592 Y15.6707 
G01 X144.2112 Y15.7696 
G01 X144.0466 Y15.8378 
G01 X143.8719 Y15.8725 
G01 X143.6938 Y15.8725 
G01 X143.5191 Y15.8378 
G01 X143.3545 Y15.7696 
G01 X143.2065 Y15.6707 
G01 X143.0805 Y15.5447 
G01 X142.9816 Y15.3967 
G01 X142.9134 Y15.2321 
G01 X142.8787 Y15.0574 
G01 X142.8787 Y14.8793 
G01 X142.9134 Y14.7046 
G01 X142.9816 Y14.5400 
G01 X143.0805 Y14.3920 
G01 X143.2065 Y14.2660 
G01 X143.3545 Y14.1671 
G01 X143.5191 Y14.0989 
G01 X143.6938 Y14.0642 
G01 X143.8719 Y14.0642 
G01 X144.0466 Y14.0989 
G01 X144.2112 Y14.1671 
G01 X144.3592 Y14.2660 
G01 X144.4852 Y14.3920 
G01 X144.5841 Y14.5400 
G01 X144.6523 Y14.7046 
G01 X144.6870 Y14.8793 
G00 Z2.0000 
G00 X147.4556 Y14.8793 
G01 Z-0.1000 F600.00 
G01 X147.4556 Y15.0574 
G01 X147.4209 Y15.2321 
G01 X147.3527 Y15.3967 
G01 X147.2538 Y15.5447 
G01 X147.1278 Y15.6707 
G01 X146.9798 Y15.7696 
G01 X146.8152 Y15.8378 
G01 X146.6405 Y15.8725 
G01 X146.4624 Y15.8725 
G01 X146.2877 Y15.8378 
G01 X146.1231 Y15.7696 
G01 X145.9751 Y15.6707 
G01 X145.8491 Y15.5447 
G01 X145.7502 Y15.3967 
G01 X145.6820 Y15.2321 
G01 X145.6473 Y15.0574 
G01 X145.6473 Y14.8793 
G01 X145.6820 Y14.7046 
G01 X145.7502 Y14.5400 
G01 X145.8491 Y14.3920 
G01 X145.9751 Y14.2660 
G01 X146.1231 Y14.1671 
G01 X146.2877 Y14.0989 
G01 X146.4624 Y14.0642 
G01 X146.6405 Y14.0642 
G01 X146.8152 Y14.0989 
G01 X146.9798 Y14.1671 
G01 X147.1278 Y14.2660 
G01 X147.2538 Y14.3920 
G01 X147.3527 Y14.5400 
G01 X147.4209 Y14.7046 
G01 X147.4556 Y14.8793 
G00 Z2.0000 
G00 X150.2242 Y14.8793 
G01 Z-0.1000 F600.00 
G01 X150.2242 Y15.0574 
G01 X150.1895 Y15.2321 
G01 X150.1213 Y15.3967 
G01 X150.0224 Y15.5447 
G01 X149.8964 Y15.6707 
G01 X149.7484 Y15.7696 
G01 X149.5838 Y15.8378 
G01 X149.4091 Y15.8725 
G01 X149.2310 Y15.8725 
G01 X149.0563 Y15.8378 
G01 X148.8917 Y15.7696 
G01 X148.7437 Y15.6707 
G01 X148.6177 Y15.5447 
G01 X148.5188 Y15.3967 
G01 X148.4506 Y15.2321 
G01 X148.4159 Y15.0574 
G01 X148.4159 Y14.8793 
G01 X148.4506 Y14.7046 
G01 X148.5188 Y14.5400 
G01 X148.6177 Y14.3920 
G01 X148.7437 Y14.2660 
G01 X148.8917 Y14.1671 
G01 X149.0563 Y14.0989 
G01 X149.2310 Y14.0642 
G01 X149.4091 Y14.0642 
G01 X149.5838 Y14.0989 
G01 X149.7484 Y14.1671 
G01 X149.8964 Y14.2660 
G01 X150.0224 Y14.3920 
G01 X150.1213 Y14.5400 
G01 X150.1895 Y14.7046 
G01 X150.2242 Y14.8793 
G00 Z2.0000 
G00 X152.9928 Y14.8793 
G01 Z-0.1000 F600.00 
G01 X152.9928 Y15.0574 
G01 X152.9581 Y15.2321 
G01 X152.8899 Y15.3967 
G01 X152.7910 Y15.5447 
G01 X152.6650 Y15.6707 
G01 X152.5170 Y15.7696 
G01 X152.3524 Y15.8378 
G01 X152.1777 Y15.8725 
G01 X151.9996 Y15.8725 
G01 X151.8249 Y15.8378 
G01 X151.6603 Y15.7696 
G01 X151.5123 Y15.6707 
G01 X151.3863 Y15.5447 
G01 X151.2874 Y15.3967 
G01 X151.2192 Y15.2321 
G01 X151.1845 Y15.0574 
G01 X151.1845 Y14.8793 
G01 X151.2192 Y14.7046 
G01 X151.2874 Y14.5400 
G01 X151.3863 Y14.3920 
G01 X151.5123 Y14.2660 
G01 X151.6603 Y14.1671 
G01 X151.8249 Y14.0989 
G01 X151.9996 Y14.0642 
G01 X152.1777 Y14.0642 
G01 X152.3524 Y14.0989 
G01 X152.5170 Y14.1671 
G01 X152.6650 Y14.2660 
G01 X152.7910 Y14.3920 
G01 X152.8899 Y14.5400 
G01 X152.9581 Y14.7046 
G01 X152.9928 Y14.8793 
G00 Z2.0000 
G00 X155.7614 Y14.8793 
G01 Z-0.1000 F600.00 
G01 X155.7614 Y15.0574 
G01 X155.7267 Y15.2321 
G01 X155.6585 Y15.3967 
G01 X155.5596 Y15.5447 
G01 X155.4336 Y15.6707 
G01 X155.2856 Y15.7696 
G01 X155.1210 Y15.8378 
G01 X154.9463 Y15.8725 
G01 X154.7682 Y15.8725 
G01 X154.5935 Y15.8378 
G01 X154.4289 Y15.7696 
G01 X154.2809 Y15.6707 
G01 X154.1549 Y15.5447 
G01 X154.0560 Y15.3967 
G01 X153.9878 Y15.2321 
G01 X153.9531 Y15.0574 
G01 X153.9531 Y14.8793 
G01 X153.9878 Y14.7046 
G01 X154.0560 Y14.5400 
G01 X154.1549 Y14.3920 
G01 X154.2809 Y14.2660 
G01 X154.4289 Y14.1671 
G01 X154.5935 Y14.0989 
G01 X154.7682 Y14.0642 
G01 X154.9463 Y14.0642 
G01 X155.1210 Y14.0989 
G01 X155.2856 Y14.1671 
G01 X155.4336 Y14.2660 
G01 X155.5596 Y14.3920 
G01 X155.6585 Y14.5400 
G01 X155.7267 Y14.7046 
G01 X155.7614 Y14.8793 
G00 Z2.0000 
G00 X60.9294 Y13.0316 
G01 Z-0.1000 F600.00 
G01 X60.9294 Y13.9963 
G01 X60.2473 Y14.6784 
G01 X59.2826 Y14.6784 
G01 X58.6005 Y13.9963 
G01 X58.6005 Y13.0316 
G01 X59.2826 Y12.3495 
G01 X60.2473 Y12.3495 
G01 X60.9294 Y13.0316 
G00 Z2.0000 
G00 X56.6784 Y13.0316 
G01 Z-0.1000 F600.00 
G01 X56.6784 Y13.9963 
G01 X55.9963 Y14.6784 
G01 X55.0316 Y14.6784 
G01 X54.3495 Y13.9963 
G01 X54.3495 Y13.0316 
G01 X55.0316 Y12.3495 
G01 X55.9963 Y12.3495 
G01 X56.6784 Y13.0316 
G00 Z2.0000 
G00 X52.4274 Y13.0316 
G01 Z-0.1000 F600.00 
G01 X52.4274 Y13.9963 
G01 X51.7453 Y14.6784 
G01 X50.7806 Y14.6784 
G01 X50.0985 Y13.9963 
G01 X50.0985 Y13.0316 
G01 X50.7806 Y12.3495 
G01 X51.7453 Y12.3495 
G01 X52.4274 Y13.0316 
G00 Z2.0000 
G00 X48.1764 Y13.0316 
G01 Z-0.1000 F600.00 
G01 X48.1764 Y13.9963 
G01 X47.4943 Y14.6784 
G01 X46.5296 Y14.6784 
G01 X45.8475 Y13.9963 
G01 X45.8475 Y13.0316 
G01 X46.5296 Y12.3495 
G01 X47.4943 Y12.3495 
G01 X48.1764 Y13.0316 
G00 Z2.0000 
G00 X43.9254 Y13.0316 
G01 Z-0.1000 F600.00 
G01 X43.9254 Y13.9963 
G01 X43.2433 Y14.6784 
G01 X42.2786 Y14.6784 
G01 X41.5965 Y13.9963 
G01 X41.5965 Y13.0316 
G01 X42.2786 Y12.3495 
G01 X43.2433 Y12.3495 
G01 X43.9254 Y13.0316 
G00 Z2.0000 
G00 X39.6744 Y13.0316 
G01 Z-0.1000 F600.00 
G01 X39.6744 Y13.9963 
G01 X38.9923 Y14.6784 
G01 X38.0276 Y14.6784 
G01 X37.3455 Y13.9963 
G01 X37.3455 Y13.0316 
G01 X38.0276 Y12.3495 
G01 X38.9923 Y12.3495 
G01 X39.6744 Y13.0316 
G00 Z2.0000 
G00 X35.4234 Y13.0316 
G01 Z-0.1000 F600.00 
G01 X35.4234 Y13.9963 
G01 X34.7413 Y14.6784 
G01 X33.7766 Y14.6784 
G01 X33.0945 Y13.9963 
G01 X33.0945 Y13.0316 
G01 X33.7766 Y12.3495 
G01 X34.7413 Y12.3495 
G01 X35.4234 Y13.0316 
G00 Z2.0000 
G00 X31.1724 Y13.0316 
G01 Z-0.1000 F600.00 
G01 X31.1724 Y13.9963 
G01 X30.4903 Y14.6784 
G01 X29.5256 Y14.6784 
G01 X28.8435 Y13.9963 
G01 X28.8435 Y13.0316 
G01 X29.5256 Y12.3495 
G01 X30.4903 Y12.3495 
G01 X31.1724 Y13.0316 
G00 Z2.0000 
G00 X26.9214 Y13.0316 
G01 Z-0.1000 F600.00 
G01 X26.9214 Y13.9963 
G01 X26.2393 Y14.6784 
G01 X25.2746 Y14.6784 
G01 X24.5925 Y13.9963 
G01 X24.5925 Y13.0316 
G01 X25.2746 Y12.3495 
G01 X26.2393 Y12.3495 
G01 X26.9214 Y13.0316 
G00 Z2.0000 
G00 X22.6704 Y13.0316 
G01 Z-0.1000 F600.00 
G01 X22.6704 Y13.9963 
G01 X21.9883 Y14.6784 
G01 X21.0236 Y14.6784 
G01 X20.3415 Y13.9963 
G01 X20.3415 Y13.0316 
G01 X21.0236 Y12.3495 
G01 X21.9883 Y12.3495 
G01 X22.6704 Y13.0316 
G00 Z2.0000 
G00 X18.4194 Y13.0316 
G01 Z-0.1000 F600.00 
G01 X18.4194 Y13.9963 
G01 X17.7373 Y14.6784 
G01 X16.7726 Y14.6784 
G01 X16.0905 Y13.9963 
G01 X16.0905 Y13.0316 
G01 X16.7726 Y12.3495 
G01 X17.7373 Y12.3495 
G01 X18.4194 Y13.0316 
G00 Z2.0000 
G00 X14.1684 Y13.0316 
G01 Z-0.1000 F600.00 
G01 X14.1684 Y13.9963 
G01 X13.4863 Y14.6784 
G01 X12.5216 Y14.6784 
G01 X11.8395 Y13.9963 
G01 X11.8395 Y13.0316 
G01 X12.5216 Y12.3495 
G01 X13.4863 Y12.3495 
G01 X14.1684 Y13.0316 
G00 Z2.0000 
G00 X9.9174 Y13.0316 
G01 Z-0.1000 F600.00 
G01 X9.9174 Y13.9963 
G01 X9.2353 Y14.6784 
G01 X8.2706 Y14.6784 
G01 X7.5885 Y13.9963 
G01 X7.5885 Y13.0316 
G01 X8.2706 Y12.3495 
G01 X9.2353 Y12.3495 
G01 X9.9174 Y13.0316 
(File Footer)
G00 Z2.0000 
G00 Z10.0000 
M05
M02
