( This gcode generated by /home/mattvenn/.eagle/ulp/pcb-gcode.ulp )
( Copyright 2005 by John Johnson. See readme.txt for licensing terms. )

( This file generated from the board /home/mattvenn/eagle-circuit-designs/cvm/hymera.brd )
( This file generated 30/01/2012 17:06 )

G21

G90
G00 Z10.0000 
G00 X0 Y0
M03
G04 P3.000000
G00 Z2.0000 
G00 X-9.9174 Y13.0316 
G01 Z-0.1000 F600.00 
G01 X-9.9174 Y13.9963 
G01 X-9.2353 Y14.6784 
G01 X-8.9903 Y14.6784 
G01 X-8.9903 Y20.2626 
G01 X-149.2626 Y20.2626 
G01 X-149.2626 Y15.8725 
G01 X-149.2310 Y15.8725 
G01 X-149.0563 Y15.8378 
G01 X-148.8917 Y15.7696 
G01 X-148.7437 Y15.6707 
G01 X-148.6177 Y15.5447 
G01 X-148.5188 Y15.3967 
G01 X-148.4506 Y15.2321 
G01 X-148.4159 Y15.0574 
G01 X-148.4159 Y14.8793 
G01 X-148.4506 Y14.7046 
G01 X-148.5188 Y14.5400 
G01 X-148.6177 Y14.3920 
G01 X-148.7437 Y14.2660 
G01 X-148.8917 Y14.1671 
G01 X-149.0563 Y14.0989 
G01 X-149.2310 Y14.0642 
G01 X-149.4091 Y14.0642 
G01 X-149.5838 Y14.0989 
G01 X-149.7484 Y14.1671 
G01 X-149.8964 Y14.2660 
G01 X-150.0224 Y14.3920 
G01 X-150.1213 Y14.5400 
G01 X-150.1895 Y14.7046 
G01 X-150.2242 Y14.8793 
G01 X-150.2242 Y15.0574 
G01 X-150.1895 Y15.2321 
G01 X-150.1213 Y15.3967 
G01 X-150.0224 Y15.5447 
G01 X-149.8964 Y15.6707 
G01 X-149.7484 Y15.7696 
G01 X-149.7373 Y15.7742 
G01 X-149.7373 Y20.4527 
G01 X-149.7373 Y20.5472 
G01 X-149.7012 Y20.6344 
G01 X-149.6344 Y20.7012 
G01 X-149.5472 Y20.7373 
G01 X-8.8002 Y20.7373 
G01 X-8.7057 Y20.7373 
G01 X-8.6185 Y20.7012 
G01 X-8.5517 Y20.6344 
G01 X-8.5156 Y20.5472 
G01 X-8.5156 Y14.6784 
G01 X-8.2706 Y14.6784 
G01 X-7.5885 Y13.9963 
G01 X-7.5885 Y13.0316 
G01 X-8.2706 Y12.3495 
G01 X-9.2353 Y12.3495 
G01 X-9.9174 Y13.0316 
G00 Z2.0000 
G00 X-18.4194 Y13.0316 
G01 Z-0.1000 F600.00 
G01 X-18.4194 Y13.9963 
G01 X-17.7373 Y14.6784 
G01 X-17.4923 Y14.6784 
G01 X-17.4923 Y19.2626 
G01 X-143.7626 Y19.2626 
G01 X-143.7626 Y15.8725 
G01 X-143.6938 Y15.8725 
G01 X-143.5191 Y15.8378 
G01 X-143.3545 Y15.7696 
G01 X-143.2065 Y15.6707 
G01 X-143.0805 Y15.5447 
G01 X-142.9816 Y15.3967 
G01 X-142.9134 Y15.2321 
G01 X-142.8787 Y15.0574 
G01 X-142.8787 Y14.8793 
G01 X-142.9134 Y14.7046 
G01 X-142.9816 Y14.5400 
G01 X-143.0805 Y14.3920 
G01 X-143.2065 Y14.2660 
G01 X-143.3545 Y14.1671 
G01 X-143.5191 Y14.0989 
G01 X-143.6938 Y14.0642 
G01 X-143.8719 Y14.0642 
G01 X-144.0466 Y14.0989 
G01 X-144.2112 Y14.1671 
G01 X-144.3592 Y14.2660 
G01 X-144.4852 Y14.3920 
G01 X-144.5841 Y14.5400 
G01 X-144.6523 Y14.7046 
G01 X-144.6870 Y14.8793 
G01 X-144.6870 Y15.0574 
G01 X-144.6523 Y15.2321 
G01 X-144.5841 Y15.3967 
G01 X-144.4852 Y15.5447 
G01 X-144.3592 Y15.6707 
G01 X-144.2373 Y15.7521 
G01 X-144.2373 Y19.4527 
G01 X-144.2373 Y19.5472 
G01 X-144.2012 Y19.6344 
G01 X-144.1344 Y19.7012 
G01 X-144.0472 Y19.7373 
G01 X-17.3022 Y19.7373 
G01 X-17.2077 Y19.7373 
G01 X-17.1205 Y19.7012 
G01 X-17.0537 Y19.6344 
G01 X-17.0176 Y19.5472 
G01 X-17.0176 Y14.6784 
G01 X-16.7726 Y14.6784 
G01 X-16.0905 Y13.9963 
G01 X-16.0905 Y13.0316 
G01 X-16.7726 Y12.3495 
G01 X-17.7373 Y12.3495 
G01 X-18.4194 Y13.0316 
G00 Z2.0000 
G00 X-26.9214 Y13.0316 
G01 Z-0.1000 F600.00 
G01 X-26.9214 Y13.9963 
G01 X-26.2393 Y14.6784 
G01 X-25.9943 Y14.6784 
G01 X-25.9943 Y18.2626 
G01 X-138.2626 Y18.2626 
G01 X-138.2626 Y15.8725 
G01 X-138.1566 Y15.8725 
G01 X-137.9819 Y15.8378 
G01 X-137.8173 Y15.7696 
G01 X-137.6693 Y15.6707 
G01 X-137.5433 Y15.5447 
G01 X-137.4444 Y15.3967 
G01 X-137.3762 Y15.2321 
G01 X-137.3415 Y15.0574 
G01 X-137.3415 Y14.8793 
G01 X-137.3762 Y14.7046 
G01 X-137.4444 Y14.5400 
G01 X-137.5433 Y14.3920 
G01 X-137.6693 Y14.2660 
G01 X-137.8173 Y14.1671 
G01 X-137.9819 Y14.0989 
G01 X-138.1566 Y14.0642 
G01 X-138.3347 Y14.0642 
G01 X-138.5094 Y14.0989 
G01 X-138.6740 Y14.1671 
G01 X-138.8220 Y14.2660 
G01 X-138.9480 Y14.3920 
G01 X-139.0469 Y14.5400 
G01 X-139.1151 Y14.7046 
G01 X-139.1498 Y14.8793 
G01 X-139.1498 Y15.0574 
G01 X-139.1151 Y15.2321 
G01 X-139.0469 Y15.3967 
G01 X-138.9480 Y15.5447 
G01 X-138.8220 Y15.6707 
G01 X-138.7373 Y15.7273 
G01 X-138.7373 Y18.4527 
G01 X-138.7373 Y18.5472 
G01 X-138.7012 Y18.6344 
G01 X-138.6344 Y18.7012 
G01 X-138.5472 Y18.7373 
G01 X-25.8042 Y18.7373 
G01 X-25.7097 Y18.7373 
G01 X-25.6225 Y18.7012 
G01 X-25.5557 Y18.6344 
G01 X-25.5196 Y18.5472 
G01 X-25.5196 Y14.6784 
G01 X-25.2746 Y14.6784 
G01 X-24.5925 Y13.9963 
G01 X-24.5925 Y13.0316 
G01 X-25.2746 Y12.3495 
G01 X-26.2393 Y12.3495 
G01 X-26.9214 Y13.0316 
G00 Z2.0000 
G00 X-35.4234 Y13.0316 
G01 Z-0.1000 F600.00 
G01 X-35.4234 Y13.9963 
G01 X-34.7413 Y14.6784 
G01 X-34.4963 Y14.6784 
G01 X-34.4963 Y17.2626 
G01 X-132.7626 Y17.2626 
G01 X-132.7626 Y15.8725 
G01 X-132.6194 Y15.8725 
G01 X-132.4447 Y15.8378 
G01 X-132.2801 Y15.7696 
G01 X-132.1321 Y15.6707 
G01 X-132.0061 Y15.5447 
G01 X-131.9072 Y15.3967 
G01 X-131.8390 Y15.2321 
G01 X-131.8043 Y15.0574 
G01 X-131.8043 Y14.8793 
G01 X-131.8390 Y14.7046 
G01 X-131.9072 Y14.5400 
G01 X-132.0061 Y14.3920 
G01 X-132.1321 Y14.2660 
G01 X-132.2801 Y14.1671 
G01 X-132.4447 Y14.0989 
G01 X-132.6194 Y14.0642 
G01 X-132.7975 Y14.0642 
G01 X-132.9722 Y14.0989 
G01 X-133.1368 Y14.1671 
G01 X-133.2848 Y14.2660 
G01 X-133.4108 Y14.3920 
G01 X-133.5097 Y14.5400 
G01 X-133.5779 Y14.7046 
G01 X-133.6126 Y14.8793 
G01 X-133.6126 Y15.0574 
G01 X-133.5779 Y15.2321 
G01 X-133.5097 Y15.3967 
G01 X-133.4108 Y15.5447 
G01 X-133.2848 Y15.6707 
G01 X-133.2373 Y15.7024 
G01 X-133.2373 Y17.4527 
G01 X-133.2373 Y17.5472 
G01 X-133.2012 Y17.6344 
G01 X-133.1344 Y17.7012 
G01 X-133.0472 Y17.7373 
G01 X-34.3062 Y17.7373 
G01 X-34.2117 Y17.7373 
G01 X-34.1245 Y17.7012 
G01 X-34.0577 Y17.6344 
G01 X-34.0216 Y17.5472 
G01 X-34.0216 Y14.6784 
G01 X-33.7766 Y14.6784 
G01 X-33.0945 Y13.9963 
G01 X-33.0945 Y13.0316 
G01 X-33.7766 Y12.3495 
G01 X-34.7413 Y12.3495 
G01 X-35.4234 Y13.0316 
G00 Z2.0000 
G00 X-43.9254 Y13.0316 
G01 Z-0.1000 F600.00 
G01 X-43.9254 Y13.9963 
G01 X-43.2433 Y14.6784 
G01 X-42.9983 Y14.6784 
G01 X-42.9983 Y16.2626 
G01 X-126.7626 Y16.2626 
G01 X-126.7626 Y15.7777 
G01 X-126.7429 Y15.7696 
G01 X-126.5949 Y15.6707 
G01 X-126.4689 Y15.5447 
G01 X-126.3700 Y15.3967 
G01 X-126.3018 Y15.2321 
G01 X-126.2671 Y15.0574 
G01 X-126.2671 Y14.8793 
G01 X-126.3018 Y14.7046 
G01 X-126.3700 Y14.5400 
G01 X-126.4689 Y14.3920 
G01 X-126.5949 Y14.2660 
G01 X-126.7429 Y14.1671 
G01 X-126.9075 Y14.0989 
G01 X-127.0822 Y14.0642 
G01 X-127.2603 Y14.0642 
G01 X-127.4350 Y14.0989 
G01 X-127.5996 Y14.1671 
G01 X-127.7476 Y14.2660 
G01 X-127.8736 Y14.3920 
G01 X-127.9725 Y14.5400 
G01 X-128.0407 Y14.7046 
G01 X-128.0754 Y14.8793 
G01 X-128.0754 Y15.0574 
G01 X-128.0407 Y15.2321 
G01 X-127.9725 Y15.3967 
G01 X-127.8736 Y15.5447 
G01 X-127.7476 Y15.6707 
G01 X-127.5996 Y15.7696 
G01 X-127.4350 Y15.8378 
G01 X-127.2603 Y15.8725 
G01 X-127.2373 Y15.8725 
G01 X-127.2373 Y16.4527 
G01 X-127.2373 Y16.5472 
G01 X-127.2012 Y16.6344 
G01 X-127.1344 Y16.7012 
G01 X-127.0472 Y16.7373 
G01 X-42.8082 Y16.7373 
G01 X-42.7137 Y16.7373 
G01 X-42.6265 Y16.7012 
G01 X-42.5597 Y16.6344 
G01 X-42.5236 Y16.5472 
G01 X-42.5236 Y14.6784 
G01 X-42.2786 Y14.6784 
G01 X-41.5965 Y13.9963 
G01 X-41.5965 Y13.0316 
G01 X-42.2786 Y12.3495 
G01 X-43.2433 Y12.3495 
G01 X-43.9254 Y13.0316 
G00 Z2.0000 
G00 X-52.4274 Y13.0316 
G01 Z-0.1000 F600.00 
G01 X-52.4274 Y13.9963 
G01 X-51.7453 Y14.6784 
G01 X-50.7806 Y14.6784 
G01 X-50.0985 Y13.9963 
G01 X-50.0985 Y13.0316 
G01 X-50.7806 Y12.3495 
G01 X-51.0256 Y12.3495 
G01 X-51.0256 Y4.9527 
G01 X-51.0617 Y4.8655 
G01 X-51.1285 Y4.7987 
G01 X-51.2157 Y4.7626 
G01 X-51.3102 Y4.7626 
G01 X-156.0472 Y4.7626 
G01 X-156.1344 Y4.7987 
G01 X-156.2012 Y4.8655 
G01 X-156.2373 Y4.9527 
G01 X-156.2373 Y5.0472 
G01 X-156.2373 Y11.2194 
G01 X-156.3306 Y11.2194 
G01 X-156.5053 Y11.2541 
G01 X-156.6699 Y11.3223 
G01 X-156.8179 Y11.4212 
G01 X-156.9439 Y11.5472 
G01 X-157.0428 Y11.6952 
G01 X-157.1110 Y11.8598 
G01 X-157.1457 Y12.0345 
G01 X-157.1457 Y12.2126 
G01 X-157.1110 Y12.3873 
G01 X-157.0428 Y12.5519 
G01 X-156.9439 Y12.6999 
G01 X-156.8179 Y12.8259 
G01 X-156.6699 Y12.9248 
G01 X-156.5053 Y12.9930 
G01 X-156.3306 Y13.0277 
G01 X-156.1525 Y13.0277 
G01 X-155.9778 Y12.9930 
G01 X-155.8132 Y12.9248 
G01 X-155.6652 Y12.8259 
G01 X-155.5392 Y12.6999 
G01 X-155.4403 Y12.5519 
G01 X-155.3721 Y12.3873 
G01 X-155.3374 Y12.2126 
G01 X-155.3374 Y12.0345 
G01 X-155.3721 Y11.8598 
G01 X-155.4403 Y11.6952 
G01 X-155.5392 Y11.5472 
G01 X-155.6652 Y11.4212 
G01 X-155.7626 Y11.3562 
G01 X-155.7626 Y5.2373 
G01 X-51.5003 Y5.2373 
G01 X-51.5003 Y12.3495 
G01 X-51.7453 Y12.3495 
G01 X-52.4274 Y13.0316 
G00 Z2.0000 
G00 X-60.9294 Y13.0316 
G01 Z-0.1000 F600.00 
G01 X-60.9294 Y13.9963 
G01 X-60.2473 Y14.6784 
G01 X-59.2826 Y14.6784 
G01 X-58.6005 Y13.9963 
G01 X-58.6005 Y13.0316 
G01 X-59.2826 Y12.3495 
G01 X-59.5276 Y12.3495 
G01 X-59.5276 Y5.9527 
G01 X-59.5637 Y5.8655 
G01 X-59.6305 Y5.7987 
G01 X-59.7177 Y5.7626 
G01 X-59.8122 Y5.7626 
G01 X-150.5472 Y5.7626 
G01 X-150.6344 Y5.7987 
G01 X-150.7012 Y5.8655 
G01 X-150.7373 Y5.9527 
G01 X-150.7373 Y6.0472 
G01 X-150.7373 Y11.2194 
G01 X-150.7934 Y11.2194 
G01 X-150.9681 Y11.2541 
G01 X-151.1327 Y11.3223 
G01 X-151.2807 Y11.4212 
G01 X-151.4067 Y11.5472 
G01 X-151.5056 Y11.6952 
G01 X-151.5738 Y11.8598 
G01 X-151.6085 Y12.0345 
G01 X-151.6085 Y12.2126 
G01 X-151.5738 Y12.3873 
G01 X-151.5056 Y12.5519 
G01 X-151.4067 Y12.6999 
G01 X-151.2807 Y12.8259 
G01 X-151.1327 Y12.9248 
G01 X-150.9681 Y12.9930 
G01 X-150.7934 Y13.0277 
G01 X-150.6153 Y13.0277 
G01 X-150.4406 Y12.9930 
G01 X-150.2760 Y12.9248 
G01 X-150.1280 Y12.8259 
G01 X-150.0020 Y12.6999 
G01 X-149.9031 Y12.5519 
G01 X-149.8349 Y12.3873 
G01 X-149.8002 Y12.2126 
G01 X-149.8002 Y12.0345 
G01 X-149.8349 Y11.8598 
G01 X-149.9031 Y11.6952 
G01 X-150.0020 Y11.5472 
G01 X-150.1280 Y11.4212 
G01 X-150.2626 Y11.3313 
G01 X-150.2626 Y6.2373 
G01 X-60.0023 Y6.2373 
G01 X-60.0023 Y12.3495 
G01 X-60.2473 Y12.3495 
G01 X-60.9294 Y13.0316 
G00 Z2.0000 
G00 X-155.7614 Y14.8793 
G01 Z-0.1000 F600.00 
G01 X-155.7614 Y15.0574 
G01 X-155.7267 Y15.2321 
G01 X-155.6585 Y15.3967 
G01 X-155.5596 Y15.5447 
G01 X-155.4336 Y15.6707 
G01 X-155.2856 Y15.7696 
G01 X-155.1210 Y15.8378 
G01 X-154.9463 Y15.8725 
G01 X-154.7682 Y15.8725 
G01 X-154.5935 Y15.8378 
G01 X-154.4289 Y15.7696 
G01 X-154.2809 Y15.6707 
G01 X-154.1549 Y15.5447 
G01 X-154.0560 Y15.3967 
G01 X-153.9878 Y15.2321 
G01 X-153.9531 Y15.0574 
G01 X-153.9531 Y14.8793 
G01 X-153.9878 Y14.7046 
G01 X-154.0560 Y14.5400 
G01 X-154.1549 Y14.3920 
G01 X-154.2809 Y14.2660 
G01 X-154.4289 Y14.1671 
G01 X-154.5935 Y14.0989 
G01 X-154.7682 Y14.0642 
G01 X-154.9463 Y14.0642 
G01 X-155.1210 Y14.0989 
G01 X-155.2856 Y14.1671 
G01 X-155.4336 Y14.2660 
G01 X-155.5596 Y14.3920 
G01 X-155.6585 Y14.5400 
G01 X-155.7267 Y14.7046 
G01 X-155.7614 Y14.8793 
G00 Z2.0000 
G00 X-152.9928 Y14.8793 
G01 Z-0.1000 F600.00 
G01 X-152.9928 Y15.0574 
G01 X-152.9581 Y15.2321 
G01 X-152.8899 Y15.3967 
G01 X-152.7910 Y15.5447 
G01 X-152.6650 Y15.6707 
G01 X-152.5170 Y15.7696 
G01 X-152.3524 Y15.8378 
G01 X-152.1777 Y15.8725 
G01 X-151.9996 Y15.8725 
G01 X-151.8249 Y15.8378 
G01 X-151.6603 Y15.7696 
G01 X-151.5123 Y15.6707 
G01 X-151.3863 Y15.5447 
G01 X-151.2874 Y15.3967 
G01 X-151.2192 Y15.2321 
G01 X-151.1845 Y15.0574 
G01 X-151.1845 Y14.8793 
G01 X-151.2192 Y14.7046 
G01 X-151.2874 Y14.5400 
G01 X-151.3863 Y14.3920 
G01 X-151.5123 Y14.2660 
G01 X-151.6603 Y14.1671 
G01 X-151.8249 Y14.0989 
G01 X-151.9996 Y14.0642 
G01 X-152.1777 Y14.0642 
G01 X-152.3524 Y14.0989 
G01 X-152.5170 Y14.1671 
G01 X-152.6650 Y14.2660 
G01 X-152.7910 Y14.3920 
G01 X-152.8899 Y14.5400 
G01 X-152.9581 Y14.7046 
G01 X-152.9928 Y14.8793 
G00 Z2.0000 
G00 X-147.4556 Y14.8793 
G01 Z-0.1000 F600.00 
G01 X-147.4556 Y15.0574 
G01 X-147.4209 Y15.2321 
G01 X-147.3527 Y15.3967 
G01 X-147.2538 Y15.5447 
G01 X-147.1278 Y15.6707 
G01 X-146.9798 Y15.7696 
G01 X-146.8152 Y15.8378 
G01 X-146.7373 Y15.8533 
G01 X-146.7373 Y19.9527 
G01 X-146.7373 Y20.0472 
G01 X-146.7012 Y20.1344 
G01 X-146.6344 Y20.2012 
G01 X-146.5472 Y20.2373 
G01 X-13.0512 Y20.2373 
G01 X-12.9567 Y20.2373 
G01 X-12.8695 Y20.2012 
G01 X-12.8027 Y20.1344 
G01 X-12.7666 Y20.0472 
G01 X-12.7666 Y14.6784 
G01 X-12.5216 Y14.6784 
G01 X-11.8395 Y13.9963 
G01 X-11.8395 Y13.0316 
G01 X-12.5216 Y12.3495 
G01 X-13.4863 Y12.3495 
G01 X-14.1684 Y13.0316 
G01 X-14.1684 Y13.9963 
G01 X-13.4863 Y14.6784 
G01 X-13.2413 Y14.6784 
G01 X-13.2413 Y19.7626 
G01 X-146.2626 Y19.7626 
G01 X-146.2626 Y15.8274 
G01 X-146.1231 Y15.7696 
G01 X-145.9751 Y15.6707 
G01 X-145.8491 Y15.5447 
G01 X-145.7502 Y15.3967 
G01 X-145.6820 Y15.2321 
G01 X-145.6473 Y15.0574 
G01 X-145.6473 Y14.8793 
G01 X-145.6820 Y14.7046 
G01 X-145.7502 Y14.5400 
G01 X-145.8491 Y14.3920 
G01 X-145.9751 Y14.2660 
G01 X-146.1231 Y14.1671 
G01 X-146.2877 Y14.0989 
G01 X-146.4624 Y14.0642 
G01 X-146.6405 Y14.0642 
G01 X-146.8152 Y14.0989 
G01 X-146.9798 Y14.1671 
G01 X-147.1278 Y14.2660 
G01 X-147.2538 Y14.3920 
G01 X-147.3527 Y14.5400 
G01 X-147.4209 Y14.7046 
G01 X-147.4556 Y14.8793 
G00 Z2.0000 
G00 X-141.9184 Y14.8793 
G01 Z-0.1000 F600.00 
G01 X-141.9184 Y15.0574 
G01 X-141.8837 Y15.2321 
G01 X-141.8155 Y15.3967 
G01 X-141.7166 Y15.5447 
G01 X-141.5906 Y15.6707 
G01 X-141.4426 Y15.7696 
G01 X-141.2780 Y15.8378 
G01 X-141.2373 Y15.8459 
G01 X-141.2373 Y18.9527 
G01 X-141.2373 Y19.0472 
G01 X-141.2012 Y19.1344 
G01 X-141.1344 Y19.2012 
G01 X-141.0472 Y19.2373 
G01 X-21.5532 Y19.2373 
G01 X-21.4587 Y19.2373 
G01 X-21.3715 Y19.2012 
G01 X-21.3047 Y19.1344 
G01 X-21.2686 Y19.0472 
G01 X-21.2686 Y14.6784 
G01 X-21.0236 Y14.6784 
G01 X-20.3415 Y13.9963 
G01 X-20.3415 Y13.0316 
G01 X-21.0236 Y12.3495 
G01 X-21.9883 Y12.3495 
G01 X-22.6704 Y13.0316 
G01 X-22.6704 Y13.9963 
G01 X-21.9883 Y14.6784 
G01 X-21.7433 Y14.6784 
G01 X-21.7433 Y18.7626 
G01 X-140.7626 Y18.7626 
G01 X-140.7626 Y15.8402 
G01 X-140.7505 Y15.8378 
G01 X-140.5859 Y15.7696 
G01 X-140.4379 Y15.6707 
G01 X-140.3119 Y15.5447 
G01 X-140.2130 Y15.3967 
G01 X-140.1448 Y15.2321 
G01 X-140.1101 Y15.0574 
G01 X-140.1101 Y14.8793 
G01 X-140.1448 Y14.7046 
G01 X-140.2130 Y14.5400 
G01 X-140.3119 Y14.3920 
G01 X-140.4379 Y14.2660 
G01 X-140.5859 Y14.1671 
G01 X-140.7505 Y14.0989 
G01 X-140.9252 Y14.0642 
G01 X-141.1033 Y14.0642 
G01 X-141.2780 Y14.0989 
G01 X-141.4426 Y14.1671 
G01 X-141.5906 Y14.2660 
G01 X-141.7166 Y14.3920 
G01 X-141.8155 Y14.5400 
G01 X-141.8837 Y14.7046 
G01 X-141.9184 Y14.8793 
G00 Z2.0000 
G00 X-136.3812 Y14.8793 
G01 Z-0.1000 F600.00 
G01 X-136.3812 Y15.0574 
G01 X-136.3465 Y15.2321 
G01 X-136.2783 Y15.3967 
G01 X-136.1794 Y15.5447 
G01 X-136.0534 Y15.6707 
G01 X-135.9054 Y15.7696 
G01 X-135.7408 Y15.8378 
G01 X-135.7373 Y15.8385 
G01 X-135.7373 Y17.9527 
G01 X-135.7373 Y18.0472 
G01 X-135.7012 Y18.1344 
G01 X-135.6344 Y18.2012 
G01 X-135.5472 Y18.2373 
G01 X-30.0552 Y18.2373 
G01 X-29.9607 Y18.2373 
G01 X-29.8735 Y18.2012 
G01 X-29.8067 Y18.1344 
G01 X-29.7706 Y18.0472 
G01 X-29.7706 Y14.6784 
G01 X-29.5256 Y14.6784 
G01 X-28.8435 Y13.9963 
G01 X-28.8435 Y13.0316 
G01 X-29.5256 Y12.3495 
G01 X-30.4903 Y12.3495 
G01 X-31.1724 Y13.0316 
G01 X-31.1724 Y13.9963 
G01 X-30.4903 Y14.6784 
G01 X-30.2453 Y14.6784 
G01 X-30.2453 Y17.7626 
G01 X-135.2626 Y17.7626 
G01 X-135.2626 Y15.8476 
G01 X-135.2133 Y15.8378 
G01 X-135.0487 Y15.7696 
G01 X-134.9007 Y15.6707 
G01 X-134.7747 Y15.5447 
G01 X-134.6758 Y15.3967 
G01 X-134.6076 Y15.2321 
G01 X-134.5729 Y15.0574 
G01 X-134.5729 Y14.8793 
G01 X-134.6076 Y14.7046 
G01 X-134.6758 Y14.5400 
G01 X-134.7747 Y14.3920 
G01 X-134.9007 Y14.2660 
G01 X-135.0487 Y14.1671 
G01 X-135.2133 Y14.0989 
G01 X-135.3880 Y14.0642 
G01 X-135.5661 Y14.0642 
G01 X-135.7408 Y14.0989 
G01 X-135.9054 Y14.1671 
G01 X-136.0534 Y14.2660 
G01 X-136.1794 Y14.3920 
G01 X-136.2783 Y14.5400 
G01 X-136.3465 Y14.7046 
G01 X-136.3812 Y14.8793 
G00 Z2.0000 
G00 X-130.8440 Y14.8793 
G01 Z-0.1000 F600.00 
G01 X-130.8440 Y15.0574 
G01 X-130.8093 Y15.2321 
G01 X-130.7411 Y15.3967 
G01 X-130.6422 Y15.5447 
G01 X-130.5162 Y15.6707 
G01 X-130.3682 Y15.7696 
G01 X-130.2373 Y15.8238 
G01 X-130.2373 Y16.9527 
G01 X-130.2373 Y17.0472 
G01 X-130.2012 Y17.1344 
G01 X-130.1344 Y17.2012 
G01 X-130.0472 Y17.2373 
G01 X-38.5572 Y17.2373 
G01 X-38.4627 Y17.2373 
G01 X-38.3755 Y17.2012 
G01 X-38.3087 Y17.1344 
G01 X-38.2726 Y17.0472 
G01 X-38.2726 Y14.6784 
G01 X-38.0276 Y14.6784 
G01 X-37.3455 Y13.9963 
G01 X-37.3455 Y13.0316 
G01 X-38.0276 Y12.3495 
G01 X-38.9923 Y12.3495 
G01 X-39.6744 Y13.0316 
G01 X-39.6744 Y13.9963 
G01 X-38.9923 Y14.6784 
G01 X-38.7473 Y14.6784 
G01 X-38.7473 Y16.7626 
G01 X-129.7626 Y16.7626 
G01 X-129.7626 Y15.8550 
G01 X-129.6761 Y15.8378 
G01 X-129.5115 Y15.7696 
G01 X-129.3635 Y15.6707 
G01 X-129.2375 Y15.5447 
G01 X-129.1386 Y15.3967 
G01 X-129.0704 Y15.2321 
G01 X-129.0357 Y15.0574 
G01 X-129.0357 Y14.8793 
G01 X-129.0704 Y14.7046 
G01 X-129.1386 Y14.5400 
G01 X-129.2375 Y14.3920 
G01 X-129.3635 Y14.2660 
G01 X-129.5115 Y14.1671 
G01 X-129.6761 Y14.0989 
G01 X-129.8508 Y14.0642 
G01 X-130.0289 Y14.0642 
G01 X-130.2036 Y14.0989 
G01 X-130.3682 Y14.1671 
G01 X-130.5162 Y14.2660 
G01 X-130.6422 Y14.3920 
G01 X-130.7411 Y14.5400 
G01 X-130.8093 Y14.7046 
G01 X-130.8440 Y14.8793 
G00 Z2.0000 
G00 X-125.3068 Y14.8793 
G01 Z-0.1000 F600.00 
G01 X-125.3068 Y15.0574 
G01 X-125.2721 Y15.2321 
G01 X-125.2039 Y15.3967 
G01 X-125.1050 Y15.5447 
G01 X-124.9790 Y15.6707 
G01 X-124.8310 Y15.7696 
G01 X-124.7373 Y15.8084 
G01 X-124.7373 Y15.9527 
G01 X-124.7373 Y16.0472 
G01 X-124.7012 Y16.1344 
G01 X-124.6344 Y16.2012 
G01 X-124.5472 Y16.2373 
G01 X-47.0592 Y16.2373 
G01 X-46.9647 Y16.2373 
G01 X-46.8775 Y16.2012 
G01 X-46.8107 Y16.1344 
G01 X-46.7746 Y16.0472 
G01 X-46.7746 Y14.6784 
G01 X-46.5296 Y14.6784 
G01 X-45.8475 Y13.9963 
G01 X-45.8475 Y13.0316 
G01 X-46.5296 Y12.3495 
G01 X-47.4943 Y12.3495 
G01 X-48.1764 Y13.0316 
G01 X-48.1764 Y13.9963 
G01 X-47.4943 Y14.6784 
G01 X-47.2493 Y14.6784 
G01 X-47.2493 Y15.7626 
G01 X-123.9639 Y15.7626 
G01 X-123.8263 Y15.6707 
G01 X-123.7003 Y15.5447 
G01 X-123.6014 Y15.3967 
G01 X-123.5332 Y15.2321 
G01 X-123.4985 Y15.0574 
G01 X-123.4985 Y14.8793 
G01 X-123.5332 Y14.7046 
G01 X-123.6014 Y14.5400 
G01 X-123.7003 Y14.3920 
G01 X-123.8263 Y14.2660 
G01 X-123.9743 Y14.1671 
G01 X-124.1389 Y14.0989 
G01 X-124.3136 Y14.0642 
G01 X-124.4917 Y14.0642 
G01 X-124.6664 Y14.0989 
G01 X-124.8310 Y14.1671 
G01 X-124.9790 Y14.2660 
G01 X-125.1050 Y14.3920 
G01 X-125.2039 Y14.5400 
G01 X-125.2721 Y14.7046 
G01 X-125.3068 Y14.8793 
G00 Z2.0000 
G00 X-154.3771 Y12.0345 
G01 Z-0.1000 F600.00 
G01 X-154.3771 Y12.2126 
G01 X-154.3424 Y12.3873 
G01 X-154.2742 Y12.5519 
G01 X-154.1753 Y12.6999 
G01 X-154.0493 Y12.8259 
G01 X-153.9013 Y12.9248 
G01 X-153.7367 Y12.9930 
G01 X-153.5620 Y13.0277 
G01 X-153.3839 Y13.0277 
G01 X-153.2092 Y12.9930 
G01 X-153.0446 Y12.9248 
G01 X-152.8966 Y12.8259 
G01 X-152.7706 Y12.6999 
G01 X-152.6717 Y12.5519 
G01 X-152.6035 Y12.3873 
G01 X-152.5688 Y12.2126 
G01 X-152.5688 Y12.0345 
G01 X-152.6035 Y11.8598 
G01 X-152.6717 Y11.6952 
G01 X-152.7706 Y11.5472 
G01 X-152.8966 Y11.4212 
G01 X-153.0446 Y11.3223 
G01 X-153.2092 Y11.2541 
G01 X-153.2626 Y11.2435 
G01 X-153.2626 Y5.7373 
G01 X-55.7513 Y5.7373 
G01 X-55.7513 Y12.3495 
G01 X-55.9963 Y12.3495 
G01 X-56.6784 Y13.0316 
G01 X-56.6784 Y13.9963 
G01 X-55.9963 Y14.6784 
G01 X-55.0316 Y14.6784 
G01 X-54.3495 Y13.9963 
G01 X-54.3495 Y13.0316 
G01 X-55.0316 Y12.3495 
G01 X-55.2766 Y12.3495 
G01 X-55.2766 Y5.4527 
G01 X-55.3127 Y5.3655 
G01 X-55.3795 Y5.2987 
G01 X-55.4667 Y5.2626 
G01 X-55.5612 Y5.2626 
G01 X-153.5472 Y5.2626 
G01 X-153.6344 Y5.2987 
G01 X-153.7012 Y5.3655 
G01 X-153.7373 Y5.4527 
G01 X-153.7373 Y5.5472 
G01 X-153.7373 Y11.2544 
G01 X-153.9013 Y11.3223 
G01 X-154.0493 Y11.4212 
G01 X-154.1753 Y11.5472 
G01 X-154.2742 Y11.6952 
G01 X-154.3424 Y11.8598 
G01 X-154.3771 Y12.0345 
G00 Z2.0000 
G00 X-148.8399 Y12.0345 
G01 Z-0.1000 F600.00 
G01 X-148.8399 Y12.2126 
G01 X-148.8052 Y12.3873 
G01 X-148.7370 Y12.5519 
G01 X-148.6381 Y12.6999 
G01 X-148.5121 Y12.8259 
G01 X-148.3641 Y12.9248 
G01 X-148.1995 Y12.9930 
G01 X-148.0248 Y13.0277 
G01 X-147.8467 Y13.0277 
G01 X-147.6720 Y12.9930 
G01 X-147.5074 Y12.9248 
G01 X-147.3594 Y12.8259 
G01 X-147.2334 Y12.6999 
G01 X-147.1345 Y12.5519 
G01 X-147.0663 Y12.3873 
G01 X-147.0316 Y12.2126 
G01 X-147.0316 Y12.0345 
G01 X-147.0663 Y11.8598 
G01 X-147.1345 Y11.6952 
G01 X-147.2334 Y11.5472 
G01 X-147.2626 Y11.5180 
G01 X-147.2626 Y6.7373 
G01 X-64.2533 Y6.7373 
G01 X-64.2533 Y12.3495 
G01 X-64.4983 Y12.3495 
G01 X-65.1804 Y13.0316 
G01 X-65.1804 Y13.9963 
G01 X-64.4983 Y14.6784 
G01 X-63.5336 Y14.6784 
G01 X-62.8515 Y13.9963 
G01 X-62.8515 Y13.0316 
G01 X-63.5336 Y12.3495 
G01 X-63.7786 Y12.3495 
G01 X-63.7786 Y6.4527 
G01 X-63.8147 Y6.3655 
G01 X-63.8815 Y6.2987 
G01 X-63.9687 Y6.2626 
G01 X-64.0632 Y6.2626 
G01 X-147.5472 Y6.2626 
G01 X-147.6344 Y6.2987 
G01 X-147.7012 Y6.3655 
G01 X-147.7373 Y6.4527 
G01 X-147.7373 Y6.5472 
G01 X-147.7373 Y11.2412 
G01 X-147.8467 Y11.2194 
G01 X-148.0248 Y11.2194 
G01 X-148.1995 Y11.2541 
G01 X-148.3641 Y11.3223 
G01 X-148.5121 Y11.4212 
G01 X-148.6381 Y11.5472 
G01 X-148.7370 Y11.6952 
G01 X-148.8052 Y11.8598 
G01 X-148.8399 Y12.0345 
G00 Z2.0000 
G00 X-143.3027 Y12.0345 
G01 Z-0.1000 F600.00 
G01 X-143.3027 Y12.2126 
G01 X-143.2680 Y12.3873 
G01 X-143.1998 Y12.5519 
G01 X-143.1009 Y12.6999 
G01 X-142.9749 Y12.8259 
G01 X-142.8269 Y12.9248 
G01 X-142.6623 Y12.9930 
G01 X-142.4876 Y13.0277 
G01 X-142.3095 Y13.0277 
G01 X-142.1348 Y12.9930 
G01 X-141.9702 Y12.9248 
G01 X-141.8222 Y12.8259 
G01 X-141.6962 Y12.6999 
G01 X-141.5973 Y12.5519 
G01 X-141.5291 Y12.3873 
G01 X-141.4944 Y12.2126 
G01 X-141.4944 Y12.0345 
G01 X-141.5291 Y11.8598 
G01 X-141.5973 Y11.6952 
G01 X-141.6962 Y11.5472 
G01 X-141.8222 Y11.4212 
G01 X-141.9702 Y11.3223 
G01 X-142.1348 Y11.2541 
G01 X-142.2626 Y11.2287 
G01 X-142.2626 Y7.7373 
G01 X-72.7553 Y7.7373 
G01 X-72.7553 Y12.3495 
G01 X-73.0003 Y12.3495 
G01 X-73.6824 Y13.0316 
G01 X-73.6824 Y13.9963 
G01 X-73.0003 Y14.6784 
G01 X-72.0356 Y14.6784 
G01 X-71.3535 Y13.9963 
G01 X-71.3535 Y13.0316 
G01 X-72.0356 Y12.3495 
G01 X-72.2806 Y12.3495 
G01 X-72.2806 Y7.4527 
G01 X-72.3167 Y7.3655 
G01 X-72.3835 Y7.2987 
G01 X-72.4707 Y7.2626 
G01 X-72.5652 Y7.2626 
G01 X-142.5472 Y7.2626 
G01 X-142.6344 Y7.2987 
G01 X-142.7012 Y7.3655 
G01 X-142.7373 Y7.4527 
G01 X-142.7373 Y7.5472 
G01 X-142.7373 Y11.2852 
G01 X-142.8269 Y11.3223 
G01 X-142.9749 Y11.4212 
G01 X-143.1009 Y11.5472 
G01 X-143.1998 Y11.6952 
G01 X-143.2680 Y11.8598 
G01 X-143.3027 Y12.0345 
G00 Z2.0000 
G00 X-137.7655 Y12.0345 
G01 Z-0.1000 F600.00 
G01 X-137.7655 Y12.2126 
G01 X-137.7308 Y12.3873 
G01 X-137.6626 Y12.5519 
G01 X-137.5637 Y12.6999 
G01 X-137.4377 Y12.8259 
G01 X-137.2897 Y12.9248 
G01 X-137.1251 Y12.9930 
G01 X-136.9504 Y13.0277 
G01 X-136.7723 Y13.0277 
G01 X-136.5976 Y12.9930 
G01 X-136.4330 Y12.9248 
G01 X-136.2850 Y12.8259 
G01 X-136.1590 Y12.6999 
G01 X-136.0601 Y12.5519 
G01 X-135.9919 Y12.3873 
G01 X-135.9572 Y12.2126 
G01 X-135.9572 Y12.0345 
G01 X-135.9919 Y11.8598 
G01 X-136.0601 Y11.6952 
G01 X-136.1590 Y11.5472 
G01 X-136.2850 Y11.4212 
G01 X-136.4330 Y11.3223 
G01 X-136.5976 Y11.2541 
G01 X-136.6240 Y11.2489 
G01 X-136.6240 Y8.7373 
G01 X-81.2373 Y8.7373 
G01 X-81.2373 Y12.3495 
G01 X-81.5023 Y12.3495 
G01 X-82.1844 Y13.0316 
G01 X-82.1844 Y13.9963 
G01 X-81.5023 Y14.6784 
G01 X-80.5376 Y14.6784 
G01 X-79.8555 Y13.9963 
G01 X-79.8555 Y13.0316 
G01 X-80.5376 Y12.3495 
G01 X-80.7626 Y12.3495 
G01 X-80.7626 Y8.5472 
G01 X-80.7626 Y8.4527 
G01 X-80.7987 Y8.3655 
G01 X-80.8655 Y8.2987 
G01 X-80.9527 Y8.2626 
G01 X-136.8141 Y8.2626 
G01 X-136.9086 Y8.2626 
G01 X-136.9958 Y8.2987 
G01 X-137.0626 Y8.3655 
G01 X-137.0987 Y8.4527 
G01 X-137.0987 Y11.2489 
G01 X-137.1251 Y11.2541 
G01 X-137.2897 Y11.3223 
G01 X-137.4377 Y11.4212 
G01 X-137.5637 Y11.5472 
G01 X-137.6626 Y11.6952 
G01 X-137.7308 Y11.8598 
G01 X-137.7655 Y12.0345 
G00 Z2.0000 
G00 X-132.2283 Y12.0345 
G01 Z-0.1000 F600.00 
G01 X-132.2283 Y12.2126 
G01 X-132.1936 Y12.3873 
G01 X-132.1254 Y12.5519 
G01 X-132.0265 Y12.6999 
G01 X-131.9005 Y12.8259 
G01 X-131.7525 Y12.9248 
G01 X-131.5879 Y12.9930 
G01 X-131.4132 Y13.0277 
G01 X-131.2351 Y13.0277 
G01 X-131.0604 Y12.9930 
G01 X-130.8958 Y12.9248 
G01 X-130.7478 Y12.8259 
G01 X-130.6218 Y12.6999 
G01 X-130.5229 Y12.5519 
G01 X-130.4547 Y12.3873 
G01 X-130.4200 Y12.2126 
G01 X-130.4200 Y12.0345 
G01 X-130.4547 Y11.8598 
G01 X-130.5229 Y11.6952 
G01 X-130.6218 Y11.5472 
G01 X-130.7478 Y11.4212 
G01 X-130.8958 Y11.3223 
G01 X-131.0604 Y11.2541 
G01 X-131.2351 Y11.2194 
G01 X-131.2626 Y11.2194 
G01 X-131.2626 Y9.7373 
G01 X-89.7593 Y9.7373 
G01 X-89.7593 Y12.3495 
G01 X-90.0043 Y12.3495 
G01 X-90.6864 Y13.0316 
G01 X-90.6864 Y13.9963 
G01 X-90.0043 Y14.6784 
G01 X-89.0396 Y14.6784 
G01 X-88.3575 Y13.9963 
G01 X-88.3575 Y13.0316 
G01 X-89.0396 Y12.3495 
G01 X-89.2846 Y12.3495 
G01 X-89.2846 Y9.4527 
G01 X-89.3207 Y9.3655 
G01 X-89.3875 Y9.2987 
G01 X-89.4747 Y9.2626 
G01 X-89.5692 Y9.2626 
G01 X-131.5472 Y9.2626 
G01 X-131.6344 Y9.2987 
G01 X-131.7012 Y9.3655 
G01 X-131.7373 Y9.4527 
G01 X-131.7373 Y9.5472 
G01 X-131.7373 Y11.3160 
G01 X-131.7525 Y11.3223 
G01 X-131.9005 Y11.4212 
G01 X-132.0265 Y11.5472 
G01 X-132.1254 Y11.6952 
G01 X-132.1936 Y11.8598 
G01 X-132.2283 Y12.0345 
G00 Z2.0000 
G00 X-123.9225 Y12.0345 
G01 Z-0.1000 F600.00 
G01 X-123.9225 Y12.2126 
G01 X-123.8878 Y12.3873 
G01 X-123.8196 Y12.5519 
G01 X-123.7207 Y12.6999 
G01 X-123.5947 Y12.8259 
G01 X-123.4467 Y12.9248 
G01 X-123.2821 Y12.9930 
G01 X-123.1074 Y13.0277 
G01 X-122.9293 Y13.0277 
G01 X-122.7546 Y12.9930 
G01 X-122.5900 Y12.9248 
G01 X-122.4420 Y12.8259 
G01 X-122.3160 Y12.6999 
G01 X-122.2171 Y12.5519 
G01 X-122.1489 Y12.3873 
G01 X-122.1142 Y12.2126 
G01 X-122.1142 Y12.0345 
G01 X-122.1489 Y11.8598 
G01 X-122.2171 Y11.6952 
G01 X-122.3160 Y11.5472 
G01 X-122.4420 Y11.4212 
G01 X-122.5900 Y11.3223 
G01 X-122.7546 Y11.2541 
G01 X-122.7626 Y11.2526 
G01 X-122.7626 Y11.2373 
G01 X-102.5123 Y11.2373 
G01 X-102.5123 Y12.3495 
G01 X-102.7573 Y12.3495 
G01 X-103.4394 Y13.0316 
G01 X-103.4394 Y13.9963 
G01 X-102.7573 Y14.6784 
G01 X-101.7926 Y14.6784 
G01 X-101.1105 Y13.9963 
G01 X-101.1105 Y13.0316 
G01 X-101.7926 Y12.3495 
G01 X-102.0376 Y12.3495 
G01 X-102.0376 Y10.9527 
G01 X-102.0737 Y10.8655 
G01 X-102.1405 Y10.7987 
G01 X-102.2277 Y10.7626 
G01 X-102.3222 Y10.7626 
G01 X-123.0472 Y10.7626 
G01 X-123.1344 Y10.7987 
G01 X-123.2012 Y10.8655 
G01 X-123.2373 Y10.9527 
G01 X-123.2373 Y11.0472 
G01 X-123.2373 Y11.2452 
G01 X-123.2821 Y11.2541 
G01 X-123.4467 Y11.3223 
G01 X-123.5947 Y11.4212 
G01 X-123.7207 Y11.5472 
G01 X-123.8196 Y11.6952 
G01 X-123.8878 Y11.8598 
G01 X-123.9225 Y12.0345 
G00 Z2.0000 
G00 X-69.4314 Y13.0316 
G01 Z-0.1000 F600.00 
G01 X-69.4314 Y13.9963 
G01 X-68.7493 Y14.6784 
G01 X-67.7846 Y14.6784 
G01 X-67.1025 Y13.9963 
G01 X-67.1025 Y13.0316 
G01 X-67.7846 Y12.3495 
G01 X-68.0296 Y12.3495 
G01 X-68.0296 Y6.9527 
G01 X-68.0657 Y6.8655 
G01 X-68.1325 Y6.7987 
G01 X-68.2197 Y6.7626 
G01 X-68.3142 Y6.7626 
G01 X-145.5472 Y6.7626 
G01 X-145.6344 Y6.7987 
G01 X-145.7012 Y6.8655 
G01 X-145.7373 Y6.9527 
G01 X-145.7373 Y7.0472 
G01 X-145.7373 Y11.4171 
G01 X-145.7435 Y11.4212 
G01 X-145.8695 Y11.5472 
G01 X-145.9684 Y11.6952 
G01 X-146.0366 Y11.8598 
G01 X-146.0713 Y12.0345 
G01 X-146.0713 Y12.2126 
G01 X-146.0366 Y12.3873 
G01 X-145.9684 Y12.5519 
G01 X-145.8695 Y12.6999 
G01 X-145.7435 Y12.8259 
G01 X-145.5955 Y12.9248 
G01 X-145.4309 Y12.9930 
G01 X-145.2562 Y13.0277 
G01 X-145.0781 Y13.0277 
G01 X-144.9034 Y12.9930 
G01 X-144.7388 Y12.9248 
G01 X-144.5908 Y12.8259 
G01 X-144.4648 Y12.6999 
G01 X-144.3659 Y12.5519 
G01 X-144.2977 Y12.3873 
G01 X-144.2630 Y12.2126 
G01 X-144.2630 Y12.0345 
G01 X-144.2977 Y11.8598 
G01 X-144.3659 Y11.6952 
G01 X-144.4648 Y11.5472 
G01 X-144.5908 Y11.4212 
G01 X-144.7388 Y11.3223 
G01 X-144.9034 Y11.2541 
G01 X-145.0781 Y11.2194 
G01 X-145.2562 Y11.2194 
G01 X-145.2626 Y11.2207 
G01 X-145.2626 Y7.2373 
G01 X-68.5043 Y7.2373 
G01 X-68.5043 Y12.3495 
G01 X-68.7493 Y12.3495 
G01 X-69.4314 Y13.0316 
G00 Z2.0000 
G00 X-77.9334 Y13.0316 
G01 Z-0.1000 F600.00 
G01 X-77.9334 Y13.9963 
G01 X-77.2513 Y14.6784 
G01 X-76.2866 Y14.6784 
G01 X-75.6045 Y13.9963 
G01 X-75.6045 Y13.0316 
G01 X-76.2866 Y12.3495 
G01 X-76.5316 Y12.3495 
G01 X-76.5316 Y7.9527 
G01 X-76.5677 Y7.8655 
G01 X-76.6345 Y7.7987 
G01 X-76.7217 Y7.7626 
G01 X-76.8162 Y7.7626 
G01 X-139.5472 Y7.7626 
G01 X-139.6344 Y7.7987 
G01 X-139.7012 Y7.8655 
G01 X-139.7373 Y7.9527 
G01 X-139.7373 Y8.0472 
G01 X-139.7373 Y11.2231 
G01 X-139.8937 Y11.2541 
G01 X-140.0583 Y11.3223 
G01 X-140.2063 Y11.4212 
G01 X-140.3323 Y11.5472 
G01 X-140.4312 Y11.6952 
G01 X-140.4994 Y11.8598 
G01 X-140.5341 Y12.0345 
G01 X-140.5341 Y12.2126 
G01 X-140.4994 Y12.3873 
G01 X-140.4312 Y12.5519 
G01 X-140.3323 Y12.6999 
G01 X-140.2063 Y12.8259 
G01 X-140.0583 Y12.9248 
G01 X-139.8937 Y12.9930 
G01 X-139.7190 Y13.0277 
G01 X-139.5409 Y13.0277 
G01 X-139.3662 Y12.9930 
G01 X-139.2016 Y12.9248 
G01 X-139.0536 Y12.8259 
G01 X-138.9276 Y12.6999 
G01 X-138.8287 Y12.5519 
G01 X-138.7605 Y12.3873 
G01 X-138.7258 Y12.2126 
G01 X-138.7258 Y12.0345 
G01 X-138.7605 Y11.8598 
G01 X-138.8287 Y11.6952 
G01 X-138.9276 Y11.5472 
G01 X-139.0536 Y11.4212 
G01 X-139.2016 Y11.3223 
G01 X-139.2626 Y11.2971 
G01 X-139.2626 Y8.2373 
G01 X-77.0063 Y8.2373 
G01 X-77.0063 Y12.3495 
G01 X-77.2513 Y12.3495 
G01 X-77.9334 Y13.0316 
G00 Z2.0000 
G00 X-86.4354 Y13.0316 
G01 Z-0.1000 F600.00 
G01 X-86.4354 Y13.9963 
G01 X-85.7533 Y14.6784 
G01 X-84.7886 Y14.6784 
G01 X-84.1065 Y13.9963 
G01 X-84.1065 Y13.0316 
G01 X-84.7886 Y12.3495 
G01 X-85.0336 Y12.3495 
G01 X-85.0336 Y8.9527 
G01 X-85.0697 Y8.8655 
G01 X-85.1365 Y8.7987 
G01 X-85.2237 Y8.7626 
G01 X-85.3182 Y8.7626 
G01 X-134.5472 Y8.7626 
G01 X-134.6344 Y8.7987 
G01 X-134.7012 Y8.8655 
G01 X-134.7373 Y8.9527 
G01 X-134.7373 Y9.0472 
G01 X-134.7373 Y11.4895 
G01 X-134.7951 Y11.5472 
G01 X-134.8940 Y11.6952 
G01 X-134.9622 Y11.8598 
G01 X-134.9969 Y12.0345 
G01 X-134.9969 Y12.2126 
G01 X-134.9622 Y12.3873 
G01 X-134.8940 Y12.5519 
G01 X-134.7951 Y12.6999 
G01 X-134.6691 Y12.8259 
G01 X-134.5211 Y12.9248 
G01 X-134.3565 Y12.9930 
G01 X-134.1818 Y13.0277 
G01 X-134.0037 Y13.0277 
G01 X-133.8290 Y12.9930 
G01 X-133.6644 Y12.9248 
G01 X-133.5164 Y12.8259 
G01 X-133.3904 Y12.6999 
G01 X-133.2915 Y12.5519 
G01 X-133.2233 Y12.3873 
G01 X-133.1886 Y12.2126 
G01 X-133.1886 Y12.0345 
G01 X-133.2233 Y11.8598 
G01 X-133.2915 Y11.6952 
G01 X-133.3904 Y11.5472 
G01 X-133.5164 Y11.4212 
G01 X-133.6644 Y11.3223 
G01 X-133.8290 Y11.2541 
G01 X-134.0037 Y11.2194 
G01 X-134.1818 Y11.2194 
G01 X-134.2626 Y11.2355 
G01 X-134.2626 Y9.2373 
G01 X-85.5083 Y9.2373 
G01 X-85.5083 Y12.3495 
G01 X-85.7533 Y12.3495 
G01 X-86.4354 Y13.0316 
G00 Z2.0000 
G00 X-94.9374 Y13.0316 
G01 Z-0.1000 F600.00 
G01 X-94.9374 Y13.9963 
G01 X-94.2553 Y14.6784 
G01 X-93.2906 Y14.6784 
G01 X-92.6085 Y13.9963 
G01 X-92.6085 Y13.0316 
G01 X-93.2906 Y12.3495 
G01 X-93.5356 Y12.3495 
G01 X-93.5356 Y9.9527 
G01 X-93.5717 Y9.8655 
G01 X-93.6385 Y9.7987 
G01 X-93.7257 Y9.7626 
G01 X-93.8202 Y9.7626 
G01 X-128.5472 Y9.7626 
G01 X-128.6344 Y9.7987 
G01 X-128.7012 Y9.8655 
G01 X-128.7373 Y9.9527 
G01 X-128.7373 Y10.0472 
G01 X-128.7373 Y11.2379 
G01 X-128.8193 Y11.2541 
G01 X-128.9839 Y11.3223 
G01 X-129.1319 Y11.4212 
G01 X-129.2579 Y11.5472 
G01 X-129.3568 Y11.6952 
G01 X-129.4250 Y11.8598 
G01 X-129.4597 Y12.0345 
G01 X-129.4597 Y12.2126 
G01 X-129.4250 Y12.3873 
G01 X-129.3568 Y12.5519 
G01 X-129.2579 Y12.6999 
G01 X-129.1319 Y12.8259 
G01 X-128.9839 Y12.9248 
G01 X-128.8193 Y12.9930 
G01 X-128.6446 Y13.0277 
G01 X-128.4665 Y13.0277 
G01 X-128.2918 Y12.9930 
G01 X-128.1272 Y12.9248 
G01 X-127.9792 Y12.8259 
G01 X-127.8532 Y12.6999 
G01 X-127.7543 Y12.5519 
G01 X-127.6861 Y12.3873 
G01 X-127.6514 Y12.2126 
G01 X-127.6514 Y12.0345 
G01 X-127.6861 Y11.8598 
G01 X-127.7543 Y11.6952 
G01 X-127.8532 Y11.5472 
G01 X-127.9792 Y11.4212 
G01 X-128.1272 Y11.3223 
G01 X-128.2626 Y11.2662 
G01 X-128.2626 Y10.2373 
G01 X-94.0103 Y10.2373 
G01 X-94.0103 Y12.3495 
G01 X-94.2553 Y12.3495 
G01 X-94.9374 Y13.0316 
G00 Z2.0000 
G00 X-99.1884 Y13.0316 
G01 Z-0.1000 F600.00 
G01 X-99.1884 Y13.9963 
G01 X-98.5063 Y14.6784 
G01 X-97.5416 Y14.6784 
G01 X-96.8595 Y13.9963 
G01 X-96.8595 Y13.0316 
G01 X-97.5416 Y12.3495 
G01 X-97.7626 Y12.3495 
G01 X-97.7626 Y10.5472 
G01 X-97.7626 Y10.4527 
G01 X-97.7987 Y10.3655 
G01 X-97.8655 Y10.2987 
G01 X-97.9527 Y10.2626 
G01 X-125.7397 Y10.2626 
G01 X-125.8342 Y10.2626 
G01 X-125.9214 Y10.2987 
G01 X-125.9882 Y10.3655 
G01 X-126.0243 Y10.4527 
G01 X-126.0243 Y11.2489 
G01 X-126.0507 Y11.2541 
G01 X-126.2153 Y11.3223 
G01 X-126.3633 Y11.4212 
G01 X-126.4893 Y11.5472 
G01 X-126.5882 Y11.6952 
G01 X-126.6564 Y11.8598 
G01 X-126.6911 Y12.0345 
G01 X-126.6911 Y12.2126 
G01 X-126.6564 Y12.3873 
G01 X-126.5882 Y12.5519 
G01 X-126.4893 Y12.6999 
G01 X-126.3633 Y12.8259 
G01 X-126.2153 Y12.9248 
G01 X-126.0507 Y12.9930 
G01 X-125.8760 Y13.0277 
G01 X-125.6979 Y13.0277 
G01 X-125.5232 Y12.9930 
G01 X-125.3586 Y12.9248 
G01 X-125.2106 Y12.8259 
G01 X-125.0846 Y12.6999 
G01 X-124.9857 Y12.5519 
G01 X-124.9175 Y12.3873 
G01 X-124.8828 Y12.2126 
G01 X-124.8828 Y12.0345 
G01 X-124.9175 Y11.8598 
G01 X-124.9857 Y11.6952 
G01 X-125.0846 Y11.5472 
G01 X-125.2106 Y11.4212 
G01 X-125.3586 Y11.3223 
G01 X-125.5232 Y11.2541 
G01 X-125.5496 Y11.2489 
G01 X-125.5496 Y10.7373 
G01 X-98.2373 Y10.7373 
G01 X-98.2373 Y12.3495 
G01 X-98.5063 Y12.3495 
G01 X-99.1884 Y13.0316 
(File Footer)
G00 Z2.0000 
G00 Z10.0000 
M05
M02
