( This gcode generated by /home/mattvenn/.eagle/ulp/pcb-gcode.ulp )
( Copyright 2005 by John Johnson. See readme.txt for licensing terms. )

( This file generated from the board /home/mattvenn/eagle-circuit-designs/cvm/hymera.brd )
( This file generated 03/02/2012 13:22 )

G21

G90
G00 Z10.0000 
G00 X0 Y0
M03
G04 P3.000000
G00 Z2.0000 
G00 X-5.9685 Y27.2294 
G01 Z-0.2000 F600.00 
G01 X-5.9685 Y29.3785 
G01 X-5.9422 Y29.5443 
G01 X-5.8904 Y29.7040 
G01 X-5.8142 Y29.8536 
G01 X-5.7155 Y29.9894 
G01 X-5.5968 Y30.1081 
G01 X-5.4610 Y30.2068 
G01 X-5.3114 Y30.2830 
G01 X-5.1517 Y30.3348 
G01 X-4.9859 Y30.3611 
G01 X-4.8180 Y30.3611 
G01 X-4.6522 Y30.3348 
G01 X-4.4925 Y30.2830 
G01 X-4.3429 Y30.2068 
G01 X-4.2071 Y30.1081 
G01 X-4.0884 Y29.9894 
G01 X-3.9897 Y29.8536 
G01 X-3.9135 Y29.7040 
G01 X-3.8617 Y29.5443 
G01 X-3.8354 Y29.3785 
G01 X-3.8354 Y27.2294 
G01 X-3.8617 Y27.0636 
G01 X-3.9135 Y26.9039 
G01 X-3.9897 Y26.7543 
G01 X-4.0884 Y26.6185 
G01 X-4.2071 Y26.4998 
G01 X-4.3429 Y26.4011 
G01 X-4.4925 Y26.3249 
G01 X-4.6522 Y26.2731 
G01 X-4.8180 Y26.2468 
G01 X-4.9041 Y26.2468 
G01 X-18.6941 Y12.0683 
G01 X-18.6953 Y12.0661 
G01 X-18.7265 Y12.0350 
G01 X-18.7619 Y11.9985 
G01 X-18.7644 Y11.9971 
G01 X-18.7661 Y11.9953 
G01 X-18.8047 Y11.9731 
G01 X-18.8480 Y11.9472 
G01 X-18.8507 Y11.9465 
G01 X-18.8530 Y11.9451 
G01 X-18.8978 Y11.9332 
G01 X-18.9445 Y11.9199 
G01 X-18.9474 Y11.9199 
G01 X-18.9498 Y11.9192 
G01 X-18.9947 Y11.9192 
G01 X-19.0448 Y11.9185 
G01 X-19.0475 Y11.9192 
G01 X-21.4540 Y11.9192 
G01 X-21.4630 Y11.9057 
G01 X-21.5877 Y11.7810 
G01 X-21.7343 Y11.6831 
G01 X-21.8972 Y11.6156 
G01 X-22.0701 Y11.5812 
G01 X-22.2466 Y11.5812 
G01 X-22.4195 Y11.6156 
G01 X-22.5824 Y11.6831 
G01 X-22.7290 Y11.7810 
G01 X-22.8537 Y11.9057 
G01 X-22.9516 Y12.0523 
G01 X-23.0191 Y12.2152 
G01 X-23.0535 Y12.3881 
G01 X-23.0535 Y12.5646 
G01 X-23.0191 Y12.7375 
G01 X-22.9516 Y12.9004 
G01 X-22.8537 Y13.0470 
G01 X-22.7290 Y13.1717 
G01 X-22.5824 Y13.2696 
G01 X-22.4195 Y13.3371 
G01 X-22.2466 Y13.3715 
G01 X-22.0701 Y13.3715 
G01 X-21.8972 Y13.3371 
G01 X-21.7343 Y13.2696 
G01 X-21.5877 Y13.1717 
G01 X-21.4630 Y13.0470 
G01 X-21.3651 Y12.9004 
G01 X-21.2976 Y12.7375 
G01 X-21.2863 Y12.6807 
G01 X-19.1608 Y12.6807 
G01 X-5.6594 Y26.5625 
G01 X-5.7155 Y26.6185 
G01 X-5.8142 Y26.7543 
G01 X-5.8904 Y26.9039 
G01 X-5.9422 Y27.0636 
G01 X-5.9685 Y27.2294 
G00 Z2.0000 
G00 X-10.2195 Y29.3785 
G01 Z-0.2000 F600.00 
G01 X-10.1932 Y29.5443 
G01 X-10.1414 Y29.7040 
G01 X-10.0652 Y29.8536 
G01 X-9.9665 Y29.9894 
G01 X-9.8478 Y30.1081 
G01 X-9.7120 Y30.2068 
G01 X-9.5624 Y30.2830 
G01 X-9.4027 Y30.3348 
G01 X-9.2369 Y30.3611 
G01 X-9.0690 Y30.3611 
G01 X-8.9032 Y30.3348 
G01 X-8.7435 Y30.2830 
G01 X-8.5939 Y30.2068 
G01 X-8.4581 Y30.1081 
G01 X-8.3394 Y29.9894 
G01 X-8.2407 Y29.8536 
G01 X-8.1645 Y29.7040 
G01 X-8.1127 Y29.5443 
G01 X-8.0864 Y29.3785 
G01 X-8.0864 Y27.2294 
G01 X-8.1127 Y27.0636 
G01 X-8.1645 Y26.9039 
G01 X-8.2407 Y26.7543 
G01 X-8.3394 Y26.6185 
G01 X-8.4581 Y26.4998 
G01 X-8.5939 Y26.4011 
G01 X-8.7435 Y26.3249 
G01 X-8.9032 Y26.2731 
G01 X-9.0690 Y26.2468 
G01 X-9.2369 Y26.2468 
G01 X-9.4027 Y26.2731 
G01 X-9.5624 Y26.3249 
G01 X-9.7120 Y26.4011 
G01 X-9.8478 Y26.4998 
G01 X-9.9665 Y26.6185 
G01 X-10.0652 Y26.7543 
G01 X-10.0652 Y26.7544 
G01 X-20.8485 Y15.0728 
G01 X-20.8523 Y15.0661 
G01 X-20.8824 Y15.0361 
G01 X-20.9112 Y15.0048 
G01 X-20.9178 Y15.0007 
G01 X-20.9231 Y14.9953 
G01 X-20.9599 Y14.9741 
G01 X-20.9959 Y14.9513 
G01 X-21.0033 Y14.9491 
G01 X-21.0100 Y14.9451 
G01 X-21.0513 Y14.9341 
G01 X-21.0916 Y14.9215 
G01 X-21.0994 Y14.9212 
G01 X-21.1068 Y14.9192 
G01 X-21.1492 Y14.9192 
G01 X-21.1919 Y14.9175 
G01 X-21.1994 Y14.9192 
G01 X-23.8422 Y14.9192 
G01 X-24.5462 Y14.2152 
G01 X-24.5462 Y13.2875 
G01 X-24.5029 Y13.2696 
G01 X-24.3563 Y13.1717 
G01 X-24.2316 Y13.0470 
G01 X-24.1337 Y12.9004 
G01 X-24.0662 Y12.7375 
G01 X-24.0318 Y12.5646 
G01 X-24.0318 Y12.3881 
G01 X-24.0662 Y12.2152 
G01 X-24.1337 Y12.0523 
G01 X-24.2316 Y11.9057 
G01 X-24.3563 Y11.7810 
G01 X-24.5029 Y11.6831 
G01 X-24.6658 Y11.6156 
G01 X-24.8387 Y11.5812 
G01 X-25.0152 Y11.5812 
G01 X-25.1881 Y11.6156 
G01 X-25.3510 Y11.6831 
G01 X-25.4976 Y11.7810 
G01 X-25.6223 Y11.9057 
G01 X-25.7202 Y12.0523 
G01 X-25.7877 Y12.2152 
G01 X-25.8221 Y12.3881 
G01 X-25.8221 Y12.5646 
G01 X-25.7877 Y12.7375 
G01 X-25.7202 Y12.9004 
G01 X-25.6223 Y13.0470 
G01 X-25.4976 Y13.1717 
G01 X-25.3510 Y13.2696 
G01 X-25.3077 Y13.2875 
G01 X-25.3077 Y14.3228 
G01 X-25.3077 Y14.4231 
G01 X-25.2818 Y14.5199 
G01 X-25.2316 Y14.6068 
G01 X-24.3046 Y15.5338 
G01 X-24.2338 Y15.6046 
G01 X-24.1469 Y15.6548 
G01 X-24.0501 Y15.6807 
G01 X-21.3236 Y15.6807 
G01 X-10.2195 Y27.7099 
G01 X-10.2195 Y29.3785 
G00 Z2.0000 
G00 X-14.4705 Y27.2294 
G01 Z-0.2000 F600.00 
G01 X-14.4705 Y29.3785 
G01 X-14.4442 Y29.5443 
G01 X-14.3924 Y29.7040 
G01 X-14.3162 Y29.8536 
G01 X-14.2175 Y29.9894 
G01 X-14.0988 Y30.1081 
G01 X-13.9630 Y30.2068 
G01 X-13.8134 Y30.2830 
G01 X-13.6537 Y30.3348 
G01 X-13.4879 Y30.3611 
G01 X-13.3200 Y30.3611 
G01 X-13.1542 Y30.3348 
G01 X-12.9945 Y30.2830 
G01 X-12.8449 Y30.2068 
G01 X-12.7091 Y30.1081 
G01 X-12.5904 Y29.9894 
G01 X-12.4917 Y29.8536 
G01 X-12.4155 Y29.7040 
G01 X-12.3637 Y29.5443 
G01 X-12.3374 Y29.3785 
G01 X-12.3374 Y27.2294 
G01 X-12.3637 Y27.0636 
G01 X-12.4155 Y26.9039 
G01 X-12.4917 Y26.7543 
G01 X-12.5904 Y26.6185 
G01 X-12.7091 Y26.4998 
G01 X-12.8449 Y26.4011 
G01 X-12.9945 Y26.3249 
G01 X-13.1542 Y26.2731 
G01 X-13.3200 Y26.2468 
G01 X-13.4879 Y26.2468 
G01 X-13.4969 Y26.2483 
G01 X-19.7932 Y19.6699 
G01 X-19.7953 Y19.6661 
G01 X-19.8283 Y19.6331 
G01 X-19.8595 Y19.6005 
G01 X-19.8631 Y19.5984 
G01 X-19.8661 Y19.5953 
G01 X-19.9054 Y19.5726 
G01 X-19.9452 Y19.5484 
G01 X-19.9494 Y19.5472 
G01 X-19.9530 Y19.5451 
G01 X-19.9976 Y19.5332 
G01 X-20.0415 Y19.5204 
G01 X-20.0457 Y19.5203 
G01 X-20.0498 Y19.5192 
G01 X-20.0963 Y19.5192 
G01 X-20.1418 Y19.5182 
G01 X-20.1458 Y19.5192 
G01 X-21.3422 Y19.5192 
G01 X-27.5095 Y13.3520 
G01 X-27.4344 Y13.3371 
G01 X-27.2715 Y13.2696 
G01 X-27.1249 Y13.1717 
G01 X-27.0002 Y13.0470 
G01 X-26.9023 Y12.9004 
G01 X-26.8348 Y12.7375 
G01 X-26.8004 Y12.5646 
G01 X-26.8004 Y12.3881 
G01 X-26.8348 Y12.2152 
G01 X-26.9023 Y12.0523 
G01 X-27.0002 Y11.9057 
G01 X-27.1249 Y11.7810 
G01 X-27.2715 Y11.6831 
G01 X-27.4344 Y11.6156 
G01 X-27.6073 Y11.5812 
G01 X-27.7838 Y11.5812 
G01 X-27.9567 Y11.6156 
G01 X-28.1196 Y11.6831 
G01 X-28.2662 Y11.7810 
G01 X-28.3909 Y11.9057 
G01 X-28.4888 Y12.0523 
G01 X-28.5563 Y12.2152 
G01 X-28.5907 Y12.3881 
G01 X-28.5907 Y12.5646 
G01 X-28.5563 Y12.7375 
G01 X-28.4888 Y12.9004 
G01 X-28.3909 Y13.0470 
G01 X-28.2807 Y13.1571 
G01 X-28.2807 Y13.5501 
G01 X-28.2548 Y13.6469 
G01 X-28.2046 Y13.7338 
G01 X-28.1338 Y13.8046 
G01 X-21.7338 Y20.2046 
G01 X-21.6469 Y20.2548 
G01 X-21.5501 Y20.2807 
G01 X-21.4498 Y20.2807 
G01 X-20.2625 Y20.2807 
G01 X-14.2067 Y26.6078 
G01 X-14.2175 Y26.6185 
G01 X-14.3162 Y26.7543 
G01 X-14.3924 Y26.9039 
G01 X-14.4442 Y27.0636 
G01 X-14.4705 Y27.2294 
G00 Z2.0000 
G00 X-18.7215 Y27.2294 
G01 Z-0.2000 F600.00 
G01 X-18.7215 Y29.3785 
G01 X-18.6952 Y29.5443 
G01 X-18.6434 Y29.7040 
G01 X-18.5672 Y29.8536 
G01 X-18.4685 Y29.9894 
G01 X-18.3498 Y30.1081 
G01 X-18.2140 Y30.2068 
G01 X-18.0644 Y30.2830 
G01 X-17.9047 Y30.3348 
G01 X-17.7389 Y30.3611 
G01 X-17.5710 Y30.3611 
G01 X-17.4052 Y30.3348 
G01 X-17.2455 Y30.2830 
G01 X-17.0959 Y30.2068 
G01 X-16.9601 Y30.1081 
G01 X-16.8414 Y29.9894 
G01 X-16.7427 Y29.8536 
G01 X-16.6665 Y29.7040 
G01 X-16.6147 Y29.5443 
G01 X-16.5884 Y29.3785 
G01 X-16.5884 Y27.2294 
G01 X-16.6147 Y27.0636 
G01 X-16.6665 Y26.9039 
G01 X-16.7427 Y26.7543 
G01 X-16.8414 Y26.6185 
G01 X-16.9601 Y26.4998 
G01 X-17.0959 Y26.4011 
G01 X-17.2455 Y26.3249 
G01 X-17.4052 Y26.2731 
G01 X-17.5710 Y26.2468 
G01 X-17.7389 Y26.2468 
G01 X-17.9047 Y26.2731 
G01 X-17.9595 Y26.2909 
G01 X-26.9563 Y16.8656 
G01 X-26.9621 Y16.8562 
G01 X-26.9914 Y16.8288 
G01 X-27.0181 Y16.8008 
G01 X-27.0273 Y16.7953 
G01 X-27.6357 Y16.2257 
G01 X-30.0834 Y13.7780 
G01 X-30.0834 Y13.2875 
G01 X-30.0401 Y13.2696 
G01 X-29.8935 Y13.1717 
G01 X-29.7688 Y13.0470 
G01 X-29.6709 Y12.9004 
G01 X-29.6034 Y12.7375 
G01 X-29.5690 Y12.5646 
G01 X-29.5690 Y12.3881 
G01 X-29.6034 Y12.2152 
G01 X-29.6709 Y12.0523 
G01 X-29.7688 Y11.9057 
G01 X-29.8935 Y11.7810 
G01 X-30.0401 Y11.6831 
G01 X-30.2030 Y11.6156 
G01 X-30.3759 Y11.5812 
G01 X-30.5524 Y11.5812 
G01 X-30.7253 Y11.6156 
G01 X-30.8882 Y11.6831 
G01 X-31.0348 Y11.7810 
G01 X-31.1595 Y11.9057 
G01 X-31.2574 Y12.0523 
G01 X-31.3249 Y12.2152 
G01 X-31.3593 Y12.3881 
G01 X-31.3593 Y12.5646 
G01 X-31.3249 Y12.7375 
G01 X-31.2574 Y12.9004 
G01 X-31.1595 Y13.0470 
G01 X-31.0348 Y13.1717 
G01 X-30.8882 Y13.2696 
G01 X-30.8449 Y13.2875 
G01 X-30.8449 Y13.8856 
G01 X-30.8449 Y13.9859 
G01 X-30.8190 Y14.0827 
G01 X-30.7688 Y14.1696 
G01 X-28.2002 Y16.7381 
G01 X-28.1968 Y16.7437 
G01 X-28.1639 Y16.7744 
G01 X-28.1338 Y16.8046 
G01 X-28.1284 Y16.8077 
G01 X-27.5266 Y17.3709 
G01 X-18.5681 Y26.7562 
G01 X-18.6434 Y26.9039 
G01 X-18.6952 Y27.0636 
G01 X-18.7215 Y27.2294 
G00 Z2.0000 
G00 X-31.4745 Y27.2294 
G01 Z-0.2000 F600.00 
G01 X-31.4745 Y29.3785 
G01 X-31.4482 Y29.5443 
G01 X-31.3964 Y29.7040 
G01 X-31.3202 Y29.8536 
G01 X-31.2215 Y29.9894 
G01 X-31.1028 Y30.1081 
G01 X-30.9670 Y30.2068 
G01 X-30.8174 Y30.2830 
G01 X-30.6577 Y30.3348 
G01 X-30.4919 Y30.3611 
G01 X-30.3240 Y30.3611 
G01 X-30.1582 Y30.3348 
G01 X-29.9985 Y30.2830 
G01 X-29.8489 Y30.2068 
G01 X-29.7131 Y30.1081 
G01 X-29.5944 Y29.9894 
G01 X-29.4957 Y29.8536 
G01 X-29.4195 Y29.7040 
G01 X-29.3677 Y29.5443 
G01 X-29.3414 Y29.3785 
G01 X-29.3414 Y27.2294 
G01 X-29.3677 Y27.0636 
G01 X-29.4195 Y26.9039 
G01 X-29.4957 Y26.7543 
G01 X-29.5944 Y26.6185 
G01 X-29.7131 Y26.4998 
G01 X-29.8489 Y26.4011 
G01 X-29.9985 Y26.3249 
G01 X-30.1582 Y26.2731 
G01 X-30.3240 Y26.2468 
G01 X-30.4919 Y26.2468 
G01 X-30.6577 Y26.2731 
G01 X-30.7753 Y26.3113 
G01 X-38.6192 Y17.5544 
G01 X-38.6192 Y13.3590 
G01 X-38.5088 Y13.3371 
G01 X-38.3459 Y13.2696 
G01 X-38.1993 Y13.1717 
G01 X-38.0746 Y13.0470 
G01 X-37.9767 Y12.9004 
G01 X-37.9092 Y12.7375 
G01 X-37.8748 Y12.5646 
G01 X-37.8748 Y12.3881 
G01 X-37.9092 Y12.2152 
G01 X-37.9767 Y12.0523 
G01 X-38.0746 Y11.9057 
G01 X-38.1993 Y11.7810 
G01 X-38.3459 Y11.6831 
G01 X-38.5088 Y11.6156 
G01 X-38.6817 Y11.5812 
G01 X-38.8582 Y11.5812 
G01 X-39.0311 Y11.6156 
G01 X-39.1940 Y11.6831 
G01 X-39.3406 Y11.7810 
G01 X-39.4653 Y11.9057 
G01 X-39.5632 Y12.0523 
G01 X-39.6307 Y12.2152 
G01 X-39.6651 Y12.3881 
G01 X-39.6651 Y12.5646 
G01 X-39.6307 Y12.7375 
G01 X-39.5632 Y12.9004 
G01 X-39.4653 Y13.0470 
G01 X-39.3807 Y13.1316 
G01 X-39.3807 Y17.6891 
G01 X-39.3829 Y17.7291 
G01 X-39.3807 Y17.7395 
G01 X-39.3807 Y17.7501 
G01 X-39.3704 Y17.7885 
G01 X-39.3623 Y17.8272 
G01 X-39.3575 Y17.8365 
G01 X-39.3548 Y17.8469 
G01 X-39.3348 Y17.8814 
G01 X-39.3170 Y17.9167 
G01 X-39.3099 Y17.9246 
G01 X-39.3046 Y17.9338 
G01 X-39.2766 Y17.9618 
G01 X-31.3493 Y26.8116 
G01 X-31.3964 Y26.9039 
G01 X-31.4482 Y27.0636 
G01 X-31.4745 Y27.2294 
G00 Z2.0000 
G00 X-35.7255 Y27.2294 
G01 Z-0.2000 F600.00 
G01 X-35.7255 Y29.3785 
G01 X-35.6992 Y29.5443 
G01 X-35.6474 Y29.7040 
G01 X-35.5712 Y29.8536 
G01 X-35.4725 Y29.9894 
G01 X-35.3538 Y30.1081 
G01 X-35.2180 Y30.2068 
G01 X-35.0684 Y30.2830 
G01 X-34.9087 Y30.3348 
G01 X-34.7429 Y30.3611 
G01 X-34.5750 Y30.3611 
G01 X-34.4092 Y30.3348 
G01 X-34.2495 Y30.2830 
G01 X-34.0999 Y30.2068 
G01 X-33.9641 Y30.1081 
G01 X-33.8454 Y29.9894 
G01 X-33.7467 Y29.8536 
G01 X-33.6705 Y29.7040 
G01 X-33.6187 Y29.5443 
G01 X-33.5924 Y29.3785 
G01 X-33.5924 Y27.2294 
G01 X-33.6187 Y27.0636 
G01 X-33.6705 Y26.9039 
G01 X-33.7467 Y26.7543 
G01 X-33.8454 Y26.6185 
G01 X-33.9641 Y26.4998 
G01 X-34.0999 Y26.4011 
G01 X-34.2495 Y26.3249 
G01 X-34.4092 Y26.2731 
G01 X-34.5033 Y26.2582 
G01 X-41.0192 Y19.7422 
G01 X-41.0192 Y13.2059 
G01 X-40.9679 Y13.1717 
G01 X-40.8432 Y13.0470 
G01 X-40.7453 Y12.9004 
G01 X-40.6778 Y12.7375 
G01 X-40.6434 Y12.5646 
G01 X-40.6434 Y12.3881 
G01 X-40.6778 Y12.2152 
G01 X-40.7453 Y12.0523 
G01 X-40.8432 Y11.9057 
G01 X-40.9679 Y11.7810 
G01 X-41.1145 Y11.6831 
G01 X-41.2774 Y11.6156 
G01 X-41.4503 Y11.5812 
G01 X-41.6268 Y11.5812 
G01 X-41.7997 Y11.6156 
G01 X-41.9626 Y11.6831 
G01 X-42.1092 Y11.7810 
G01 X-42.2339 Y11.9057 
G01 X-42.3318 Y12.0523 
G01 X-42.3993 Y12.2152 
G01 X-42.4337 Y12.3881 
G01 X-42.4337 Y12.5646 
G01 X-42.3993 Y12.7375 
G01 X-42.3318 Y12.9004 
G01 X-42.2339 Y13.0470 
G01 X-42.1092 Y13.1717 
G01 X-41.9626 Y13.2696 
G01 X-41.7997 Y13.3371 
G01 X-41.7807 Y13.3408 
G01 X-41.7807 Y19.9501 
G01 X-41.7548 Y20.0469 
G01 X-41.7046 Y20.1338 
G01 X-41.6338 Y20.2046 
G01 X-35.3449 Y26.4934 
G01 X-35.3538 Y26.4998 
G01 X-35.4725 Y26.6185 
G01 X-35.5712 Y26.7543 
G01 X-35.6474 Y26.9039 
G01 X-35.6992 Y27.0636 
G01 X-35.7255 Y27.2294 
G00 Z2.0000 
G00 X-34.1279 Y12.3881 
G01 Z-0.2000 F600.00 
G01 X-34.1279 Y12.5646 
G01 X-34.0935 Y12.7375 
G01 X-34.0260 Y12.9004 
G01 X-33.9281 Y13.0470 
G01 X-33.8034 Y13.1717 
G01 X-33.6807 Y13.2536 
G01 X-33.6807 Y14.9911 
G01 X-33.6825 Y15.0341 
G01 X-33.6807 Y15.0421 
G01 X-33.6807 Y15.0501 
G01 X-33.6697 Y15.0909 
G01 X-33.6606 Y15.1319 
G01 X-33.6569 Y15.1389 
G01 X-33.6548 Y15.1469 
G01 X-33.6337 Y15.1833 
G01 X-33.6142 Y15.2208 
G01 X-33.6086 Y15.2269 
G01 X-33.6046 Y15.2338 
G01 X-33.5754 Y15.2629 
G01 X-22.8869 Y26.8894 
G01 X-22.8944 Y26.9039 
G01 X-22.9462 Y27.0636 
G01 X-22.9725 Y27.2294 
G01 X-22.9725 Y29.3785 
G01 X-22.9462 Y29.5443 
G01 X-22.8944 Y29.7040 
G01 X-22.8182 Y29.8536 
G01 X-22.7195 Y29.9894 
G01 X-22.6008 Y30.1081 
G01 X-22.4650 Y30.2068 
G01 X-22.3154 Y30.2830 
G01 X-22.1557 Y30.3348 
G01 X-21.9899 Y30.3611 
G01 X-21.8220 Y30.3611 
G01 X-21.6562 Y30.3348 
G01 X-21.4965 Y30.2830 
G01 X-21.3469 Y30.2068 
G01 X-21.2111 Y30.1081 
G01 X-21.0924 Y29.9894 
G01 X-20.9937 Y29.8536 
G01 X-20.9175 Y29.7040 
G01 X-20.8657 Y29.5443 
G01 X-20.8394 Y29.3785 
G01 X-20.8394 Y27.2294 
G01 X-20.8657 Y27.0636 
G01 X-20.9175 Y26.9039 
G01 X-20.9937 Y26.7543 
G01 X-21.0924 Y26.6185 
G01 X-21.2111 Y26.4998 
G01 X-21.3469 Y26.4011 
G01 X-21.4965 Y26.3249 
G01 X-21.6562 Y26.2731 
G01 X-21.8220 Y26.2468 
G01 X-21.9899 Y26.2468 
G01 X-22.1557 Y26.2731 
G01 X-22.3154 Y26.3249 
G01 X-22.3536 Y26.3444 
G01 X-32.9192 Y14.8516 
G01 X-32.9192 Y13.3153 
G01 X-32.8087 Y13.2696 
G01 X-32.6621 Y13.1717 
G01 X-32.5374 Y13.0470 
G01 X-32.4395 Y12.9004 
G01 X-32.3720 Y12.7375 
G01 X-32.3376 Y12.5646 
G01 X-32.3376 Y12.3881 
G01 X-32.3720 Y12.2152 
G01 X-32.4395 Y12.0523 
G01 X-32.5374 Y11.9057 
G01 X-32.6621 Y11.7810 
G01 X-32.8087 Y11.6831 
G01 X-32.9716 Y11.6156 
G01 X-33.1445 Y11.5812 
G01 X-33.3210 Y11.5812 
G01 X-33.4939 Y11.6156 
G01 X-33.6568 Y11.6831 
G01 X-33.8034 Y11.7810 
G01 X-33.9281 Y11.9057 
G01 X-34.0260 Y12.0523 
G01 X-34.0935 Y12.2152 
G01 X-34.1279 Y12.3881 
G00 Z2.0000 
G00 X-36.8965 Y12.3881 
G01 Z-0.2000 F600.00 
G01 X-36.8965 Y12.5646 
G01 X-36.8621 Y12.7375 
G01 X-36.7946 Y12.9004 
G01 X-36.6967 Y13.0470 
G01 X-36.5720 Y13.1717 
G01 X-36.4254 Y13.2696 
G01 X-36.3821 Y13.2875 
G01 X-36.3821 Y15.8484 
G01 X-36.3821 Y15.9022 
G01 X-36.3835 Y15.9197 
G01 X-36.3821 Y15.9272 
G01 X-36.3821 Y15.9487 
G01 X-36.3693 Y15.9963 
G01 X-36.3653 Y16.0183 
G01 X-36.3611 Y16.0270 
G01 X-36.3562 Y16.0455 
G01 X-36.3344 Y16.0832 
G01 X-35.7603 Y17.2896 
G01 X-35.7575 Y17.3011 
G01 X-35.7386 Y17.3352 
G01 X-35.7222 Y17.3698 
G01 X-35.7146 Y17.3786 
G01 X-35.7090 Y17.3889 
G01 X-35.6822 Y17.4167 
G01 X-35.6572 Y17.4461 
G01 X-35.6475 Y17.4527 
G01 X-27.0807 Y26.3534 
G01 X-27.0807 Y26.7770 
G01 X-27.1454 Y26.9039 
G01 X-27.1972 Y27.0636 
G01 X-27.2235 Y27.2294 
G01 X-27.2235 Y29.3785 
G01 X-27.1972 Y29.5443 
G01 X-27.1454 Y29.7040 
G01 X-27.0692 Y29.8536 
G01 X-26.9705 Y29.9894 
G01 X-26.8518 Y30.1081 
G01 X-26.7160 Y30.2068 
G01 X-26.5664 Y30.2830 
G01 X-26.4067 Y30.3348 
G01 X-26.2409 Y30.3611 
G01 X-26.0730 Y30.3611 
G01 X-25.9072 Y30.3348 
G01 X-25.7475 Y30.2830 
G01 X-25.5979 Y30.2068 
G01 X-25.4621 Y30.1081 
G01 X-25.3434 Y29.9894 
G01 X-25.2447 Y29.8536 
G01 X-25.1685 Y29.7040 
G01 X-25.1167 Y29.5443 
G01 X-25.0904 Y29.3785 
G01 X-25.0904 Y27.2294 
G01 X-25.1167 Y27.0636 
G01 X-25.1685 Y26.9039 
G01 X-25.2447 Y26.7543 
G01 X-25.3434 Y26.6185 
G01 X-25.4621 Y26.4998 
G01 X-25.5979 Y26.4011 
G01 X-25.7475 Y26.3249 
G01 X-25.9072 Y26.2731 
G01 X-26.0730 Y26.2468 
G01 X-26.2409 Y26.2468 
G01 X-26.3192 Y26.2593 
G01 X-26.3192 Y26.2046 
G01 X-26.3183 Y26.1571 
G01 X-26.3192 Y26.1535 
G01 X-26.3192 Y26.1498 
G01 X-26.3315 Y26.1041 
G01 X-26.3424 Y26.0598 
G01 X-26.3441 Y26.0567 
G01 X-26.3451 Y26.0530 
G01 X-26.3693 Y26.0112 
G01 X-26.3909 Y25.9720 
G01 X-26.3934 Y25.9695 
G01 X-26.3953 Y25.9661 
G01 X-26.4295 Y25.9320 
G01 X-35.0827 Y16.9416 
G01 X-35.6206 Y15.8111 
G01 X-35.6206 Y13.2875 
G01 X-35.5773 Y13.2696 
G01 X-35.4307 Y13.1717 
G01 X-35.3060 Y13.0470 
G01 X-35.2081 Y12.9004 
G01 X-35.1406 Y12.7375 
G01 X-35.1062 Y12.5646 
G01 X-35.1062 Y12.3881 
G01 X-35.1406 Y12.2152 
G01 X-35.2081 Y12.0523 
G01 X-35.3060 Y11.9057 
G01 X-35.4307 Y11.7810 
G01 X-35.5773 Y11.6831 
G01 X-35.7402 Y11.6156 
G01 X-35.9131 Y11.5812 
G01 X-36.0896 Y11.5812 
G01 X-36.2625 Y11.6156 
G01 X-36.4254 Y11.6831 
G01 X-36.5720 Y11.7810 
G01 X-36.6967 Y11.9057 
G01 X-36.7946 Y12.0523 
G01 X-36.8621 Y12.2152 
G01 X-36.8965 Y12.3881 
G00 Z2.0000 
G00 X-45.2023 Y12.3881 
G01 Z-0.2000 F600.00 
G01 X-45.2023 Y12.5646 
G01 X-45.1679 Y12.7375 
G01 X-45.1004 Y12.9004 
G01 X-45.0025 Y13.0470 
G01 X-44.8778 Y13.1717 
G01 X-44.7807 Y13.2365 
G01 X-44.7807 Y21.0955 
G01 X-44.7819 Y21.1400 
G01 X-44.7807 Y21.1449 
G01 X-44.7807 Y21.1501 
G01 X-44.7688 Y21.1945 
G01 X-44.7585 Y21.2375 
G01 X-44.7561 Y21.2418 
G01 X-44.7548 Y21.2469 
G01 X-44.7317 Y21.2868 
G01 X-44.7107 Y21.3256 
G01 X-44.7072 Y21.3292 
G01 X-44.7046 Y21.3338 
G01 X-44.6722 Y21.3661 
G01 X-39.7073 Y26.6024 
G01 X-39.7235 Y26.6185 
G01 X-39.8222 Y26.7543 
G01 X-39.8984 Y26.9039 
G01 X-39.9502 Y27.0636 
G01 X-39.9765 Y27.2294 
G01 X-39.9765 Y29.3785 
G01 X-39.9502 Y29.5443 
G01 X-39.8984 Y29.7040 
G01 X-39.8222 Y29.8536 
G01 X-39.7235 Y29.9894 
G01 X-39.6048 Y30.1081 
G01 X-39.4690 Y30.2068 
G01 X-39.3194 Y30.2830 
G01 X-39.1597 Y30.3348 
G01 X-38.9939 Y30.3611 
G01 X-38.8260 Y30.3611 
G01 X-38.6602 Y30.3348 
G01 X-38.5005 Y30.2830 
G01 X-38.3509 Y30.2068 
G01 X-38.2151 Y30.1081 
G01 X-38.0964 Y29.9894 
G01 X-37.9977 Y29.8536 
G01 X-37.9215 Y29.7040 
G01 X-37.8697 Y29.5443 
G01 X-37.8434 Y29.3785 
G01 X-37.8434 Y27.2294 
G01 X-37.8697 Y27.0636 
G01 X-37.9215 Y26.9039 
G01 X-37.9977 Y26.7543 
G01 X-38.0964 Y26.6185 
G01 X-38.2151 Y26.4998 
G01 X-38.3509 Y26.4011 
G01 X-38.5005 Y26.3249 
G01 X-38.6602 Y26.2731 
G01 X-38.8260 Y26.2468 
G01 X-38.9939 Y26.2468 
G01 X-38.9949 Y26.2470 
G01 X-44.0192 Y20.9481 
G01 X-44.0192 Y13.3260 
G01 X-43.8831 Y13.2696 
G01 X-43.7365 Y13.1717 
G01 X-43.6118 Y13.0470 
G01 X-43.5139 Y12.9004 
G01 X-43.4464 Y12.7375 
G01 X-43.4120 Y12.5646 
G01 X-43.4120 Y12.3881 
G01 X-43.4464 Y12.2152 
G01 X-43.5139 Y12.0523 
G01 X-43.6118 Y11.9057 
G01 X-43.7365 Y11.7810 
G01 X-43.8831 Y11.6831 
G01 X-44.0460 Y11.6156 
G01 X-44.2189 Y11.5812 
G01 X-44.3954 Y11.5812 
G01 X-44.5683 Y11.6156 
G01 X-44.7312 Y11.6831 
G01 X-44.8778 Y11.7810 
G01 X-45.0025 Y11.9057 
G01 X-45.1004 Y12.0523 
G01 X-45.1679 Y12.2152 
G01 X-45.2023 Y12.3881 
G00 Z2.0000 
G00 X-47.9709 Y12.3881 
G01 Z-0.2000 F600.00 
G01 X-47.9709 Y12.5646 
G01 X-47.9365 Y12.7375 
G01 X-47.8690 Y12.9004 
G01 X-47.7807 Y13.0326 
G01 X-47.7807 Y22.3501 
G01 X-47.7548 Y22.4469 
G01 X-47.7046 Y22.5338 
G01 X-47.6338 Y22.6046 
G01 X-43.7878 Y26.4505 
G01 X-43.8558 Y26.4998 
G01 X-43.9745 Y26.6185 
G01 X-44.0732 Y26.7543 
G01 X-44.1494 Y26.9039 
G01 X-44.2012 Y27.0636 
G01 X-44.2275 Y27.2294 
G01 X-44.2275 Y29.3785 
G01 X-44.2012 Y29.5443 
G01 X-44.1494 Y29.7040 
G01 X-44.0732 Y29.8536 
G01 X-43.9745 Y29.9894 
G01 X-43.8558 Y30.1081 
G01 X-43.7200 Y30.2068 
G01 X-43.5704 Y30.2830 
G01 X-43.4107 Y30.3348 
G01 X-43.2449 Y30.3611 
G01 X-43.0770 Y30.3611 
G01 X-42.9112 Y30.3348 
G01 X-42.7515 Y30.2830 
G01 X-42.6019 Y30.2068 
G01 X-42.4661 Y30.1081 
G01 X-42.3474 Y29.9894 
G01 X-42.2487 Y29.8536 
G01 X-42.1725 Y29.7040 
G01 X-42.1207 Y29.5443 
G01 X-42.0944 Y29.3785 
G01 X-42.0944 Y27.2294 
G01 X-42.1207 Y27.0636 
G01 X-42.1725 Y26.9039 
G01 X-42.2487 Y26.7543 
G01 X-42.3474 Y26.6185 
G01 X-42.4661 Y26.4998 
G01 X-42.6019 Y26.4011 
G01 X-42.7515 Y26.3249 
G01 X-42.8773 Y26.2841 
G01 X-47.0192 Y22.1422 
G01 X-47.0192 Y13.3715 
G01 X-46.9875 Y13.3715 
G01 X-46.8146 Y13.3371 
G01 X-46.6517 Y13.2696 
G01 X-46.5051 Y13.1717 
G01 X-46.3804 Y13.0470 
G01 X-46.2825 Y12.9004 
G01 X-46.2150 Y12.7375 
G01 X-46.1806 Y12.5646 
G01 X-46.1806 Y12.3881 
G01 X-46.2150 Y12.2152 
G01 X-46.2825 Y12.0523 
G01 X-46.3804 Y11.9057 
G01 X-46.5051 Y11.7810 
G01 X-46.6517 Y11.6831 
G01 X-46.8146 Y11.6156 
G01 X-46.9875 Y11.5812 
G01 X-47.1640 Y11.5812 
G01 X-47.3369 Y11.6156 
G01 X-47.4998 Y11.6831 
G01 X-47.6464 Y11.7810 
G01 X-47.7711 Y11.9057 
G01 X-47.8690 Y12.0523 
G01 X-47.9365 Y12.2152 
G01 X-47.9709 Y12.3881 
G00 Z2.0000 
G00 X-56.2767 Y12.3881 
G01 Z-0.2000 F600.00 
G01 X-56.2767 Y12.5646 
G01 X-56.2423 Y12.7375 
G01 X-56.2233 Y12.7832 
G01 X-56.2688 Y12.8618 
G01 X-56.2947 Y12.9586 
G01 X-56.2947 Y13.0589 
G01 X-56.2947 Y26.3157 
G01 X-56.3234 Y26.3249 
G01 X-56.4730 Y26.4011 
G01 X-56.6088 Y26.4998 
G01 X-56.7275 Y26.6185 
G01 X-56.8262 Y26.7543 
G01 X-56.9024 Y26.9039 
G01 X-56.9542 Y27.0636 
G01 X-56.9805 Y27.2294 
G01 X-56.9805 Y29.3785 
G01 X-56.9542 Y29.5443 
G01 X-56.9024 Y29.7040 
G01 X-56.8262 Y29.8536 
G01 X-56.7275 Y29.9894 
G01 X-56.6088 Y30.1081 
G01 X-56.4730 Y30.2068 
G01 X-56.3234 Y30.2830 
G01 X-56.1637 Y30.3348 
G01 X-55.9979 Y30.3611 
G01 X-55.8300 Y30.3611 
G01 X-55.6642 Y30.3348 
G01 X-55.5045 Y30.2830 
G01 X-55.3549 Y30.2068 
G01 X-55.2191 Y30.1081 
G01 X-55.1004 Y29.9894 
G01 X-55.0017 Y29.8536 
G01 X-54.9255 Y29.7040 
G01 X-54.8737 Y29.5443 
G01 X-54.8474 Y29.3785 
G01 X-54.8474 Y27.2294 
G01 X-54.8737 Y27.0636 
G01 X-54.9255 Y26.9039 
G01 X-55.0017 Y26.7543 
G01 X-55.1004 Y26.6185 
G01 X-55.2191 Y26.4998 
G01 X-55.3549 Y26.4011 
G01 X-55.5045 Y26.3249 
G01 X-55.5332 Y26.3157 
G01 X-55.5332 Y13.3588 
G01 X-55.4698 Y13.3715 
G01 X-55.2933 Y13.3715 
G01 X-55.1204 Y13.3371 
G01 X-54.9575 Y13.2696 
G01 X-54.8109 Y13.1717 
G01 X-54.6862 Y13.0470 
G01 X-54.5883 Y12.9004 
G01 X-54.5208 Y12.7375 
G01 X-54.4864 Y12.5646 
G01 X-54.4864 Y12.3881 
G01 X-54.5208 Y12.2152 
G01 X-54.5883 Y12.0523 
G01 X-54.6862 Y11.9057 
G01 X-54.8109 Y11.7810 
G01 X-54.9575 Y11.6831 
G01 X-55.1204 Y11.6156 
G01 X-55.2933 Y11.5812 
G01 X-55.4698 Y11.5812 
G01 X-55.6427 Y11.6156 
G01 X-55.8056 Y11.6831 
G01 X-55.9522 Y11.7810 
G01 X-56.0769 Y11.9057 
G01 X-56.1748 Y12.0523 
G01 X-56.2423 Y12.2152 
G01 X-56.2767 Y12.3881 
G00 Z2.0000 
G00 X-27.2064 Y9.5433 
G01 Z-0.2000 F600.00 
G01 X-27.2064 Y9.7198 
G01 X-27.1720 Y9.8927 
G01 X-27.1045 Y10.0556 
G01 X-27.0066 Y10.2022 
G01 X-26.8819 Y10.3269 
G01 X-26.7353 Y10.4248 
G01 X-26.5724 Y10.4923 
G01 X-26.3995 Y10.5267 
G01 X-26.2230 Y10.5267 
G01 X-26.0501 Y10.4923 
G01 X-26.0472 Y10.4911 
G01 X-25.2046 Y11.3338 
G01 X-25.1338 Y11.4046 
G01 X-25.0469 Y11.4548 
G01 X-24.9501 Y11.4807 
G01 X-23.1276 Y11.4807 
G01 X-23.1047 Y11.4840 
G01 X-23.0770 Y11.4807 
G01 X-23.0498 Y11.4807 
G01 X-23.0279 Y11.4748 
G01 X-23.0050 Y11.4721 
G01 X-22.9795 Y11.4618 
G01 X-22.9530 Y11.4548 
G01 X-22.9334 Y11.4434 
G01 X-21.4795 Y10.8618 
G01 X-21.4530 Y10.8548 
G01 X-21.4333 Y10.8434 
G01 X-21.4120 Y10.8349 
G01 X-21.3899 Y10.8183 
G01 X-21.3661 Y10.8046 
G01 X-21.3500 Y10.7884 
G01 X-21.3317 Y10.7748 
G01 X-21.3148 Y10.7532 
G01 X-21.2953 Y10.7338 
G01 X-21.2839 Y10.7139 
G01 X-21.2697 Y10.6960 
G01 X-21.2589 Y10.6707 
G01 X-21.2451 Y10.6469 
G01 X-21.2393 Y10.6249 
G01 X-21.2302 Y10.6039 
G01 X-21.2263 Y10.5764 
G01 X-21.2192 Y10.5501 
G01 X-21.2192 Y10.5275 
G01 X-21.2159 Y10.5047 
G01 X-21.2192 Y10.4770 
G01 X-21.2192 Y8.7035 
G01 X-21.2181 Y8.6593 
G01 X-21.2192 Y8.6548 
G01 X-21.2192 Y8.6498 
G01 X-21.2314 Y8.6045 
G01 X-21.2416 Y8.5619 
G01 X-21.2438 Y8.5579 
G01 X-21.2451 Y8.5530 
G01 X-21.2679 Y8.5137 
G01 X-21.2895 Y8.4738 
G01 X-21.2930 Y8.4702 
G01 X-21.2953 Y8.4661 
G01 X-21.3266 Y8.4349 
G01 X-25.1929 Y4.3703 
G01 X-25.1953 Y4.3661 
G01 X-25.2275 Y4.3340 
G01 X-25.2586 Y4.3012 
G01 X-25.2628 Y4.2987 
G01 X-25.2661 Y4.2953 
G01 X-25.3048 Y4.2730 
G01 X-25.3441 Y4.2489 
G01 X-25.3489 Y4.2475 
G01 X-25.3530 Y4.2451 
G01 X-25.3975 Y4.2332 
G01 X-25.4403 Y4.2206 
G01 X-25.4450 Y4.2205 
G01 X-25.4498 Y4.2192 
G01 X-25.4965 Y4.2192 
G01 X-25.5406 Y4.2181 
G01 X-25.5451 Y4.2192 
G01 X-65.9498 Y4.2192 
G01 X-66.0501 Y4.2192 
G01 X-66.1469 Y4.2451 
G01 X-66.2338 Y4.2953 
G01 X-66.3046 Y4.3661 
G01 X-66.3548 Y4.4530 
G01 X-66.3807 Y4.5498 
G01 X-66.3807 Y22.2979 
G01 X-66.3809 Y22.3487 
G01 X-66.3807 Y22.3494 
G01 X-66.3807 Y22.3501 
G01 X-66.3687 Y22.3948 
G01 X-65.2477 Y26.6437 
G01 X-65.3282 Y26.7543 
G01 X-65.4044 Y26.9039 
G01 X-65.4562 Y27.0636 
G01 X-65.4825 Y27.2294 
G01 X-65.4825 Y29.3785 
G01 X-65.4562 Y29.5443 
G01 X-65.4044 Y29.7040 
G01 X-65.3282 Y29.8536 
G01 X-65.2295 Y29.9894 
G01 X-65.1108 Y30.1081 
G01 X-64.9750 Y30.2068 
G01 X-64.8254 Y30.2830 
G01 X-64.6657 Y30.3348 
G01 X-64.4999 Y30.3611 
G01 X-64.3320 Y30.3611 
G01 X-64.1662 Y30.3348 
G01 X-64.0065 Y30.2830 
G01 X-63.8569 Y30.2068 
G01 X-63.7211 Y30.1081 
G01 X-63.6024 Y29.9894 
G01 X-63.5037 Y29.8536 
G01 X-63.4275 Y29.7040 
G01 X-63.3757 Y29.5443 
G01 X-63.3494 Y29.3785 
G01 X-63.3494 Y27.2294 
G01 X-63.3757 Y27.0636 
G01 X-63.4275 Y26.9039 
G01 X-63.5037 Y26.7543 
G01 X-63.6024 Y26.6185 
G01 X-63.7211 Y26.4998 
G01 X-63.8569 Y26.4011 
G01 X-64.0065 Y26.3249 
G01 X-64.1662 Y26.2731 
G01 X-64.3320 Y26.2468 
G01 X-64.4999 Y26.2468 
G01 X-64.5623 Y26.2568 
G01 X-65.6192 Y22.2506 
G01 X-65.6192 Y4.9807 
G01 X-25.6633 Y4.9807 
G01 X-21.9807 Y8.8521 
G01 X-21.9807 Y10.2422 
G01 X-23.1734 Y10.7192 
G01 X-24.7422 Y10.7192 
G01 X-25.4852 Y9.9763 
G01 X-25.4505 Y9.8927 
G01 X-25.4161 Y9.7198 
G01 X-25.4161 Y9.5433 
G01 X-25.4505 Y9.3704 
G01 X-25.5180 Y9.2075 
G01 X-25.6159 Y9.0609 
G01 X-25.7406 Y8.9362 
G01 X-25.8872 Y8.8383 
G01 X-26.0501 Y8.7708 
G01 X-26.2230 Y8.7364 
G01 X-26.3995 Y8.7364 
G01 X-26.5724 Y8.7708 
G01 X-26.7353 Y8.8383 
G01 X-26.8819 Y8.9362 
G01 X-27.0066 Y9.0609 
G01 X-27.1045 Y9.2075 
G01 X-27.1720 Y9.3704 
G01 X-27.2064 Y9.5433 
G00 Z2.0000 
G00 X-29.9750 Y9.5433 
G01 Z-0.2000 F600.00 
G01 X-29.9750 Y9.7198 
G01 X-29.9406 Y9.8927 
G01 X-29.8731 Y10.0556 
G01 X-29.7752 Y10.2022 
G01 X-29.6505 Y10.3269 
G01 X-29.5039 Y10.4248 
G01 X-29.4807 Y10.4344 
G01 X-29.4807 Y13.7979 
G01 X-29.4809 Y13.8484 
G01 X-29.4807 Y13.8491 
G01 X-29.4807 Y13.8501 
G01 X-29.4657 Y13.9060 
G01 X-29.4554 Y13.9453 
G01 X-29.4550 Y13.9458 
G01 X-29.4548 Y13.9469 
G01 X-29.4266 Y13.9956 
G01 X-29.4057 Y14.0323 
G01 X-29.4051 Y14.0328 
G01 X-29.4046 Y14.0338 
G01 X-29.3627 Y14.0756 
G01 X-18.6049 Y24.9332 
G01 X-18.6046 Y24.9338 
G01 X-18.5781 Y24.9602 
G01 X-18.5352 Y25.0036 
G01 X-18.5342 Y25.0041 
G01 X-18.5338 Y25.0046 
G01 X-18.4999 Y25.0241 
G01 X-18.4486 Y25.0541 
G01 X-18.4476 Y25.0543 
G01 X-18.4469 Y25.0548 
G01 X-18.4033 Y25.0664 
G01 X-18.3519 Y25.0805 
G01 X-18.3508 Y25.0805 
G01 X-18.3501 Y25.0807 
G01 X-18.3014 Y25.0807 
G01 X-18.2515 Y25.0809 
G01 X-18.2508 Y25.0807 
G01 X-17.5751 Y25.0807 
G01 X-15.9807 Y26.9407 
G01 X-15.9807 Y29.6689 
G01 X-23.2857 Y39.0192 
G01 X-97.0142 Y39.0192 
G01 X-104.3192 Y29.6689 
G01 X-104.3192 Y26.9231 
G01 X-100.6052 Y21.7807 
G01 X-73.6989 Y21.7807 
G01 X-69.7335 Y27.4810 
G01 X-69.7335 Y29.3785 
G01 X-69.7072 Y29.5443 
G01 X-69.6554 Y29.7040 
G01 X-69.5792 Y29.8536 
G01 X-69.4805 Y29.9894 
G01 X-69.3618 Y30.1081 
G01 X-69.2260 Y30.2068 
G01 X-69.0764 Y30.2830 
G01 X-68.9167 Y30.3348 
G01 X-68.7509 Y30.3611 
G01 X-68.5830 Y30.3611 
G01 X-68.4172 Y30.3348 
G01 X-68.2575 Y30.2830 
G01 X-68.1079 Y30.2068 
G01 X-67.9721 Y30.1081 
G01 X-67.8534 Y29.9894 
G01 X-67.7547 Y29.8536 
G01 X-67.6785 Y29.7040 
G01 X-67.6267 Y29.5443 
G01 X-67.6004 Y29.3785 
G01 X-67.6004 Y27.2294 
G01 X-67.6267 Y27.0636 
G01 X-67.6785 Y26.9039 
G01 X-67.7547 Y26.7543 
G01 X-67.8534 Y26.6185 
G01 X-67.9721 Y26.4998 
G01 X-68.1079 Y26.4011 
G01 X-68.2575 Y26.3249 
G01 X-68.4172 Y26.2731 
G01 X-68.5830 Y26.2468 
G01 X-68.7509 Y26.2468 
G01 X-68.9167 Y26.2731 
G01 X-69.0764 Y26.3249 
G01 X-69.2260 Y26.4011 
G01 X-69.3618 Y26.4998 
G01 X-69.4365 Y26.5745 
G01 X-73.1781 Y21.1959 
G01 X-73.1953 Y21.1661 
G01 X-73.2069 Y21.1546 
G01 X-73.2160 Y21.1414 
G01 X-73.2418 Y21.1197 
G01 X-73.2661 Y21.0953 
G01 X-73.2803 Y21.0871 
G01 X-73.2926 Y21.0767 
G01 X-73.3234 Y21.0622 
G01 X-73.3530 Y21.0451 
G01 X-73.3686 Y21.0410 
G01 X-73.3833 Y21.0340 
G01 X-73.4173 Y21.0279 
G01 X-73.4498 Y21.0192 
G01 X-73.4659 Y21.0192 
G01 X-73.4820 Y21.0163 
G01 X-73.5161 Y21.0192 
G01 X-100.7808 Y21.0192 
G01 X-100.8111 Y21.0161 
G01 X-100.8303 Y21.0192 
G01 X-100.8501 Y21.0192 
G01 X-100.8796 Y21.0271 
G01 X-100.9101 Y21.0320 
G01 X-100.9280 Y21.0401 
G01 X-100.9469 Y21.0451 
G01 X-100.9736 Y21.0605 
G01 X-101.0016 Y21.0731 
G01 X-101.0167 Y21.0855 
G01 X-101.0338 Y21.0953 
G01 X-101.0555 Y21.1171 
G01 X-101.0793 Y21.1364 
G01 X-101.0907 Y21.1523 
G01 X-101.1046 Y21.1661 
G01 X-101.1200 Y21.1928 
G01 X-104.9909 Y26.5525 
G01 X-105.0046 Y26.5661 
G01 X-105.0197 Y26.5924 
G01 X-105.0380 Y26.6176 
G01 X-105.0450 Y26.6361 
G01 X-105.0548 Y26.6530 
G01 X-105.0628 Y26.6828 
G01 X-105.0736 Y26.7113 
G01 X-105.0756 Y26.7307 
G01 X-105.0807 Y26.7498 
G01 X-105.0807 Y26.7807 
G01 X-105.0838 Y26.8111 
G01 X-105.0807 Y26.8304 
G01 X-105.0807 Y29.7763 
G01 X-105.0840 Y29.8033 
G01 X-105.0807 Y29.8267 
G01 X-105.0807 Y29.8501 
G01 X-105.0737 Y29.8761 
G01 X-105.0700 Y29.9026 
G01 X-105.0609 Y29.9240 
G01 X-105.0548 Y29.9469 
G01 X-105.0414 Y29.9700 
G01 X-105.0309 Y29.9949 
G01 X-105.0162 Y30.0137 
G01 X-105.0046 Y30.0338 
G01 X-104.9859 Y30.0525 
G01 X-97.5164 Y39.6133 
G01 X-97.5046 Y39.6338 
G01 X-97.4855 Y39.6528 
G01 X-97.4691 Y39.6739 
G01 X-97.4504 Y39.6880 
G01 X-97.4338 Y39.7046 
G01 X-97.4105 Y39.7180 
G01 X-97.3891 Y39.7342 
G01 X-97.3672 Y39.7430 
G01 X-97.3469 Y39.7548 
G01 X-97.3212 Y39.7616 
G01 X-97.2962 Y39.7718 
G01 X-97.2725 Y39.7747 
G01 X-97.2501 Y39.7807 
G01 X-97.2236 Y39.7807 
G01 X-97.1966 Y39.7840 
G01 X-97.1732 Y39.7807 
G01 X-23.1267 Y39.7807 
G01 X-23.1033 Y39.7840 
G01 X-23.0763 Y39.7807 
G01 X-23.0498 Y39.7807 
G01 X-23.0274 Y39.7747 
G01 X-23.0037 Y39.7718 
G01 X-22.9787 Y39.7616 
G01 X-22.9530 Y39.7548 
G01 X-22.9327 Y39.7430 
G01 X-22.9108 Y39.7342 
G01 X-22.8894 Y39.7180 
G01 X-22.8661 Y39.7046 
G01 X-22.8495 Y39.6879 
G01 X-22.8308 Y39.6739 
G01 X-22.8144 Y39.6528 
G01 X-22.7953 Y39.6338 
G01 X-22.7835 Y39.6133 
G01 X-15.3140 Y30.0525 
G01 X-15.2953 Y30.0338 
G01 X-15.2837 Y30.0137 
G01 X-15.2690 Y29.9949 
G01 X-15.2585 Y29.9700 
G01 X-15.2451 Y29.9469 
G01 X-15.2390 Y29.9240 
G01 X-15.2299 Y29.9026 
G01 X-15.2262 Y29.8761 
G01 X-15.2192 Y29.8501 
G01 X-15.2192 Y29.8267 
G01 X-15.2159 Y29.8033 
G01 X-15.2192 Y29.7763 
G01 X-15.2192 Y26.8142 
G01 X-15.2165 Y26.7791 
G01 X-15.2192 Y26.7647 
G01 X-15.2192 Y26.7498 
G01 X-15.2284 Y26.7155 
G01 X-15.2349 Y26.6806 
G01 X-15.2413 Y26.6673 
G01 X-15.2451 Y26.6530 
G01 X-15.2628 Y26.6224 
G01 X-15.2782 Y26.5902 
G01 X-15.2880 Y26.5789 
G01 X-15.2953 Y26.5661 
G01 X-15.3203 Y26.5412 
G01 X-17.0878 Y24.4791 
G01 X-17.0953 Y24.4661 
G01 X-17.1207 Y24.4408 
G01 X-17.1435 Y24.4141 
G01 X-17.1556 Y24.4059 
G01 X-17.1661 Y24.3953 
G01 X-17.1974 Y24.3773 
G01 X-17.2262 Y24.3575 
G01 X-17.2399 Y24.3527 
G01 X-17.2530 Y24.3451 
G01 X-17.2879 Y24.3358 
G01 X-17.3207 Y24.3242 
G01 X-17.3354 Y24.3231 
G01 X-17.3498 Y24.3192 
G01 X-17.3857 Y24.3192 
G01 X-17.4208 Y24.3165 
G01 X-17.4352 Y24.3192 
G01 X-18.1413 Y24.3192 
G01 X-28.7192 Y13.6432 
G01 X-28.7192 Y10.4510 
G01 X-28.6558 Y10.4248 
G01 X-28.5092 Y10.3269 
G01 X-28.3845 Y10.2022 
G01 X-28.2866 Y10.0556 
G01 X-28.2191 Y9.8927 
G01 X-28.1847 Y9.7198 
G01 X-28.1847 Y9.5433 
G01 X-28.2191 Y9.3704 
G01 X-28.2866 Y9.2075 
G01 X-28.3845 Y9.0609 
G01 X-28.5092 Y8.9362 
G01 X-28.6558 Y8.8383 
G01 X-28.8187 Y8.7708 
G01 X-28.9916 Y8.7364 
G01 X-29.1681 Y8.7364 
G01 X-29.3410 Y8.7708 
G01 X-29.5039 Y8.8383 
G01 X-29.6505 Y8.9362 
G01 X-29.7752 Y9.0609 
G01 X-29.8731 Y9.2075 
G01 X-29.9406 Y9.3704 
G01 X-29.9750 Y9.5433 
G00 Z2.0000 
G00 X-38.2808 Y9.5433 
G01 Z-0.2000 F600.00 
G01 X-38.2808 Y9.5647 
G01 X-38.3338 Y9.5953 
G01 X-40.4338 Y11.6953 
G01 X-40.5046 Y11.7661 
G01 X-40.5548 Y11.8530 
G01 X-40.5807 Y11.9498 
G01 X-40.5807 Y19.2540 
G01 X-40.5816 Y19.2576 
G01 X-40.5807 Y19.3028 
G01 X-40.5807 Y19.3501 
G01 X-40.5797 Y19.3539 
G01 X-40.5796 Y19.3579 
G01 X-40.5667 Y19.4025 
G01 X-40.5548 Y19.4469 
G01 X-40.5528 Y19.4503 
G01 X-40.5517 Y19.4542 
G01 X-40.5274 Y19.4942 
G01 X-40.5046 Y19.5338 
G01 X-40.5018 Y19.5366 
G01 X-40.4998 Y19.5399 
G01 X-40.4672 Y19.5711 
G01 X-40.4338 Y19.6046 
G01 X-40.4303 Y19.6066 
G01 X-33.0807 Y26.6622 
G01 X-33.0807 Y29.9747 
G01 X-37.0923 Y35.4192 
G01 X-83.2017 Y35.4192 
G01 X-87.2192 Y29.6800 
G01 X-87.2192 Y26.9336 
G01 X-86.2169 Y25.6807 
G01 X-84.1830 Y25.6807 
G01 X-82.4865 Y27.8014 
G01 X-82.4865 Y29.3785 
G01 X-82.4602 Y29.5443 
G01 X-82.4084 Y29.7040 
G01 X-82.3322 Y29.8536 
G01 X-82.2335 Y29.9894 
G01 X-82.1148 Y30.1081 
G01 X-81.9790 Y30.2068 
G01 X-81.8294 Y30.2830 
G01 X-81.6697 Y30.3348 
G01 X-81.5039 Y30.3611 
G01 X-81.3360 Y30.3611 
G01 X-81.1702 Y30.3348 
G01 X-81.0105 Y30.2830 
G01 X-80.8609 Y30.2068 
G01 X-80.7251 Y30.1081 
G01 X-80.6064 Y29.9894 
G01 X-80.5077 Y29.8536 
G01 X-80.4315 Y29.7040 
G01 X-80.3797 Y29.5443 
G01 X-80.3534 Y29.3785 
G01 X-80.3534 Y27.2294 
G01 X-80.3797 Y27.0636 
G01 X-80.4315 Y26.9039 
G01 X-80.5077 Y26.7543 
G01 X-80.6064 Y26.6185 
G01 X-80.7251 Y26.4998 
G01 X-80.8609 Y26.4011 
G01 X-81.0105 Y26.3249 
G01 X-81.1702 Y26.2731 
G01 X-81.3360 Y26.2468 
G01 X-81.5039 Y26.2468 
G01 X-81.6697 Y26.2731 
G01 X-81.8294 Y26.3249 
G01 X-81.9790 Y26.4011 
G01 X-82.1148 Y26.4998 
G01 X-82.2335 Y26.6185 
G01 X-82.3322 Y26.7543 
G01 X-82.3386 Y26.7671 
G01 X-83.6848 Y25.0843 
G01 X-83.6953 Y25.0661 
G01 X-83.7155 Y25.0459 
G01 X-83.7339 Y25.0229 
G01 X-83.7513 Y25.0101 
G01 X-83.7661 Y24.9953 
G01 X-83.7911 Y24.9809 
G01 X-83.8147 Y24.9635 
G01 X-83.8346 Y24.9558 
G01 X-83.8530 Y24.9451 
G01 X-83.8812 Y24.9376 
G01 X-83.9080 Y24.9271 
G01 X-83.9291 Y24.9248 
G01 X-83.9498 Y24.9192 
G01 X-83.9790 Y24.9192 
G01 X-84.0078 Y24.9160 
G01 X-84.0288 Y24.9192 
G01 X-86.3712 Y24.9192 
G01 X-86.3921 Y24.9160 
G01 X-86.4209 Y24.9192 
G01 X-86.4501 Y24.9192 
G01 X-86.4708 Y24.9248 
G01 X-86.4919 Y24.9271 
G01 X-86.5186 Y24.9376 
G01 X-86.5469 Y24.9451 
G01 X-86.5653 Y24.9558 
G01 X-86.5852 Y24.9635 
G01 X-86.6088 Y24.9809 
G01 X-86.6338 Y24.9953 
G01 X-86.6486 Y25.0102 
G01 X-86.6660 Y25.0229 
G01 X-86.6844 Y25.0459 
G01 X-86.7046 Y25.0661 
G01 X-86.7151 Y25.0843 
G01 X-87.8842 Y26.5457 
G01 X-87.9046 Y26.5661 
G01 X-87.9152 Y26.5845 
G01 X-87.9286 Y26.6012 
G01 X-87.9403 Y26.6279 
G01 X-87.9548 Y26.6530 
G01 X-87.9603 Y26.6737 
G01 X-87.9688 Y26.6930 
G01 X-87.9731 Y26.7217 
G01 X-87.9807 Y26.7498 
G01 X-87.9807 Y26.7711 
G01 X-87.9839 Y26.7921 
G01 X-87.9807 Y26.8209 
G01 X-87.9807 Y29.7667 
G01 X-87.9836 Y29.7831 
G01 X-87.9807 Y29.8164 
G01 X-87.9807 Y29.8501 
G01 X-87.9763 Y29.8663 
G01 X-87.9749 Y29.8831 
G01 X-87.9635 Y29.9144 
G01 X-87.9548 Y29.9469 
G01 X-87.9463 Y29.9615 
G01 X-87.9406 Y29.9773 
G01 X-87.9213 Y30.0047 
G01 X-87.9046 Y30.0338 
G01 X-87.8927 Y30.0456 
G01 X-83.7215 Y36.0045 
G01 X-83.7046 Y36.0338 
G01 X-83.6926 Y36.0457 
G01 X-83.6831 Y36.0594 
G01 X-83.6575 Y36.0808 
G01 X-83.6338 Y36.1046 
G01 X-83.6192 Y36.1130 
G01 X-83.6064 Y36.1238 
G01 X-83.5760 Y36.1379 
G01 X-83.5469 Y36.1548 
G01 X-83.5305 Y36.1591 
G01 X-83.5155 Y36.1662 
G01 X-83.4826 Y36.1720 
G01 X-83.4501 Y36.1807 
G01 X-83.4332 Y36.1807 
G01 X-83.4168 Y36.1836 
G01 X-83.3834 Y36.1807 
G01 X-36.9212 Y36.1807 
G01 X-36.8924 Y36.1839 
G01 X-36.8713 Y36.1807 
G01 X-36.8498 Y36.1807 
G01 X-36.8219 Y36.1732 
G01 X-36.7933 Y36.1689 
G01 X-36.7739 Y36.1604 
G01 X-36.7530 Y36.1548 
G01 X-36.7276 Y36.1401 
G01 X-36.7015 Y36.1287 
G01 X-36.6849 Y36.1154 
G01 X-36.6661 Y36.1046 
G01 X-36.6458 Y36.0842 
G01 X-36.6231 Y36.0662 
G01 X-36.6103 Y36.0487 
G01 X-36.5953 Y36.0338 
G01 X-36.5811 Y36.0091 
G01 X-32.4105 Y30.3489 
G01 X-32.3953 Y30.3338 
G01 X-32.3809 Y30.3087 
G01 X-32.3637 Y30.2855 
G01 X-32.3559 Y30.2656 
G01 X-32.3451 Y30.2469 
G01 X-32.3376 Y30.2189 
G01 X-32.3271 Y30.1921 
G01 X-32.3247 Y30.1707 
G01 X-32.3192 Y30.1501 
G01 X-32.3192 Y30.1212 
G01 X-32.3160 Y30.0924 
G01 X-32.3192 Y30.0713 
G01 X-32.3192 Y26.5459 
G01 X-32.3183 Y26.5423 
G01 X-32.3192 Y26.4972 
G01 X-32.3192 Y26.4498 
G01 X-32.3202 Y26.4460 
G01 X-32.3203 Y26.4420 
G01 X-32.3332 Y26.3976 
G01 X-32.3451 Y26.3530 
G01 X-32.3471 Y26.3496 
G01 X-32.3482 Y26.3457 
G01 X-32.3724 Y26.3058 
G01 X-32.3953 Y26.2661 
G01 X-32.3981 Y26.2633 
G01 X-32.4001 Y26.2600 
G01 X-32.4326 Y26.2289 
G01 X-32.4661 Y26.1953 
G01 X-32.4696 Y26.1933 
G01 X-39.8192 Y19.1377 
G01 X-39.8192 Y12.1577 
G01 X-37.9724 Y10.3108 
G01 X-37.9563 Y10.3269 
G01 X-37.8097 Y10.4248 
G01 X-37.6468 Y10.4923 
G01 X-37.4739 Y10.5267 
G01 X-37.2974 Y10.5267 
G01 X-37.1245 Y10.4923 
G01 X-36.9616 Y10.4248 
G01 X-36.8150 Y10.3269 
G01 X-36.6903 Y10.2022 
G01 X-36.5924 Y10.0556 
G01 X-36.5249 Y9.8927 
G01 X-36.4905 Y9.7198 
G01 X-36.4905 Y9.5433 
G01 X-36.5249 Y9.3704 
G01 X-36.5924 Y9.2075 
G01 X-36.6903 Y9.0609 
G01 X-36.8150 Y8.9362 
G01 X-36.9616 Y8.8383 
G01 X-37.1245 Y8.7708 
G01 X-37.2974 Y8.7364 
G01 X-37.4739 Y8.7364 
G01 X-37.6468 Y8.7708 
G01 X-37.8097 Y8.8383 
G01 X-37.9563 Y8.9362 
G01 X-38.0810 Y9.0609 
G01 X-38.1789 Y9.2075 
G01 X-38.2464 Y9.3704 
G01 X-38.2808 Y9.5433 
G00 Z2.0000 
G00 X-40.8496 Y10.2022 
G01 Z-0.2000 F600.00 
G01 X-40.7249 Y10.3269 
G01 X-40.5783 Y10.4248 
G01 X-40.4154 Y10.4923 
G01 X-40.2425 Y10.5267 
G01 X-40.0660 Y10.5267 
G01 X-39.8931 Y10.4923 
G01 X-39.7302 Y10.4248 
G01 X-39.5836 Y10.3269 
G01 X-39.4589 Y10.2022 
G01 X-39.3610 Y10.0556 
G01 X-39.2935 Y9.8927 
G01 X-39.2591 Y9.7198 
G01 X-39.2591 Y9.5433 
G01 X-39.2935 Y9.3704 
G01 X-39.3610 Y9.2075 
G01 X-39.4589 Y9.0609 
G01 X-39.5836 Y8.9362 
G01 X-39.7302 Y8.8383 
G01 X-39.8931 Y8.7708 
G01 X-40.0660 Y8.7364 
G01 X-40.2425 Y8.7364 
G01 X-40.4154 Y8.7708 
G01 X-40.5783 Y8.8383 
G01 X-40.7249 Y8.9362 
G01 X-40.8496 Y9.0609 
G01 X-40.9475 Y9.2075 
G01 X-40.9668 Y9.2543 
G01 X-40.9679 Y9.2546 
G01 X-41.0006 Y9.2762 
G01 X-41.0338 Y9.2953 
G01 X-41.0417 Y9.3033 
G01 X-41.0516 Y9.3098 
G01 X-41.0778 Y9.3394 
G01 X-43.1337 Y11.3953 
G01 X-43.1338 Y11.3953 
G01 X-43.2046 Y11.4661 
G01 X-43.2548 Y11.5530 
G01 X-43.2807 Y11.6498 
G01 X-43.2807 Y20.4948 
G01 X-43.2818 Y20.5408 
G01 X-43.2807 Y20.5453 
G01 X-43.2807 Y20.5501 
G01 X-43.2686 Y20.5951 
G01 X-43.2582 Y20.6383 
G01 X-43.2560 Y20.6422 
G01 X-43.2548 Y20.6469 
G01 X-43.2316 Y20.6869 
G01 X-43.2102 Y20.7263 
G01 X-43.2069 Y20.7296 
G01 X-43.2046 Y20.7338 
G01 X-43.1722 Y20.7661 
G01 X-37.2807 Y26.9522 
G01 X-37.2807 Y29.6710 
G01 X-40.9881 Y34.5192 
G01 X-80.8040 Y34.5192 
G01 X-84.6044 Y29.1986 
G01 X-84.6044 Y27.2294 
G01 X-84.6307 Y27.0636 
G01 X-84.6825 Y26.9039 
G01 X-84.7587 Y26.7543 
G01 X-84.8574 Y26.6185 
G01 X-84.9761 Y26.4998 
G01 X-85.1119 Y26.4011 
G01 X-85.2615 Y26.3249 
G01 X-85.4212 Y26.2731 
G01 X-85.5870 Y26.2468 
G01 X-85.7549 Y26.2468 
G01 X-85.9207 Y26.2731 
G01 X-86.0804 Y26.3249 
G01 X-86.2300 Y26.4011 
G01 X-86.3658 Y26.4998 
G01 X-86.4845 Y26.6185 
G01 X-86.5832 Y26.7543 
G01 X-86.6594 Y26.9039 
G01 X-86.7112 Y27.0636 
G01 X-86.7375 Y27.2294 
G01 X-86.7375 Y29.3785 
G01 X-86.7112 Y29.5443 
G01 X-86.6594 Y29.7040 
G01 X-86.5832 Y29.8536 
G01 X-86.4845 Y29.9894 
G01 X-86.3658 Y30.1081 
G01 X-86.2300 Y30.2068 
G01 X-86.0804 Y30.2830 
G01 X-85.9207 Y30.3348 
G01 X-85.7549 Y30.3611 
G01 X-85.5870 Y30.3611 
G01 X-85.4212 Y30.3348 
G01 X-85.2615 Y30.2830 
G01 X-85.1119 Y30.2068 
G01 X-84.9761 Y30.1081 
G01 X-84.9262 Y30.0581 
G01 X-81.3201 Y35.1068 
G01 X-81.3046 Y35.1338 
G01 X-81.2917 Y35.1467 
G01 X-81.2807 Y35.1621 
G01 X-81.2558 Y35.1825 
G01 X-81.2338 Y35.2046 
G01 X-81.2179 Y35.2137 
G01 X-81.2033 Y35.2258 
G01 X-81.1742 Y35.2390 
G01 X-81.1469 Y35.2548 
G01 X-81.1289 Y35.2596 
G01 X-81.1120 Y35.2673 
G01 X-81.0805 Y35.2725 
G01 X-81.0501 Y35.2807 
G01 X-81.0316 Y35.2807 
G01 X-81.0131 Y35.2838 
G01 X-80.9812 Y35.2807 
G01 X-40.8248 Y35.2807 
G01 X-40.7993 Y35.2840 
G01 X-40.7747 Y35.2807 
G01 X-40.7498 Y35.2807 
G01 X-40.7250 Y35.2740 
G01 X-40.6999 Y35.2707 
G01 X-40.6774 Y35.2613 
G01 X-40.6530 Y35.2548 
G01 X-40.6306 Y35.2418 
G01 X-40.6074 Y35.2322 
G01 X-40.5878 Y35.2171 
G01 X-40.5661 Y35.2046 
G01 X-40.5482 Y35.1867 
G01 X-40.5279 Y35.1711 
G01 X-40.5127 Y35.1511 
G01 X-40.4953 Y35.1338 
G01 X-40.4827 Y35.1119 
G01 X-36.6129 Y30.0513 
G01 X-36.5953 Y30.0338 
G01 X-36.5826 Y30.0117 
G01 X-36.5670 Y29.9914 
G01 X-36.5575 Y29.9683 
G01 X-36.5451 Y29.9469 
G01 X-36.5386 Y29.9224 
G01 X-36.5288 Y29.8988 
G01 X-36.5256 Y29.8738 
G01 X-36.5192 Y29.8501 
G01 X-36.5192 Y29.8248 
G01 X-36.5159 Y29.7993 
G01 X-36.5192 Y29.7747 
G01 X-36.5192 Y26.8050 
G01 X-36.5181 Y26.7591 
G01 X-36.5192 Y26.7546 
G01 X-36.5192 Y26.7498 
G01 X-36.5313 Y26.7047 
G01 X-36.5417 Y26.6616 
G01 X-36.5439 Y26.6577 
G01 X-36.5451 Y26.6530 
G01 X-36.5683 Y26.6129 
G01 X-36.5897 Y26.5736 
G01 X-36.5930 Y26.5703 
G01 X-36.5953 Y26.5661 
G01 X-36.6278 Y26.5337 
G01 X-42.5192 Y20.3477 
G01 X-42.5192 Y11.8576 
G01 X-40.8553 Y10.1937 
G01 X-40.8496 Y10.2022 
G00 Z2.0000 
G00 X-52.1238 Y9.5433 
G01 Z-0.2000 F600.00 
G01 X-52.1238 Y9.7198 
G01 X-52.0894 Y9.8927 
G01 X-52.0219 Y10.0556 
G01 X-51.9240 Y10.2022 
G01 X-51.7993 Y10.3269 
G01 X-51.6527 Y10.4248 
G01 X-51.4898 Y10.4923 
G01 X-51.3169 Y10.5267 
G01 X-51.1404 Y10.5267 
G01 X-50.9675 Y10.4923 
G01 X-50.8046 Y10.4248 
G01 X-50.6580 Y10.3269 
G01 X-50.5333 Y10.2022 
G01 X-50.4354 Y10.0556 
G01 X-50.3679 Y9.8927 
G01 X-50.3335 Y9.7198 
G01 X-50.3335 Y9.5433 
G01 X-50.3679 Y9.3704 
G01 X-50.4354 Y9.2075 
G01 X-50.5333 Y9.0609 
G01 X-50.6580 Y8.9362 
G01 X-50.8046 Y8.8383 
G01 X-50.9192 Y8.7908 
G01 X-50.9192 Y6.7807 
G01 X-32.5933 Y6.7807 
G01 X-30.8807 Y9.1242 
G01 X-30.8807 Y10.4333 
G01 X-32.0268 Y11.4913 
G01 X-32.0338 Y11.4953 
G01 X-32.0651 Y11.5266 
G01 X-32.0950 Y11.5542 
G01 X-32.0989 Y11.5605 
G01 X-32.1046 Y11.5661 
G01 X-32.1263 Y11.6037 
G01 X-32.1486 Y11.6389 
G01 X-32.1508 Y11.6462 
G01 X-32.1548 Y11.6530 
G01 X-32.1658 Y11.6944 
G01 X-32.1784 Y11.7346 
G01 X-32.1787 Y11.7424 
G01 X-32.1807 Y11.7498 
G01 X-32.1807 Y11.7923 
G01 X-32.1824 Y11.8349 
G01 X-32.1807 Y11.8424 
G01 X-32.1807 Y14.9974 
G01 X-32.1816 Y15.0426 
G01 X-32.1807 Y15.0462 
G01 X-32.1807 Y15.0501 
G01 X-32.1685 Y15.0954 
G01 X-32.1576 Y15.1399 
G01 X-32.1558 Y15.1431 
G01 X-32.1548 Y15.1469 
G01 X-32.1316 Y15.1869 
G01 X-32.1092 Y15.2277 
G01 X-32.1065 Y15.2305 
G01 X-32.1046 Y15.2338 
G01 X-32.0721 Y15.2663 
G01 X-22.2066 Y25.5302 
G01 X-22.2046 Y25.5338 
G01 X-22.1693 Y25.5690 
G01 X-22.1397 Y25.5999 
G01 X-22.1366 Y25.6017 
G01 X-22.1338 Y25.6046 
G01 X-22.0922 Y25.6286 
G01 X-22.0539 Y25.6518 
G01 X-22.0503 Y25.6528 
G01 X-22.0469 Y25.6548 
G01 X-22.0004 Y25.6672 
G01 X-21.9576 Y25.6796 
G01 X-21.9539 Y25.6796 
G01 X-21.9501 Y25.6807 
G01 X-21.9024 Y25.6807 
G01 X-21.8573 Y25.6816 
G01 X-21.8537 Y25.6807 
G01 X-21.4577 Y25.6807 
G01 X-20.1807 Y26.9577 
G01 X-20.1807 Y29.6674 
G01 X-26.8839 Y38.1192 
G01 X-94.9108 Y38.1192 
G01 X-101.6084 Y29.2783 
G01 X-101.6084 Y27.2294 
G01 X-101.6347 Y27.0636 
G01 X-101.6865 Y26.9039 
G01 X-101.7627 Y26.7543 
G01 X-101.8614 Y26.6185 
G01 X-101.9801 Y26.4998 
G01 X-102.1159 Y26.4011 
G01 X-102.2655 Y26.3249 
G01 X-102.4252 Y26.2731 
G01 X-102.5910 Y26.2468 
G01 X-102.7589 Y26.2468 
G01 X-102.9247 Y26.2731 
G01 X-103.0844 Y26.3249 
G01 X-103.2340 Y26.4011 
G01 X-103.3698 Y26.4998 
G01 X-103.4885 Y26.6185 
G01 X-103.5872 Y26.7543 
G01 X-103.6634 Y26.9039 
G01 X-103.7152 Y27.0636 
G01 X-103.7415 Y27.2294 
G01 X-103.7415 Y29.3785 
G01 X-103.7152 Y29.5443 
G01 X-103.6634 Y29.7040 
G01 X-103.5872 Y29.8536 
G01 X-103.4885 Y29.9894 
G01 X-103.3698 Y30.1081 
G01 X-103.2340 Y30.2068 
G01 X-103.0844 Y30.2830 
G01 X-102.9247 Y30.3348 
G01 X-102.7589 Y30.3611 
G01 X-102.5910 Y30.3611 
G01 X-102.4252 Y30.3348 
G01 X-102.2655 Y30.2830 
G01 X-102.1159 Y30.2068 
G01 X-101.9801 Y30.1081 
G01 X-101.9545 Y30.0824 
G01 X-95.4178 Y38.7108 
G01 X-95.4046 Y38.7338 
G01 X-95.3876 Y38.7508 
G01 X-95.3732 Y38.7698 
G01 X-95.3525 Y38.7859 
G01 X-95.3338 Y38.8046 
G01 X-95.3130 Y38.8166 
G01 X-95.2940 Y38.8314 
G01 X-95.2696 Y38.8417 
G01 X-95.2469 Y38.8548 
G01 X-95.2238 Y38.8609 
G01 X-95.2017 Y38.8703 
G01 X-95.1754 Y38.8739 
G01 X-95.1501 Y38.8807 
G01 X-95.1263 Y38.8807 
G01 X-95.1024 Y38.8840 
G01 X-95.0761 Y38.8807 
G01 X-26.7279 Y38.8807 
G01 X-26.7062 Y38.8839 
G01 X-26.6784 Y38.8807 
G01 X-26.6498 Y38.8807 
G01 X-26.6281 Y38.8749 
G01 X-26.6065 Y38.8724 
G01 X-26.5807 Y38.8622 
G01 X-26.5530 Y38.8548 
G01 X-26.5338 Y38.8436 
G01 X-26.5133 Y38.8356 
G01 X-26.4907 Y38.8188 
G01 X-26.4661 Y38.8046 
G01 X-26.4503 Y38.7888 
G01 X-26.4328 Y38.7758 
G01 X-26.4156 Y38.7540 
G01 X-26.3953 Y38.7338 
G01 X-26.3841 Y38.7143 
G01 X-19.5154 Y30.0538 
G01 X-19.4953 Y30.0338 
G01 X-19.4842 Y30.0145 
G01 X-19.4705 Y29.9973 
G01 X-19.4593 Y29.9715 
G01 X-19.4451 Y29.9469 
G01 X-19.4394 Y29.9255 
G01 X-19.4306 Y29.9053 
G01 X-19.4265 Y29.8772 
G01 X-19.4192 Y29.8501 
G01 X-19.4192 Y29.8279 
G01 X-19.4160 Y29.8062 
G01 X-19.4192 Y29.7784 
G01 X-19.4192 Y26.7498 
G01 X-19.4451 Y26.6530 
G01 X-19.4953 Y26.5661 
G01 X-19.5661 Y26.4953 
G01 X-21.0661 Y24.9953 
G01 X-21.1530 Y24.9451 
G01 X-21.2498 Y24.9192 
G01 X-21.3501 Y24.9192 
G01 X-21.7378 Y24.9192 
G01 X-31.4192 Y14.8467 
G01 X-31.4192 Y11.9666 
G01 X-30.2731 Y10.9086 
G01 X-30.2661 Y10.9046 
G01 X-30.2349 Y10.8733 
G01 X-30.2049 Y10.8457 
G01 X-30.2010 Y10.8394 
G01 X-30.1953 Y10.8338 
G01 X-30.1737 Y10.7963 
G01 X-30.1513 Y10.7610 
G01 X-30.1491 Y10.7536 
G01 X-30.1451 Y10.7469 
G01 X-30.1341 Y10.7056 
G01 X-30.1215 Y10.6653 
G01 X-30.1212 Y10.6575 
G01 X-30.1192 Y10.6501 
G01 X-30.1192 Y10.6077 
G01 X-30.1175 Y10.5650 
G01 X-30.1192 Y10.5575 
G01 X-30.1192 Y9.0295 
G01 X-30.1160 Y9.0090 
G01 X-30.1192 Y8.9794 
G01 X-30.1192 Y8.9498 
G01 X-30.1246 Y8.9297 
G01 X-30.1268 Y8.9092 
G01 X-30.1374 Y8.8820 
G01 X-30.1451 Y8.8530 
G01 X-30.1556 Y8.8349 
G01 X-30.1630 Y8.8157 
G01 X-30.1804 Y8.7919 
G01 X-30.1953 Y8.7661 
G01 X-30.2100 Y8.7515 
G01 X-32.0805 Y6.1918 
G01 X-32.0953 Y6.1661 
G01 X-32.1099 Y6.1516 
G01 X-32.1221 Y6.1348 
G01 X-32.1453 Y6.1162 
G01 X-32.1661 Y6.0953 
G01 X-32.1840 Y6.0850 
G01 X-32.2002 Y6.0719 
G01 X-32.2275 Y6.0599 
G01 X-32.2530 Y6.0451 
G01 X-32.2730 Y6.0398 
G01 X-32.2919 Y6.0314 
G01 X-32.3213 Y6.0269 
G01 X-32.3498 Y6.0192 
G01 X-32.3704 Y6.0192 
G01 X-32.3909 Y6.0160 
G01 X-32.4205 Y6.0192 
G01 X-51.3501 Y6.0192 
G01 X-51.4469 Y6.0451 
G01 X-51.5338 Y6.0953 
G01 X-51.6046 Y6.1661 
G01 X-51.6548 Y6.2530 
G01 X-51.6807 Y6.3498 
G01 X-51.6807 Y6.4501 
G01 X-51.6807 Y8.8570 
G01 X-51.7993 Y8.9362 
G01 X-51.9240 Y9.0609 
G01 X-52.0219 Y9.2075 
G01 X-52.0894 Y9.3704 
G01 X-52.1238 Y9.5433 
G00 Z2.0000 
G00 X-54.5679 Y10.3269 
G01 Z-0.2000 F600.00 
G01 X-54.4213 Y10.4248 
G01 X-54.2584 Y10.4923 
G01 X-54.0855 Y10.5267 
G01 X-53.9090 Y10.5267 
G01 X-53.7361 Y10.4923 
G01 X-53.5732 Y10.4248 
G01 X-53.4266 Y10.3269 
G01 X-53.3019 Y10.2022 
G01 X-53.2040 Y10.0556 
G01 X-53.1365 Y9.8927 
G01 X-53.1021 Y9.7198 
G01 X-53.1021 Y9.5433 
G01 X-53.1365 Y9.3704 
G01 X-53.2040 Y9.2075 
G01 X-53.3019 Y9.0609 
G01 X-53.4266 Y8.9362 
G01 X-53.5732 Y8.8383 
G01 X-53.7361 Y8.7708 
G01 X-53.9090 Y8.7364 
G01 X-54.0855 Y8.7364 
G01 X-54.2584 Y8.7708 
G01 X-54.4213 Y8.8383 
G01 X-54.5679 Y8.9362 
G01 X-54.6926 Y9.0609 
G01 X-54.7905 Y9.2075 
G01 X-54.8580 Y9.3704 
G01 X-54.8876 Y9.5192 
G01 X-55.7791 Y9.5192 
G01 X-55.8082 Y9.5160 
G01 X-55.8290 Y9.5192 
G01 X-55.8501 Y9.5192 
G01 X-55.8783 Y9.5268 
G01 X-55.9073 Y9.5312 
G01 X-55.9265 Y9.5397 
G01 X-55.9469 Y9.5451 
G01 X-55.9722 Y9.5598 
G01 X-55.9990 Y9.5715 
G01 X-56.0155 Y9.5848 
G01 X-56.0338 Y9.5953 
G01 X-56.0545 Y9.6160 
G01 X-56.0772 Y9.6342 
G01 X-56.0896 Y9.6512 
G01 X-56.1046 Y9.6661 
G01 X-56.1193 Y9.6916 
G01 X-62.9899 Y19.0515 
G01 X-63.0046 Y19.0661 
G01 X-63.0190 Y19.0910 
G01 X-63.0366 Y19.1150 
G01 X-63.0443 Y19.1349 
G01 X-63.0548 Y19.1530 
G01 X-63.0624 Y19.1814 
G01 X-63.0729 Y19.2084 
G01 X-63.0752 Y19.2293 
G01 X-63.0807 Y19.2498 
G01 X-63.0807 Y19.2792 
G01 X-63.0839 Y19.3082 
G01 X-63.0807 Y19.3290 
G01 X-63.0807 Y30.2096 
G01 X-64.0269 Y30.9192 
G01 X-64.9422 Y30.9192 
G01 X-66.2192 Y29.6422 
G01 X-66.2192 Y26.8316 
G01 X-66.2161 Y26.8131 
G01 X-66.2192 Y26.7812 
G01 X-66.2192 Y26.7498 
G01 X-66.2240 Y26.7319 
G01 X-66.2258 Y26.7133 
G01 X-66.2369 Y26.6838 
G01 X-66.2451 Y26.6530 
G01 X-66.2545 Y26.6367 
G01 X-66.2610 Y26.6194 
G01 X-66.2794 Y26.5937 
G01 X-66.2953 Y26.5661 
G01 X-66.3085 Y26.5529 
G01 X-70.7797 Y20.2931 
G01 X-70.7953 Y20.2661 
G01 X-70.8082 Y20.2532 
G01 X-70.8192 Y20.2378 
G01 X-70.8441 Y20.2174 
G01 X-70.8661 Y20.1953 
G01 X-70.8820 Y20.1861 
G01 X-70.8966 Y20.1741 
G01 X-70.9257 Y20.1609 
G01 X-70.9530 Y20.1451 
G01 X-70.9710 Y20.1403 
G01 X-70.9879 Y20.1326 
G01 X-71.0193 Y20.1274 
G01 X-71.0498 Y20.1192 
G01 X-71.0683 Y20.1192 
G01 X-71.0868 Y20.1161 
G01 X-71.1187 Y20.1192 
G01 X-101.3851 Y20.1192 
G01 X-101.4188 Y20.1164 
G01 X-101.4340 Y20.1192 
G01 X-101.4501 Y20.1192 
G01 X-101.4840 Y20.1283 
G01 X-101.5174 Y20.1343 
G01 X-101.5313 Y20.1409 
G01 X-101.5469 Y20.1451 
G01 X-101.5777 Y20.1629 
G01 X-101.6080 Y20.1772 
G01 X-101.6196 Y20.1872 
G01 X-101.6338 Y20.1953 
G01 X-101.6587 Y20.2202 
G01 X-101.6845 Y20.2420 
G01 X-101.6933 Y20.2549 
G01 X-101.7046 Y20.2661 
G01 X-101.7220 Y20.2963 
G01 X-106.1055 Y26.6281 
G01 X-106.1124 Y26.6185 
G01 X-106.2311 Y26.4998 
G01 X-106.3669 Y26.4011 
G01 X-106.5165 Y26.3249 
G01 X-106.6762 Y26.2731 
G01 X-106.8420 Y26.2468 
G01 X-107.0099 Y26.2468 
G01 X-107.1757 Y26.2731 
G01 X-107.3354 Y26.3249 
G01 X-107.4850 Y26.4011 
G01 X-107.6208 Y26.4998 
G01 X-107.7395 Y26.6185 
G01 X-107.8382 Y26.7543 
G01 X-107.9144 Y26.9039 
G01 X-107.9662 Y27.0636 
G01 X-107.9925 Y27.2294 
G01 X-107.9925 Y29.3785 
G01 X-107.9662 Y29.5443 
G01 X-107.9144 Y29.7040 
G01 X-107.8382 Y29.8536 
G01 X-107.7395 Y29.9894 
G01 X-107.6208 Y30.1081 
G01 X-107.4850 Y30.2068 
G01 X-107.3354 Y30.2830 
G01 X-107.1757 Y30.3348 
G01 X-107.0099 Y30.3611 
G01 X-106.8420 Y30.3611 
G01 X-106.6762 Y30.3348 
G01 X-106.5165 Y30.2830 
G01 X-106.3669 Y30.2068 
G01 X-106.2311 Y30.1081 
G01 X-106.1124 Y29.9894 
G01 X-106.0137 Y29.8536 
G01 X-105.9375 Y29.7040 
G01 X-105.8857 Y29.5443 
G01 X-105.8594 Y29.3785 
G01 X-105.8594 Y27.6103 
G01 X-101.2005 Y20.8807 
G01 X-71.2959 Y20.8807 
G01 X-66.9807 Y26.9221 
G01 X-66.9807 Y29.8501 
G01 X-66.9548 Y29.9469 
G01 X-66.9046 Y30.0338 
G01 X-66.8338 Y30.1046 
G01 X-65.3338 Y31.6046 
G01 X-65.2469 Y31.6548 
G01 X-65.1501 Y31.6807 
G01 X-65.0498 Y31.6807 
G01 X-63.9272 Y31.6807 
G01 X-63.9042 Y31.6840 
G01 X-63.8768 Y31.6807 
G01 X-63.8498 Y31.6807 
G01 X-63.8277 Y31.6748 
G01 X-63.8046 Y31.6720 
G01 X-63.7794 Y31.6618 
G01 X-63.7530 Y31.6548 
G01 X-63.7328 Y31.6431 
G01 X-63.7116 Y31.6346 
G01 X-63.6901 Y31.6184 
G01 X-63.6661 Y31.6046 
G01 X-63.6496 Y31.5881 
G01 X-62.4898 Y30.7182 
G01 X-62.4661 Y30.7046 
G01 X-62.4498 Y30.6883 
G01 X-62.4314 Y30.6745 
G01 X-62.4147 Y30.6531 
G01 X-62.3953 Y30.6338 
G01 X-62.3837 Y30.6136 
G01 X-62.3695 Y30.5956 
G01 X-62.3589 Y30.5707 
G01 X-62.3451 Y30.5469 
G01 X-62.3392 Y30.5246 
G01 X-62.3301 Y30.5035 
G01 X-62.3262 Y30.4762 
G01 X-62.3192 Y30.4501 
G01 X-62.3192 Y30.4272 
G01 X-62.3159 Y30.4042 
G01 X-62.3192 Y30.3768 
G01 X-62.3192 Y19.4247 
G01 X-55.6071 Y10.2807 
G01 X-54.6141 Y10.2807 
G01 X-54.5679 Y10.3269 
G00 Z2.0000 
G00 X-48.4785 Y27.2294 
G01 Z-0.2000 F600.00 
G01 X-48.4785 Y29.3785 
G01 X-48.4522 Y29.5443 
G01 X-48.4004 Y29.7040 
G01 X-48.3242 Y29.8536 
G01 X-48.2255 Y29.9894 
G01 X-48.1068 Y30.1081 
G01 X-47.9710 Y30.2068 
G01 X-47.8214 Y30.2830 
G01 X-47.6617 Y30.3348 
G01 X-47.4959 Y30.3611 
G01 X-47.3280 Y30.3611 
G01 X-47.1622 Y30.3348 
G01 X-47.0025 Y30.2830 
G01 X-46.8529 Y30.2068 
G01 X-46.7171 Y30.1081 
G01 X-46.5984 Y29.9894 
G01 X-46.4997 Y29.8536 
G01 X-46.4235 Y29.7040 
G01 X-46.3717 Y29.5443 
G01 X-46.3454 Y29.3785 
G01 X-46.3454 Y27.2294 
G01 X-46.3717 Y27.0636 
G01 X-46.4235 Y26.9039 
G01 X-46.4997 Y26.7543 
G01 X-46.5984 Y26.6185 
G01 X-46.7171 Y26.4998 
G01 X-46.8529 Y26.4011 
G01 X-47.0025 Y26.3249 
G01 X-47.0312 Y26.3156 
G01 X-47.0312 Y25.9267 
G01 X-47.0289 Y25.9156 
G01 X-47.0312 Y25.8765 
G01 X-47.0312 Y25.8378 
G01 X-47.0341 Y25.8269 
G01 X-47.0348 Y25.8154 
G01 X-47.0471 Y25.7784 
G01 X-47.0571 Y25.7410 
G01 X-47.0628 Y25.7312 
G01 X-47.0664 Y25.7203 
G01 X-47.0879 Y25.6878 
G01 X-47.1073 Y25.6541 
G01 X-47.1154 Y25.6460 
G01 X-47.1216 Y25.6366 
G01 X-47.1503 Y25.6111 
G01 X-47.1781 Y25.5833 
G01 X-47.1881 Y25.5776 
G01 X-49.7192 Y23.3289 
G01 X-49.7192 Y13.3641 
G01 X-49.5832 Y13.3371 
G01 X-49.4203 Y13.2696 
G01 X-49.2737 Y13.1717 
G01 X-49.1490 Y13.0470 
G01 X-49.0511 Y12.9004 
G01 X-48.9836 Y12.7375 
G01 X-48.9492 Y12.5646 
G01 X-48.9492 Y12.3881 
G01 X-48.9836 Y12.2152 
G01 X-49.0511 Y12.0523 
G01 X-49.1490 Y11.9057 
G01 X-49.2737 Y11.7810 
G01 X-49.4203 Y11.6831 
G01 X-49.5832 Y11.6156 
G01 X-49.7561 Y11.5812 
G01 X-49.9326 Y11.5812 
G01 X-50.1055 Y11.6156 
G01 X-50.2684 Y11.6831 
G01 X-50.4150 Y11.7810 
G01 X-50.5397 Y11.9057 
G01 X-50.6376 Y12.0523 
G01 X-50.7051 Y12.2152 
G01 X-50.7395 Y12.3881 
G01 X-50.7395 Y12.5646 
G01 X-50.7051 Y12.7375 
G01 X-50.6376 Y12.9004 
G01 X-50.5397 Y13.0470 
G01 X-50.4807 Y13.1060 
G01 X-50.4807 Y23.4612 
G01 X-50.4830 Y23.4723 
G01 X-50.4807 Y23.5114 
G01 X-50.4807 Y23.5501 
G01 X-50.4778 Y23.5610 
G01 X-50.4771 Y23.5725 
G01 X-50.4648 Y23.6094 
G01 X-50.4548 Y23.6469 
G01 X-50.4491 Y23.6567 
G01 X-50.4455 Y23.6676 
G01 X-50.4241 Y23.7000 
G01 X-50.4046 Y23.7338 
G01 X-50.3965 Y23.7419 
G01 X-50.3903 Y23.7513 
G01 X-50.3616 Y23.7767 
G01 X-50.3338 Y23.8046 
G01 X-50.3238 Y23.8103 
G01 X-47.7927 Y26.0590 
G01 X-47.7927 Y26.3156 
G01 X-47.8214 Y26.3249 
G01 X-47.9710 Y26.4011 
G01 X-48.1068 Y26.4998 
G01 X-48.2255 Y26.6185 
G01 X-48.3242 Y26.7543 
G01 X-48.4004 Y26.9039 
G01 X-48.4522 Y27.0636 
G01 X-48.4785 Y27.2294 
G00 Z2.0000 
G00 X-52.7295 Y27.2294 
G01 Z-0.2000 F600.00 
G01 X-52.7295 Y29.3785 
G01 X-52.7032 Y29.5443 
G01 X-52.6514 Y29.7040 
G01 X-52.5752 Y29.8536 
G01 X-52.4765 Y29.9894 
G01 X-52.3578 Y30.1081 
G01 X-52.2220 Y30.2068 
G01 X-52.0724 Y30.2830 
G01 X-51.9127 Y30.3348 
G01 X-51.7469 Y30.3611 
G01 X-51.5790 Y30.3611 
G01 X-51.4132 Y30.3348 
G01 X-51.2535 Y30.2830 
G01 X-51.1039 Y30.2068 
G01 X-50.9681 Y30.1081 
G01 X-50.8494 Y29.9894 
G01 X-50.7507 Y29.8536 
G01 X-50.6745 Y29.7040 
G01 X-50.6227 Y29.5443 
G01 X-50.5964 Y29.3785 
G01 X-50.5964 Y27.2294 
G01 X-50.6227 Y27.0636 
G01 X-50.6745 Y26.9039 
G01 X-50.7507 Y26.7543 
G01 X-50.8494 Y26.6185 
G01 X-50.9681 Y26.4998 
G01 X-51.1039 Y26.4011 
G01 X-51.2535 Y26.3249 
G01 X-51.2822 Y26.3156 
G01 X-51.2822 Y26.1674 
G01 X-51.2791 Y26.1483 
G01 X-51.2822 Y26.1176 
G01 X-51.2822 Y26.0868 
G01 X-51.2872 Y26.0681 
G01 X-51.2892 Y26.0485 
G01 X-51.3001 Y26.0199 
G01 X-51.3081 Y25.9900 
G01 X-51.3181 Y25.9728 
G01 X-51.3249 Y25.9548 
G01 X-51.3426 Y25.9303 
G01 X-51.3583 Y25.9031 
G01 X-51.3724 Y25.8891 
G01 X-52.3192 Y24.5769 
G01 X-52.3192 Y13.3236 
G01 X-52.1889 Y13.2696 
G01 X-52.0423 Y13.1717 
G01 X-51.9176 Y13.0470 
G01 X-51.8197 Y12.9004 
G01 X-51.7522 Y12.7375 
G01 X-51.7178 Y12.5646 
G01 X-51.7178 Y12.3881 
G01 X-51.7522 Y12.2152 
G01 X-51.8197 Y12.0523 
G01 X-51.9176 Y11.9057 
G01 X-52.0423 Y11.7810 
G01 X-52.1889 Y11.6831 
G01 X-52.3518 Y11.6156 
G01 X-52.5247 Y11.5812 
G01 X-52.7012 Y11.5812 
G01 X-52.8741 Y11.6156 
G01 X-53.0370 Y11.6831 
G01 X-53.1836 Y11.7810 
G01 X-53.3083 Y11.9057 
G01 X-53.4062 Y12.0523 
G01 X-53.4737 Y12.2152 
G01 X-53.5081 Y12.3881 
G01 X-53.5081 Y12.5646 
G01 X-53.4737 Y12.7375 
G01 X-53.4062 Y12.9004 
G01 X-53.3083 Y13.0470 
G01 X-53.1836 Y13.1717 
G01 X-53.0807 Y13.2404 
G01 X-53.0807 Y24.6695 
G01 X-53.0838 Y24.6886 
G01 X-53.0807 Y24.7192 
G01 X-53.0807 Y24.7501 
G01 X-53.0757 Y24.7688 
G01 X-53.0737 Y24.7884 
G01 X-53.0628 Y24.8170 
G01 X-53.0548 Y24.8469 
G01 X-53.0448 Y24.8641 
G01 X-53.0380 Y24.8821 
G01 X-53.0203 Y24.9066 
G01 X-53.0046 Y24.9338 
G01 X-52.9905 Y24.9478 
G01 X-52.0437 Y26.2600 
G01 X-52.0437 Y26.3156 
G01 X-52.0724 Y26.3249 
G01 X-52.2220 Y26.4011 
G01 X-52.3578 Y26.4998 
G01 X-52.4765 Y26.6185 
G01 X-52.5752 Y26.7543 
G01 X-52.6514 Y26.9039 
G01 X-52.7032 Y27.0636 
G01 X-52.7295 Y27.2294 
G00 Z2.0000 
G00 X-61.2315 Y27.2294 
G01 Z-0.2000 F600.00 
G01 X-61.2315 Y29.3785 
G01 X-61.2052 Y29.5443 
G01 X-61.1534 Y29.7040 
G01 X-61.0772 Y29.8536 
G01 X-60.9785 Y29.9894 
G01 X-60.8598 Y30.1081 
G01 X-60.7240 Y30.2068 
G01 X-60.5744 Y30.2830 
G01 X-60.4147 Y30.3348 
G01 X-60.2489 Y30.3611 
G01 X-60.0810 Y30.3611 
G01 X-59.9152 Y30.3348 
G01 X-59.7555 Y30.2830 
G01 X-59.6059 Y30.2068 
G01 X-59.4701 Y30.1081 
G01 X-59.3797 Y30.0176 
G01 X-58.2166 Y31.5129 
G01 X-58.2046 Y31.5338 
G01 X-58.1858 Y31.5525 
G01 X-58.1697 Y31.5733 
G01 X-58.1507 Y31.5876 
G01 X-58.1338 Y31.6046 
G01 X-58.1108 Y31.6178 
G01 X-58.0898 Y31.6338 
G01 X-58.0677 Y31.6427 
G01 X-58.0469 Y31.6548 
G01 X-58.0211 Y31.6616 
G01 X-57.9970 Y31.6715 
G01 X-57.9734 Y31.6744 
G01 X-57.9501 Y31.6807 
G01 X-57.9237 Y31.6807 
G01 X-57.8974 Y31.6840 
G01 X-57.8737 Y31.6807 
G01 X-55.2272 Y31.6807 
G01 X-55.2042 Y31.6840 
G01 X-55.1768 Y31.6807 
G01 X-55.1498 Y31.6807 
G01 X-55.1277 Y31.6747 
G01 X-55.1046 Y31.6720 
G01 X-55.0794 Y31.6618 
G01 X-55.0530 Y31.6548 
G01 X-55.0328 Y31.6431 
G01 X-55.0116 Y31.6346 
G01 X-54.9901 Y31.6184 
G01 X-54.9661 Y31.6046 
G01 X-54.9496 Y31.5881 
G01 X-53.7898 Y30.7182 
G01 X-53.7661 Y30.7046 
G01 X-53.7498 Y30.6883 
G01 X-53.7314 Y30.6745 
G01 X-53.7147 Y30.6531 
G01 X-53.6953 Y30.6338 
G01 X-53.6837 Y30.6136 
G01 X-53.6695 Y30.5956 
G01 X-53.6589 Y30.5706 
G01 X-53.6451 Y30.5469 
G01 X-53.6392 Y30.5246 
G01 X-53.6301 Y30.5035 
G01 X-53.6263 Y30.4762 
G01 X-53.6192 Y30.4501 
G01 X-53.6192 Y30.4272 
G01 X-53.6159 Y30.4042 
G01 X-53.6192 Y30.3768 
G01 X-53.6192 Y11.8751 
G01 X-52.3791 Y10.8120 
G01 X-52.3661 Y10.8046 
G01 X-52.3408 Y10.7792 
G01 X-52.3141 Y10.7564 
G01 X-52.3059 Y10.7443 
G01 X-52.2953 Y10.7338 
G01 X-52.2773 Y10.7025 
G01 X-52.2575 Y10.6737 
G01 X-52.2527 Y10.6600 
G01 X-52.2451 Y10.6469 
G01 X-52.2358 Y10.6120 
G01 X-52.2242 Y10.5792 
G01 X-52.2231 Y10.5645 
G01 X-52.2192 Y10.5501 
G01 X-52.2192 Y10.5142 
G01 X-52.2165 Y10.4791 
G01 X-52.2192 Y10.4647 
G01 X-52.2192 Y5.8807 
G01 X-27.7633 Y5.8807 
G01 X-24.4104 Y9.4055 
G01 X-24.4378 Y9.5433 
G01 X-24.4378 Y9.7198 
G01 X-24.4034 Y9.8927 
G01 X-24.3359 Y10.0556 
G01 X-24.2380 Y10.2022 
G01 X-24.1133 Y10.3269 
G01 X-23.9667 Y10.4248 
G01 X-23.8038 Y10.4923 
G01 X-23.6309 Y10.5267 
G01 X-23.4544 Y10.5267 
G01 X-23.2815 Y10.4923 
G01 X-23.1186 Y10.4248 
G01 X-22.9720 Y10.3269 
G01 X-22.8473 Y10.2022 
G01 X-22.7494 Y10.0556 
G01 X-22.6819 Y9.8927 
G01 X-22.6475 Y9.7198 
G01 X-22.6475 Y9.5433 
G01 X-22.6819 Y9.3704 
G01 X-22.7494 Y9.2075 
G01 X-22.8473 Y9.0609 
G01 X-22.9720 Y8.9362 
G01 X-23.1186 Y8.8383 
G01 X-23.2815 Y8.7708 
G01 X-23.4544 Y8.7364 
G01 X-23.6309 Y8.7364 
G01 X-23.8038 Y8.7708 
G01 X-23.9181 Y8.8182 
G01 X-27.2930 Y5.2702 
G01 X-27.2953 Y5.2661 
G01 X-27.3264 Y5.2351 
G01 X-27.3586 Y5.2012 
G01 X-27.3629 Y5.1986 
G01 X-27.3661 Y5.1953 
G01 X-27.4034 Y5.1738 
G01 X-27.4441 Y5.1489 
G01 X-27.4490 Y5.1475 
G01 X-27.4530 Y5.1451 
G01 X-27.4959 Y5.1337 
G01 X-27.5403 Y5.1206 
G01 X-27.5452 Y5.1205 
G01 X-27.5498 Y5.1192 
G01 X-27.5949 Y5.1192 
G01 X-27.6406 Y5.1181 
G01 X-27.6453 Y5.1192 
G01 X-52.5498 Y5.1192 
G01 X-52.6501 Y5.1192 
G01 X-52.7469 Y5.1451 
G01 X-52.8338 Y5.1953 
G01 X-52.9046 Y5.2661 
G01 X-52.9548 Y5.3530 
G01 X-52.9807 Y5.4498 
G01 X-52.9807 Y10.3248 
G01 X-54.2208 Y11.3878 
G01 X-54.2338 Y11.3953 
G01 X-54.2592 Y11.4207 
G01 X-54.2858 Y11.4435 
G01 X-54.2940 Y11.4556 
G01 X-54.3046 Y11.4661 
G01 X-54.3226 Y11.4974 
G01 X-54.3424 Y11.5262 
G01 X-54.3472 Y11.5399 
G01 X-54.3548 Y11.5530 
G01 X-54.3641 Y11.5879 
G01 X-54.3757 Y11.6207 
G01 X-54.3768 Y11.6354 
G01 X-54.3807 Y11.6498 
G01 X-54.3807 Y11.6857 
G01 X-54.3834 Y11.7208 
G01 X-54.3807 Y11.7352 
G01 X-54.3807 Y30.2096 
G01 X-55.3268 Y30.9192 
G01 X-57.7137 Y30.9192 
G01 X-59.0984 Y29.1389 
G01 X-59.0984 Y27.2294 
G01 X-59.1247 Y27.0636 
G01 X-59.1765 Y26.9039 
G01 X-59.2527 Y26.7543 
G01 X-59.3514 Y26.6185 
G01 X-59.4701 Y26.4998 
G01 X-59.6059 Y26.4011 
G01 X-59.7555 Y26.3249 
G01 X-59.9152 Y26.2731 
G01 X-60.0810 Y26.2468 
G01 X-60.2489 Y26.2468 
G01 X-60.4147 Y26.2731 
G01 X-60.5744 Y26.3249 
G01 X-60.7240 Y26.4011 
G01 X-60.8598 Y26.4998 
G01 X-60.9785 Y26.6185 
G01 X-61.0772 Y26.7543 
G01 X-61.1534 Y26.9039 
G01 X-61.2052 Y27.0636 
G01 X-61.2315 Y27.2294 
G00 Z2.0000 
G00 X-73.9845 Y27.2294 
G01 Z-0.2000 F600.00 
G01 X-73.9845 Y29.3785 
G01 X-73.9582 Y29.5443 
G01 X-73.9064 Y29.7040 
G01 X-73.8302 Y29.8536 
G01 X-73.7315 Y29.9894 
G01 X-73.6128 Y30.1081 
G01 X-73.4770 Y30.2068 
G01 X-73.3274 Y30.2830 
G01 X-73.1677 Y30.3348 
G01 X-73.0019 Y30.3611 
G01 X-72.8340 Y30.3611 
G01 X-72.6682 Y30.3348 
G01 X-72.5085 Y30.2830 
G01 X-72.3589 Y30.2068 
G01 X-72.2371 Y30.1182 
G01 X-70.5182 Y32.4101 
G01 X-70.5046 Y32.4338 
G01 X-70.4883 Y32.4500 
G01 X-70.4745 Y32.4685 
G01 X-70.4531 Y32.4852 
G01 X-70.4338 Y32.5046 
G01 X-70.4136 Y32.5162 
G01 X-70.3956 Y32.5304 
G01 X-70.3706 Y32.5410 
G01 X-70.3469 Y32.5548 
G01 X-70.3246 Y32.5607 
G01 X-70.3035 Y32.5698 
G01 X-70.2762 Y32.5736 
G01 X-70.2501 Y32.5807 
G01 X-70.2272 Y32.5807 
G01 X-70.2042 Y32.5840 
G01 X-70.1768 Y32.5807 
G01 X-51.6174 Y32.5807 
G01 X-51.5845 Y32.5837 
G01 X-51.5672 Y32.5807 
G01 X-51.5498 Y32.5807 
G01 X-51.5180 Y32.5721 
G01 X-51.4857 Y32.5666 
G01 X-51.4701 Y32.5593 
G01 X-51.4530 Y32.5548 
G01 X-51.4241 Y32.5380 
G01 X-51.3947 Y32.5245 
G01 X-51.3815 Y32.5134 
G01 X-51.3661 Y32.5046 
G01 X-51.3425 Y32.4810 
G01 X-49.5813 Y31.0133 
G01 X-49.5661 Y31.0046 
G01 X-49.5430 Y30.9814 
G01 X-49.5177 Y30.9604 
G01 X-49.5077 Y30.9461 
G01 X-49.4953 Y30.9338 
G01 X-49.4790 Y30.9054 
G01 X-49.4599 Y30.8785 
G01 X-49.4539 Y30.8620 
G01 X-49.4451 Y30.8469 
G01 X-49.4366 Y30.8151 
G01 X-49.4253 Y30.7844 
G01 X-49.4238 Y30.7669 
G01 X-49.4192 Y30.7501 
G01 X-49.4192 Y30.7175 
G01 X-49.4162 Y30.6845 
G01 X-49.4192 Y30.6672 
G01 X-49.4192 Y25.3363 
G01 X-49.4166 Y25.3229 
G01 X-49.4192 Y25.2862 
G01 X-49.4192 Y25.2498 
G01 X-49.4228 Y25.2367 
G01 X-49.4237 Y25.2228 
G01 X-49.4357 Y25.1883 
G01 X-49.4451 Y25.1530 
G01 X-49.4521 Y25.1410 
G01 X-49.4565 Y25.1281 
G01 X-49.4770 Y25.0979 
G01 X-49.4953 Y25.0661 
G01 X-49.5050 Y25.0565 
G01 X-49.5127 Y25.0450 
G01 X-49.5405 Y25.0210 
G01 X-49.5661 Y24.9953 
G01 X-49.5780 Y24.9885 
G01 X-50.9178 Y23.8273 
G01 X-50.8205 Y11.9589 
G01 X-49.5663 Y10.7047 
G01 X-49.5661 Y10.7046 
G01 X-49.4953 Y10.6338 
G01 X-49.4451 Y10.5469 
G01 X-49.4192 Y10.4501 
G01 X-49.4192 Y7.6807 
G01 X-34.6855 Y7.6807 
G01 X-33.0163 Y9.8135 
G01 X-33.0046 Y9.8338 
G01 X-32.9854 Y9.8529 
G01 X-32.9689 Y9.8741 
G01 X-32.9503 Y9.8881 
G01 X-32.9338 Y9.9046 
G01 X-32.9105 Y9.9180 
G01 X-32.8888 Y9.9344 
G01 X-32.8671 Y9.9431 
G01 X-32.8469 Y9.9548 
G01 X-32.8205 Y9.9618 
G01 X-32.7958 Y9.9718 
G01 X-32.7728 Y9.9746 
G01 X-32.7501 Y9.9807 
G01 X-32.7232 Y9.9807 
G01 X-32.6962 Y9.9840 
G01 X-32.6730 Y9.9807 
G01 X-32.6727 Y9.9807 
G01 X-32.6417 Y10.0556 
G01 X-32.5438 Y10.2022 
G01 X-32.4191 Y10.3269 
G01 X-32.2725 Y10.4248 
G01 X-32.1096 Y10.4923 
G01 X-31.9367 Y10.5267 
G01 X-31.7602 Y10.5267 
G01 X-31.5873 Y10.4923 
G01 X-31.4244 Y10.4248 
G01 X-31.2778 Y10.3269 
G01 X-31.1531 Y10.2022 
G01 X-31.0552 Y10.0556 
G01 X-30.9877 Y9.8927 
G01 X-30.9533 Y9.7198 
G01 X-30.9533 Y9.5433 
G01 X-30.9877 Y9.3704 
G01 X-31.0552 Y9.2075 
G01 X-31.1531 Y9.0609 
G01 X-31.2778 Y8.9362 
G01 X-31.4244 Y8.8383 
G01 X-31.5873 Y8.7708 
G01 X-31.7602 Y8.7364 
G01 X-31.9367 Y8.7364 
G01 X-32.1096 Y8.7708 
G01 X-32.2725 Y8.8383 
G01 X-32.4191 Y8.9362 
G01 X-32.5438 Y9.0609 
G01 X-32.5873 Y9.1261 
G01 X-34.1836 Y7.0864 
G01 X-34.1953 Y7.0661 
G01 X-34.2145 Y7.0470 
G01 X-34.2310 Y7.0258 
G01 X-34.2496 Y7.0118 
G01 X-34.2661 Y6.9953 
G01 X-34.2894 Y6.9819 
G01 X-34.3111 Y6.9655 
G01 X-34.3328 Y6.9568 
G01 X-34.3530 Y6.9451 
G01 X-34.3794 Y6.9381 
G01 X-34.4041 Y6.9281 
G01 X-34.4271 Y6.9253 
G01 X-34.4498 Y6.9192 
G01 X-34.4767 Y6.9192 
G01 X-34.5037 Y6.9159 
G01 X-34.5269 Y6.9192 
G01 X-49.7498 Y6.9192 
G01 X-49.8501 Y6.9192 
G01 X-49.9469 Y6.9451 
G01 X-50.0338 Y6.9953 
G01 X-50.1046 Y7.0661 
G01 X-50.1548 Y7.1530 
G01 X-50.1807 Y7.2498 
G01 X-50.1807 Y10.2423 
G01 X-51.4701 Y11.5317 
G01 X-51.5027 Y11.5637 
G01 X-51.5034 Y11.5650 
G01 X-51.5046 Y11.5661 
G01 X-51.5319 Y11.6135 
G01 X-51.5535 Y11.6501 
G01 X-51.5538 Y11.6514 
G01 X-51.5548 Y11.6530 
G01 X-51.5681 Y11.7031 
G01 X-51.5803 Y11.7467 
G01 X-51.5803 Y11.7484 
G01 X-51.5807 Y11.7498 
G01 X-51.5807 Y11.7954 
G01 X-51.6804 Y23.9620 
G01 X-51.6833 Y23.9770 
G01 X-51.6808 Y24.0121 
G01 X-51.6811 Y24.0470 
G01 X-51.6773 Y24.0616 
G01 X-51.6762 Y24.0771 
G01 X-51.6645 Y24.1108 
G01 X-51.6559 Y24.1440 
G01 X-51.6485 Y24.1570 
G01 X-51.6434 Y24.1718 
G01 X-51.6236 Y24.2010 
G01 X-51.6065 Y24.2313 
G01 X-51.5958 Y24.2421 
G01 X-51.5872 Y24.2549 
G01 X-51.5603 Y24.2781 
G01 X-51.5362 Y24.3027 
G01 X-51.5232 Y24.3102 
G01 X-50.1807 Y25.4738 
G01 X-50.1807 Y30.5217 
G01 X-51.7378 Y31.8192 
G01 X-70.0096 Y31.8192 
G01 X-71.8514 Y29.3635 
G01 X-71.8514 Y27.2294 
G01 X-71.8777 Y27.0636 
G01 X-71.9295 Y26.9039 
G01 X-72.0057 Y26.7543 
G01 X-72.1044 Y26.6185 
G01 X-72.2231 Y26.4998 
G01 X-72.3589 Y26.4011 
G01 X-72.5085 Y26.3249 
G01 X-72.6682 Y26.2731 
G01 X-72.8340 Y26.2468 
G01 X-73.0019 Y26.2468 
G01 X-73.1677 Y26.2731 
G01 X-73.3274 Y26.3249 
G01 X-73.4770 Y26.4011 
G01 X-73.6128 Y26.4998 
G01 X-73.7315 Y26.6185 
G01 X-73.8302 Y26.7543 
G01 X-73.9064 Y26.9039 
G01 X-73.9582 Y27.0636 
G01 X-73.9845 Y27.2294 
G00 Z2.0000 
G00 X-78.2355 Y29.3785 
G01 Z-0.2000 F600.00 
G01 X-78.2092 Y29.5443 
G01 X-78.1574 Y29.7040 
G01 X-78.0812 Y29.8536 
G01 X-77.9825 Y29.9894 
G01 X-77.8638 Y30.1081 
G01 X-77.7280 Y30.2068 
G01 X-77.5784 Y30.2830 
G01 X-77.4187 Y30.3348 
G01 X-77.2529 Y30.3611 
G01 X-77.0850 Y30.3611 
G01 X-76.9192 Y30.3348 
G01 X-76.7595 Y30.2830 
G01 X-76.6099 Y30.2068 
G01 X-76.4741 Y30.1081 
G01 X-76.3554 Y29.9894 
G01 X-76.2567 Y29.8536 
G01 X-76.1805 Y29.7040 
G01 X-76.1287 Y29.5443 
G01 X-76.1024 Y29.3785 
G01 X-76.1024 Y27.2294 
G01 X-76.1287 Y27.0636 
G01 X-76.1805 Y26.9039 
G01 X-76.2567 Y26.7543 
G01 X-76.3554 Y26.6185 
G01 X-76.4741 Y26.4998 
G01 X-76.6099 Y26.4011 
G01 X-76.7595 Y26.3249 
G01 X-76.9192 Y26.2731 
G01 X-77.0850 Y26.2468 
G01 X-77.2529 Y26.2468 
G01 X-77.4187 Y26.2731 
G01 X-77.5784 Y26.3249 
G01 X-77.7280 Y26.4011 
G01 X-77.8638 Y26.4998 
G01 X-77.9825 Y26.6185 
G01 X-78.0526 Y26.7151 
G01 X-80.6789 Y22.9946 
G01 X-80.6953 Y22.9661 
G01 X-80.7078 Y22.9537 
G01 X-80.7178 Y22.9394 
G01 X-80.7429 Y22.9186 
G01 X-80.7661 Y22.8953 
G01 X-80.7814 Y22.8865 
G01 X-80.7948 Y22.8753 
G01 X-80.8243 Y22.8617 
G01 X-80.8530 Y22.8451 
G01 X-80.8702 Y22.8405 
G01 X-80.8858 Y22.8333 
G01 X-80.9179 Y22.8278 
G01 X-80.9498 Y22.8192 
G01 X-80.9673 Y22.8192 
G01 X-80.9846 Y22.8162 
G01 X-81.0176 Y22.8192 
G01 X-93.5880 Y22.8192 
G01 X-93.6255 Y22.8168 
G01 X-93.6375 Y22.8192 
G01 X-93.6501 Y22.8192 
G01 X-93.6868 Y22.8291 
G01 X-93.7238 Y22.8364 
G01 X-93.7348 Y22.8419 
G01 X-93.7469 Y22.8451 
G01 X-93.7799 Y22.8642 
G01 X-93.8137 Y22.8809 
G01 X-93.8229 Y22.8891 
G01 X-93.8338 Y22.8953 
G01 X-93.8603 Y22.9219 
G01 X-93.8890 Y22.9470 
G01 X-93.8960 Y22.9575 
G01 X-93.9046 Y22.9661 
G01 X-93.9232 Y22.9984 
G01 X-96.2960 Y26.5575 
G01 X-96.3046 Y26.5661 
G01 X-96.3232 Y26.5983 
G01 X-96.3446 Y26.6304 
G01 X-96.3486 Y26.6424 
G01 X-96.3548 Y26.6530 
G01 X-96.3645 Y26.6895 
G01 X-96.3767 Y26.7254 
G01 X-96.3775 Y26.7379 
G01 X-96.3807 Y26.7498 
G01 X-96.3807 Y26.7879 
G01 X-96.3831 Y26.8255 
G01 X-96.3807 Y26.8375 
G01 X-96.3807 Y29.7752 
G01 X-96.3840 Y29.8005 
G01 X-96.3807 Y29.8253 
G01 X-96.3807 Y29.8501 
G01 X-96.3741 Y29.8745 
G01 X-96.3708 Y29.8998 
G01 X-96.3612 Y29.9227 
G01 X-96.3548 Y29.9469 
G01 X-96.3420 Y29.9690 
G01 X-96.3323 Y29.9924 
G01 X-96.3171 Y30.0121 
G01 X-96.3046 Y30.0338 
G01 X-96.2866 Y30.0517 
G01 X-90.3171 Y37.8120 
G01 X-90.3046 Y37.8338 
G01 X-90.2865 Y37.8518 
G01 X-90.2712 Y37.8718 
G01 X-90.2515 Y37.8869 
G01 X-90.2338 Y37.9046 
G01 X-90.2118 Y37.9172 
G01 X-90.1916 Y37.9328 
G01 X-90.1685 Y37.9423 
G01 X-90.1469 Y37.9548 
G01 X-90.1221 Y37.9614 
G01 X-90.0989 Y37.9710 
G01 X-90.0743 Y37.9742 
G01 X-90.0501 Y37.9807 
G01 X-90.0247 Y37.9807 
G01 X-89.9994 Y37.9840 
G01 X-89.9746 Y37.9807 
G01 X-30.3299 Y37.9807 
G01 X-30.3096 Y37.9839 
G01 X-30.2795 Y37.9807 
G01 X-30.2498 Y37.9807 
G01 X-30.2303 Y37.9754 
G01 X-30.2098 Y37.9733 
G01 X-30.1820 Y37.9625 
G01 X-30.1530 Y37.9548 
G01 X-30.1351 Y37.9444 
G01 X-30.1163 Y37.9372 
G01 X-30.0923 Y37.9197 
G01 X-30.0661 Y37.9046 
G01 X-30.0517 Y37.8902 
G01 X-30.0352 Y37.8782 
G01 X-30.0163 Y37.8548 
G01 X-29.9953 Y37.8338 
G01 X-29.9852 Y37.8162 
G01 X-23.7163 Y30.0548 
G01 X-23.6953 Y30.0338 
G01 X-23.6852 Y30.0162 
G01 X-23.6722 Y30.0002 
G01 X-23.6601 Y29.9727 
G01 X-23.6451 Y29.9469 
G01 X-23.6398 Y29.9271 
G01 X-23.6316 Y29.9086 
G01 X-23.6270 Y29.8790 
G01 X-23.6192 Y29.8501 
G01 X-23.6192 Y29.8299 
G01 X-23.6160 Y29.8096 
G01 X-23.6192 Y29.7794 
G01 X-23.6192 Y26.8052 
G01 X-23.6185 Y26.7551 
G01 X-23.6192 Y26.7524 
G01 X-23.6192 Y26.7498 
G01 X-23.6311 Y26.7055 
G01 X-23.6431 Y26.6579 
G01 X-23.6445 Y26.6556 
G01 X-23.6451 Y26.6530 
G01 X-23.6678 Y26.6137 
G01 X-23.6920 Y26.5704 
G01 X-23.6940 Y26.5684 
G01 X-23.6953 Y26.5661 
G01 X-23.7274 Y26.5340 
G01 X-34.2192 Y15.7454 
G01 X-34.2192 Y10.4356 
G01 X-34.1930 Y10.4248 
G01 X-34.0464 Y10.3269 
G01 X-33.9217 Y10.2022 
G01 X-33.8238 Y10.0556 
G01 X-33.7563 Y9.8927 
G01 X-33.7219 Y9.7198 
G01 X-33.7219 Y9.5433 
G01 X-33.7563 Y9.3704 
G01 X-33.8238 Y9.2075 
G01 X-33.9217 Y9.0609 
G01 X-34.0464 Y8.9362 
G01 X-34.1930 Y8.8383 
G01 X-34.3559 Y8.7708 
G01 X-34.5288 Y8.7364 
G01 X-34.7053 Y8.7364 
G01 X-34.8782 Y8.7708 
G01 X-35.0411 Y8.8383 
G01 X-35.1877 Y8.9362 
G01 X-35.3124 Y9.0609 
G01 X-35.4103 Y9.2075 
G01 X-35.4778 Y9.3704 
G01 X-35.5122 Y9.5433 
G01 X-35.5122 Y9.7198 
G01 X-35.4778 Y9.8927 
G01 X-35.4103 Y10.0556 
G01 X-35.3124 Y10.2022 
G01 X-35.1877 Y10.3269 
G01 X-35.0411 Y10.4248 
G01 X-34.9807 Y10.4498 
G01 X-34.9807 Y15.8946 
G01 X-34.9814 Y15.9448 
G01 X-34.9807 Y15.9475 
G01 X-34.9807 Y15.9501 
G01 X-34.9688 Y15.9943 
G01 X-34.9568 Y16.0420 
G01 X-34.9554 Y16.0443 
G01 X-34.9548 Y16.0469 
G01 X-34.9321 Y16.0860 
G01 X-34.9079 Y16.1295 
G01 X-34.9058 Y16.1315 
G01 X-34.9046 Y16.1338 
G01 X-34.8726 Y16.1657 
G01 X-24.3807 Y26.9545 
G01 X-24.3807 Y29.6654 
G01 X-30.4819 Y37.2192 
G01 X-89.8125 Y37.2192 
G01 X-95.6192 Y29.6705 
G01 X-95.6192 Y26.9153 
G01 X-93.3961 Y23.5807 
G01 X-81.1972 Y23.5807 
G01 X-78.2355 Y27.7765 
G01 X-78.2355 Y29.3785 
G00 Z2.0000 
G00 X-90.9885 Y27.2294 
G01 Z-0.2000 F600.00 
G01 X-90.9885 Y29.3785 
G01 X-90.9622 Y29.5443 
G01 X-90.9104 Y29.7040 
G01 X-90.8342 Y29.8536 
G01 X-90.7355 Y29.9894 
G01 X-90.6168 Y30.1081 
G01 X-90.4810 Y30.2068 
G01 X-90.3314 Y30.2830 
G01 X-90.1717 Y30.3348 
G01 X-90.0059 Y30.3611 
G01 X-89.8380 Y30.3611 
G01 X-89.6722 Y30.3348 
G01 X-89.5125 Y30.2830 
G01 X-89.3629 Y30.2068 
G01 X-89.2271 Y30.1081 
G01 X-89.1084 Y29.9894 
G01 X-89.0097 Y29.8536 
G01 X-88.9335 Y29.7040 
G01 X-88.8817 Y29.5443 
G01 X-88.8554 Y29.3785 
G01 X-88.8554 Y27.6902 
G01 X-86.7921 Y24.4807 
G01 X-81.8038 Y24.4807 
G01 X-80.1807 Y26.9153 
G01 X-80.1807 Y28.5797 
G01 X-80.1839 Y28.6098 
G01 X-80.1807 Y28.6299 
G01 X-80.1807 Y28.6501 
G01 X-80.1728 Y28.6793 
G01 X-80.1682 Y28.7088 
G01 X-80.1601 Y28.7269 
G01 X-80.1548 Y28.7469 
G01 X-80.1394 Y28.7734 
G01 X-77.7601 Y34.1269 
G01 X-77.7548 Y34.1469 
G01 X-77.7395 Y34.1733 
G01 X-77.7275 Y34.2004 
G01 X-77.7148 Y34.2160 
G01 X-77.7046 Y34.2338 
G01 X-77.6834 Y34.2550 
G01 X-77.6645 Y34.2784 
G01 X-77.6480 Y34.2903 
G01 X-77.6338 Y34.3046 
G01 X-77.6075 Y34.3197 
G01 X-77.5834 Y34.3373 
G01 X-77.5647 Y34.3444 
G01 X-77.5469 Y34.3548 
G01 X-77.5175 Y34.3626 
G01 X-77.4899 Y34.3733 
G01 X-77.4697 Y34.3754 
G01 X-77.4501 Y34.3807 
G01 X-77.4203 Y34.3807 
G01 X-77.3901 Y34.3839 
G01 X-77.3700 Y34.3807 
G01 X-44.3498 Y34.3807 
G01 X-44.2530 Y34.3548 
G01 X-44.1661 Y34.3046 
G01 X-44.0953 Y34.2338 
G01 X-40.7953 Y30.9338 
G01 X-40.7451 Y30.8469 
G01 X-40.7192 Y30.7501 
G01 X-40.7192 Y30.6498 
G01 X-40.7192 Y26.8478 
G01 X-40.7187 Y26.8459 
G01 X-40.7192 Y26.8004 
G01 X-40.7192 Y26.7498 
G01 X-40.7198 Y26.7477 
G01 X-40.7198 Y26.7456 
G01 X-40.7318 Y26.7029 
G01 X-40.7451 Y26.6530 
G01 X-40.7463 Y26.6510 
G01 X-40.7468 Y26.6491 
G01 X-40.7695 Y26.6110 
G01 X-40.7953 Y26.5661 
G01 X-40.7969 Y26.5646 
G01 X-40.7979 Y26.5628 
G01 X-40.8301 Y26.5314 
G01 X-40.8661 Y26.4953 
G01 X-40.8681 Y26.4942 
G01 X-45.3192 Y22.1398 
G01 X-45.3192 Y11.4807 
G01 X-44.3498 Y11.4807 
G01 X-44.2530 Y11.4548 
G01 X-44.1661 Y11.4046 
G01 X-44.0953 Y11.3338 
G01 X-43.2334 Y10.4718 
G01 X-43.1840 Y10.4923 
G01 X-43.0111 Y10.5267 
G01 X-42.8346 Y10.5267 
G01 X-42.6617 Y10.4923 
G01 X-42.4988 Y10.4248 
G01 X-42.3522 Y10.3269 
G01 X-42.2275 Y10.2022 
G01 X-42.1296 Y10.0556 
G01 X-42.0621 Y9.8927 
G01 X-42.0277 Y9.7198 
G01 X-42.0277 Y9.5433 
G01 X-42.0621 Y9.3704 
G01 X-42.1296 Y9.2075 
G01 X-42.2275 Y9.0609 
G01 X-42.3522 Y8.9362 
G01 X-42.4988 Y8.8383 
G01 X-42.6617 Y8.7708 
G01 X-42.8346 Y8.7364 
G01 X-43.0111 Y8.7364 
G01 X-43.1840 Y8.7708 
G01 X-43.3469 Y8.8383 
G01 X-43.4935 Y8.9362 
G01 X-43.6182 Y9.0609 
G01 X-43.7161 Y9.2075 
G01 X-43.7836 Y9.3704 
G01 X-43.8180 Y9.5433 
G01 X-43.8180 Y9.7198 
G01 X-43.7836 Y9.8927 
G01 X-43.7682 Y9.9298 
G01 X-44.5577 Y10.7192 
G01 X-45.6498 Y10.7192 
G01 X-45.7501 Y10.7192 
G01 X-45.8469 Y10.7451 
G01 X-45.9338 Y10.7953 
G01 X-46.0046 Y10.8661 
G01 X-46.0548 Y10.9530 
G01 X-46.0807 Y11.0498 
G01 X-46.0807 Y22.2521 
G01 X-46.0812 Y22.2540 
G01 X-46.0807 Y22.2997 
G01 X-46.0807 Y22.3501 
G01 X-46.0801 Y22.3522 
G01 X-46.0801 Y22.3543 
G01 X-46.0681 Y22.3972 
G01 X-46.0548 Y22.4469 
G01 X-46.0536 Y22.4489 
G01 X-46.0531 Y22.4508 
G01 X-46.0303 Y22.4891 
G01 X-46.0046 Y22.5338 
G01 X-46.0030 Y22.5353 
G01 X-46.0020 Y22.5371 
G01 X-45.9697 Y22.5686 
G01 X-45.9338 Y22.6046 
G01 X-45.9318 Y22.6057 
G01 X-41.4807 Y26.9601 
G01 X-41.4807 Y30.5422 
G01 X-44.5577 Y33.6192 
G01 X-77.1526 Y33.6192 
G01 X-79.4192 Y28.5192 
G01 X-79.4192 Y26.8375 
G01 X-79.4168 Y26.8255 
G01 X-79.4192 Y26.7879 
G01 X-79.4192 Y26.7498 
G01 X-79.4224 Y26.7379 
G01 X-79.4232 Y26.7254 
G01 X-79.4354 Y26.6895 
G01 X-79.4451 Y26.6530 
G01 X-79.4513 Y26.6424 
G01 X-79.4553 Y26.6304 
G01 X-79.4767 Y26.5983 
G01 X-79.4953 Y26.5661 
G01 X-79.5039 Y26.5575 
G01 X-81.2767 Y23.8984 
G01 X-81.2953 Y23.8661 
G01 X-81.3039 Y23.8575 
G01 X-81.3109 Y23.8470 
G01 X-81.3396 Y23.8219 
G01 X-81.3661 Y23.7953 
G01 X-81.3770 Y23.7891 
G01 X-81.3862 Y23.7809 
G01 X-81.4200 Y23.7642 
G01 X-81.4530 Y23.7451 
G01 X-81.4651 Y23.7419 
G01 X-81.4761 Y23.7364 
G01 X-81.5131 Y23.7291 
G01 X-81.5498 Y23.7192 
G01 X-81.5624 Y23.7192 
G01 X-81.5744 Y23.7168 
G01 X-81.6119 Y23.7192 
G01 X-86.9901 Y23.7192 
G01 X-87.0319 Y23.7172 
G01 X-87.0411 Y23.7192 
G01 X-87.0501 Y23.7192 
G01 X-87.0892 Y23.7297 
G01 X-87.1298 Y23.7385 
G01 X-87.1379 Y23.7427 
G01 X-87.1469 Y23.7451 
G01 X-87.1826 Y23.7658 
G01 X-87.2190 Y23.7845 
G01 X-87.2257 Y23.7907 
G01 X-87.2338 Y23.7953 
G01 X-87.2632 Y23.8248 
G01 X-87.2931 Y23.8519 
G01 X-87.2979 Y23.8595 
G01 X-87.3046 Y23.8661 
G01 X-87.3256 Y23.9025 
G01 X-89.0889 Y26.6454 
G01 X-89.1084 Y26.6185 
G01 X-89.2271 Y26.4998 
G01 X-89.3629 Y26.4011 
G01 X-89.5125 Y26.3249 
G01 X-89.6722 Y26.2731 
G01 X-89.8380 Y26.2468 
G01 X-90.0059 Y26.2468 
G01 X-90.1717 Y26.2731 
G01 X-90.3314 Y26.3249 
G01 X-90.4810 Y26.4011 
G01 X-90.6168 Y26.4998 
G01 X-90.7355 Y26.6185 
G01 X-90.8342 Y26.7543 
G01 X-90.9104 Y26.9039 
G01 X-90.9622 Y27.0636 
G01 X-90.9885 Y27.2294 
G00 Z2.0000 
G00 X-95.2395 Y27.2294 
G01 Z-0.2000 F600.00 
G01 X-95.2395 Y29.3785 
G01 X-95.2132 Y29.5443 
G01 X-95.1614 Y29.7040 
G01 X-95.0852 Y29.8536 
G01 X-94.9865 Y29.9894 
G01 X-94.8678 Y30.1081 
G01 X-94.7320 Y30.2068 
G01 X-94.5824 Y30.2830 
G01 X-94.4227 Y30.3348 
G01 X-94.2569 Y30.3611 
G01 X-94.0890 Y30.3611 
G01 X-93.9232 Y30.3348 
G01 X-93.7635 Y30.2830 
G01 X-93.6139 Y30.2068 
G01 X-93.4781 Y30.1081 
G01 X-93.3594 Y29.9894 
G01 X-93.3315 Y29.9510 
G01 X-87.9166 Y36.9129 
G01 X-87.9046 Y36.9338 
G01 X-87.8858 Y36.9526 
G01 X-87.8697 Y36.9733 
G01 X-87.8507 Y36.9876 
G01 X-87.8338 Y37.0046 
G01 X-87.8108 Y37.0178 
G01 X-87.7898 Y37.0338 
G01 X-87.7677 Y37.0428 
G01 X-87.7469 Y37.0548 
G01 X-87.7211 Y37.0617 
G01 X-87.6970 Y37.0715 
G01 X-87.6734 Y37.0745 
G01 X-87.6501 Y37.0807 
G01 X-87.6237 Y37.0807 
G01 X-87.5974 Y37.0840 
G01 X-87.5737 Y37.0807 
G01 X-33.9316 Y37.0807 
G01 X-33.9138 Y37.0837 
G01 X-33.8822 Y37.0807 
G01 X-33.8498 Y37.0807 
G01 X-33.8320 Y37.0759 
G01 X-33.8139 Y37.0742 
G01 X-33.7844 Y37.0632 
G01 X-33.7530 Y37.0548 
G01 X-33.7369 Y37.0455 
G01 X-33.7200 Y37.0392 
G01 X-33.6941 Y37.0207 
G01 X-33.6661 Y37.0046 
G01 X-33.6532 Y36.9917 
G01 X-33.6383 Y36.9811 
G01 X-33.6179 Y36.9564 
G01 X-33.5953 Y36.9338 
G01 X-33.5862 Y36.9180 
G01 X-27.9182 Y30.0567 
G01 X-27.8953 Y30.0338 
G01 X-27.8861 Y30.0177 
G01 X-27.8745 Y30.0038 
G01 X-27.8613 Y29.9749 
G01 X-27.8451 Y29.9469 
G01 X-27.8403 Y29.9290 
G01 X-27.8328 Y29.9126 
G01 X-27.8275 Y29.8812 
G01 X-27.8192 Y29.8501 
G01 X-27.8192 Y29.8316 
G01 X-27.8162 Y29.8138 
G01 X-27.8192 Y29.7822 
G01 X-27.8192 Y26.7994 
G01 X-27.8187 Y26.7539 
G01 X-27.8192 Y26.7520 
G01 X-27.8192 Y26.7498 
G01 X-27.8325 Y26.7002 
G01 X-27.8436 Y26.6568 
G01 X-27.8445 Y26.6552 
G01 X-27.8451 Y26.6530 
G01 X-27.8702 Y26.6096 
G01 X-27.8928 Y26.5694 
G01 X-27.8943 Y26.5680 
G01 X-27.8953 Y26.5661 
G01 X-27.9297 Y26.5317 
G01 X-37.0192 Y17.2447 
G01 X-37.0192 Y11.8751 
G01 X-35.7791 Y10.8121 
G01 X-35.7661 Y10.8046 
G01 X-35.7407 Y10.7792 
G01 X-35.7141 Y10.7564 
G01 X-35.7059 Y10.7443 
G01 X-35.6953 Y10.7338 
G01 X-35.6773 Y10.7026 
G01 X-35.6575 Y10.6737 
G01 X-35.6527 Y10.6600 
G01 X-35.6451 Y10.6469 
G01 X-35.6358 Y10.6120 
G01 X-35.6242 Y10.5792 
G01 X-35.6231 Y10.5645 
G01 X-35.6192 Y10.5501 
G01 X-35.6192 Y10.5142 
G01 X-35.6165 Y10.4791 
G01 X-35.6192 Y10.4647 
G01 X-35.6192 Y8.1498 
G01 X-35.6451 Y8.0530 
G01 X-35.6953 Y7.9661 
G01 X-35.7661 Y7.8953 
G01 X-35.8530 Y7.8451 
G01 X-35.9498 Y7.8192 
G01 X-36.0501 Y7.8192 
G01 X-44.7501 Y7.8192 
G01 X-44.8469 Y7.8451 
G01 X-44.9338 Y7.8953 
G01 X-45.0046 Y7.9661 
G01 X-45.0548 Y8.0530 
G01 X-45.0807 Y8.1498 
G01 X-45.0807 Y8.2501 
G01 X-45.0807 Y8.9764 
G01 X-45.1208 Y8.9362 
G01 X-45.2674 Y8.8383 
G01 X-45.4303 Y8.7708 
G01 X-45.6032 Y8.7364 
G01 X-45.7797 Y8.7364 
G01 X-45.9526 Y8.7708 
G01 X-46.1155 Y8.8383 
G01 X-46.2621 Y8.9362 
G01 X-46.3868 Y9.0609 
G01 X-46.4847 Y9.2075 
G01 X-46.5522 Y9.3704 
G01 X-46.5866 Y9.5433 
G01 X-46.5866 Y9.7198 
G01 X-46.5522 Y9.8927 
G01 X-46.4847 Y10.0556 
G01 X-46.3868 Y10.2022 
G01 X-46.2621 Y10.3269 
G01 X-46.1155 Y10.4248 
G01 X-45.9526 Y10.4923 
G01 X-45.7797 Y10.5267 
G01 X-45.6032 Y10.5267 
G01 X-45.4303 Y10.4923 
G01 X-45.2674 Y10.4248 
G01 X-45.1208 Y10.3269 
G01 X-44.9961 Y10.2022 
G01 X-44.8982 Y10.0556 
G01 X-44.8672 Y9.9807 
G01 X-44.7501 Y9.9807 
G01 X-44.6498 Y9.9807 
G01 X-44.5530 Y9.9548 
G01 X-44.4661 Y9.9046 
G01 X-44.3953 Y9.8338 
G01 X-44.3451 Y9.7469 
G01 X-44.3192 Y9.6501 
G01 X-44.3192 Y8.5807 
G01 X-36.3807 Y8.5807 
G01 X-36.3807 Y10.3248 
G01 X-37.6208 Y11.3878 
G01 X-37.6338 Y11.3953 
G01 X-37.6592 Y11.4207 
G01 X-37.6858 Y11.4435 
G01 X-37.6940 Y11.4556 
G01 X-37.7046 Y11.4661 
G01 X-37.7226 Y11.4974 
G01 X-37.7424 Y11.5262 
G01 X-37.7472 Y11.5399 
G01 X-37.7548 Y11.5530 
G01 X-37.7641 Y11.5879 
G01 X-37.7757 Y11.6207 
G01 X-37.7768 Y11.6354 
G01 X-37.7807 Y11.6498 
G01 X-37.7807 Y11.6857 
G01 X-37.7834 Y11.7208 
G01 X-37.7807 Y11.7352 
G01 X-37.7807 Y17.4003 
G01 X-37.7812 Y17.4460 
G01 X-37.7807 Y17.4479 
G01 X-37.7807 Y17.4501 
G01 X-37.7674 Y17.4995 
G01 X-37.7563 Y17.5431 
G01 X-37.7554 Y17.5447 
G01 X-37.7548 Y17.5469 
G01 X-37.7298 Y17.5901 
G01 X-37.7071 Y17.6305 
G01 X-37.7056 Y17.6320 
G01 X-37.7046 Y17.6338 
G01 X-37.6703 Y17.6680 
G01 X-28.5807 Y26.9552 
G01 X-28.5807 Y29.6630 
G01 X-34.0792 Y36.3192 
G01 X-87.4137 Y36.3192 
G01 X-93.1064 Y29.0001 
G01 X-93.1064 Y27.2294 
G01 X-93.1327 Y27.0636 
G01 X-93.1845 Y26.9039 
G01 X-93.2607 Y26.7543 
G01 X-93.3594 Y26.6185 
G01 X-93.4781 Y26.4998 
G01 X-93.6139 Y26.4011 
G01 X-93.7635 Y26.3249 
G01 X-93.9232 Y26.2731 
G01 X-94.0890 Y26.2468 
G01 X-94.2569 Y26.2468 
G01 X-94.4227 Y26.2731 
G01 X-94.5824 Y26.3249 
G01 X-94.7320 Y26.4011 
G01 X-94.8678 Y26.4998 
G01 X-94.9865 Y26.6185 
G01 X-95.0852 Y26.7543 
G01 X-95.1614 Y26.9039 
G01 X-95.2132 Y27.0636 
G01 X-95.2395 Y27.2294 
G00 Z2.0000 
G00 X-99.4905 Y27.2294 
G01 Z-0.2000 F600.00 
G01 X-99.4905 Y29.3785 
G01 X-99.4642 Y29.5443 
G01 X-99.4124 Y29.7040 
G01 X-99.3362 Y29.8536 
G01 X-99.2375 Y29.9894 
G01 X-99.1188 Y30.1081 
G01 X-98.9830 Y30.2068 
G01 X-98.8334 Y30.2830 
G01 X-98.6737 Y30.3348 
G01 X-98.5079 Y30.3611 
G01 X-98.3400 Y30.3611 
G01 X-98.1742 Y30.3348 
G01 X-98.0145 Y30.2830 
G01 X-97.8649 Y30.2068 
G01 X-97.7291 Y30.1081 
G01 X-97.6104 Y29.9894 
G01 X-97.5117 Y29.8536 
G01 X-97.4355 Y29.7040 
G01 X-97.3837 Y29.5443 
G01 X-97.3574 Y29.3785 
G01 X-97.3574 Y27.4745 
G01 X-94.0017 Y22.6807 
G01 X-78.5155 Y22.6807 
G01 X-75.9807 Y26.9054 
G01 X-75.9807 Y28.5707 
G01 X-75.9839 Y28.5915 
G01 X-75.9807 Y28.6208 
G01 X-75.9807 Y28.6501 
G01 X-75.9753 Y28.6703 
G01 X-75.9730 Y28.6913 
G01 X-75.9624 Y28.7184 
G01 X-75.9548 Y28.7469 
G01 X-75.9441 Y28.7653 
G01 X-75.9366 Y28.7847 
G01 X-75.9194 Y28.8080 
G01 X-75.9046 Y28.8338 
G01 X-75.8895 Y28.8488 
G01 X-72.6192 Y33.3084 
G01 X-72.6046 Y33.3338 
G01 X-72.5897 Y33.3486 
G01 X-72.5774 Y33.3655 
G01 X-72.5545 Y33.3838 
G01 X-72.5338 Y33.4046 
G01 X-72.5156 Y33.4150 
G01 X-72.4992 Y33.4283 
G01 X-72.4722 Y33.4401 
G01 X-72.4469 Y33.4548 
G01 X-72.4267 Y33.4602 
G01 X-72.4074 Y33.4687 
G01 X-72.3781 Y33.4731 
G01 X-72.3501 Y33.4807 
G01 X-72.3292 Y33.4807 
G01 X-72.3084 Y33.4839 
G01 X-72.2791 Y33.4807 
G01 X-47.9498 Y33.4807 
G01 X-47.8530 Y33.4548 
G01 X-47.7661 Y33.4046 
G01 X-47.6953 Y33.3338 
G01 X-47.6953 Y33.3337 
G01 X-45.0629 Y30.7013 
G01 X-45.0593 Y30.6992 
G01 X-45.0281 Y30.6665 
G01 X-44.9953 Y30.6338 
G01 X-44.9932 Y30.6301 
G01 X-44.9900 Y30.6268 
G01 X-44.9680 Y30.5864 
G01 X-44.9451 Y30.5469 
G01 X-44.9440 Y30.5424 
G01 X-44.9419 Y30.5388 
G01 X-44.9315 Y30.4957 
G01 X-44.9192 Y30.4501 
G01 X-44.9192 Y30.4456 
G01 X-44.9182 Y30.4415 
G01 X-44.9192 Y30.3975 
G01 X-44.9192 Y30.3498 
G01 X-44.9204 Y30.3454 
G01 X-45.0182 Y26.0393 
G01 X-45.0178 Y26.0378 
G01 X-45.0193 Y25.9938 
G01 X-45.0204 Y25.9411 
G01 X-45.0210 Y25.9393 
G01 X-45.0210 Y25.9375 
G01 X-45.0344 Y25.8935 
G01 X-45.0486 Y25.8449 
G01 X-45.0496 Y25.8433 
G01 X-45.0501 Y25.8416 
G01 X-45.0759 Y25.8002 
G01 X-45.1007 Y25.7593 
G01 X-45.1020 Y25.7582 
G01 X-45.1030 Y25.7564 
G01 X-45.1384 Y25.7233 
G01 X-45.1731 Y25.6900 
G01 X-45.1749 Y25.6891 
G01 X-48.2180 Y22.8362 
G01 X-48.1235 Y10.4610 
G01 X-48.0360 Y10.4248 
G01 X-47.8894 Y10.3269 
G01 X-47.7647 Y10.2022 
G01 X-47.6668 Y10.0556 
G01 X-47.5993 Y9.8927 
G01 X-47.5649 Y9.7198 
G01 X-47.5649 Y9.5433 
G01 X-47.5993 Y9.3704 
G01 X-47.6668 Y9.2075 
G01 X-47.7647 Y9.0609 
G01 X-47.8894 Y8.9362 
G01 X-48.0360 Y8.8383 
G01 X-48.1989 Y8.7708 
G01 X-48.3718 Y8.7364 
G01 X-48.5483 Y8.7364 
G01 X-48.7212 Y8.7708 
G01 X-48.8841 Y8.8383 
G01 X-49.0307 Y8.9362 
G01 X-49.1554 Y9.0609 
G01 X-49.2533 Y9.2075 
G01 X-49.3208 Y9.3704 
G01 X-49.3552 Y9.5433 
G01 X-49.3552 Y9.7198 
G01 X-49.3208 Y9.8927 
G01 X-49.2533 Y10.0556 
G01 X-49.1554 Y10.2022 
G01 X-49.0307 Y10.3269 
G01 X-48.8847 Y10.4244 
G01 X-48.9803 Y22.9548 
G01 X-48.9821 Y22.9621 
G01 X-48.9807 Y23.0039 
G01 X-48.9811 Y23.0472 
G01 X-48.9791 Y23.0547 
G01 X-48.9789 Y23.0624 
G01 X-48.9667 Y23.1024 
G01 X-48.9559 Y23.1442 
G01 X-48.9519 Y23.1510 
G01 X-48.9498 Y23.1583 
G01 X-48.9275 Y23.1940 
G01 X-48.9064 Y23.2314 
G01 X-48.9010 Y23.2368 
G01 X-48.8969 Y23.2435 
G01 X-48.8655 Y23.2729 
G01 X-48.8361 Y23.3028 
G01 X-48.8295 Y23.3066 
G01 X-45.7769 Y26.1684 
G01 X-45.6843 Y30.2459 
G01 X-48.1577 Y32.7192 
G01 X-72.1071 Y32.7192 
G01 X-75.2192 Y28.4753 
G01 X-75.2192 Y26.8469 
G01 X-75.2184 Y26.8437 
G01 X-75.2192 Y26.7964 
G01 X-75.2192 Y26.7498 
G01 X-75.2201 Y26.7467 
G01 X-75.2201 Y26.7434 
G01 X-75.2326 Y26.7000 
G01 X-75.2451 Y26.6530 
G01 X-75.2469 Y26.6500 
G01 X-75.2477 Y26.6470 
G01 X-75.2711 Y26.6082 
G01 X-75.2953 Y26.5661 
G01 X-75.2977 Y26.5638 
G01 X-77.9720 Y22.1065 
G01 X-77.9953 Y22.0661 
G01 X-77.9976 Y22.0639 
G01 X-77.9992 Y22.0611 
G01 X-78.0322 Y22.0292 
G01 X-78.0661 Y21.9953 
G01 X-78.0690 Y21.9937 
G01 X-78.0713 Y21.9914 
G01 X-78.1125 Y21.9686 
G01 X-78.1530 Y21.9451 
G01 X-78.1561 Y21.9443 
G01 X-78.1589 Y21.9427 
G01 X-78.2050 Y21.9312 
G01 X-78.2498 Y21.9192 
G01 X-78.2531 Y21.9192 
G01 X-78.2562 Y21.9184 
G01 X-78.3033 Y21.9192 
G01 X-94.1834 Y21.9192 
G01 X-94.2168 Y21.9163 
G01 X-94.2332 Y21.9192 
G01 X-94.2501 Y21.9192 
G01 X-94.2826 Y21.9279 
G01 X-94.3155 Y21.9337 
G01 X-94.3305 Y21.9408 
G01 X-94.3469 Y21.9451 
G01 X-94.3760 Y21.9620 
G01 X-94.4064 Y21.9761 
G01 X-94.4192 Y21.9870 
G01 X-94.4338 Y21.9953 
G01 X-94.4575 Y22.0191 
G01 X-94.4831 Y22.0405 
G01 X-94.4926 Y22.0542 
G01 X-94.5046 Y22.0661 
G01 X-94.5215 Y22.0954 
G01 X-97.6559 Y26.5731 
G01 X-97.7291 Y26.4998 
G01 X-97.8649 Y26.4011 
G01 X-98.0145 Y26.3249 
G01 X-98.1742 Y26.2731 
G01 X-98.3400 Y26.2468 
G01 X-98.5079 Y26.2468 
G01 X-98.6737 Y26.2731 
G01 X-98.8334 Y26.3249 
G01 X-98.9830 Y26.4011 
G01 X-99.1188 Y26.4998 
G01 X-99.2375 Y26.6185 
G01 X-99.3362 Y26.7543 
G01 X-99.4124 Y26.9039 
G01 X-99.4642 Y27.0636 
G01 X-99.4905 Y27.2294 
(File Footer)
G00 Z2.0000 
G00 Z10.0000 
M05
M02
