( This gcode generated by /home/mattvenn/.eagle/ulp/pcb-gcode.ulp )
( Copyright 2005 by John Johnson. See readme.txt for licensing terms. )

( This file generated from the board /home/mattvenn/eagle-circuit-designs/hope rm12b bob/bob1.brd )
( This file generated 20/01/2012 13:24 )

( T01 0.600000 )
( T02 0.800000 )
( T03 0.812800 )
( T04 1.676400 )
G21

G90
M05
G00 X0.0000 Y0.0000 Z30.0000 
M06 T01  ; 0.6000 
G00 Z2.0000 
M03
G04 P3.000000
G82 X-43.0000 Y84.0000 Z-2.0000 F127.00 R2.0000 P0.100000
M05
G00 X0.0000 Y0.0000 Z30.0000 
M06 T02  ; 0.8000 
G00 Z2.0000 
M03
G04 P3.000000
G82 X-25.2700 Y81.2700 Z-2.0000 F127.00 R2.0000 P0.100000
G82 X-25.2700 Y83.2700 
G82 X-25.2700 Y85.2700 
G82 X-25.2700 Y87.2700 
G82 X-25.2700 Y89.2700 
G82 X-25.2700 Y91.2700 
G82 X-27.2700 Y81.2700 
G82 X-27.2700 Y83.2700 
G82 X-27.2700 Y85.2700 
G82 X-27.2700 Y87.2700 
G82 X-27.2700 Y89.2700 
G82 X-27.2700 Y91.2700 
G82 X-40.2700 Y84.2700 
M05
G00 X0.0000 Y0.0000 Z30.0000 
M06 T03  ; 0.8128 
G00 Z2.0000 
M03
G04 P3.000000
G82 X-27.1900 Y77.0000 Z-2.0000 F127.00 R2.0000 P0.100000
G82 X-34.8100 Y77.0000 
M05
G00 X0.0000 Y0.0000 Z30.0000 
M06 T04  ; 1.6764 
G00 Z2.0000 
M03
G04 P3.000000
G82 X-10.0000 Y50.2068 Z-2.0000 F127.00 R2.0000 P0.100000
G82 X-10.0000 Y54.1692 
G82 X-10.0000 Y58.1316 
G82 X-10.0000 Y62.0940 
G82 X-10.0000 Y66.0564 
G82 X-10.0000 Y70.0188 
G82 X-10.0000 Y73.9812 
G82 X-10.0000 Y77.9436 
G82 X-10.0000 Y81.9060 
G82 X-10.0000 Y85.8684 
G82 X-10.0000 Y89.8308 
G82 X-10.0000 Y93.7932 
(File Footer)
T01 
G00 Z10.0000 
M05
M02
