( This gcode generated by /home/mattvenn/.eagle/ulp/pcb-gcode.ulp )
( Copyright 2005 by John Johnson. See readme.txt for licensing terms. )

( This file generated from the board /home/mattvenn/eagle-circuit-designs/hope rm12b bob/bob1.brd )
( This file generated 20/01/2012 13:24 )

G21

G90
G00 Z10.0000 
G00 X0 Y0
M03
G04 P3.000000
G00 Z2.0000 
G00 X0.0000 Y102.0000 
G01 Z-2.0000 F600.00 
G01 X1.0000 Y102.0000 
G01 X47.0000 Y102.0000 
G01 X47.0000 Y44.0000 
G01 X0.0000 Y44.0000 
G01 X0.0000 Y102.0000 
(File Footer)
G00 Z10.0000 
M05
M02
