( This gcode generated by /home/mattvenn/.eagle/ulp/pcb-gcode.ulp )
( Copyright 2005 by John Johnson. See readme.txt for licensing terms. )

( This file generated from the board /home/mattvenn/eagle-circuit-designs/hope rm12b bob/bob1.brd )
( This file generated 20/01/2012 14:35 )

G21

G90
G00 Z10.0000 
G00 X0 Y0
M03
G04 P3.000000
G00 Z2.0000 
G00 X-20.3491 Y19.4689 
G01 Z-0.1000 F600.00 
G01 X-21.8028 Y19.4689 
G01 X-21.9455 Y19.4405 
G01 X-22.0800 Y19.3848 
G01 X-22.2010 Y19.3039 
G01 X-22.3039 Y19.2010 
G01 X-22.3848 Y19.0800 
G01 X-22.4405 Y18.9455 
G01 X-22.4689 Y18.8028 
G01 X-22.4689 Y18.6571 
G01 X-22.4405 Y18.5144 
G01 X-22.3848 Y18.3799 
G01 X-22.3039 Y18.2589 
G01 X-22.2010 Y18.1560 
G01 X-22.0800 Y18.0751 
G01 X-21.9455 Y18.0194 
G01 X-21.8028 Y17.9910 
G01 X-20.3491 Y17.9910 
G01 X-20.2064 Y18.0194 
G01 X-20.0719 Y18.0751 
G01 X-19.9509 Y18.1560 
G01 X-19.8480 Y18.2589 
G01 X-19.7671 Y18.3799 
G01 X-19.7114 Y18.5144 
G01 X-19.6830 Y18.6571 
G01 X-19.6830 Y18.8028 
G01 X-19.7114 Y18.9455 
G01 X-19.7671 Y19.0800 
G01 X-19.8480 Y19.2010 
G01 X-19.9509 Y19.3039 
G01 X-20.0719 Y19.3848 
G01 X-20.2064 Y19.4405 
G01 X-20.3491 Y19.4689 
G00 Z2.0000 
G00 X-20.3491 Y21.4689 
G01 Z-0.1000 F600.00 
G01 X-21.8028 Y21.4689 
G01 X-21.9455 Y21.4405 
G01 X-22.0800 Y21.3848 
G01 X-22.2010 Y21.3039 
G01 X-22.3039 Y21.2010 
G01 X-22.3848 Y21.0800 
G01 X-22.4405 Y20.9455 
G01 X-22.4689 Y20.8028 
G01 X-22.4689 Y20.6571 
G01 X-22.4405 Y20.5144 
G01 X-22.3848 Y20.3799 
G01 X-22.3039 Y20.2589 
G01 X-22.2010 Y20.1560 
G01 X-22.0800 Y20.0751 
G01 X-21.9455 Y20.0194 
G01 X-21.8028 Y19.9910 
G01 X-20.3491 Y19.9910 
G01 X-20.2064 Y20.0194 
G01 X-20.0719 Y20.0751 
G01 X-19.9509 Y20.1560 
G01 X-19.8480 Y20.2589 
G01 X-19.7671 Y20.3799 
G01 X-19.7114 Y20.5144 
G01 X-19.6830 Y20.6571 
G01 X-19.6830 Y20.8028 
G01 X-19.7114 Y20.9455 
G01 X-19.7671 Y21.0800 
G01 X-19.8480 Y21.2010 
G01 X-19.9509 Y21.3039 
G01 X-20.0719 Y21.3848 
G01 X-20.2064 Y21.4405 
G01 X-20.3491 Y21.4689 
G00 Z2.0000 
G00 X-20.3491 Y23.4689 
G01 Z-0.1000 F600.00 
G01 X-21.8028 Y23.4689 
G01 X-21.9455 Y23.4405 
G01 X-22.0800 Y23.3848 
G01 X-22.2010 Y23.3039 
G01 X-22.3039 Y23.2010 
G01 X-22.3848 Y23.0800 
G01 X-22.4405 Y22.9455 
G01 X-22.4689 Y22.8028 
G01 X-22.4689 Y22.6571 
G01 X-22.4405 Y22.5144 
G01 X-22.3848 Y22.3799 
G01 X-22.3039 Y22.2589 
G01 X-22.2010 Y22.1560 
G01 X-22.0800 Y22.0751 
G01 X-21.9455 Y22.0194 
G01 X-21.8028 Y21.9910 
G01 X-20.3491 Y21.9910 
G01 X-20.2064 Y22.0194 
G01 X-20.0719 Y22.0751 
G01 X-19.9509 Y22.1560 
G01 X-19.8480 Y22.2589 
G01 X-19.7671 Y22.3799 
G01 X-19.7114 Y22.5144 
G01 X-19.6830 Y22.6571 
G01 X-19.6830 Y22.8028 
G01 X-19.7114 Y22.9455 
G01 X-19.7671 Y23.0800 
G01 X-19.8480 Y23.2010 
G01 X-19.9509 Y23.3039 
G01 X-20.0719 Y23.3848 
G01 X-20.2064 Y23.4405 
G01 X-20.3491 Y23.4689 
G00 Z2.0000 
G00 X-20.3491 Y25.4689 
G01 Z-0.1000 F600.00 
G01 X-21.8028 Y25.4689 
G01 X-21.9455 Y25.4405 
G01 X-22.0800 Y25.3848 
G01 X-22.2010 Y25.3039 
G01 X-22.3039 Y25.2010 
G01 X-22.3848 Y25.0800 
G01 X-22.4405 Y24.9455 
G01 X-22.4689 Y24.8028 
G01 X-22.4689 Y24.6571 
G01 X-22.4405 Y24.5144 
G01 X-22.3848 Y24.3799 
G01 X-22.3039 Y24.2589 
G01 X-22.2010 Y24.1560 
G01 X-22.0800 Y24.0751 
G01 X-21.9455 Y24.0194 
G01 X-21.8028 Y23.9910 
G01 X-20.3491 Y23.9910 
G01 X-20.2064 Y24.0194 
G01 X-20.0719 Y24.0751 
G01 X-19.9509 Y24.1560 
G01 X-19.8480 Y24.2589 
G01 X-19.7671 Y24.3799 
G01 X-19.7114 Y24.5144 
G01 X-19.6830 Y24.6571 
G01 X-19.6830 Y24.8028 
G01 X-19.7114 Y24.9455 
G01 X-19.7671 Y25.0800 
G01 X-19.8480 Y25.2010 
G01 X-19.9509 Y25.3039 
G01 X-20.0719 Y25.3848 
G01 X-20.2064 Y25.4405 
G01 X-20.3491 Y25.4689 
G00 Z2.0000 
G00 X-20.3491 Y27.4689 
G01 Z-0.1000 F600.00 
G01 X-21.8028 Y27.4689 
G01 X-21.9455 Y27.4405 
G01 X-22.0800 Y27.3848 
G01 X-22.2010 Y27.3039 
G01 X-22.3039 Y27.2010 
G01 X-22.3848 Y27.0800 
G01 X-22.4405 Y26.9455 
G01 X-22.4689 Y26.8028 
G01 X-22.4689 Y26.6571 
G01 X-22.4405 Y26.5144 
G01 X-22.3848 Y26.3799 
G01 X-22.3039 Y26.2589 
G01 X-22.2010 Y26.1560 
G01 X-22.0800 Y26.0751 
G01 X-21.9455 Y26.0194 
G01 X-21.8028 Y25.9910 
G01 X-20.3491 Y25.9910 
G01 X-20.2064 Y26.0194 
G01 X-20.0719 Y26.0751 
G01 X-19.9509 Y26.1560 
G01 X-19.8480 Y26.2589 
G01 X-19.7671 Y26.3799 
G01 X-19.7114 Y26.5144 
G01 X-19.6830 Y26.6571 
G01 X-19.6830 Y26.8028 
G01 X-19.7114 Y26.9455 
G01 X-19.7671 Y27.0800 
G01 X-19.8480 Y27.2010 
G01 X-19.9509 Y27.3039 
G01 X-20.0719 Y27.3848 
G01 X-20.2064 Y27.4405 
G01 X-20.3491 Y27.4689 
G00 Z2.0000 
G00 X-20.3491 Y29.4689 
G01 Z-0.1000 F600.00 
G01 X-21.8028 Y29.4689 
G01 X-21.9455 Y29.4405 
G01 X-22.0800 Y29.3848 
G01 X-22.2010 Y29.3039 
G01 X-22.3039 Y29.2010 
G01 X-22.3848 Y29.0800 
G01 X-22.4405 Y28.9455 
G01 X-22.4689 Y28.8028 
G01 X-22.4689 Y28.6571 
G01 X-22.4405 Y28.5144 
G01 X-22.3848 Y28.3799 
G01 X-22.3039 Y28.2589 
G01 X-22.2010 Y28.1560 
G01 X-22.0800 Y28.0751 
G01 X-21.9455 Y28.0194 
G01 X-21.8028 Y27.9910 
G01 X-20.3491 Y27.9910 
G01 X-20.2064 Y28.0194 
G01 X-20.0719 Y28.0751 
G01 X-19.9509 Y28.1560 
G01 X-19.8480 Y28.2589 
G01 X-19.7671 Y28.3799 
G01 X-19.7114 Y28.5144 
G01 X-19.6830 Y28.6571 
G01 X-19.6830 Y28.8028 
G01 X-19.7114 Y28.9455 
G01 X-19.7671 Y29.0800 
G01 X-19.8480 Y29.2010 
G01 X-19.9509 Y29.3039 
G01 X-20.0719 Y29.3848 
G01 X-20.2064 Y29.4405 
G01 X-20.3491 Y29.4689 
G00 Z2.0000 
G00 X-25.1108 Y17.9910 
G01 Z-0.1000 F600.00 
G01 X-23.6571 Y17.9910 
G01 X-23.5144 Y18.0194 
G01 X-23.3799 Y18.0751 
G01 X-23.2589 Y18.1560 
G01 X-23.1560 Y18.2589 
G01 X-23.0751 Y18.3799 
G01 X-23.0194 Y18.5144 
G01 X-22.9910 Y18.6571 
G01 X-22.9910 Y18.8028 
G01 X-23.0194 Y18.9455 
G01 X-23.0751 Y19.0800 
G01 X-23.1560 Y19.2010 
G01 X-23.2589 Y19.3039 
G01 X-23.3799 Y19.3848 
G01 X-23.5144 Y19.4405 
G01 X-23.6571 Y19.4689 
G01 X-25.1108 Y19.4689 
G01 X-25.2535 Y19.4405 
G01 X-25.3880 Y19.3848 
G01 X-25.5090 Y19.3039 
G01 X-25.6119 Y19.2010 
G01 X-25.6928 Y19.0800 
G01 X-25.7485 Y18.9455 
G01 X-25.7769 Y18.8028 
G01 X-25.7769 Y18.6571 
G01 X-25.7485 Y18.5144 
G01 X-25.6928 Y18.3799 
G01 X-25.6119 Y18.2589 
G01 X-25.5090 Y18.1560 
G01 X-25.3880 Y18.0751 
G01 X-25.2535 Y18.0194 
G01 X-25.1108 Y17.9910 
G00 Z2.0000 
G00 X-25.1108 Y19.9910 
G01 Z-0.1000 F600.00 
G01 X-23.6571 Y19.9910 
G01 X-23.5144 Y20.0194 
G01 X-23.3799 Y20.0751 
G01 X-23.2589 Y20.1560 
G01 X-23.1560 Y20.2589 
G01 X-23.0751 Y20.3799 
G01 X-23.0194 Y20.5144 
G01 X-22.9910 Y20.6571 
G01 X-22.9910 Y20.8028 
G01 X-23.0194 Y20.9455 
G01 X-23.0751 Y21.0800 
G01 X-23.1560 Y21.2010 
G01 X-23.2589 Y21.3039 
G01 X-23.3799 Y21.3848 
G01 X-23.5144 Y21.4405 
G01 X-23.6571 Y21.4689 
G01 X-25.1108 Y21.4689 
G01 X-25.2535 Y21.4405 
G01 X-25.3880 Y21.3848 
G01 X-25.5090 Y21.3039 
G01 X-25.6119 Y21.2010 
G01 X-25.6928 Y21.0800 
G01 X-25.7485 Y20.9455 
G01 X-25.7769 Y20.8028 
G01 X-25.7769 Y20.6571 
G01 X-25.7485 Y20.5144 
G01 X-25.6928 Y20.3799 
G01 X-25.6119 Y20.2589 
G01 X-25.5090 Y20.1560 
G01 X-25.3880 Y20.0751 
G01 X-25.2535 Y20.0194 
G01 X-25.1108 Y19.9910 
G00 Z2.0000 
G00 X-25.1108 Y21.9910 
G01 Z-0.1000 F600.00 
G01 X-23.6571 Y21.9910 
G01 X-23.5144 Y22.0194 
G01 X-23.3799 Y22.0751 
G01 X-23.2589 Y22.1560 
G01 X-23.1560 Y22.2589 
G01 X-23.0751 Y22.3799 
G01 X-23.0194 Y22.5144 
G01 X-22.9910 Y22.6571 
G01 X-22.9910 Y22.8028 
G01 X-23.0194 Y22.9455 
G01 X-23.0751 Y23.0800 
G01 X-23.1560 Y23.2010 
G01 X-23.2589 Y23.3039 
G01 X-23.3799 Y23.3848 
G01 X-23.5144 Y23.4405 
G01 X-23.6571 Y23.4689 
G01 X-25.1108 Y23.4689 
G01 X-25.2535 Y23.4405 
G01 X-25.3880 Y23.3848 
G01 X-25.5090 Y23.3039 
G01 X-25.6119 Y23.2010 
G01 X-25.6928 Y23.0800 
G01 X-25.7485 Y22.9455 
G01 X-25.7769 Y22.8028 
G01 X-25.7769 Y22.6571 
G01 X-25.7485 Y22.5144 
G01 X-25.6928 Y22.3799 
G01 X-25.6119 Y22.2589 
G01 X-25.5090 Y22.1560 
G01 X-25.3880 Y22.0751 
G01 X-25.2535 Y22.0194 
G01 X-25.1108 Y21.9910 
G00 Z2.0000 
G00 X-25.1108 Y23.9910 
G01 Z-0.1000 F600.00 
G01 X-23.6571 Y23.9910 
G01 X-23.5144 Y24.0194 
G01 X-23.3799 Y24.0751 
G01 X-23.2589 Y24.1560 
G01 X-23.1560 Y24.2589 
G01 X-23.0751 Y24.3799 
G01 X-23.0194 Y24.5144 
G01 X-22.9910 Y24.6571 
G01 X-22.9910 Y24.8028 
G01 X-23.0194 Y24.9455 
G01 X-23.0751 Y25.0800 
G01 X-23.1560 Y25.2010 
G01 X-23.2589 Y25.3039 
G01 X-23.3799 Y25.3848 
G01 X-23.5144 Y25.4405 
G01 X-23.6571 Y25.4689 
G01 X-25.1108 Y25.4689 
G01 X-25.2535 Y25.4405 
G01 X-25.3880 Y25.3848 
G01 X-25.5090 Y25.3039 
G01 X-25.6119 Y25.2010 
G01 X-25.6928 Y25.0800 
G01 X-25.7485 Y24.9455 
G01 X-25.7769 Y24.8028 
G01 X-25.7769 Y24.6571 
G01 X-25.7485 Y24.5144 
G01 X-25.6928 Y24.3799 
G01 X-25.6119 Y24.2589 
G01 X-25.5090 Y24.1560 
G01 X-25.3880 Y24.0751 
G01 X-25.2535 Y24.0194 
G01 X-25.1108 Y23.9910 
G00 Z2.0000 
G00 X-25.1108 Y25.9910 
G01 Z-0.1000 F600.00 
G01 X-23.6571 Y25.9910 
G01 X-23.5144 Y26.0194 
G01 X-23.3799 Y26.0751 
G01 X-23.2589 Y26.1560 
G01 X-23.1560 Y26.2589 
G01 X-23.0751 Y26.3799 
G01 X-23.0194 Y26.5144 
G01 X-22.9910 Y26.6571 
G01 X-22.9910 Y26.8028 
G01 X-23.0194 Y26.9455 
G01 X-23.0751 Y27.0800 
G01 X-23.1560 Y27.2010 
G01 X-23.2589 Y27.3039 
G01 X-23.3799 Y27.3848 
G01 X-23.5144 Y27.4405 
G01 X-23.6571 Y27.4689 
G01 X-25.1108 Y27.4689 
G01 X-25.2535 Y27.4405 
G01 X-25.3880 Y27.3848 
G01 X-25.5090 Y27.3039 
G01 X-25.6119 Y27.2010 
G01 X-25.6928 Y27.0800 
G01 X-25.7485 Y26.9455 
G01 X-25.7769 Y26.8028 
G01 X-25.7769 Y26.6571 
G01 X-25.7485 Y26.5144 
G01 X-25.6928 Y26.3799 
G01 X-25.6119 Y26.2589 
G01 X-25.5090 Y26.1560 
G01 X-25.3880 Y26.0751 
G01 X-25.2535 Y26.0194 
G01 X-25.1108 Y25.9910 
G00 Z2.0000 
G00 X-25.1108 Y27.9910 
G01 Z-0.1000 F600.00 
G01 X-23.6571 Y27.9910 
G01 X-23.5144 Y28.0194 
G01 X-23.3799 Y28.0751 
G01 X-23.2589 Y28.1560 
G01 X-23.1560 Y28.2589 
G01 X-23.0751 Y28.3799 
G01 X-23.0194 Y28.5144 
G01 X-22.9910 Y28.6571 
G01 X-22.9910 Y28.8028 
G01 X-23.0194 Y28.9455 
G01 X-23.0751 Y29.0800 
G01 X-23.1560 Y29.2010 
G01 X-23.2589 Y29.3039 
G01 X-23.3799 Y29.3848 
G01 X-23.5144 Y29.4405 
G01 X-23.6571 Y29.4689 
G01 X-25.1108 Y29.4689 
G01 X-25.2535 Y29.4405 
G01 X-25.3880 Y29.3848 
G01 X-25.5090 Y29.3039 
G01 X-25.6119 Y29.2010 
G01 X-25.6928 Y29.0800 
G01 X-25.7485 Y28.9455 
G01 X-25.7769 Y28.8028 
G01 X-25.7769 Y28.6571 
G01 X-25.7485 Y28.5144 
G01 X-25.6928 Y28.3799 
G01 X-25.6119 Y28.2589 
G01 X-25.5090 Y28.1560 
G01 X-25.3880 Y28.0751 
G01 X-25.2535 Y28.0194 
G01 X-25.1108 Y27.9910 
G00 Z2.0000 
G00 X-7.6212 Y27.2277 
G01 Z-0.1000 F600.00 
G01 X-9.4331 Y27.2277 
G01 X-9.4643 Y27.2148 
G01 X-9.4882 Y27.1909 
G01 X-9.5011 Y27.1597 
G01 X-9.5011 Y25.3478 
G01 X-9.4882 Y25.3166 
G01 X-9.4643 Y25.2927 
G01 X-9.4331 Y25.2798 
G01 X-7.6212 Y25.2798 
G01 X-7.5900 Y25.2927 
G01 X-7.5661 Y25.3166 
G01 X-7.5532 Y25.3478 
G01 X-7.5532 Y27.1597 
G01 X-7.5661 Y27.1909 
G01 X-7.5900 Y27.2148 
G01 X-7.6212 Y27.2277 
G00 Z2.0000 
G00 X-25.4550 Y14.4387 
G01 Z-0.1000 F600.00 
G01 X-25.4550 Y15.5612 
G01 X-26.2487 Y16.3549 
G01 X-27.3712 Y16.3549 
G01 X-28.1649 Y15.5612 
G01 X-28.1649 Y14.4387 
G01 X-27.3712 Y13.6450 
G01 X-26.2487 Y13.6450 
G01 X-25.4550 Y14.4387 
G00 Z2.0000 
G00 X-17.8350 Y14.4387 
G01 Z-0.1000 F600.00 
G01 X-17.8350 Y15.5612 
G01 X-18.6287 Y16.3549 
G01 X-19.7512 Y16.3549 
G01 X-20.5449 Y15.5612 
G01 X-20.5449 Y14.4387 
G01 X-19.7512 Y13.6450 
G01 X-18.6287 Y13.6450 
G01 X-17.8350 Y14.4387 
G00 Z2.0000 
G00 X-33.0150 Y29.3239 
G01 Z-0.1000 F600.00 
G01 X-34.9849 Y29.3239 
G01 X-35.1731 Y29.2865 
G01 X-35.3503 Y29.2131 
G01 X-35.5098 Y29.1065 
G01 X-35.6455 Y28.9708 
G01 X-35.7521 Y28.8113 
G01 X-35.8255 Y28.6341 
G01 X-35.8629 Y28.4459 
G01 X-35.8629 Y28.2540 
G01 X-35.8255 Y28.0658 
G01 X-35.7521 Y27.8886 
G01 X-35.6455 Y27.7291 
G01 X-35.5098 Y27.5934 
G01 X-35.3503 Y27.4868 
G01 X-35.1731 Y27.4134 
G01 X-34.9849 Y27.3760 
G01 X-33.0150 Y27.3760 
G01 X-32.8268 Y27.4134 
G01 X-32.6496 Y27.4868 
G01 X-32.4901 Y27.5934 
G01 X-32.3544 Y27.7291 
G01 X-32.2478 Y27.8886 
G01 X-32.1744 Y28.0658 
G01 X-32.1370 Y28.2540 
G01 X-32.1370 Y28.4459 
G01 X-32.1744 Y28.6341 
G01 X-32.2478 Y28.8113 
G01 X-32.3544 Y28.9708 
G01 X-32.4901 Y29.1065 
G01 X-32.6496 Y29.2131 
G01 X-32.8268 Y29.2865 
G01 X-33.0150 Y29.3239 
G00 Z2.0000 
G00 X-33.0150 Y26.7839 
G01 Z-0.1000 F600.00 
G01 X-34.9849 Y26.7839 
G01 X-35.1731 Y26.7465 
G01 X-35.3503 Y26.6731 
G01 X-35.5098 Y26.5665 
G01 X-35.6455 Y26.4308 
G01 X-35.7521 Y26.2713 
G01 X-35.8255 Y26.0941 
G01 X-35.8629 Y25.9059 
G01 X-35.8629 Y25.7140 
G01 X-35.8255 Y25.5258 
G01 X-35.7521 Y25.3486 
G01 X-35.6455 Y25.1891 
G01 X-35.5098 Y25.0534 
G01 X-35.3503 Y24.9468 
G01 X-35.1731 Y24.8734 
G01 X-34.9849 Y24.8360 
G01 X-33.0150 Y24.8360 
G01 X-32.8268 Y24.8734 
G01 X-32.6496 Y24.9468 
G01 X-32.4901 Y25.0534 
G01 X-32.3544 Y25.1891 
G01 X-32.2478 Y25.3486 
G01 X-32.1744 Y25.5258 
G01 X-32.1370 Y25.7140 
G01 X-32.1370 Y25.9059 
G01 X-32.1744 Y26.0941 
G01 X-32.2478 Y26.2713 
G01 X-32.3544 Y26.4308 
G01 X-32.4901 Y26.5665 
G01 X-32.6496 Y26.6731 
G01 X-32.8268 Y26.7465 
G01 X-33.0150 Y26.7839 
G00 Z2.0000 
G00 X-33.0150 Y24.2439 
G01 Z-0.1000 F600.00 
G01 X-34.9849 Y24.2439 
G01 X-35.1731 Y24.2065 
G01 X-35.3503 Y24.1331 
G01 X-35.5098 Y24.0265 
G01 X-35.6455 Y23.8908 
G01 X-35.7521 Y23.7313 
G01 X-35.8255 Y23.5541 
G01 X-35.8629 Y23.3659 
G01 X-35.8629 Y23.1740 
G01 X-35.8255 Y22.9858 
G01 X-35.7521 Y22.8086 
G01 X-35.6455 Y22.6491 
G01 X-35.5098 Y22.5134 
G01 X-35.3503 Y22.4068 
G01 X-35.1731 Y22.3334 
G01 X-34.9849 Y22.2960 
G01 X-33.0150 Y22.2960 
G01 X-32.8268 Y22.3334 
G01 X-32.6496 Y22.4068 
G01 X-32.4901 Y22.5134 
G01 X-32.3544 Y22.6491 
G01 X-32.2478 Y22.8086 
G01 X-32.1744 Y22.9858 
G01 X-32.1370 Y23.1740 
G01 X-32.1370 Y23.3659 
G01 X-32.1744 Y23.5541 
G01 X-32.2478 Y23.7313 
G01 X-32.3544 Y23.8908 
G01 X-32.4901 Y24.0265 
G01 X-32.6496 Y24.1331 
G01 X-32.8268 Y24.2065 
G01 X-33.0150 Y24.2439 
G00 Z2.0000 
G00 X-33.0150 Y21.7039 
G01 Z-0.1000 F600.00 
G01 X-34.9849 Y21.7039 
G01 X-35.1731 Y21.6665 
G01 X-35.3503 Y21.5931 
G01 X-35.5098 Y21.4865 
G01 X-35.6455 Y21.3508 
G01 X-35.7521 Y21.1913 
G01 X-35.8255 Y21.0141 
G01 X-35.8629 Y20.8259 
G01 X-35.8629 Y20.6340 
G01 X-35.8255 Y20.4458 
G01 X-35.7521 Y20.2686 
G01 X-35.6455 Y20.1091 
G01 X-35.5098 Y19.9734 
G01 X-35.3503 Y19.8668 
G01 X-35.1731 Y19.7934 
G01 X-34.9849 Y19.7560 
G01 X-33.0150 Y19.7560 
G01 X-32.8268 Y19.7934 
G01 X-32.6496 Y19.8668 
G01 X-32.4901 Y19.9734 
G01 X-32.3544 Y20.1091 
G01 X-32.2478 Y20.2686 
G01 X-32.1744 Y20.4458 
G01 X-32.1370 Y20.6340 
G01 X-32.1370 Y20.8259 
G01 X-32.1744 Y21.0141 
G01 X-32.2478 Y21.1913 
G01 X-32.3544 Y21.3508 
G01 X-32.4901 Y21.4865 
G01 X-32.6496 Y21.5931 
G01 X-32.8268 Y21.6665 
G01 X-33.0150 Y21.7039 
G00 Z2.0000 
G00 X-33.0150 Y19.1639 
G01 Z-0.1000 F600.00 
G01 X-34.9849 Y19.1639 
G01 X-35.1731 Y19.1265 
G01 X-35.3503 Y19.0531 
G01 X-35.5098 Y18.9465 
G01 X-35.6455 Y18.8108 
G01 X-35.7521 Y18.6513 
G01 X-35.8255 Y18.4741 
G01 X-35.8629 Y18.2859 
G01 X-35.8629 Y18.0940 
G01 X-35.8255 Y17.9058 
G01 X-35.7521 Y17.7286 
G01 X-35.6455 Y17.5691 
G01 X-35.5098 Y17.4334 
G01 X-35.3503 Y17.3268 
G01 X-35.1731 Y17.2534 
G01 X-34.9849 Y17.2160 
G01 X-33.0150 Y17.2160 
G01 X-32.8268 Y17.2534 
G01 X-32.6496 Y17.3268 
G01 X-32.4901 Y17.4334 
G01 X-32.3544 Y17.5691 
G01 X-32.2478 Y17.7286 
G01 X-32.1744 Y17.9058 
G01 X-32.1370 Y18.0940 
G01 X-32.1370 Y18.2859 
G01 X-32.1744 Y18.4741 
G01 X-32.2478 Y18.6513 
G01 X-32.3544 Y18.8108 
G01 X-32.4901 Y18.9465 
G01 X-32.6496 Y19.0531 
G01 X-32.8268 Y19.1265 
G01 X-33.0150 Y19.1639 
G00 Z2.0000 
G00 X-33.0150 Y16.6239 
G01 Z-0.1000 F600.00 
G01 X-34.9849 Y16.6239 
G01 X-35.1731 Y16.5865 
G01 X-35.3503 Y16.5131 
G01 X-35.5098 Y16.4065 
G01 X-35.6455 Y16.2708 
G01 X-35.7521 Y16.1113 
G01 X-35.8255 Y15.9341 
G01 X-35.8629 Y15.7459 
G01 X-35.8629 Y15.5540 
G01 X-35.8255 Y15.3658 
G01 X-35.7521 Y15.1886 
G01 X-35.6455 Y15.0291 
G01 X-35.5098 Y14.8934 
G01 X-35.3503 Y14.7868 
G01 X-35.1731 Y14.7134 
G01 X-34.9849 Y14.6760 
G01 X-33.0150 Y14.6760 
G01 X-32.8268 Y14.7134 
G01 X-32.6496 Y14.7868 
G01 X-32.4901 Y14.8934 
G01 X-32.3544 Y15.0291 
G01 X-32.2478 Y15.1886 
G01 X-32.1744 Y15.3658 
G01 X-32.1370 Y15.5540 
G01 X-32.1370 Y15.7459 
G01 X-32.1744 Y15.9341 
G01 X-32.2478 Y16.1113 
G01 X-32.3544 Y16.2708 
G01 X-32.4901 Y16.4065 
G01 X-32.6496 Y16.5131 
G01 X-32.8268 Y16.5865 
G01 X-33.0150 Y16.6239 
G00 Z2.0000 
G00 X-4.2038 Y25.2718 
G01 Z-0.1000 F600.00 
G01 X-4.2038 Y26.7281 
G01 X-4.2167 Y26.7593 
G01 X-4.2406 Y26.7832 
G01 X-4.2718 Y26.7961 
G01 X-5.7281 Y26.7961 
G01 X-5.7593 Y26.7832 
G01 X-5.7832 Y26.7593 
G01 X-5.7961 Y26.7281 
G01 X-5.7961 Y25.2718 
G01 X-5.7832 Y25.2406 
G01 X-5.7593 Y25.2167 
G01 X-5.7281 Y25.2038 
G01 X-4.2718 Y25.2038 
G01 X-4.2406 Y25.2167 
G01 X-4.2167 Y25.2406 
G01 X-4.2038 Y25.2718 
(File Footer)
G00 Z2.0000 
G00 Z10.0000 
M05
M02
