( This gcode generated by /home/mattvenn/.eagle/ulp/pcb-gcode.ulp )
( Copyright 2005 by John Johnson. See readme.txt for licensing terms. )

( This file generated from the board /home/mattvenn/eagle-circuit-designs/hope rm12b bob/bob1.brd )
( This file generated 20/01/2012 13:24 )

G21

G90
G00 Z10.0000 
G00 X0 Y0
M03
G04 P3.000000
G00 Z2.0000 
G00 X28.6508 Y92.0089 
G01 Z-0.1000 F600.00 
G01 X27.1971 Y92.0089 
G01 X27.0544 Y91.9805 
G01 X26.9199 Y91.9248 
G01 X26.7989 Y91.8439 
G01 X26.6960 Y91.7410 
G01 X26.6151 Y91.6200 
G01 X26.5594 Y91.4855 
G01 X26.5310 Y91.3428 
G01 X26.5310 Y91.1971 
G01 X26.5594 Y91.0544 
G01 X26.6151 Y90.9199 
G01 X26.6960 Y90.7989 
G01 X26.7989 Y90.6960 
G01 X26.9199 Y90.6151 
G01 X27.0544 Y90.5594 
G01 X27.1971 Y90.5310 
G01 X28.6508 Y90.5310 
G01 X28.7935 Y90.5594 
G01 X28.9280 Y90.6151 
G01 X29.0490 Y90.6960 
G01 X29.1519 Y90.7989 
G01 X29.2328 Y90.9199 
G01 X29.2885 Y91.0544 
G01 X29.3169 Y91.1971 
G01 X29.3169 Y91.3428 
G01 X29.2885 Y91.4855 
G01 X29.2328 Y91.6200 
G01 X29.1519 Y91.7410 
G01 X29.0490 Y91.8439 
G01 X28.9280 Y91.9248 
G01 X28.7935 Y91.9805 
G01 X28.6508 Y92.0089 
G00 Z2.0000 
G00 X28.6508 Y90.0089 
G01 Z-0.1000 F600.00 
G01 X27.1971 Y90.0089 
G01 X27.0544 Y89.9805 
G01 X26.9199 Y89.9248 
G01 X26.7989 Y89.8439 
G01 X26.6960 Y89.7410 
G01 X26.6151 Y89.6200 
G01 X26.5594 Y89.4855 
G01 X26.5310 Y89.3428 
G01 X26.5310 Y89.1971 
G01 X26.5594 Y89.0544 
G01 X26.6151 Y88.9199 
G01 X26.6960 Y88.7989 
G01 X26.7989 Y88.6960 
G01 X26.9199 Y88.6151 
G01 X27.0544 Y88.5594 
G01 X27.1971 Y88.5310 
G01 X28.6508 Y88.5310 
G01 X28.7935 Y88.5594 
G01 X28.9280 Y88.6151 
G01 X29.0490 Y88.6960 
G01 X29.1519 Y88.7989 
G01 X29.2328 Y88.9199 
G01 X29.2885 Y89.0544 
G01 X29.3169 Y89.1971 
G01 X29.3169 Y89.3428 
G01 X29.2885 Y89.4855 
G01 X29.2328 Y89.6200 
G01 X29.1519 Y89.7410 
G01 X29.0490 Y89.8439 
G01 X28.9280 Y89.9248 
G01 X28.7935 Y89.9805 
G01 X28.6508 Y90.0089 
G00 Z2.0000 
G00 X28.6508 Y88.0089 
G01 Z-0.1000 F600.00 
G01 X27.1971 Y88.0089 
G01 X27.0544 Y87.9805 
G01 X26.9199 Y87.9248 
G01 X26.7989 Y87.8439 
G01 X26.6960 Y87.7410 
G01 X26.6151 Y87.6200 
G01 X26.5594 Y87.4855 
G01 X26.5310 Y87.3428 
G01 X26.5310 Y87.1971 
G01 X26.5594 Y87.0544 
G01 X26.6151 Y86.9199 
G01 X26.6960 Y86.7989 
G01 X26.7989 Y86.6960 
G01 X26.9199 Y86.6151 
G01 X27.0544 Y86.5594 
G01 X27.1971 Y86.5310 
G01 X28.6508 Y86.5310 
G01 X28.7935 Y86.5594 
G01 X28.9280 Y86.6151 
G01 X29.0490 Y86.6960 
G01 X29.1519 Y86.7989 
G01 X29.2328 Y86.9199 
G01 X29.2885 Y87.0544 
G01 X29.3169 Y87.1971 
G01 X29.3169 Y87.3428 
G01 X29.2885 Y87.4855 
G01 X29.2328 Y87.6200 
G01 X29.1519 Y87.7410 
G01 X29.0490 Y87.8439 
G01 X28.9280 Y87.9248 
G01 X28.7935 Y87.9805 
G01 X28.6508 Y88.0089 
G00 Z2.0000 
G00 X28.6508 Y86.0089 
G01 Z-0.1000 F600.00 
G01 X27.1971 Y86.0089 
G01 X27.0544 Y85.9805 
G01 X26.9199 Y85.9248 
G01 X26.7989 Y85.8439 
G01 X26.6960 Y85.7410 
G01 X26.6151 Y85.6200 
G01 X26.5594 Y85.4855 
G01 X26.5310 Y85.3428 
G01 X26.5310 Y85.1971 
G01 X26.5594 Y85.0544 
G01 X26.6151 Y84.9199 
G01 X26.6960 Y84.7989 
G01 X26.7989 Y84.6960 
G01 X26.9199 Y84.6151 
G01 X27.0544 Y84.5594 
G01 X27.1971 Y84.5310 
G01 X28.6508 Y84.5310 
G01 X28.7935 Y84.5594 
G01 X28.9280 Y84.6151 
G01 X29.0490 Y84.6960 
G01 X29.1519 Y84.7989 
G01 X29.2328 Y84.9199 
G01 X29.2885 Y85.0544 
G01 X29.3169 Y85.1971 
G01 X29.3169 Y85.3428 
G01 X29.2885 Y85.4855 
G01 X29.2328 Y85.6200 
G01 X29.1519 Y85.7410 
G01 X29.0490 Y85.8439 
G01 X28.9280 Y85.9248 
G01 X28.7935 Y85.9805 
G01 X28.6508 Y86.0089 
G00 Z2.0000 
G00 X28.6508 Y84.0089 
G01 Z-0.1000 F600.00 
G01 X27.1971 Y84.0089 
G01 X27.0544 Y83.9805 
G01 X26.9199 Y83.9248 
G01 X26.7989 Y83.8439 
G01 X26.6960 Y83.7410 
G01 X26.6151 Y83.6200 
G01 X26.5594 Y83.4855 
G01 X26.5310 Y83.3428 
G01 X26.5310 Y83.1971 
G01 X26.5594 Y83.0544 
G01 X26.6151 Y82.9199 
G01 X26.6960 Y82.7989 
G01 X26.7989 Y82.6960 
G01 X26.9199 Y82.6151 
G01 X27.0544 Y82.5594 
G01 X27.1971 Y82.5310 
G01 X28.6508 Y82.5310 
G01 X28.7935 Y82.5594 
G01 X28.9280 Y82.6151 
G01 X29.0490 Y82.6960 
G01 X29.1519 Y82.7989 
G01 X29.2328 Y82.9199 
G01 X29.2885 Y83.0544 
G01 X29.3169 Y83.1971 
G01 X29.3169 Y83.3428 
G01 X29.2885 Y83.4855 
G01 X29.2328 Y83.6200 
G01 X29.1519 Y83.7410 
G01 X29.0490 Y83.8439 
G01 X28.9280 Y83.9248 
G01 X28.7935 Y83.9805 
G01 X28.6508 Y84.0089 
G00 Z2.0000 
G00 X28.6508 Y82.0089 
G01 Z-0.1000 F600.00 
G01 X27.1971 Y82.0089 
G01 X27.0544 Y81.9805 
G01 X26.9199 Y81.9248 
G01 X26.7989 Y81.8439 
G01 X26.6960 Y81.7410 
G01 X26.6151 Y81.6200 
G01 X26.5594 Y81.4855 
G01 X26.5310 Y81.3428 
G01 X26.5310 Y81.1971 
G01 X26.5594 Y81.0544 
G01 X26.6151 Y80.9199 
G01 X26.6960 Y80.7989 
G01 X26.7989 Y80.6960 
G01 X26.9199 Y80.6151 
G01 X27.0544 Y80.5594 
G01 X27.1971 Y80.5310 
G01 X28.6508 Y80.5310 
G01 X28.7935 Y80.5594 
G01 X28.9280 Y80.6151 
G01 X29.0490 Y80.6960 
G01 X29.1519 Y80.7989 
G01 X29.2328 Y80.9199 
G01 X29.2885 Y81.0544 
G01 X29.3169 Y81.1971 
G01 X29.3169 Y81.3428 
G01 X29.2885 Y81.4855 
G01 X29.2328 Y81.6200 
G01 X29.1519 Y81.7410 
G01 X29.0490 Y81.8439 
G01 X28.9280 Y81.9248 
G01 X28.7935 Y81.9805 
G01 X28.6508 Y82.0089 
G00 Z2.0000 
G00 X23.8891 Y90.5310 
G01 Z-0.1000 F600.00 
G01 X25.3428 Y90.5310 
G01 X25.4855 Y90.5594 
G01 X25.6200 Y90.6151 
G01 X25.7410 Y90.6960 
G01 X25.8439 Y90.7989 
G01 X25.9248 Y90.9199 
G01 X25.9805 Y91.0544 
G01 X26.0089 Y91.1971 
G01 X26.0089 Y91.3428 
G01 X25.9805 Y91.4855 
G01 X25.9248 Y91.6200 
G01 X25.8439 Y91.7410 
G01 X25.7410 Y91.8439 
G01 X25.6200 Y91.9248 
G01 X25.4855 Y91.9805 
G01 X25.3428 Y92.0089 
G01 X23.8891 Y92.0089 
G01 X23.7464 Y91.9805 
G01 X23.6119 Y91.9248 
G01 X23.4909 Y91.8439 
G01 X23.3880 Y91.7410 
G01 X23.3071 Y91.6200 
G01 X23.2514 Y91.4855 
G01 X23.2230 Y91.3428 
G01 X23.2230 Y91.1971 
G01 X23.2514 Y91.0544 
G01 X23.3071 Y90.9199 
G01 X23.3880 Y90.7989 
G01 X23.4909 Y90.6960 
G01 X23.6119 Y90.6151 
G01 X23.7464 Y90.5594 
G01 X23.8891 Y90.5310 
G00 Z2.0000 
G00 X23.8891 Y88.5310 
G01 Z-0.1000 F600.00 
G01 X25.3428 Y88.5310 
G01 X25.4855 Y88.5594 
G01 X25.6200 Y88.6151 
G01 X25.7410 Y88.6960 
G01 X25.8439 Y88.7989 
G01 X25.9248 Y88.9199 
G01 X25.9805 Y89.0544 
G01 X26.0089 Y89.1971 
G01 X26.0089 Y89.3428 
G01 X25.9805 Y89.4855 
G01 X25.9248 Y89.6200 
G01 X25.8439 Y89.7410 
G01 X25.7410 Y89.8439 
G01 X25.6200 Y89.9248 
G01 X25.4855 Y89.9805 
G01 X25.3428 Y90.0089 
G01 X23.8891 Y90.0089 
G01 X23.7464 Y89.9805 
G01 X23.6119 Y89.9248 
G01 X23.4909 Y89.8439 
G01 X23.3880 Y89.7410 
G01 X23.3071 Y89.6200 
G01 X23.2514 Y89.4855 
G01 X23.2230 Y89.3428 
G01 X23.2230 Y89.1971 
G01 X23.2514 Y89.0544 
G01 X23.3071 Y88.9199 
G01 X23.3880 Y88.7989 
G01 X23.4909 Y88.6960 
G01 X23.6119 Y88.6151 
G01 X23.7464 Y88.5594 
G01 X23.8891 Y88.5310 
G00 Z2.0000 
G00 X23.8891 Y86.5310 
G01 Z-0.1000 F600.00 
G01 X25.3428 Y86.5310 
G01 X25.4855 Y86.5594 
G01 X25.6200 Y86.6151 
G01 X25.7410 Y86.6960 
G01 X25.8439 Y86.7989 
G01 X25.9248 Y86.9199 
G01 X25.9805 Y87.0544 
G01 X26.0089 Y87.1971 
G01 X26.0089 Y87.3428 
G01 X25.9805 Y87.4855 
G01 X25.9248 Y87.6200 
G01 X25.8439 Y87.7410 
G01 X25.7410 Y87.8439 
G01 X25.6200 Y87.9248 
G01 X25.4855 Y87.9805 
G01 X25.3428 Y88.0089 
G01 X23.8891 Y88.0089 
G01 X23.7464 Y87.9805 
G01 X23.6119 Y87.9248 
G01 X23.4909 Y87.8439 
G01 X23.3880 Y87.7410 
G01 X23.3071 Y87.6200 
G01 X23.2514 Y87.4855 
G01 X23.2230 Y87.3428 
G01 X23.2230 Y87.1971 
G01 X23.2514 Y87.0544 
G01 X23.3071 Y86.9199 
G01 X23.3880 Y86.7989 
G01 X23.4909 Y86.6960 
G01 X23.6119 Y86.6151 
G01 X23.7464 Y86.5594 
G01 X23.8891 Y86.5310 
G00 Z2.0000 
G00 X23.8891 Y84.5310 
G01 Z-0.1000 F600.00 
G01 X25.3428 Y84.5310 
G01 X25.4855 Y84.5594 
G01 X25.6200 Y84.6151 
G01 X25.7410 Y84.6960 
G01 X25.8439 Y84.7989 
G01 X25.9248 Y84.9199 
G01 X25.9805 Y85.0544 
G01 X26.0089 Y85.1971 
G01 X26.0089 Y85.3428 
G01 X25.9805 Y85.4855 
G01 X25.9248 Y85.6200 
G01 X25.8439 Y85.7410 
G01 X25.7410 Y85.8439 
G01 X25.6200 Y85.9248 
G01 X25.4855 Y85.9805 
G01 X25.3428 Y86.0089 
G01 X23.8891 Y86.0089 
G01 X23.7464 Y85.9805 
G01 X23.6119 Y85.9248 
G01 X23.4909 Y85.8439 
G01 X23.3880 Y85.7410 
G01 X23.3071 Y85.6200 
G01 X23.2514 Y85.4855 
G01 X23.2230 Y85.3428 
G01 X23.2230 Y85.1971 
G01 X23.2514 Y85.0544 
G01 X23.3071 Y84.9199 
G01 X23.3880 Y84.7989 
G01 X23.4909 Y84.6960 
G01 X23.6119 Y84.6151 
G01 X23.7464 Y84.5594 
G01 X23.8891 Y84.5310 
G00 Z2.0000 
G00 X23.8891 Y82.5310 
G01 Z-0.1000 F600.00 
G01 X25.3428 Y82.5310 
G01 X25.4855 Y82.5594 
G01 X25.6200 Y82.6151 
G01 X25.7410 Y82.6960 
G01 X25.8439 Y82.7989 
G01 X25.9248 Y82.9199 
G01 X25.9805 Y83.0544 
G01 X26.0089 Y83.1971 
G01 X26.0089 Y83.3428 
G01 X25.9805 Y83.4855 
G01 X25.9248 Y83.6200 
G01 X25.8439 Y83.7410 
G01 X25.7410 Y83.8439 
G01 X25.6200 Y83.9248 
G01 X25.4855 Y83.9805 
G01 X25.3428 Y84.0089 
G01 X23.8891 Y84.0089 
G01 X23.7464 Y83.9805 
G01 X23.6119 Y83.9248 
G01 X23.4909 Y83.8439 
G01 X23.3880 Y83.7410 
G01 X23.3071 Y83.6200 
G01 X23.2514 Y83.4855 
G01 X23.2230 Y83.3428 
G01 X23.2230 Y83.1971 
G01 X23.2514 Y83.0544 
G01 X23.3071 Y82.9199 
G01 X23.3880 Y82.7989 
G01 X23.4909 Y82.6960 
G01 X23.6119 Y82.6151 
G01 X23.7464 Y82.5594 
G01 X23.8891 Y82.5310 
G00 Z2.0000 
G00 X23.8891 Y80.5310 
G01 Z-0.1000 F600.00 
G01 X25.3428 Y80.5310 
G01 X25.4855 Y80.5594 
G01 X25.6200 Y80.6151 
G01 X25.7410 Y80.6960 
G01 X25.8439 Y80.7989 
G01 X25.9248 Y80.9199 
G01 X25.9805 Y81.0544 
G01 X26.0089 Y81.1971 
G01 X26.0089 Y81.3428 
G01 X25.9805 Y81.4855 
G01 X25.9248 Y81.6200 
G01 X25.8439 Y81.7410 
G01 X25.7410 Y81.8439 
G01 X25.6200 Y81.9248 
G01 X25.4855 Y81.9805 
G01 X25.3428 Y82.0089 
G01 X23.8891 Y82.0089 
G01 X23.7464 Y81.9805 
G01 X23.6119 Y81.9248 
G01 X23.4909 Y81.8439 
G01 X23.3880 Y81.7410 
G01 X23.3071 Y81.6200 
G01 X23.2514 Y81.4855 
G01 X23.2230 Y81.3428 
G01 X23.2230 Y81.1971 
G01 X23.2514 Y81.0544 
G01 X23.3071 Y80.9199 
G01 X23.3880 Y80.7989 
G01 X23.4909 Y80.6960 
G01 X23.6119 Y80.6151 
G01 X23.7464 Y80.5594 
G01 X23.8891 Y80.5310 
G00 Z2.0000 
G00 X41.0089 Y84.1971 
G01 Z-0.1000 F600.00 
G01 X41.0089 Y84.3428 
G01 X40.9805 Y84.4855 
G01 X40.9248 Y84.6200 
G01 X40.8439 Y84.7410 
G01 X40.7410 Y84.8439 
G01 X40.6200 Y84.9248 
G01 X40.4855 Y84.9805 
G01 X40.3428 Y85.0089 
G01 X40.1971 Y85.0089 
G01 X40.0544 Y84.9805 
G01 X39.9199 Y84.9248 
G01 X39.7989 Y84.8439 
G01 X39.6960 Y84.7410 
G01 X39.6151 Y84.6200 
G01 X39.5594 Y84.4855 
G01 X39.5310 Y84.3428 
G01 X39.5310 Y84.1971 
G01 X39.5594 Y84.0544 
G01 X39.6151 Y83.9199 
G01 X39.6960 Y83.7989 
G01 X39.7989 Y83.6960 
G01 X39.9199 Y83.6151 
G01 X40.0544 Y83.5594 
G01 X40.1971 Y83.5310 
G01 X40.3428 Y83.5310 
G01 X40.4855 Y83.5594 
G01 X40.6200 Y83.6151 
G01 X40.7410 Y83.6960 
G01 X40.8439 Y83.7989 
G01 X40.9248 Y83.9199 
G01 X40.9805 Y84.0544 
G01 X41.0089 Y84.1971 
G00 Z2.0000 
G00 X8.6370 Y64.7141 
G01 Z-0.1000 F600.00 
G01 X11.3629 Y64.7141 
G01 X11.5716 Y64.7471 
G01 X11.7725 Y64.8124 
G01 X11.9608 Y64.9083 
G01 X12.1317 Y65.0325 
G01 X12.2811 Y65.1819 
G01 X12.4053 Y65.3528 
G01 X12.5012 Y65.5411 
G01 X12.5665 Y65.7420 
G01 X12.5995 Y65.9507 
G01 X12.5995 Y66.1620 
G01 X12.5665 Y66.3707 
G01 X12.5012 Y66.5716 
G01 X12.4053 Y66.7599 
G01 X12.2811 Y66.9308 
G01 X12.1317 Y67.0802 
G01 X11.9608 Y67.2044 
G01 X11.7725 Y67.3003 
G01 X11.5716 Y67.3656 
G01 X11.3629 Y67.3986 
G01 X8.6370 Y67.3986 
G01 X8.4283 Y67.3656 
G01 X8.2274 Y67.3003 
G01 X8.0391 Y67.2044 
G01 X7.8682 Y67.0802 
G01 X7.7188 Y66.9308 
G01 X7.5946 Y66.7599 
G01 X7.4987 Y66.5716 
G01 X7.4334 Y66.3707 
G01 X7.4004 Y66.1620 
G01 X7.4004 Y65.9507 
G01 X7.4334 Y65.7420 
G01 X7.4987 Y65.5411 
G01 X7.5946 Y65.3528 
G01 X7.7188 Y65.1819 
G01 X7.8682 Y65.0325 
G01 X8.0391 Y64.9083 
G01 X8.2274 Y64.8124 
G01 X8.4283 Y64.7471 
G01 X8.6370 Y64.7141 
G00 Z2.0000 
G00 X8.6370 Y68.6765 
G01 Z-0.1000 F600.00 
G01 X11.3629 Y68.6765 
G01 X11.5716 Y68.7095 
G01 X11.7725 Y68.7748 
G01 X11.9608 Y68.8707 
G01 X12.1317 Y68.9949 
G01 X12.2811 Y69.1443 
G01 X12.4053 Y69.3152 
G01 X12.5012 Y69.5035 
G01 X12.5665 Y69.7044 
G01 X12.5995 Y69.9131 
G01 X12.5995 Y70.1244 
G01 X12.5665 Y70.3331 
G01 X12.5012 Y70.5340 
G01 X12.4053 Y70.7223 
G01 X12.2811 Y70.8932 
G01 X12.1317 Y71.0426 
G01 X11.9608 Y71.1668 
G01 X11.7725 Y71.2627 
G01 X11.5716 Y71.3280 
G01 X11.3629 Y71.3610 
G01 X8.6370 Y71.3610 
G01 X8.4283 Y71.3280 
G01 X8.2274 Y71.2627 
G01 X8.0391 Y71.1668 
G01 X7.8682 Y71.0426 
G01 X7.7188 Y70.8932 
G01 X7.5946 Y70.7223 
G01 X7.4987 Y70.5340 
G01 X7.4334 Y70.3331 
G01 X7.4004 Y70.1244 
G01 X7.4004 Y69.9131 
G01 X7.4334 Y69.7044 
G01 X7.4987 Y69.5035 
G01 X7.5946 Y69.3152 
G01 X7.7188 Y69.1443 
G01 X7.8682 Y68.9949 
G01 X8.0391 Y68.8707 
G01 X8.2274 Y68.7748 
G01 X8.4283 Y68.7095 
G01 X8.6370 Y68.6765 
G00 Z2.0000 
G00 X8.6370 Y72.6389 
G01 Z-0.1000 F600.00 
G01 X11.3629 Y72.6389 
G01 X11.5716 Y72.6719 
G01 X11.7725 Y72.7372 
G01 X11.9608 Y72.8331 
G01 X12.1317 Y72.9573 
G01 X12.2811 Y73.1067 
G01 X12.4053 Y73.2776 
G01 X12.5012 Y73.4659 
G01 X12.5665 Y73.6668 
G01 X12.5995 Y73.8755 
G01 X12.5995 Y74.0868 
G01 X12.5665 Y74.2955 
G01 X12.5012 Y74.4964 
G01 X12.4053 Y74.6847 
G01 X12.2811 Y74.8556 
G01 X12.1317 Y75.0050 
G01 X11.9608 Y75.1292 
G01 X11.7725 Y75.2251 
G01 X11.5716 Y75.2904 
G01 X11.3629 Y75.3234 
G01 X8.6370 Y75.3234 
G01 X8.4283 Y75.2904 
G01 X8.2274 Y75.2251 
G01 X8.0391 Y75.1292 
G01 X7.8682 Y75.0050 
G01 X7.7188 Y74.8556 
G01 X7.5946 Y74.6847 
G01 X7.4987 Y74.4964 
G01 X7.4334 Y74.2955 
G01 X7.4004 Y74.0868 
G01 X7.4004 Y73.8755 
G01 X7.4334 Y73.6668 
G01 X7.4987 Y73.4659 
G01 X7.5946 Y73.2776 
G01 X7.7188 Y73.1067 
G01 X7.8682 Y72.9573 
G01 X8.0391 Y72.8331 
G01 X8.2274 Y72.7372 
G01 X8.4283 Y72.6719 
G01 X8.6370 Y72.6389 
G00 Z2.0000 
G00 X8.6370 Y76.6013 
G01 Z-0.1000 F600.00 
G01 X11.3629 Y76.6013 
G01 X11.5716 Y76.6343 
G01 X11.7725 Y76.6996 
G01 X11.9608 Y76.7955 
G01 X12.1317 Y76.9197 
G01 X12.2811 Y77.0691 
G01 X12.4053 Y77.2400 
G01 X12.5012 Y77.4283 
G01 X12.5665 Y77.6292 
G01 X12.5995 Y77.8379 
G01 X12.5995 Y78.0492 
G01 X12.5665 Y78.2579 
G01 X12.5012 Y78.4588 
G01 X12.4053 Y78.6471 
G01 X12.2811 Y78.8180 
G01 X12.1317 Y78.9674 
G01 X11.9608 Y79.0916 
G01 X11.7725 Y79.1875 
G01 X11.5716 Y79.2528 
G01 X11.3629 Y79.2858 
G01 X8.6370 Y79.2858 
G01 X8.4283 Y79.2528 
G01 X8.2274 Y79.1875 
G01 X8.0391 Y79.0916 
G01 X7.8682 Y78.9674 
G01 X7.7188 Y78.8180 
G01 X7.5946 Y78.6471 
G01 X7.4987 Y78.4588 
G01 X7.4334 Y78.2579 
G01 X7.4004 Y78.0492 
G01 X7.4004 Y77.8379 
G01 X7.4334 Y77.6292 
G01 X7.4987 Y77.4283 
G01 X7.5946 Y77.2400 
G01 X7.7188 Y77.0691 
G01 X7.8682 Y76.9197 
G01 X8.0391 Y76.7955 
G01 X8.2274 Y76.6996 
G01 X8.4283 Y76.6343 
G01 X8.6370 Y76.6013 
G00 Z2.0000 
G00 X8.6370 Y80.5637 
G01 Z-0.1000 F600.00 
G01 X11.3629 Y80.5637 
G01 X11.5716 Y80.5967 
G01 X11.7725 Y80.6620 
G01 X11.9608 Y80.7579 
G01 X12.1317 Y80.8821 
G01 X12.2811 Y81.0315 
G01 X12.4053 Y81.2024 
G01 X12.5012 Y81.3907 
G01 X12.5665 Y81.5916 
G01 X12.5995 Y81.8003 
G01 X12.5995 Y82.0116 
G01 X12.5665 Y82.2203 
G01 X12.5012 Y82.4212 
G01 X12.4053 Y82.6095 
G01 X12.2811 Y82.7804 
G01 X12.1317 Y82.9298 
G01 X11.9608 Y83.0540 
G01 X11.7725 Y83.1499 
G01 X11.5716 Y83.2152 
G01 X11.3629 Y83.2482 
G01 X8.6370 Y83.2482 
G01 X8.4283 Y83.2152 
G01 X8.2274 Y83.1499 
G01 X8.0391 Y83.0540 
G01 X7.8682 Y82.9298 
G01 X7.7188 Y82.7804 
G01 X7.5946 Y82.6095 
G01 X7.4987 Y82.4212 
G01 X7.4334 Y82.2203 
G01 X7.4004 Y82.0116 
G01 X7.4004 Y81.8003 
G01 X7.4334 Y81.5916 
G01 X7.4987 Y81.3907 
G01 X7.5946 Y81.2024 
G01 X7.7188 Y81.0315 
G01 X7.8682 Y80.8821 
G01 X8.0391 Y80.7579 
G01 X8.2274 Y80.6620 
G01 X8.4283 Y80.5967 
G01 X8.6370 Y80.5637 
G00 Z2.0000 
G00 X8.6370 Y84.5261 
G01 Z-0.1000 F600.00 
G01 X11.3629 Y84.5261 
G01 X11.5716 Y84.5591 
G01 X11.7725 Y84.6244 
G01 X11.9608 Y84.7203 
G01 X12.1317 Y84.8445 
G01 X12.2811 Y84.9939 
G01 X12.4053 Y85.1648 
G01 X12.5012 Y85.3531 
G01 X12.5665 Y85.5540 
G01 X12.5995 Y85.7627 
G01 X12.5995 Y85.9740 
G01 X12.5665 Y86.1827 
G01 X12.5012 Y86.3836 
G01 X12.4053 Y86.5719 
G01 X12.2811 Y86.7428 
G01 X12.1317 Y86.8922 
G01 X11.9608 Y87.0164 
G01 X11.7725 Y87.1123 
G01 X11.5716 Y87.1776 
G01 X11.3629 Y87.2106 
G01 X8.6370 Y87.2106 
G01 X8.4283 Y87.1776 
G01 X8.2274 Y87.1123 
G01 X8.0391 Y87.0164 
G01 X7.8682 Y86.8922 
G01 X7.7188 Y86.7428 
G01 X7.5946 Y86.5719 
G01 X7.4987 Y86.3836 
G01 X7.4334 Y86.1827 
G01 X7.4004 Y85.9740 
G01 X7.4004 Y85.7627 
G01 X7.4334 Y85.5540 
G01 X7.4987 Y85.3531 
G01 X7.5946 Y85.1648 
G01 X7.7188 Y84.9939 
G01 X7.8682 Y84.8445 
G01 X8.0391 Y84.7203 
G01 X8.2274 Y84.6244 
G01 X8.4283 Y84.5591 
G01 X8.6370 Y84.5261 
G00 Z2.0000 
G00 X8.6370 Y88.4885 
G01 Z-0.1000 F600.00 
G01 X11.3629 Y88.4885 
G01 X11.5716 Y88.5215 
G01 X11.7725 Y88.5868 
G01 X11.9608 Y88.6827 
G01 X12.1317 Y88.8069 
G01 X12.2811 Y88.9563 
G01 X12.4053 Y89.1272 
G01 X12.5012 Y89.3155 
G01 X12.5665 Y89.5164 
G01 X12.5995 Y89.7251 
G01 X12.5995 Y89.9364 
G01 X12.5665 Y90.1451 
G01 X12.5012 Y90.3460 
G01 X12.4053 Y90.5343 
G01 X12.2811 Y90.7052 
G01 X12.1317 Y90.8546 
G01 X11.9608 Y90.9788 
G01 X11.7725 Y91.0747 
G01 X11.5716 Y91.1400 
G01 X11.3629 Y91.1730 
G01 X8.6370 Y91.1730 
G01 X8.4283 Y91.1400 
G01 X8.2274 Y91.0747 
G01 X8.0391 Y90.9788 
G01 X7.8682 Y90.8546 
G01 X7.7188 Y90.7052 
G01 X7.5946 Y90.5343 
G01 X7.4987 Y90.3460 
G01 X7.4334 Y90.1451 
G01 X7.4004 Y89.9364 
G01 X7.4004 Y89.7251 
G01 X7.4334 Y89.5164 
G01 X7.4987 Y89.3155 
G01 X7.5946 Y89.1272 
G01 X7.7188 Y88.9563 
G01 X7.8682 Y88.8069 
G01 X8.0391 Y88.6827 
G01 X8.2274 Y88.5868 
G01 X8.4283 Y88.5215 
G01 X8.6370 Y88.4885 
G00 Z2.0000 
G00 X8.6370 Y92.4509 
G01 Z-0.1000 F600.00 
G01 X11.3629 Y92.4509 
G01 X11.5716 Y92.4839 
G01 X11.7725 Y92.5492 
G01 X11.9608 Y92.6451 
G01 X12.1317 Y92.7693 
G01 X12.2811 Y92.9187 
G01 X12.4053 Y93.0896 
G01 X12.5012 Y93.2779 
G01 X12.5665 Y93.4788 
G01 X12.5995 Y93.6875 
G01 X12.5995 Y93.8988 
G01 X12.5665 Y94.1075 
G01 X12.5012 Y94.3084 
G01 X12.4053 Y94.4967 
G01 X12.2811 Y94.6676 
G01 X12.1317 Y94.8170 
G01 X11.9608 Y94.9412 
G01 X11.7725 Y95.0371 
G01 X11.5716 Y95.1024 
G01 X11.3629 Y95.1354 
G01 X8.6370 Y95.1354 
G01 X8.4283 Y95.1024 
G01 X8.2274 Y95.0371 
G01 X8.0391 Y94.9412 
G01 X7.8682 Y94.8170 
G01 X7.7188 Y94.6676 
G01 X7.5946 Y94.4967 
G01 X7.4987 Y94.3084 
G01 X7.4334 Y94.1075 
G01 X7.4004 Y93.8988 
G01 X7.4004 Y93.6875 
G01 X7.4334 Y93.4788 
G01 X7.4987 Y93.2779 
G01 X7.5946 Y93.0896 
G01 X7.7188 Y92.9187 
G01 X7.8682 Y92.7693 
G01 X8.0391 Y92.6451 
G01 X8.2274 Y92.5492 
G01 X8.4283 Y92.4839 
G01 X8.6370 Y92.4509 
G00 Z2.0000 
G00 X8.6370 Y60.7517 
G01 Z-0.1000 F600.00 
G01 X11.3629 Y60.7517 
G01 X11.5716 Y60.7847 
G01 X11.7725 Y60.8500 
G01 X11.9608 Y60.9459 
G01 X12.1317 Y61.0701 
G01 X12.2811 Y61.2195 
G01 X12.4053 Y61.3904 
G01 X12.5012 Y61.5787 
G01 X12.5665 Y61.7796 
G01 X12.5995 Y61.9883 
G01 X12.5995 Y62.1996 
G01 X12.5665 Y62.4083 
G01 X12.5012 Y62.6092 
G01 X12.4053 Y62.7975 
G01 X12.2811 Y62.9684 
G01 X12.1317 Y63.1178 
G01 X11.9608 Y63.2420 
G01 X11.7725 Y63.3379 
G01 X11.5716 Y63.4032 
G01 X11.3629 Y63.4362 
G01 X8.6370 Y63.4362 
G01 X8.4283 Y63.4032 
G01 X8.2274 Y63.3379 
G01 X8.0391 Y63.2420 
G01 X7.8682 Y63.1178 
G01 X7.7188 Y62.9684 
G01 X7.5946 Y62.7975 
G01 X7.4987 Y62.6092 
G01 X7.4334 Y62.4083 
G01 X7.4004 Y62.1996 
G01 X7.4004 Y61.9883 
G01 X7.4334 Y61.7796 
G01 X7.4987 Y61.5787 
G01 X7.5946 Y61.3904 
G01 X7.7188 Y61.2195 
G01 X7.8682 Y61.0701 
G01 X8.0391 Y60.9459 
G01 X8.2274 Y60.8500 
G01 X8.4283 Y60.7847 
G01 X8.6370 Y60.7517 
G00 Z2.0000 
G00 X8.6370 Y56.7893 
G01 Z-0.1000 F600.00 
G01 X11.3629 Y56.7893 
G01 X11.5716 Y56.8223 
G01 X11.7725 Y56.8876 
G01 X11.9608 Y56.9835 
G01 X12.1317 Y57.1077 
G01 X12.2811 Y57.2571 
G01 X12.4053 Y57.4280 
G01 X12.5012 Y57.6163 
G01 X12.5665 Y57.8172 
G01 X12.5995 Y58.0259 
G01 X12.5995 Y58.2372 
G01 X12.5665 Y58.4459 
G01 X12.5012 Y58.6468 
G01 X12.4053 Y58.8351 
G01 X12.2811 Y59.0060 
G01 X12.1317 Y59.1554 
G01 X11.9608 Y59.2796 
G01 X11.7725 Y59.3755 
G01 X11.5716 Y59.4408 
G01 X11.3629 Y59.4738 
G01 X8.6370 Y59.4738 
G01 X8.4283 Y59.4408 
G01 X8.2274 Y59.3755 
G01 X8.0391 Y59.2796 
G01 X7.8682 Y59.1554 
G01 X7.7188 Y59.0060 
G01 X7.5946 Y58.8351 
G01 X7.4987 Y58.6468 
G01 X7.4334 Y58.4459 
G01 X7.4004 Y58.2372 
G01 X7.4004 Y58.0259 
G01 X7.4334 Y57.8172 
G01 X7.4987 Y57.6163 
G01 X7.5946 Y57.4280 
G01 X7.7188 Y57.2571 
G01 X7.8682 Y57.1077 
G01 X8.0391 Y56.9835 
G01 X8.2274 Y56.8876 
G01 X8.4283 Y56.8223 
G01 X8.6370 Y56.7893 
G00 Z2.0000 
G00 X8.6370 Y52.8269 
G01 Z-0.1000 F600.00 
G01 X11.3629 Y52.8269 
G01 X11.5716 Y52.8599 
G01 X11.7725 Y52.9252 
G01 X11.9608 Y53.0211 
G01 X12.1317 Y53.1453 
G01 X12.2811 Y53.2947 
G01 X12.4053 Y53.4656 
G01 X12.5012 Y53.6539 
G01 X12.5665 Y53.8548 
G01 X12.5995 Y54.0635 
G01 X12.5995 Y54.2748 
G01 X12.5665 Y54.4835 
G01 X12.5012 Y54.6844 
G01 X12.4053 Y54.8727 
G01 X12.2811 Y55.0436 
G01 X12.1317 Y55.1930 
G01 X11.9608 Y55.3172 
G01 X11.7725 Y55.4131 
G01 X11.5716 Y55.4784 
G01 X11.3629 Y55.5114 
G01 X8.6370 Y55.5114 
G01 X8.4283 Y55.4784 
G01 X8.2274 Y55.4131 
G01 X8.0391 Y55.3172 
G01 X7.8682 Y55.1930 
G01 X7.7188 Y55.0436 
G01 X7.5946 Y54.8727 
G01 X7.4987 Y54.6844 
G01 X7.4334 Y54.4835 
G01 X7.4004 Y54.2748 
G01 X7.4004 Y54.0635 
G01 X7.4334 Y53.8548 
G01 X7.4987 Y53.6539 
G01 X7.5946 Y53.4656 
G01 X7.7188 Y53.2947 
G01 X7.8682 Y53.1453 
G01 X8.0391 Y53.0211 
G01 X8.2274 Y52.9252 
G01 X8.4283 Y52.8599 
G01 X8.6370 Y52.8269 
G00 Z2.0000 
G00 X8.6370 Y48.8645 
G01 Z-0.1000 F600.00 
G01 X11.3629 Y48.8645 
G01 X11.5716 Y48.8975 
G01 X11.7725 Y48.9628 
G01 X11.9608 Y49.0587 
G01 X12.1317 Y49.1829 
G01 X12.2811 Y49.3323 
G01 X12.4053 Y49.5032 
G01 X12.5012 Y49.6915 
G01 X12.5665 Y49.8924 
G01 X12.5995 Y50.1011 
G01 X12.5995 Y50.3124 
G01 X12.5665 Y50.5211 
G01 X12.5012 Y50.7220 
G01 X12.4053 Y50.9103 
G01 X12.2811 Y51.0812 
G01 X12.1317 Y51.2306 
G01 X11.9608 Y51.3548 
G01 X11.7725 Y51.4507 
G01 X11.5716 Y51.5160 
G01 X11.3629 Y51.5490 
G01 X8.6370 Y51.5490 
G01 X8.4283 Y51.5160 
G01 X8.2274 Y51.4507 
G01 X8.0391 Y51.3548 
G01 X7.8682 Y51.2306 
G01 X7.7188 Y51.0812 
G01 X7.5946 Y50.9103 
G01 X7.4987 Y50.7220 
G01 X7.4334 Y50.5211 
G01 X7.4004 Y50.3124 
G01 X7.4004 Y50.1011 
G01 X7.4334 Y49.8924 
G01 X7.4987 Y49.6915 
G01 X7.5946 Y49.5032 
G01 X7.7188 Y49.3323 
G01 X7.8682 Y49.1829 
G01 X8.0391 Y49.0587 
G01 X8.2274 Y48.9628 
G01 X8.4283 Y48.8975 
G01 X8.6370 Y48.8645 
G00 Z2.0000 
G00 X28.5449 Y76.4387 
G01 Z-0.1000 F600.00 
G01 X28.5449 Y77.5612 
G01 X27.7512 Y78.3549 
G01 X26.6287 Y78.3549 
G01 X25.8350 Y77.5612 
G01 X25.8350 Y76.4387 
G01 X26.6287 Y75.6450 
G01 X27.7512 Y75.6450 
G01 X28.5449 Y76.4387 
G00 Z2.0000 
G00 X36.1649 Y76.4387 
G01 Z-0.1000 F600.00 
G01 X36.1649 Y77.5612 
G01 X35.3712 Y78.3549 
G01 X34.2487 Y78.3549 
G01 X33.4550 Y77.5612 
G01 X33.4550 Y76.4387 
G01 X34.2487 Y75.6450 
G01 X35.3712 Y75.6450 
G01 X36.1649 Y76.4387 
G00 Z2.0000 
G00 X43.7961 Y83.2718 
G01 Z-0.1000 F600.00 
G01 X43.7961 Y84.7281 
G01 X43.7832 Y84.7593 
G01 X43.7593 Y84.7832 
G01 X43.7281 Y84.7961 
G01 X42.2718 Y84.7961 
G01 X42.2406 Y84.7832 
G01 X42.2167 Y84.7593 
G01 X42.2038 Y84.7281 
G01 X42.2038 Y83.2718 
G01 X42.2167 Y83.2406 
G01 X42.2406 Y83.2167 
G01 X42.2718 Y83.2038 
G01 X43.7281 Y83.2038 
G01 X43.7593 Y83.2167 
G01 X43.7832 Y83.2406 
G01 X43.7961 Y83.2718 
(File Footer)
G00 Z2.0000 
G00 Z10.0000 
M05
M02
