( This gcode generated by /home/mattvenn/.eagle/ulp/pcb-gcode.ulp )
( Copyright 2005 by John Johnson. See readme.txt for licensing terms. )

( This file generated from the board /home/mattvenn/eagle-circuit-designs/hope rm12b bob/bob1.brd )
( This file generated 20/01/2012 14:35 )

G21

G90
G00 Z10.0000 
G00 X0 Y0
M03
G04 P3.000000
G00 Z2.0000 
G00 X37.0150 Y34.6239 
G01 Z-0.1000 F600.00 
G01 X38.9849 Y34.6239 
G01 X39.1731 Y34.5865 
G01 X39.3503 Y34.5131 
G01 X39.5098 Y34.4065 
G01 X39.6455 Y34.2708 
G01 X39.7521 Y34.1113 
G01 X39.8255 Y33.9341 
G01 X39.8629 Y33.7459 
G01 X39.8629 Y33.5540 
G01 X39.8255 Y33.3658 
G01 X39.7521 Y33.1886 
G01 X39.6455 Y33.0291 
G01 X39.5098 Y32.8934 
G01 X39.3503 Y32.7868 
G01 X39.1731 Y32.7134 
G01 X38.9849 Y32.6760 
G01 X38.3897 Y32.6760 
G01 X38.3897 Y30.9674 
G01 X38.3631 Y30.8683 
G01 X38.3118 Y30.7794 
G01 X38.2393 Y30.7069 
G01 X38.1504 Y30.6556 
G01 X38.0513 Y30.6290 
G01 X37.9486 Y30.6290 
G01 X25.9486 Y30.6290 
G01 X25.8495 Y30.6556 
G01 X25.7606 Y30.7069 
G01 X25.6881 Y30.7794 
G01 X25.6368 Y30.8683 
G01 X25.6102 Y30.9674 
G01 X25.6102 Y31.0701 
G01 X25.6102 Y34.6286 
G01 X25.5795 Y34.6368 
G01 X25.4906 Y34.6881 
G01 X25.4181 Y34.7606 
G01 X25.3668 Y34.8495 
G01 X25.3402 Y34.9486 
G01 X25.3402 Y35.9910 
G01 X24.3491 Y35.9910 
G01 X24.2064 Y36.0194 
G01 X24.0719 Y36.0751 
G01 X23.9509 Y36.1560 
G01 X23.8480 Y36.2589 
G01 X23.7671 Y36.3799 
G01 X23.7114 Y36.5144 
G01 X23.6830 Y36.6571 
G01 X23.6830 Y36.8028 
G01 X23.7114 Y36.9455 
G01 X23.7671 Y37.0800 
G01 X23.8480 Y37.2010 
G01 X23.9509 Y37.3039 
G01 X24.0719 Y37.3848 
G01 X24.2064 Y37.4405 
G01 X24.3491 Y37.4689 
G01 X25.8028 Y37.4689 
G01 X25.9455 Y37.4405 
G01 X26.0800 Y37.3848 
G01 X26.2010 Y37.3039 
G01 X26.3039 Y37.2010 
G01 X26.3848 Y37.0800 
G01 X26.4405 Y36.9455 
G01 X26.4689 Y36.8028 
G01 X26.4689 Y36.6571 
G01 X26.4405 Y36.5144 
G01 X26.3848 Y36.3799 
G01 X26.3039 Y36.2589 
G01 X26.2010 Y36.1560 
G01 X26.1197 Y36.1017 
G01 X26.1197 Y35.3713 
G01 X26.1504 Y35.3631 
G01 X26.2393 Y35.3118 
G01 X26.3118 Y35.2393 
G01 X26.3631 Y35.1504 
G01 X26.3897 Y35.0513 
G01 X26.3897 Y34.9486 
G01 X26.3897 Y31.4085 
G01 X37.6102 Y31.4085 
G01 X37.6102 Y32.6760 
G01 X37.0150 Y32.6760 
G01 X36.8268 Y32.7134 
G01 X36.6496 Y32.7868 
G01 X36.4901 Y32.8934 
G01 X36.3544 Y33.0291 
G01 X36.2478 Y33.1886 
G01 X36.1744 Y33.3658 
G01 X36.1370 Y33.5540 
G01 X36.1370 Y33.7459 
G01 X36.1744 Y33.9341 
G01 X36.2478 Y34.1113 
G01 X36.3544 Y34.2708 
G01 X36.4901 Y34.4065 
G01 X36.6496 Y34.5131 
G01 X36.8268 Y34.5865 
G01 X37.0150 Y34.6239 
G00 Z2.0000 
G00 X37.0150 Y37.1639 
G01 Z-0.1000 F600.00 
G01 X38.9849 Y37.1639 
G01 X39.1731 Y37.1265 
G01 X39.3503 Y37.0531 
G01 X39.5098 Y36.9465 
G01 X39.6455 Y36.8108 
G01 X39.7521 Y36.6513 
G01 X39.8255 Y36.4741 
G01 X39.8422 Y36.3897 
G01 X43.6102 Y36.3897 
G01 X43.6102 Y50.6102 
G01 X21.3897 Y50.6102 
G01 X21.3897 Y43.1197 
G01 X23.7937 Y43.1197 
G01 X23.8480 Y43.2010 
G01 X23.9509 Y43.3039 
G01 X24.0719 Y43.3848 
G01 X24.2064 Y43.4405 
G01 X24.3491 Y43.4689 
G01 X25.8028 Y43.4689 
G01 X25.9455 Y43.4405 
G01 X26.0800 Y43.3848 
G01 X26.2010 Y43.3039 
G01 X26.3039 Y43.2010 
G01 X26.3848 Y43.0800 
G01 X26.4405 Y42.9455 
G01 X26.4689 Y42.8028 
G01 X26.4689 Y42.6571 
G01 X26.4405 Y42.5144 
G01 X26.3848 Y42.3799 
G01 X26.3039 Y42.2589 
G01 X26.2010 Y42.1560 
G01 X26.0800 Y42.0751 
G01 X25.9455 Y42.0194 
G01 X25.8028 Y41.9910 
G01 X24.3491 Y41.9910 
G01 X24.2064 Y42.0194 
G01 X24.0719 Y42.0751 
G01 X23.9509 Y42.1560 
G01 X23.8480 Y42.2589 
G01 X23.7937 Y42.3402 
G01 X21.0513 Y42.3402 
G01 X20.9486 Y42.3402 
G01 X20.8495 Y42.3668 
G01 X20.7606 Y42.4181 
G01 X20.6881 Y42.4906 
G01 X20.6368 Y42.5795 
G01 X20.6102 Y42.6786 
G01 X20.6102 Y50.9486 
G01 X20.6102 Y51.0513 
G01 X20.6368 Y51.1504 
G01 X20.6881 Y51.2393 
G01 X20.7606 Y51.3118 
G01 X20.8495 Y51.3631 
G01 X20.9486 Y51.3897 
G01 X43.9486 Y51.3897 
G01 X44.0513 Y51.3897 
G01 X44.1504 Y51.3631 
G01 X44.2393 Y51.3118 
G01 X44.3118 Y51.2393 
G01 X44.3631 Y51.1504 
G01 X44.3897 Y51.0513 
G01 X44.3897 Y36.0513 
G01 X44.3897 Y35.9486 
G01 X44.3631 Y35.8495 
G01 X44.3118 Y35.7606 
G01 X44.2393 Y35.6881 
G01 X44.1504 Y35.6368 
G01 X44.0513 Y35.6102 
G01 X39.6729 Y35.6102 
G01 X39.6455 Y35.5691 
G01 X39.5098 Y35.4334 
G01 X39.3503 Y35.3268 
G01 X39.1731 Y35.2534 
G01 X38.9849 Y35.2160 
G01 X37.0150 Y35.2160 
G01 X36.8268 Y35.2534 
G01 X36.6496 Y35.3268 
G01 X36.4901 Y35.4334 
G01 X36.3544 Y35.5691 
G01 X36.2478 Y35.7286 
G01 X36.1744 Y35.9058 
G01 X36.1370 Y36.0940 
G01 X36.1370 Y36.2859 
G01 X36.1744 Y36.4741 
G01 X36.2478 Y36.6513 
G01 X36.3544 Y36.8108 
G01 X36.4901 Y36.9465 
G01 X36.6496 Y37.0531 
G01 X36.8268 Y37.1265 
G01 X37.0150 Y37.1639 
G00 Z2.0000 
G00 X37.0150 Y39.7039 
G01 Z-0.1000 F600.00 
G01 X38.9849 Y39.7039 
G01 X39.1731 Y39.6665 
G01 X39.3503 Y39.5931 
G01 X39.5098 Y39.4865 
G01 X39.6455 Y39.3508 
G01 X39.7521 Y39.1913 
G01 X39.7817 Y39.1197 
G01 X42.6102 Y39.1197 
G01 X42.6102 Y49.6102 
G01 X22.3897 Y49.6102 
G01 X22.3897 Y45.3897 
G01 X24.0838 Y45.3897 
G01 X24.2064 Y45.4405 
G01 X24.3491 Y45.4689 
G01 X25.8028 Y45.4689 
G01 X25.9455 Y45.4405 
G01 X26.0800 Y45.3848 
G01 X26.2010 Y45.3039 
G01 X26.3039 Y45.2010 
G01 X26.3848 Y45.0800 
G01 X26.4405 Y44.9455 
G01 X26.4689 Y44.8028 
G01 X26.4689 Y44.6571 
G01 X26.4405 Y44.5144 
G01 X26.3848 Y44.3799 
G01 X26.3039 Y44.2589 
G01 X26.2010 Y44.1560 
G01 X26.0800 Y44.0751 
G01 X25.9455 Y44.0194 
G01 X25.8028 Y43.9910 
G01 X24.3491 Y43.9910 
G01 X24.2064 Y44.0194 
G01 X24.0719 Y44.0751 
G01 X23.9509 Y44.1560 
G01 X23.8480 Y44.2589 
G01 X23.7671 Y44.3799 
G01 X23.7114 Y44.5144 
G01 X23.6924 Y44.6102 
G01 X21.9486 Y44.6102 
G01 X21.8495 Y44.6368 
G01 X21.7606 Y44.6881 
G01 X21.6881 Y44.7606 
G01 X21.6368 Y44.8495 
G01 X21.6102 Y44.9486 
G01 X21.6102 Y45.0513 
G01 X21.6102 Y50.0513 
G01 X21.6368 Y50.1504 
G01 X21.6881 Y50.2393 
G01 X21.7606 Y50.3118 
G01 X21.8495 Y50.3631 
G01 X21.9486 Y50.3897 
G01 X22.0513 Y50.3897 
G01 X43.0513 Y50.3897 
G01 X43.1504 Y50.3631 
G01 X43.2393 Y50.3118 
G01 X43.3118 Y50.2393 
G01 X43.3631 Y50.1504 
G01 X43.3897 Y50.0513 
G01 X43.3897 Y49.9486 
G01 X43.3897 Y38.6786 
G01 X43.3631 Y38.5795 
G01 X43.3118 Y38.4906 
G01 X43.2393 Y38.4181 
G01 X43.1504 Y38.3668 
G01 X43.0513 Y38.3402 
G01 X42.9486 Y38.3402 
G01 X39.7817 Y38.3402 
G01 X39.7521 Y38.2686 
G01 X39.6455 Y38.1091 
G01 X39.5098 Y37.9734 
G01 X39.3503 Y37.8668 
G01 X39.1731 Y37.7934 
G01 X38.9849 Y37.7560 
G01 X37.0150 Y37.7560 
G01 X36.8268 Y37.7934 
G01 X36.6496 Y37.8668 
G01 X36.4901 Y37.9734 
G01 X36.3544 Y38.1091 
G01 X36.2478 Y38.2686 
G01 X36.1744 Y38.4458 
G01 X36.1370 Y38.6340 
G01 X36.1370 Y38.8259 
G01 X36.1744 Y39.0141 
G01 X36.2478 Y39.1913 
G01 X36.3544 Y39.3508 
G01 X36.4901 Y39.4865 
G01 X36.6496 Y39.5931 
G01 X36.8268 Y39.6665 
G01 X37.0150 Y39.7039 
G00 Z2.0000 
G00 X37.0150 Y44.7839 
G01 Z-0.1000 F600.00 
G01 X38.9849 Y44.7839 
G01 X39.1731 Y44.7465 
G01 X39.3503 Y44.6731 
G01 X39.5098 Y44.5665 
G01 X39.6455 Y44.4308 
G01 X39.7521 Y44.2713 
G01 X39.8255 Y44.0941 
G01 X39.8629 Y43.9059 
G01 X39.8629 Y43.7140 
G01 X39.8255 Y43.5258 
G01 X39.7521 Y43.3486 
G01 X39.6455 Y43.1891 
G01 X39.5098 Y43.0534 
G01 X39.3503 Y42.9468 
G01 X39.1731 Y42.8734 
G01 X38.9849 Y42.8360 
G01 X37.0150 Y42.8360 
G01 X36.8268 Y42.8734 
G01 X36.6496 Y42.9468 
G01 X36.4901 Y43.0534 
G01 X36.3544 Y43.1891 
G01 X36.2478 Y43.3486 
G01 X36.2182 Y43.4202 
G01 X33.0513 Y43.4202 
G01 X32.9486 Y43.4202 
G01 X32.8495 Y43.4468 
G01 X32.7606 Y43.4981 
G01 X32.6881 Y43.5706 
G01 X32.6368 Y43.6595 
G01 X32.6102 Y43.7586 
G01 X32.6102 Y44.6102 
G01 X29.7675 Y44.6102 
G01 X29.7485 Y44.5144 
G01 X29.6928 Y44.3799 
G01 X29.6119 Y44.2589 
G01 X29.5090 Y44.1560 
G01 X29.3880 Y44.0751 
G01 X29.2535 Y44.0194 
G01 X29.1108 Y43.9910 
G01 X27.6571 Y43.9910 
G01 X27.5144 Y44.0194 
G01 X27.3799 Y44.0751 
G01 X27.2589 Y44.1560 
G01 X27.1560 Y44.2589 
G01 X27.0751 Y44.3799 
G01 X27.0194 Y44.5144 
G01 X26.9910 Y44.6571 
G01 X26.9910 Y44.8028 
G01 X27.0194 Y44.9455 
G01 X27.0751 Y45.0800 
G01 X27.1560 Y45.2010 
G01 X27.2589 Y45.3039 
G01 X27.3799 Y45.3848 
G01 X27.5144 Y45.4405 
G01 X27.6571 Y45.4689 
G01 X29.1108 Y45.4689 
G01 X29.2535 Y45.4405 
G01 X29.3761 Y45.3897 
G01 X33.0513 Y45.3897 
G01 X33.1504 Y45.3631 
G01 X33.2393 Y45.3118 
G01 X33.3118 Y45.2393 
G01 X33.3631 Y45.1504 
G01 X33.3897 Y45.0513 
G01 X33.3897 Y44.9486 
G01 X33.3897 Y44.1997 
G01 X36.2182 Y44.1997 
G01 X36.2478 Y44.2713 
G01 X36.3544 Y44.4308 
G01 X36.4901 Y44.5665 
G01 X36.6496 Y44.6731 
G01 X36.8268 Y44.7465 
G01 X37.0150 Y44.7839 
G00 Z2.0000 
G00 X29.4550 Y32.4387 
G01 Z-0.1000 F600.00 
G01 X29.4550 Y32.6102 
G01 X27.7813 Y32.6102 
G01 X27.6786 Y32.6102 
G01 X27.5795 Y32.6368 
G01 X27.4906 Y32.6881 
G01 X27.4181 Y32.7606 
G01 X27.3668 Y32.8495 
G01 X27.3402 Y32.9486 
G01 X27.3402 Y36.1017 
G01 X27.2589 Y36.1560 
G01 X27.1560 Y36.2589 
G01 X27.0751 Y36.3799 
G01 X27.0194 Y36.5144 
G01 X26.9910 Y36.6571 
G01 X26.9910 Y36.8028 
G01 X27.0194 Y36.9455 
G01 X27.0751 Y37.0800 
G01 X27.1560 Y37.2010 
G01 X27.2589 Y37.3039 
G01 X27.3799 Y37.3848 
G01 X27.5144 Y37.4405 
G01 X27.6571 Y37.4689 
G01 X29.1108 Y37.4689 
G01 X29.2535 Y37.4405 
G01 X29.3880 Y37.3848 
G01 X29.5090 Y37.3039 
G01 X29.6119 Y37.2010 
G01 X29.6928 Y37.0800 
G01 X29.7485 Y36.9455 
G01 X29.7769 Y36.8028 
G01 X29.7769 Y36.6571 
G01 X29.7485 Y36.5144 
G01 X29.6928 Y36.3799 
G01 X29.6119 Y36.2589 
G01 X29.5090 Y36.1560 
G01 X29.3880 Y36.0751 
G01 X29.2535 Y36.0194 
G01 X29.1108 Y35.9910 
G01 X28.1197 Y35.9910 
G01 X28.1197 Y33.3897 
G01 X29.4550 Y33.3897 
G01 X29.4550 Y33.5612 
G01 X30.2487 Y34.3549 
G01 X30.4202 Y34.3549 
G01 X30.4202 Y40.0513 
G01 X30.4468 Y40.1504 
G01 X30.4981 Y40.2393 
G01 X30.5706 Y40.3118 
G01 X30.6595 Y40.3631 
G01 X30.7586 Y40.3897 
G01 X30.8613 Y40.3897 
G01 X30.9604 Y40.3631 
G01 X31.0493 Y40.3118 
G01 X31.1218 Y40.2393 
G01 X31.1229 Y40.2373 
G01 X40.6102 Y40.2373 
G01 X40.6102 Y45.9602 
G01 X39.7817 Y45.9602 
G01 X39.7521 Y45.8886 
G01 X39.6455 Y45.7291 
G01 X39.5098 Y45.5934 
G01 X39.3503 Y45.4868 
G01 X39.1731 Y45.4134 
G01 X38.9849 Y45.3760 
G01 X37.0150 Y45.3760 
G01 X36.8268 Y45.4134 
G01 X36.6496 Y45.4868 
G01 X36.4901 Y45.5934 
G01 X36.3544 Y45.7291 
G01 X36.2478 Y45.8886 
G01 X36.1744 Y46.0658 
G01 X36.1370 Y46.2540 
G01 X36.1370 Y46.4459 
G01 X36.1744 Y46.6341 
G01 X36.2478 Y46.8113 
G01 X36.3544 Y46.9708 
G01 X36.4901 Y47.1065 
G01 X36.6496 Y47.2131 
G01 X36.8268 Y47.2865 
G01 X37.0150 Y47.3239 
G01 X37.6102 Y47.3239 
G01 X37.6102 Y48.6102 
G01 X26.3897 Y48.6102 
G01 X26.3897 Y47.0681 
G01 X26.4405 Y46.9455 
G01 X26.4689 Y46.8028 
G01 X26.4689 Y46.6571 
G01 X26.4405 Y46.5144 
G01 X26.3848 Y46.3799 
G01 X26.3039 Y46.2589 
G01 X26.2010 Y46.1560 
G01 X26.0800 Y46.0751 
G01 X25.9455 Y46.0194 
G01 X25.8028 Y45.9910 
G01 X24.3491 Y45.9910 
G01 X24.2064 Y46.0194 
G01 X24.0719 Y46.0751 
G01 X23.9509 Y46.1560 
G01 X23.8480 Y46.2589 
G01 X23.7671 Y46.3799 
G01 X23.7114 Y46.5144 
G01 X23.6830 Y46.6571 
G01 X23.6830 Y46.8028 
G01 X23.7114 Y46.9455 
G01 X23.7671 Y47.0800 
G01 X23.8480 Y47.2010 
G01 X23.9509 Y47.3039 
G01 X24.0719 Y47.3848 
G01 X24.2064 Y47.4405 
G01 X24.3491 Y47.4689 
G01 X25.6102 Y47.4689 
G01 X25.6102 Y48.9486 
G01 X25.6102 Y49.0513 
G01 X25.6368 Y49.1504 
G01 X25.6881 Y49.2393 
G01 X25.7606 Y49.3118 
G01 X25.8495 Y49.3631 
G01 X25.9486 Y49.3897 
G01 X37.9486 Y49.3897 
G01 X38.0513 Y49.3897 
G01 X38.1504 Y49.3631 
G01 X38.2393 Y49.3118 
G01 X38.3118 Y49.2393 
G01 X38.3631 Y49.1504 
G01 X38.3897 Y49.0513 
G01 X38.3897 Y47.3239 
G01 X38.9849 Y47.3239 
G01 X39.1731 Y47.2865 
G01 X39.3503 Y47.2131 
G01 X39.5098 Y47.1065 
G01 X39.6455 Y46.9708 
G01 X39.7521 Y46.8113 
G01 X39.7817 Y46.7397 
G01 X40.9486 Y46.7397 
G01 X41.0513 Y46.7397 
G01 X41.1504 Y46.7131 
G01 X41.2393 Y46.6618 
G01 X41.3118 Y46.5893 
G01 X41.3631 Y46.5004 
G01 X41.3897 Y46.4013 
G01 X41.3897 Y39.9486 
G01 X41.3631 Y39.8495 
G01 X41.3118 Y39.7606 
G01 X41.2393 Y39.6881 
G01 X41.1504 Y39.6368 
G01 X41.0513 Y39.6102 
G01 X40.9486 Y39.6102 
G01 X40.8495 Y39.6368 
G01 X40.7606 Y39.6881 
G01 X40.6881 Y39.7606 
G01 X40.6870 Y39.7626 
G01 X31.1997 Y39.7626 
G01 X31.1997 Y34.3549 
G01 X31.3712 Y34.3549 
G01 X32.1649 Y33.5612 
G01 X32.1649 Y32.4387 
G01 X31.3712 Y31.6450 
G01 X30.2487 Y31.6450 
G01 X29.4550 Y32.4387 
G00 Z2.0000 
G00 X11.6212 Y45.2277 
G01 Z-0.1000 F600.00 
G01 X13.4331 Y45.2277 
G01 X13.4643 Y45.2148 
G01 X13.4882 Y45.1909 
G01 X13.5011 Y45.1597 
G01 X13.5011 Y43.3478 
G01 X13.4882 Y43.3166 
G01 X13.4643 Y43.2927 
G01 X13.4331 Y43.2798 
G01 X11.6212 Y43.2798 
G01 X11.5900 Y43.2927 
G01 X11.5661 Y43.3166 
G01 X11.5532 Y43.3478 
G01 X11.5532 Y43.5086 
G01 X9.7961 Y43.5086 
G01 X9.7961 Y43.2718 
G01 X9.7832 Y43.2406 
G01 X9.7593 Y43.2167 
G01 X9.7281 Y43.2038 
G01 X9.4913 Y43.2038 
G01 X9.4913 Y33.4913 
G01 X18.9352 Y33.4913 
G01 X19.0647 Y33.4913 
G01 X19.1896 Y33.4578 
G01 X19.3017 Y33.3931 
G01 X19.3931 Y33.3017 
G01 X19.4578 Y33.1896 
G01 X19.4913 Y33.0647 
G01 X19.4913 Y31.0647 
G01 X19.4913 Y30.9352 
G01 X19.4578 Y30.8103 
G01 X19.3931 Y30.6982 
G01 X19.3017 Y30.6068 
G01 X19.1896 Y30.5421 
G01 X19.0647 Y30.5086 
G01 X9.4913 Y30.5086 
G01 X9.4913 Y29.4913 
G01 X41.9352 Y29.4913 
G01 X42.0647 Y29.4913 
G01 X42.1896 Y29.4578 
G01 X42.3017 Y29.3931 
G01 X42.3931 Y29.3017 
G01 X42.4578 Y29.1896 
G01 X42.4913 Y29.0647 
G01 X42.4913 Y27.0647 
G01 X42.4913 Y26.9352 
G01 X42.4578 Y26.8103 
G01 X42.3931 Y26.6982 
G01 X42.3017 Y26.6068 
G01 X42.1896 Y26.5421 
G01 X42.0647 Y26.5086 
G01 X9.4913 Y26.5086 
G01 X9.4913 Y25.4913 
G01 X41.9352 Y25.4913 
G01 X42.0647 Y25.4913 
G01 X42.1896 Y25.4578 
G01 X42.3017 Y25.3931 
G01 X42.3931 Y25.3017 
G01 X42.4578 Y25.1896 
G01 X42.4913 Y25.0647 
G01 X42.4913 Y22.9352 
G01 X42.4578 Y22.8103 
G01 X42.3931 Y22.6982 
G01 X42.3017 Y22.6068 
G01 X42.1896 Y22.5421 
G01 X42.0647 Y22.5086 
G01 X41.9352 Y22.5086 
G01 X41.9351 Y22.5086 
G01 X32.9352 Y22.5086 
G01 X32.8103 Y22.5421 
G01 X32.6982 Y22.6068 
G01 X32.6068 Y22.6982 
G01 X32.5421 Y22.8103 
G01 X32.5086 Y22.9352 
G01 X32.5086 Y23.0647 
G01 X32.5421 Y23.1896 
G01 X32.6068 Y23.3017 
G01 X32.6982 Y23.3931 
G01 X32.8103 Y23.4578 
G01 X32.9352 Y23.4913 
G01 X41.5086 Y23.4913 
G01 X41.5086 Y24.5086 
G01 X8.9352 Y24.5086 
G01 X8.8103 Y24.5421 
G01 X8.6982 Y24.6068 
G01 X8.6068 Y24.6982 
G01 X8.5421 Y24.8103 
G01 X8.5086 Y24.9352 
G01 X8.5086 Y25.0647 
G01 X8.5086 Y27.0647 
G01 X8.5421 Y27.1896 
G01 X8.6068 Y27.3017 
G01 X8.6982 Y27.3931 
G01 X8.8103 Y27.4578 
G01 X8.9352 Y27.4913 
G01 X9.0647 Y27.4913 
G01 X41.5086 Y27.4913 
G01 X41.5086 Y28.5086 
G01 X8.9352 Y28.5086 
G01 X8.8103 Y28.5421 
G01 X8.6982 Y28.6068 
G01 X8.6068 Y28.6982 
G01 X8.5421 Y28.8103 
G01 X8.5086 Y28.9352 
G01 X8.5086 Y29.0647 
G01 X8.5086 Y31.0647 
G01 X8.5421 Y31.1896 
G01 X8.6068 Y31.3017 
G01 X8.6982 Y31.3931 
G01 X8.8103 Y31.4578 
G01 X8.9352 Y31.4913 
G01 X9.0647 Y31.4913 
G01 X18.5086 Y31.4913 
G01 X18.5086 Y32.5086 
G01 X8.9352 Y32.5086 
G01 X8.8103 Y32.5421 
G01 X8.6982 Y32.6068 
G01 X8.6068 Y32.6982 
G01 X8.5421 Y32.8103 
G01 X8.5086 Y32.9352 
G01 X8.5086 Y33.0647 
G01 X8.5086 Y43.2038 
G01 X8.2718 Y43.2038 
G01 X8.2406 Y43.2167 
G01 X8.2167 Y43.2406 
G01 X8.2038 Y43.2718 
G01 X8.2038 Y44.7281 
G01 X8.2167 Y44.7593 
G01 X8.2406 Y44.7832 
G01 X8.2718 Y44.7961 
G01 X9.7281 Y44.7961 
G01 X9.7593 Y44.7832 
G01 X9.7832 Y44.7593 
G01 X9.7961 Y44.7281 
G01 X9.7961 Y44.4913 
G01 X11.5532 Y44.4913 
G01 X11.5532 Y45.1597 
G01 X11.5661 Y45.1909 
G01 X11.5900 Y45.2148 
G01 X11.6212 Y45.2277 
G00 Z2.0000 
G00 X29.1108 Y45.9910 
G01 Z-0.1000 F600.00 
G01 X27.6571 Y45.9910 
G01 X27.5144 Y46.0194 
G01 X27.3799 Y46.0751 
G01 X27.2589 Y46.1560 
G01 X27.1560 Y46.2589 
G01 X27.0751 Y46.3799 
G01 X27.0194 Y46.5144 
G01 X26.9910 Y46.6571 
G01 X26.9910 Y46.8028 
G01 X27.0194 Y46.9455 
G01 X27.0751 Y47.0800 
G01 X27.1560 Y47.2010 
G01 X27.2589 Y47.3039 
G01 X27.3799 Y47.3848 
G01 X27.5144 Y47.4405 
G01 X27.6571 Y47.4689 
G01 X29.1108 Y47.4689 
G01 X29.2535 Y47.4405 
G01 X29.3880 Y47.3848 
G01 X29.5090 Y47.3039 
G01 X29.6119 Y47.2010 
G01 X29.6928 Y47.0800 
G01 X29.7485 Y46.9455 
G01 X29.7769 Y46.8028 
G01 X29.7769 Y46.6571 
G01 X29.7485 Y46.5144 
G01 X29.6928 Y46.3799 
G01 X29.6119 Y46.2589 
G01 X29.5090 Y46.1560 
G01 X29.3880 Y46.0751 
G01 X29.2535 Y46.0194 
G01 X29.1108 Y45.9910 
G00 Z2.0000 
G00 X29.1108 Y41.9910 
G01 Z-0.1000 F600.00 
G01 X27.6571 Y41.9910 
G01 X27.5144 Y42.0194 
G01 X27.3799 Y42.0751 
G01 X27.2589 Y42.1560 
G01 X27.1560 Y42.2589 
G01 X27.0751 Y42.3799 
G01 X27.0194 Y42.5144 
G01 X26.9910 Y42.6571 
G01 X26.9910 Y42.8028 
G01 X27.0194 Y42.9455 
G01 X27.0751 Y43.0800 
G01 X27.1560 Y43.2010 
G01 X27.2589 Y43.3039 
G01 X27.3799 Y43.3848 
G01 X27.5144 Y43.4405 
G01 X27.6571 Y43.4689 
G01 X29.1108 Y43.4689 
G01 X29.2535 Y43.4405 
G01 X29.3761 Y43.3897 
G01 X31.0513 Y43.3897 
G01 X31.1504 Y43.3631 
G01 X31.2393 Y43.3118 
G01 X31.3118 Y43.2393 
G01 X31.3631 Y43.1504 
G01 X31.3897 Y43.0513 
G01 X31.3897 Y42.9486 
G01 X31.3897 Y41.6597 
G01 X36.2182 Y41.6597 
G01 X36.2478 Y41.7313 
G01 X36.3544 Y41.8908 
G01 X36.4901 Y42.0265 
G01 X36.6496 Y42.1331 
G01 X36.8268 Y42.2065 
G01 X37.0150 Y42.2439 
G01 X38.9849 Y42.2439 
G01 X39.1731 Y42.2065 
G01 X39.3503 Y42.1331 
G01 X39.5098 Y42.0265 
G01 X39.6455 Y41.8908 
G01 X39.7521 Y41.7313 
G01 X39.8255 Y41.5541 
G01 X39.8629 Y41.3659 
G01 X39.8629 Y41.1740 
G01 X39.8255 Y40.9858 
G01 X39.7521 Y40.8086 
G01 X39.6455 Y40.6491 
G01 X39.5098 Y40.5134 
G01 X39.3503 Y40.4068 
G01 X39.1731 Y40.3334 
G01 X38.9849 Y40.2960 
G01 X37.0150 Y40.2960 
G01 X36.8268 Y40.3334 
G01 X36.6496 Y40.4068 
G01 X36.4901 Y40.5134 
G01 X36.3544 Y40.6491 
G01 X36.2478 Y40.8086 
G01 X36.2182 Y40.8802 
G01 X31.0513 Y40.8802 
G01 X30.9486 Y40.8802 
G01 X30.8495 Y40.9068 
G01 X30.7606 Y40.9581 
G01 X30.6881 Y41.0306 
G01 X30.6368 Y41.1195 
G01 X30.6102 Y41.2186 
G01 X30.6102 Y42.6102 
G01 X29.7675 Y42.6102 
G01 X29.7485 Y42.5144 
G01 X29.6928 Y42.3799 
G01 X29.6119 Y42.2589 
G01 X29.5090 Y42.1560 
G01 X29.3880 Y42.0751 
G01 X29.2535 Y42.0194 
G01 X29.1108 Y41.9910 
G00 Z2.0000 
G00 X29.1108 Y39.9910 
G01 Z-0.1000 F600.00 
G01 X27.6571 Y39.9910 
G01 X27.5144 Y40.0194 
G01 X27.3799 Y40.0751 
G01 X27.2589 Y40.1560 
G01 X27.1560 Y40.2589 
G01 X27.0751 Y40.3799 
G01 X27.0194 Y40.5144 
G01 X26.9910 Y40.6571 
G01 X26.9910 Y40.8028 
G01 X27.0194 Y40.9455 
G01 X27.0751 Y41.0800 
G01 X27.1560 Y41.2010 
G01 X27.2589 Y41.3039 
G01 X27.3799 Y41.3848 
G01 X27.5144 Y41.4405 
G01 X27.6571 Y41.4689 
G01 X29.1108 Y41.4689 
G01 X29.2535 Y41.4405 
G01 X29.3880 Y41.3848 
G01 X29.5090 Y41.3039 
G01 X29.6119 Y41.2010 
G01 X29.6928 Y41.0800 
G01 X29.7485 Y40.9455 
G01 X29.7769 Y40.8028 
G01 X29.7769 Y40.6571 
G01 X29.7485 Y40.5144 
G01 X29.6928 Y40.3799 
G01 X29.6119 Y40.2589 
G01 X29.5090 Y40.1560 
G01 X29.3880 Y40.0751 
G01 X29.2535 Y40.0194 
G01 X29.1108 Y39.9910 
G00 Z2.0000 
G00 X29.1108 Y37.9910 
G01 Z-0.1000 F600.00 
G01 X27.6571 Y37.9910 
G01 X27.5144 Y38.0194 
G01 X27.3799 Y38.0751 
G01 X27.2589 Y38.1560 
G01 X27.1560 Y38.2589 
G01 X27.0751 Y38.3799 
G01 X27.0194 Y38.5144 
G01 X26.9910 Y38.6571 
G01 X26.9910 Y38.8028 
G01 X27.0194 Y38.9455 
G01 X27.0751 Y39.0800 
G01 X27.1560 Y39.2010 
G01 X27.2589 Y39.3039 
G01 X27.3799 Y39.3848 
G01 X27.5144 Y39.4405 
G01 X27.6571 Y39.4689 
G01 X29.1108 Y39.4689 
G01 X29.2535 Y39.4405 
G01 X29.3880 Y39.3848 
G01 X29.5090 Y39.3039 
G01 X29.6119 Y39.2010 
G01 X29.6928 Y39.0800 
G01 X29.7485 Y38.9455 
G01 X29.7769 Y38.8028 
G01 X29.7769 Y38.6571 
G01 X29.7485 Y38.5144 
G01 X29.6928 Y38.3799 
G01 X29.6119 Y38.2589 
G01 X29.5090 Y38.1560 
G01 X29.3880 Y38.0751 
G01 X29.2535 Y38.0194 
G01 X29.1108 Y37.9910 
G00 Z2.0000 
G00 X24.3491 Y41.4689 
G01 Z-0.1000 F600.00 
G01 X25.8028 Y41.4689 
G01 X25.9455 Y41.4405 
G01 X26.0800 Y41.3848 
G01 X26.2010 Y41.3039 
G01 X26.3039 Y41.2010 
G01 X26.3848 Y41.0800 
G01 X26.4405 Y40.9455 
G01 X26.4689 Y40.8028 
G01 X26.4689 Y40.6571 
G01 X26.4405 Y40.5144 
G01 X26.3848 Y40.3799 
G01 X26.3039 Y40.2589 
G01 X26.2010 Y40.1560 
G01 X26.0800 Y40.0751 
G01 X25.9455 Y40.0194 
G01 X25.8028 Y39.9910 
G01 X24.3491 Y39.9910 
G01 X24.2064 Y40.0194 
G01 X24.0719 Y40.0751 
G01 X23.9509 Y40.1560 
G01 X23.8480 Y40.2589 
G01 X23.7671 Y40.3799 
G01 X23.7114 Y40.5144 
G01 X23.6924 Y40.6102 
G01 X21.3897 Y40.6102 
G01 X21.3897 Y33.3897 
G01 X21.8350 Y33.3897 
G01 X21.8350 Y33.5612 
G01 X22.6287 Y34.3549 
G01 X23.7512 Y34.3549 
G01 X24.5449 Y33.5612 
G01 X24.5449 Y32.4387 
G01 X23.7512 Y31.6450 
G01 X22.6287 Y31.6450 
G01 X21.8350 Y32.4387 
G01 X21.8350 Y32.6102 
G01 X21.0513 Y32.6102 
G01 X20.9486 Y32.6102 
G01 X20.8495 Y32.6368 
G01 X20.7606 Y32.6881 
G01 X20.6881 Y32.7606 
G01 X20.6368 Y32.8495 
G01 X20.6102 Y32.9486 
G01 X20.6102 Y40.9486 
G01 X20.6102 Y41.0513 
G01 X20.6368 Y41.1504 
G01 X20.6881 Y41.2393 
G01 X20.7606 Y41.3118 
G01 X20.8495 Y41.3631 
G01 X20.9486 Y41.3897 
G01 X24.0838 Y41.3897 
G01 X24.2064 Y41.4405 
G01 X24.3491 Y41.4689 
G00 Z2.0000 
G00 X24.3491 Y39.4689 
G01 Z-0.1000 F600.00 
G01 X25.8028 Y39.4689 
G01 X25.9455 Y39.4405 
G01 X26.0800 Y39.3848 
G01 X26.2010 Y39.3039 
G01 X26.3039 Y39.2010 
G01 X26.3848 Y39.0800 
G01 X26.4405 Y38.9455 
G01 X26.4689 Y38.8028 
G01 X26.4689 Y38.6571 
G01 X26.4405 Y38.5144 
G01 X26.3848 Y38.3799 
G01 X26.3039 Y38.2589 
G01 X26.2010 Y38.1560 
G01 X26.0800 Y38.0751 
G01 X25.9455 Y38.0194 
G01 X25.8028 Y37.9910 
G01 X24.3491 Y37.9910 
G01 X24.2064 Y38.0194 
G01 X24.0719 Y38.0751 
G01 X23.9509 Y38.1560 
G01 X23.8480 Y38.2589 
G01 X23.7671 Y38.3799 
G01 X23.7114 Y38.5144 
G01 X23.6830 Y38.6571 
G01 X23.6830 Y38.8028 
G01 X23.7114 Y38.9455 
G01 X23.7671 Y39.0800 
G01 X23.8480 Y39.2010 
G01 X23.9509 Y39.3039 
G01 X24.0719 Y39.3848 
G01 X24.2064 Y39.4405 
G01 X24.3491 Y39.4689 
(File Footer)
G00 Z2.0000 
G00 Z10.0000 
M05
M02
