( This gcode generated by /home/mattvenn/.eagle/ulp/pcb-gcode.ulp )
( Copyright 2005 by John Johnson. See readme.txt for licensing terms. )

( This file generated from the board /home/mattvenn/eagle-circuit-designs/hope rm12b bob/bob1.brd )
( This file generated 20/01/2012 17:15 )

G21

G90
G00 Z10.0000 
G00 X0 Y0
M03
G04 P3.000000
G00 Z2.0000 
G00 X-20.3491 Y19.4689 
G01 Z-0.1000 F600.00 
G01 X-21.8028 Y19.4689 
G01 X-21.9455 Y19.4405 
G01 X-22.0800 Y19.3848 
G01 X-22.2010 Y19.3039 
G01 X-22.3039 Y19.2010 
G01 X-22.3848 Y19.0800 
G01 X-22.4405 Y18.9455 
G01 X-22.4689 Y18.8028 
G01 X-22.4689 Y18.6571 
G01 X-22.4405 Y18.5144 
G01 X-22.3848 Y18.3799 
G01 X-22.3039 Y18.2589 
G01 X-22.2010 Y18.1560 
G01 X-22.0800 Y18.0751 
G01 X-21.9455 Y18.0194 
G01 X-21.8028 Y17.9910 
G01 X-20.3491 Y17.9910 
G01 X-20.2064 Y18.0194 
G01 X-20.0719 Y18.0751 
G01 X-19.9509 Y18.1560 
G01 X-19.8480 Y18.2589 
G01 X-19.7671 Y18.3799 
G01 X-19.7114 Y18.5144 
G01 X-19.6830 Y18.6571 
G01 X-19.6830 Y18.8028 
G01 X-19.7114 Y18.9455 
G01 X-19.7671 Y19.0800 
G01 X-19.8480 Y19.2010 
G01 X-19.9509 Y19.3039 
G01 X-20.0719 Y19.3848 
G01 X-20.2064 Y19.4405 
G01 X-20.3491 Y19.4689 
G00 Z2.0000 
G00 X-20.3491 Y21.4689 
G01 Z-0.1000 F600.00 
G01 X-21.8028 Y21.4689 
G01 X-21.9455 Y21.4405 
G01 X-22.0800 Y21.3848 
G01 X-22.2010 Y21.3039 
G01 X-22.3039 Y21.2010 
G01 X-22.3848 Y21.0800 
G01 X-22.4405 Y20.9455 
G01 X-22.4689 Y20.8028 
G01 X-22.4689 Y20.6571 
G01 X-22.4405 Y20.5144 
G01 X-22.3848 Y20.3799 
G01 X-22.3039 Y20.2589 
G01 X-22.2010 Y20.1560 
G01 X-22.0800 Y20.0751 
G01 X-21.9455 Y20.0194 
G01 X-21.8028 Y19.9910 
G01 X-20.3491 Y19.9910 
G01 X-20.2064 Y20.0194 
G01 X-20.0719 Y20.0751 
G01 X-19.9509 Y20.1560 
G01 X-19.8480 Y20.2589 
G01 X-19.7671 Y20.3799 
G01 X-19.7114 Y20.5144 
G01 X-19.6830 Y20.6571 
G01 X-19.6830 Y20.8028 
G01 X-19.7114 Y20.9455 
G01 X-19.7671 Y21.0800 
G01 X-19.8480 Y21.2010 
G01 X-19.9509 Y21.3039 
G01 X-20.0719 Y21.3848 
G01 X-20.2064 Y21.4405 
G01 X-20.3491 Y21.4689 
G00 Z2.0000 
G00 X-20.3491 Y23.4689 
G01 Z-0.1000 F600.00 
G01 X-21.8028 Y23.4689 
G01 X-21.9455 Y23.4405 
G01 X-22.0800 Y23.3848 
G01 X-22.2010 Y23.3039 
G01 X-22.3039 Y23.2010 
G01 X-22.3848 Y23.0800 
G01 X-22.4405 Y22.9455 
G01 X-22.4689 Y22.8028 
G01 X-22.4689 Y22.6571 
G01 X-22.4405 Y22.5144 
G01 X-22.3848 Y22.3799 
G01 X-22.3039 Y22.2589 
G01 X-22.2010 Y22.1560 
G01 X-22.0800 Y22.0751 
G01 X-21.9455 Y22.0194 
G01 X-21.8028 Y21.9910 
G01 X-20.3491 Y21.9910 
G01 X-20.2064 Y22.0194 
G01 X-20.0719 Y22.0751 
G01 X-19.9509 Y22.1560 
G01 X-19.8480 Y22.2589 
G01 X-19.7671 Y22.3799 
G01 X-19.7114 Y22.5144 
G01 X-19.6830 Y22.6571 
G01 X-19.6830 Y22.8028 
G01 X-19.7114 Y22.9455 
G01 X-19.7671 Y23.0800 
G01 X-19.8480 Y23.2010 
G01 X-19.9509 Y23.3039 
G01 X-20.0719 Y23.3848 
G01 X-20.2064 Y23.4405 
G01 X-20.3491 Y23.4689 
G00 Z2.0000 
G00 X-20.3491 Y25.4689 
G01 Z-0.1000 F600.00 
G01 X-21.8028 Y25.4689 
G01 X-21.9455 Y25.4405 
G01 X-22.0800 Y25.3848 
G01 X-22.2010 Y25.3039 
G01 X-22.3039 Y25.2010 
G01 X-22.3848 Y25.0800 
G01 X-22.4405 Y24.9455 
G01 X-22.4689 Y24.8028 
G01 X-22.4689 Y24.6571 
G01 X-22.4405 Y24.5144 
G01 X-22.3848 Y24.3799 
G01 X-22.3039 Y24.2589 
G01 X-22.2010 Y24.1560 
G01 X-22.0800 Y24.0751 
G01 X-21.9455 Y24.0194 
G01 X-21.8028 Y23.9910 
G01 X-20.3491 Y23.9910 
G01 X-20.2064 Y24.0194 
G01 X-20.0719 Y24.0751 
G01 X-19.9509 Y24.1560 
G01 X-19.8480 Y24.2589 
G01 X-19.7671 Y24.3799 
G01 X-19.7114 Y24.5144 
G01 X-19.6830 Y24.6571 
G01 X-19.6830 Y24.8028 
G01 X-19.7114 Y24.9455 
G01 X-19.7671 Y25.0800 
G01 X-19.8480 Y25.2010 
G01 X-19.9509 Y25.3039 
G01 X-20.0719 Y25.3848 
G01 X-20.2064 Y25.4405 
G01 X-20.3491 Y25.4689 
G00 Z2.0000 
G00 X-20.3491 Y27.4689 
G01 Z-0.1000 F600.00 
G01 X-21.8028 Y27.4689 
G01 X-21.9455 Y27.4405 
G01 X-22.0800 Y27.3848 
G01 X-22.2010 Y27.3039 
G01 X-22.3039 Y27.2010 
G01 X-22.3848 Y27.0800 
G01 X-22.4405 Y26.9455 
G01 X-22.4689 Y26.8028 
G01 X-22.4689 Y26.6571 
G01 X-22.4405 Y26.5144 
G01 X-22.3848 Y26.3799 
G01 X-22.3039 Y26.2589 
G01 X-22.2010 Y26.1560 
G01 X-22.0800 Y26.0751 
G01 X-21.9455 Y26.0194 
G01 X-21.8028 Y25.9910 
G01 X-20.3491 Y25.9910 
G01 X-20.2064 Y26.0194 
G01 X-20.0719 Y26.0751 
G01 X-19.9509 Y26.1560 
G01 X-19.8480 Y26.2589 
G01 X-19.7671 Y26.3799 
G01 X-19.7114 Y26.5144 
G01 X-19.6830 Y26.6571 
G01 X-19.6830 Y26.8028 
G01 X-19.7114 Y26.9455 
G01 X-19.7671 Y27.0800 
G01 X-19.8480 Y27.2010 
G01 X-19.9509 Y27.3039 
G01 X-20.0719 Y27.3848 
G01 X-20.2064 Y27.4405 
G01 X-20.3491 Y27.4689 
G00 Z2.0000 
G00 X-20.3491 Y29.4689 
G01 Z-0.1000 F600.00 
G01 X-21.8028 Y29.4689 
G01 X-21.9455 Y29.4405 
G01 X-22.0800 Y29.3848 
G01 X-22.2010 Y29.3039 
G01 X-22.3039 Y29.2010 
G01 X-22.3848 Y29.0800 
G01 X-22.4405 Y28.9455 
G01 X-22.4689 Y28.8028 
G01 X-22.4689 Y28.6571 
G01 X-22.4405 Y28.5144 
G01 X-22.3848 Y28.3799 
G01 X-22.3039 Y28.2589 
G01 X-22.2010 Y28.1560 
G01 X-22.0800 Y28.0751 
G01 X-21.9455 Y28.0194 
G01 X-21.8028 Y27.9910 
G01 X-20.3491 Y27.9910 
G01 X-20.2064 Y28.0194 
G01 X-20.0719 Y28.0751 
G01 X-19.9509 Y28.1560 
G01 X-19.8480 Y28.2589 
G01 X-19.7671 Y28.3799 
G01 X-19.7114 Y28.5144 
G01 X-19.6830 Y28.6571 
G01 X-19.6830 Y28.8028 
G01 X-19.7114 Y28.9455 
G01 X-19.7671 Y29.0800 
G01 X-19.8480 Y29.2010 
G01 X-19.9509 Y29.3039 
G01 X-20.0719 Y29.3848 
G01 X-20.2064 Y29.4405 
G01 X-20.3491 Y29.4689 
G00 Z2.0000 
G00 X-25.1108 Y17.9910 
G01 Z-0.1000 F600.00 
G01 X-23.6571 Y17.9910 
G01 X-23.5144 Y18.0194 
G01 X-23.3799 Y18.0751 
G01 X-23.2589 Y18.1560 
G01 X-23.1560 Y18.2589 
G01 X-23.0751 Y18.3799 
G01 X-23.0194 Y18.5144 
G01 X-22.9910 Y18.6571 
G01 X-22.9910 Y18.8028 
G01 X-23.0194 Y18.9455 
G01 X-23.0751 Y19.0800 
G01 X-23.1560 Y19.2010 
G01 X-23.2589 Y19.3039 
G01 X-23.3799 Y19.3848 
G01 X-23.5144 Y19.4405 
G01 X-23.6571 Y19.4689 
G01 X-25.1108 Y19.4689 
G01 X-25.2535 Y19.4405 
G01 X-25.3880 Y19.3848 
G01 X-25.5090 Y19.3039 
G01 X-25.6119 Y19.2010 
G01 X-25.6928 Y19.0800 
G01 X-25.7485 Y18.9455 
G01 X-25.7769 Y18.8028 
G01 X-25.7769 Y18.6571 
G01 X-25.7485 Y18.5144 
G01 X-25.6928 Y18.3799 
G01 X-25.6119 Y18.2589 
G01 X-25.5090 Y18.1560 
G01 X-25.3880 Y18.0751 
G01 X-25.2535 Y18.0194 
G01 X-25.1108 Y17.9910 
G00 Z2.0000 
G00 X-25.1108 Y19.9910 
G01 Z-0.1000 F600.00 
G01 X-23.6571 Y19.9910 
G01 X-23.5144 Y20.0194 
G01 X-23.3799 Y20.0751 
G01 X-23.2589 Y20.1560 
G01 X-23.1560 Y20.2589 
G01 X-23.0751 Y20.3799 
G01 X-23.0194 Y20.5144 
G01 X-22.9910 Y20.6571 
G01 X-22.9910 Y20.8028 
G01 X-23.0194 Y20.9455 
G01 X-23.0751 Y21.0800 
G01 X-23.1560 Y21.2010 
G01 X-23.2589 Y21.3039 
G01 X-23.3799 Y21.3848 
G01 X-23.5144 Y21.4405 
G01 X-23.6571 Y21.4689 
G01 X-25.1108 Y21.4689 
G01 X-25.2535 Y21.4405 
G01 X-25.3880 Y21.3848 
G01 X-25.5090 Y21.3039 
G01 X-25.6119 Y21.2010 
G01 X-25.6928 Y21.0800 
G01 X-25.7485 Y20.9455 
G01 X-25.7769 Y20.8028 
G01 X-25.7769 Y20.6571 
G01 X-25.7485 Y20.5144 
G01 X-25.6928 Y20.3799 
G01 X-25.6119 Y20.2589 
G01 X-25.5090 Y20.1560 
G01 X-25.3880 Y20.0751 
G01 X-25.2535 Y20.0194 
G01 X-25.1108 Y19.9910 
G00 Z2.0000 
G00 X-25.1108 Y21.9910 
G01 Z-0.1000 F600.00 
G01 X-23.6571 Y21.9910 
G01 X-23.5144 Y22.0194 
G01 X-23.3799 Y22.0751 
G01 X-23.2589 Y22.1560 
G01 X-23.1560 Y22.2589 
G01 X-23.0751 Y22.3799 
G01 X-23.0194 Y22.5144 
G01 X-22.9910 Y22.6571 
G01 X-22.9910 Y22.8028 
G01 X-23.0194 Y22.9455 
G01 X-23.0751 Y23.0800 
G01 X-23.1560 Y23.2010 
G01 X-23.2589 Y23.3039 
G01 X-23.3799 Y23.3848 
G01 X-23.5144 Y23.4405 
G01 X-23.6571 Y23.4689 
G01 X-25.1108 Y23.4689 
G01 X-25.2535 Y23.4405 
G01 X-25.3880 Y23.3848 
G01 X-25.5090 Y23.3039 
G01 X-25.6119 Y23.2010 
G01 X-25.6928 Y23.0800 
G01 X-25.7485 Y22.9455 
G01 X-25.7769 Y22.8028 
G01 X-25.7769 Y22.6571 
G01 X-25.7485 Y22.5144 
G01 X-25.6928 Y22.3799 
G01 X-25.6119 Y22.2589 
G01 X-25.5090 Y22.1560 
G01 X-25.3880 Y22.0751 
G01 X-25.2535 Y22.0194 
G01 X-25.1108 Y21.9910 
G00 Z2.0000 
G00 X-25.1108 Y23.9910 
G01 Z-0.1000 F600.00 
G01 X-23.6571 Y23.9910 
G01 X-23.5144 Y24.0194 
G01 X-23.3799 Y24.0751 
G01 X-23.2589 Y24.1560 
G01 X-23.1560 Y24.2589 
G01 X-23.0751 Y24.3799 
G01 X-23.0194 Y24.5144 
G01 X-22.9910 Y24.6571 
G01 X-22.9910 Y24.8028 
G01 X-23.0194 Y24.9455 
G01 X-23.0751 Y25.0800 
G01 X-23.1560 Y25.2010 
G01 X-23.2589 Y25.3039 
G01 X-23.3799 Y25.3848 
G01 X-23.5144 Y25.4405 
G01 X-23.6571 Y25.4689 
G01 X-25.1108 Y25.4689 
G01 X-25.2535 Y25.4405 
G01 X-25.3880 Y25.3848 
G01 X-25.5090 Y25.3039 
G01 X-25.6119 Y25.2010 
G01 X-25.6928 Y25.0800 
G01 X-25.7485 Y24.9455 
G01 X-25.7769 Y24.8028 
G01 X-25.7769 Y24.6571 
G01 X-25.7485 Y24.5144 
G01 X-25.6928 Y24.3799 
G01 X-25.6119 Y24.2589 
G01 X-25.5090 Y24.1560 
G01 X-25.3880 Y24.0751 
G01 X-25.2535 Y24.0194 
G01 X-25.1108 Y23.9910 
G00 Z2.0000 
G00 X-25.1108 Y25.9910 
G01 Z-0.1000 F600.00 
G01 X-23.6571 Y25.9910 
G01 X-23.5144 Y26.0194 
G01 X-23.3799 Y26.0751 
G01 X-23.2589 Y26.1560 
G01 X-23.1560 Y26.2589 
G01 X-23.0751 Y26.3799 
G01 X-23.0194 Y26.5144 
G01 X-22.9910 Y26.6571 
G01 X-22.9910 Y26.8028 
G01 X-23.0194 Y26.9455 
G01 X-23.0751 Y27.0800 
G01 X-23.1560 Y27.2010 
G01 X-23.2589 Y27.3039 
G01 X-23.3799 Y27.3848 
G01 X-23.5144 Y27.4405 
G01 X-23.6571 Y27.4689 
G01 X-25.1108 Y27.4689 
G01 X-25.2535 Y27.4405 
G01 X-25.3880 Y27.3848 
G01 X-25.5090 Y27.3039 
G01 X-25.6119 Y27.2010 
G01 X-25.6928 Y27.0800 
G01 X-25.7485 Y26.9455 
G01 X-25.7769 Y26.8028 
G01 X-25.7769 Y26.6571 
G01 X-25.7485 Y26.5144 
G01 X-25.6928 Y26.3799 
G01 X-25.6119 Y26.2589 
G01 X-25.5090 Y26.1560 
G01 X-25.3880 Y26.0751 
G01 X-25.2535 Y26.0194 
G01 X-25.1108 Y25.9910 
G00 Z2.0000 
G00 X-25.1108 Y27.9910 
G01 Z-0.1000 F600.00 
G01 X-23.6571 Y27.9910 
G01 X-23.5144 Y28.0194 
G01 X-23.3799 Y28.0751 
G01 X-23.2589 Y28.1560 
G01 X-23.1560 Y28.2589 
G01 X-23.0751 Y28.3799 
G01 X-23.0194 Y28.5144 
G01 X-22.9910 Y28.6571 
G01 X-22.9910 Y28.8028 
G01 X-23.0194 Y28.9455 
G01 X-23.0751 Y29.0800 
G01 X-23.1560 Y29.2010 
G01 X-23.2589 Y29.3039 
G01 X-23.3799 Y29.3848 
G01 X-23.5144 Y29.4405 
G01 X-23.6571 Y29.4689 
G01 X-25.1108 Y29.4689 
G01 X-25.2535 Y29.4405 
G01 X-25.3880 Y29.3848 
G01 X-25.5090 Y29.3039 
G01 X-25.6119 Y29.2010 
G01 X-25.6928 Y29.0800 
G01 X-25.7485 Y28.9455 
G01 X-25.7769 Y28.8028 
G01 X-25.7769 Y28.6571 
G01 X-25.7485 Y28.5144 
G01 X-25.6928 Y28.3799 
G01 X-25.6119 Y28.2589 
G01 X-25.5090 Y28.1560 
G01 X-25.3880 Y28.0751 
G01 X-25.2535 Y28.0194 
G01 X-25.1108 Y27.9910 
G00 Z2.0000 
G00 X-7.6212 Y27.2277 
G01 Z-0.1000 F600.00 
G01 X-9.4331 Y27.2277 
G01 X-9.4643 Y27.2148 
G01 X-9.4882 Y27.1909 
G01 X-9.5011 Y27.1597 
G01 X-9.5011 Y25.3478 
G01 X-9.4882 Y25.3166 
G01 X-9.4643 Y25.2927 
G01 X-9.4331 Y25.2798 
G01 X-7.6212 Y25.2798 
G01 X-7.5900 Y25.2927 
G01 X-7.5661 Y25.3166 
G01 X-7.5532 Y25.3478 
G01 X-7.5532 Y27.1597 
G01 X-7.5661 Y27.1909 
G01 X-7.5900 Y27.2148 
G01 X-7.6212 Y27.2277 
G00 Z2.0000 
G00 X-33.8454 Y12.8030 
G01 Z-0.1000 F600.00 
G01 X-32.1545 Y12.8030 
G01 X-31.9909 Y12.8355 
G01 X-31.8367 Y12.8994 
G01 X-31.6980 Y12.9921 
G01 X-31.5801 Y13.1100 
G01 X-31.4874 Y13.2487 
G01 X-31.4235 Y13.4029 
G01 X-31.3910 Y13.5665 
G01 X-31.3910 Y13.7334 
G01 X-31.4235 Y13.8970 
G01 X-31.4874 Y14.0512 
G01 X-31.5801 Y14.1899 
G01 X-31.6980 Y14.3078 
G01 X-31.8367 Y14.4005 
G01 X-31.9909 Y14.4644 
G01 X-32.1545 Y14.4969 
G01 X-33.8454 Y14.4969 
G01 X-34.0090 Y14.4644 
G01 X-34.1632 Y14.4005 
G01 X-34.3019 Y14.3078 
G01 X-34.4198 Y14.1899 
G01 X-34.5125 Y14.0512 
G01 X-34.5764 Y13.8970 
G01 X-34.6089 Y13.7334 
G01 X-34.6089 Y13.5665 
G01 X-34.5764 Y13.4029 
G01 X-34.5125 Y13.2487 
G01 X-34.4198 Y13.1100 
G01 X-34.3019 Y12.9921 
G01 X-34.1632 Y12.8994 
G01 X-34.0090 Y12.8355 
G01 X-33.8454 Y12.8030 
G00 Z2.0000 
G00 X-33.8454 Y15.3430 
G01 Z-0.1000 F600.00 
G01 X-32.1545 Y15.3430 
G01 X-31.9909 Y15.3755 
G01 X-31.8367 Y15.4394 
G01 X-31.6980 Y15.5321 
G01 X-31.5801 Y15.6500 
G01 X-31.4874 Y15.7887 
G01 X-31.4235 Y15.9429 
G01 X-31.3910 Y16.1065 
G01 X-31.3910 Y16.2734 
G01 X-31.4235 Y16.4370 
G01 X-31.4874 Y16.5912 
G01 X-31.5801 Y16.7299 
G01 X-31.6980 Y16.8478 
G01 X-31.8367 Y16.9405 
G01 X-31.9909 Y17.0044 
G01 X-32.1545 Y17.0369 
G01 X-33.8454 Y17.0369 
G01 X-34.0090 Y17.0044 
G01 X-34.1632 Y16.9405 
G01 X-34.3019 Y16.8478 
G01 X-34.4198 Y16.7299 
G01 X-34.5125 Y16.5912 
G01 X-34.5764 Y16.4370 
G01 X-34.6089 Y16.2734 
G01 X-34.6089 Y16.1065 
G01 X-34.5764 Y15.9429 
G01 X-34.5125 Y15.7887 
G01 X-34.4198 Y15.6500 
G01 X-34.3019 Y15.5321 
G01 X-34.1632 Y15.4394 
G01 X-34.0090 Y15.3755 
G01 X-33.8454 Y15.3430 
G00 Z2.0000 
G00 X-33.8454 Y17.8830 
G01 Z-0.1000 F600.00 
G01 X-32.1545 Y17.8830 
G01 X-31.9909 Y17.9155 
G01 X-31.8367 Y17.9794 
G01 X-31.6980 Y18.0721 
G01 X-31.5801 Y18.1900 
G01 X-31.4874 Y18.3287 
G01 X-31.4235 Y18.4829 
G01 X-31.3910 Y18.6465 
G01 X-31.3910 Y18.8134 
G01 X-31.4235 Y18.9770 
G01 X-31.4874 Y19.1312 
G01 X-31.5801 Y19.2699 
G01 X-31.6980 Y19.3878 
G01 X-31.8367 Y19.4805 
G01 X-31.9909 Y19.5444 
G01 X-32.1545 Y19.5769 
G01 X-33.8454 Y19.5769 
G01 X-34.0090 Y19.5444 
G01 X-34.1632 Y19.4805 
G01 X-34.3019 Y19.3878 
G01 X-34.4198 Y19.2699 
G01 X-34.5125 Y19.1312 
G01 X-34.5764 Y18.9770 
G01 X-34.6089 Y18.8134 
G01 X-34.6089 Y18.6465 
G01 X-34.5764 Y18.4829 
G01 X-34.5125 Y18.3287 
G01 X-34.4198 Y18.1900 
G01 X-34.3019 Y18.0721 
G01 X-34.1632 Y17.9794 
G01 X-34.0090 Y17.9155 
G01 X-33.8454 Y17.8830 
G00 Z2.0000 
G00 X-33.8454 Y20.4230 
G01 Z-0.1000 F600.00 
G01 X-32.1545 Y20.4230 
G01 X-31.9909 Y20.4555 
G01 X-31.8367 Y20.5194 
G01 X-31.6980 Y20.6121 
G01 X-31.5801 Y20.7300 
G01 X-31.4874 Y20.8687 
G01 X-31.4235 Y21.0229 
G01 X-31.3910 Y21.1865 
G01 X-31.3910 Y21.3534 
G01 X-31.4235 Y21.5170 
G01 X-31.4874 Y21.6712 
G01 X-31.5801 Y21.8099 
G01 X-31.6980 Y21.9278 
G01 X-31.8367 Y22.0205 
G01 X-31.9909 Y22.0844 
G01 X-32.1545 Y22.1169 
G01 X-33.8454 Y22.1169 
G01 X-34.0090 Y22.0844 
G01 X-34.1632 Y22.0205 
G01 X-34.3019 Y21.9278 
G01 X-34.4198 Y21.8099 
G01 X-34.5125 Y21.6712 
G01 X-34.5764 Y21.5170 
G01 X-34.6089 Y21.3534 
G01 X-34.6089 Y21.1865 
G01 X-34.5764 Y21.0229 
G01 X-34.5125 Y20.8687 
G01 X-34.4198 Y20.7300 
G01 X-34.3019 Y20.6121 
G01 X-34.1632 Y20.5194 
G01 X-34.0090 Y20.4555 
G01 X-33.8454 Y20.4230 
G00 Z2.0000 
G00 X-33.8454 Y22.9630 
G01 Z-0.1000 F600.00 
G01 X-32.1545 Y22.9630 
G01 X-31.9909 Y22.9955 
G01 X-31.8367 Y23.0594 
G01 X-31.6980 Y23.1521 
G01 X-31.5801 Y23.2700 
G01 X-31.4874 Y23.4087 
G01 X-31.4235 Y23.5629 
G01 X-31.3910 Y23.7265 
G01 X-31.3910 Y23.8934 
G01 X-31.4235 Y24.0570 
G01 X-31.4874 Y24.2112 
G01 X-31.5801 Y24.3499 
G01 X-31.6980 Y24.4678 
G01 X-31.8367 Y24.5605 
G01 X-31.9909 Y24.6244 
G01 X-32.1545 Y24.6569 
G01 X-33.8454 Y24.6569 
G01 X-34.0090 Y24.6244 
G01 X-34.1632 Y24.5605 
G01 X-34.3019 Y24.4678 
G01 X-34.4198 Y24.3499 
G01 X-34.5125 Y24.2112 
G01 X-34.5764 Y24.0570 
G01 X-34.6089 Y23.8934 
G01 X-34.6089 Y23.7265 
G01 X-34.5764 Y23.5629 
G01 X-34.5125 Y23.4087 
G01 X-34.4198 Y23.2700 
G01 X-34.3019 Y23.1521 
G01 X-34.1632 Y23.0594 
G01 X-34.0090 Y22.9955 
G01 X-33.8454 Y22.9630 
G00 Z2.0000 
G00 X-33.8454 Y25.5030 
G01 Z-0.1000 F600.00 
G01 X-32.1545 Y25.5030 
G01 X-31.9909 Y25.5355 
G01 X-31.8367 Y25.5994 
G01 X-31.6980 Y25.6921 
G01 X-31.5801 Y25.8100 
G01 X-31.4874 Y25.9487 
G01 X-31.4235 Y26.1029 
G01 X-31.3910 Y26.2665 
G01 X-31.3910 Y26.4334 
G01 X-31.4235 Y26.5970 
G01 X-31.4874 Y26.7512 
G01 X-31.5801 Y26.8899 
G01 X-31.6980 Y27.0078 
G01 X-31.8367 Y27.1005 
G01 X-31.9909 Y27.1644 
G01 X-32.1545 Y27.1969 
G01 X-33.8454 Y27.1969 
G01 X-34.0090 Y27.1644 
G01 X-34.1632 Y27.1005 
G01 X-34.3019 Y27.0078 
G01 X-34.4198 Y26.8899 
G01 X-34.5125 Y26.7512 
G01 X-34.5764 Y26.5970 
G01 X-34.6089 Y26.4334 
G01 X-34.6089 Y26.2665 
G01 X-34.5764 Y26.1029 
G01 X-34.5125 Y25.9487 
G01 X-34.4198 Y25.8100 
G01 X-34.3019 Y25.6921 
G01 X-34.1632 Y25.5994 
G01 X-34.0090 Y25.5355 
G01 X-33.8454 Y25.5030 
G00 Z2.0000 
G00 X-33.8454 Y28.0430 
G01 Z-0.1000 F600.00 
G01 X-32.1545 Y28.0430 
G01 X-31.9909 Y28.0755 
G01 X-31.8367 Y28.1394 
G01 X-31.6980 Y28.2321 
G01 X-31.5801 Y28.3500 
G01 X-31.4874 Y28.4887 
G01 X-31.4235 Y28.6429 
G01 X-31.3910 Y28.8065 
G01 X-31.3910 Y28.9734 
G01 X-31.4235 Y29.1370 
G01 X-31.4874 Y29.2912 
G01 X-31.5801 Y29.4299 
G01 X-31.6980 Y29.5478 
G01 X-31.8367 Y29.6405 
G01 X-31.9909 Y29.7044 
G01 X-32.1545 Y29.7369 
G01 X-33.8454 Y29.7369 
G01 X-34.0090 Y29.7044 
G01 X-34.1632 Y29.6405 
G01 X-34.3019 Y29.5478 
G01 X-34.4198 Y29.4299 
G01 X-34.5125 Y29.2912 
G01 X-34.5764 Y29.1370 
G01 X-34.6089 Y28.9734 
G01 X-34.6089 Y28.8065 
G01 X-34.5764 Y28.6429 
G01 X-34.5125 Y28.4887 
G01 X-34.4198 Y28.3500 
G01 X-34.3019 Y28.2321 
G01 X-34.1632 Y28.1394 
G01 X-34.0090 Y28.0755 
G01 X-33.8454 Y28.0430 
G00 Z2.0000 
G00 X-33.8454 Y10.2630 
G01 Z-0.1000 F600.00 
G01 X-32.1545 Y10.2630 
G01 X-31.9909 Y10.2955 
G01 X-31.8367 Y10.3594 
G01 X-31.6980 Y10.4521 
G01 X-31.5801 Y10.5700 
G01 X-31.4874 Y10.7087 
G01 X-31.4235 Y10.8629 
G01 X-31.3910 Y11.0265 
G01 X-31.3910 Y11.1934 
G01 X-31.4235 Y11.3570 
G01 X-31.4874 Y11.5112 
G01 X-31.5801 Y11.6499 
G01 X-31.6980 Y11.7678 
G01 X-31.8367 Y11.8605 
G01 X-31.9909 Y11.9244 
G01 X-32.1545 Y11.9569 
G01 X-33.8454 Y11.9569 
G01 X-34.0090 Y11.9244 
G01 X-34.1632 Y11.8605 
G01 X-34.3019 Y11.7678 
G01 X-34.4198 Y11.6499 
G01 X-34.5125 Y11.5112 
G01 X-34.5764 Y11.3570 
G01 X-34.6089 Y11.1934 
G01 X-34.6089 Y11.0265 
G01 X-34.5764 Y10.8629 
G01 X-34.5125 Y10.7087 
G01 X-34.4198 Y10.5700 
G01 X-34.3019 Y10.4521 
G01 X-34.1632 Y10.3594 
G01 X-34.0090 Y10.2955 
G01 X-33.8454 Y10.2630 
(File Footer)
G00 Z2.0000 
G00 Z10.0000 
M05
M02
