( This gcode generated by /home/mattvenn/.eagle/ulp/pcb-gcode.ulp )
( Copyright 2005 by John Johnson. See readme.txt for licensing terms. )

( This file generated from the board /home/mattvenn/eagle-circuit-designs/hope rm12b bob/bob1.brd )
( This file generated 20/01/2012 14:00 )

G21

G90
G00 Z10.0000 
G00 X0 Y0
M03
G04 P3.000000
G00 Z2.0000 
G00 X4.2038 Y43.2718 
G01 Z-0.1000 F600.00 
G01 X4.2038 Y44.7281 
G01 X4.2167 Y44.7593 
G01 X4.2406 Y44.7832 
G01 X4.2718 Y44.7961 
G01 X5.7281 Y44.7961 
G01 X5.7593 Y44.7832 
G01 X5.7832 Y44.7593 
G01 X5.7961 Y44.7281 
G01 X5.7961 Y44.4913 
G01 X13.0647 Y44.4913 
G01 X13.1896 Y44.4578 
G01 X13.3017 Y44.3931 
G01 X13.3931 Y44.3017 
G01 X13.4578 Y44.1896 
G01 X13.4913 Y44.0647 
G01 X13.4913 Y43.9352 
G01 X13.4633 Y43.8308 
G01 X13.4689 Y43.8028 
G01 X13.4689 Y43.6571 
G01 X13.4405 Y43.5144 
G01 X13.3848 Y43.3799 
G01 X13.3039 Y43.2589 
G01 X13.2010 Y43.1560 
G01 X13.0800 Y43.0751 
G01 X12.9455 Y43.0194 
G01 X12.8028 Y42.9910 
G01 X12.6571 Y42.9910 
G01 X12.5144 Y43.0194 
G01 X12.3799 Y43.0751 
G01 X12.2589 Y43.1560 
G01 X12.1560 Y43.2589 
G01 X12.0751 Y43.3799 
G01 X12.0219 Y43.5086 
G01 X5.7961 Y43.5086 
G01 X5.7961 Y43.2718 
G01 X5.7832 Y43.2406 
G01 X5.7593 Y43.2167 
G01 X5.7281 Y43.2038 
G01 X5.4913 Y43.2038 
G01 X5.4913 Y23.4913 
G01 X26.9352 Y23.4913 
G01 X27.0647 Y23.4913 
G01 X27.1896 Y23.4578 
G01 X27.3017 Y23.3931 
G01 X27.3931 Y23.3017 
G01 X27.4578 Y23.1896 
G01 X27.4913 Y23.0647 
G01 X27.4913 Y20.0647 
G01 X27.4913 Y19.9352 
G01 X27.4578 Y19.8103 
G01 X27.3931 Y19.6982 
G01 X27.3017 Y19.6068 
G01 X27.1896 Y19.5421 
G01 X27.0647 Y19.5086 
G01 X5.4913 Y19.5086 
G01 X5.4913 Y17.4913 
G01 X27.0647 Y17.4913 
G01 X27.1896 Y17.4578 
G01 X27.3017 Y17.3931 
G01 X27.3931 Y17.3017 
G01 X27.4578 Y17.1896 
G01 X27.4913 Y17.0647 
G01 X27.4913 Y16.9352 
G01 X27.4913 Y16.9351 
G01 X27.4913 Y14.0647 
G01 X27.4913 Y13.9352 
G01 X27.4578 Y13.8103 
G01 X27.3931 Y13.6982 
G01 X27.3017 Y13.6068 
G01 X27.1896 Y13.5421 
G01 X27.0647 Y13.5086 
G01 X5.4913 Y13.5086 
G01 X5.4913 Y11.4913 
G01 X26.9352 Y11.4913 
G01 X27.0647 Y11.4913 
G01 X27.1896 Y11.4578 
G01 X27.3017 Y11.3931 
G01 X27.3931 Y11.3017 
G01 X27.4578 Y11.1896 
G01 X27.4913 Y11.0647 
G01 X27.4913 Y8.0647 
G01 X27.4913 Y7.9352 
G01 X27.4578 Y7.8103 
G01 X27.3931 Y7.6982 
G01 X27.3017 Y7.6068 
G01 X27.1896 Y7.5421 
G01 X27.0647 Y7.5086 
G01 X4.9352 Y7.5086 
G01 X4.8103 Y7.5421 
G01 X4.6982 Y7.6068 
G01 X4.6068 Y7.6982 
G01 X4.5421 Y7.8103 
G01 X4.5086 Y7.9352 
G01 X4.5086 Y8.0647 
G01 X4.5421 Y8.1896 
G01 X4.6068 Y8.3017 
G01 X4.6982 Y8.3931 
G01 X4.8103 Y8.4578 
G01 X4.9352 Y8.4913 
G01 X26.5086 Y8.4913 
G01 X26.5086 Y10.5086 
G01 X4.9352 Y10.5086 
G01 X4.8103 Y10.5421 
G01 X4.6982 Y10.6068 
G01 X4.6068 Y10.6982 
G01 X4.5421 Y10.8103 
G01 X4.5086 Y10.9352 
G01 X4.5086 Y11.0647 
G01 X4.5086 Y14.0647 
G01 X4.5421 Y14.1896 
G01 X4.6068 Y14.3017 
G01 X4.6982 Y14.3931 
G01 X4.8103 Y14.4578 
G01 X4.9352 Y14.4913 
G01 X5.0647 Y14.4913 
G01 X26.5086 Y14.4913 
G01 X26.5086 Y16.5086 
G01 X4.9352 Y16.5086 
G01 X4.8103 Y16.5421 
G01 X4.6982 Y16.6068 
G01 X4.6068 Y16.6982 
G01 X4.5421 Y16.8103 
G01 X4.5086 Y16.9352 
G01 X4.5086 Y17.0647 
G01 X4.5086 Y20.0647 
G01 X4.5421 Y20.1896 
G01 X4.6068 Y20.3017 
G01 X4.6982 Y20.3931 
G01 X4.8103 Y20.4578 
G01 X4.9352 Y20.4913 
G01 X5.0647 Y20.4913 
G01 X26.5086 Y20.4913 
G01 X26.5086 Y22.5086 
G01 X4.9352 Y22.5086 
G01 X4.8103 Y22.5421 
G01 X4.6982 Y22.6068 
G01 X4.6068 Y22.6982 
G01 X4.5421 Y22.8103 
G01 X4.5086 Y22.9352 
G01 X4.5086 Y23.0647 
G01 X4.5086 Y43.2038 
G01 X4.2718 Y43.2038 
G01 X4.2406 Y43.2167 
G01 X4.2167 Y43.2406 
G01 X4.2038 Y43.2718 
G00 Z2.0000 
G00 X24.3491 Y39.4689 
G01 Z-0.1000 F600.00 
G01 X25.8028 Y39.4689 
G01 X25.9455 Y39.4405 
G01 X26.0800 Y39.3848 
G01 X26.2010 Y39.3039 
G01 X26.3039 Y39.2010 
G01 X26.3848 Y39.0800 
G01 X26.4405 Y38.9455 
G01 X26.4689 Y38.8028 
G01 X26.4689 Y38.6571 
G01 X26.4405 Y38.5144 
G01 X26.3848 Y38.3799 
G01 X26.3039 Y38.2589 
G01 X26.2010 Y38.1560 
G01 X26.0800 Y38.0751 
G01 X25.9455 Y38.0194 
G01 X25.8028 Y37.9910 
G01 X24.3491 Y37.9910 
G01 X24.2064 Y38.0194 
G01 X24.0719 Y38.0751 
G01 X23.9509 Y38.1560 
G01 X23.8480 Y38.2589 
G01 X23.7671 Y38.3799 
G01 X23.7114 Y38.5144 
G01 X23.6830 Y38.6571 
G01 X23.6830 Y38.8028 
G01 X23.7114 Y38.9455 
G01 X23.7671 Y39.0800 
G01 X23.8480 Y39.2010 
G01 X23.9509 Y39.3039 
G01 X24.0719 Y39.3848 
G01 X24.2064 Y39.4405 
G01 X24.3491 Y39.4689 
G00 Z2.0000 
G00 X29.1108 Y37.9910 
G01 Z-0.1000 F600.00 
G01 X27.6571 Y37.9910 
G01 X27.5144 Y38.0194 
G01 X27.3799 Y38.0751 
G01 X27.2589 Y38.1560 
G01 X27.1560 Y38.2589 
G01 X27.0751 Y38.3799 
G01 X27.0194 Y38.5144 
G01 X26.9910 Y38.6571 
G01 X26.9910 Y38.8028 
G01 X27.0194 Y38.9455 
G01 X27.0751 Y39.0800 
G01 X27.1560 Y39.2010 
G01 X27.2589 Y39.3039 
G01 X27.3799 Y39.3848 
G01 X27.5144 Y39.4405 
G01 X27.6571 Y39.4689 
G01 X29.1108 Y39.4689 
G01 X29.2535 Y39.4405 
G01 X29.3880 Y39.3848 
G01 X29.5090 Y39.3039 
G01 X29.6119 Y39.2010 
G01 X29.6928 Y39.0800 
G01 X29.7485 Y38.9455 
G01 X29.7769 Y38.8028 
G01 X29.7769 Y38.6571 
G01 X29.7485 Y38.5144 
G01 X29.6928 Y38.3799 
G01 X29.6119 Y38.2589 
G01 X29.5090 Y38.1560 
G01 X29.3880 Y38.0751 
G01 X29.2535 Y38.0194 
G01 X29.1108 Y37.9910 
G00 Z2.0000 
G00 X29.1108 Y39.9910 
G01 Z-0.1000 F600.00 
G01 X27.6571 Y39.9910 
G01 X27.5144 Y40.0194 
G01 X27.3799 Y40.0751 
G01 X27.2589 Y40.1560 
G01 X27.1560 Y40.2589 
G01 X27.0751 Y40.3799 
G01 X27.0194 Y40.5144 
G01 X26.9910 Y40.6571 
G01 X26.9910 Y40.8028 
G01 X27.0194 Y40.9455 
G01 X27.0751 Y41.0800 
G01 X27.1560 Y41.2010 
G01 X27.2589 Y41.3039 
G01 X27.3799 Y41.3848 
G01 X27.5144 Y41.4405 
G01 X27.6571 Y41.4689 
G01 X29.1108 Y41.4689 
G01 X29.2535 Y41.4405 
G01 X29.3880 Y41.3848 
G01 X29.5090 Y41.3039 
G01 X29.6119 Y41.2010 
G01 X29.6928 Y41.0800 
G01 X29.7485 Y40.9455 
G01 X29.7769 Y40.8028 
G01 X29.7769 Y40.6571 
G01 X29.7485 Y40.5144 
G01 X29.6928 Y40.3799 
G01 X29.6119 Y40.2589 
G01 X29.5090 Y40.1560 
G01 X29.3880 Y40.0751 
G01 X29.2535 Y40.0194 
G01 X29.1108 Y39.9910 
G00 Z2.0000 
G00 X29.1108 Y45.9910 
G01 Z-0.1000 F600.00 
G01 X27.6571 Y45.9910 
G01 X27.5144 Y46.0194 
G01 X27.3799 Y46.0751 
G01 X27.2589 Y46.1560 
G01 X27.1560 Y46.2589 
G01 X27.0751 Y46.3799 
G01 X27.0194 Y46.5144 
G01 X26.9910 Y46.6571 
G01 X26.9910 Y46.8028 
G01 X27.0194 Y46.9455 
G01 X27.0751 Y47.0800 
G01 X27.1560 Y47.2010 
G01 X27.2589 Y47.3039 
G01 X27.3799 Y47.3848 
G01 X27.5144 Y47.4405 
G01 X27.6571 Y47.4689 
G01 X29.1108 Y47.4689 
G01 X29.2535 Y47.4405 
G01 X29.3880 Y47.3848 
G01 X29.5090 Y47.3039 
G01 X29.6119 Y47.2010 
G01 X29.6928 Y47.0800 
G01 X29.7485 Y46.9455 
G01 X29.7769 Y46.8028 
G01 X29.7769 Y46.6571 
G01 X29.7485 Y46.5144 
G01 X29.6928 Y46.3799 
G01 X29.6119 Y46.2589 
G01 X29.5090 Y46.1560 
G01 X29.3880 Y46.0751 
G01 X29.2535 Y46.0194 
G01 X29.1108 Y45.9910 
G00 Z2.0000 
G00 X39.3629 Y20.7141 
G01 Z-0.1000 F600.00 
G01 X36.6370 Y20.7141 
G01 X36.4283 Y20.7471 
G01 X36.2274 Y20.8124 
G01 X36.0391 Y20.9083 
G01 X35.8682 Y21.0325 
G01 X35.7188 Y21.1819 
G01 X35.5946 Y21.3528 
G01 X35.4987 Y21.5411 
G01 X35.4334 Y21.7420 
G01 X35.4004 Y21.9507 
G01 X35.4004 Y22.1620 
G01 X35.4334 Y22.3707 
G01 X35.4987 Y22.5716 
G01 X35.5946 Y22.7599 
G01 X35.7188 Y22.9308 
G01 X35.8682 Y23.0802 
G01 X36.0391 Y23.2044 
G01 X36.2274 Y23.3003 
G01 X36.4283 Y23.3656 
G01 X36.6370 Y23.3986 
G01 X39.3629 Y23.3986 
G01 X39.5716 Y23.3656 
G01 X39.7725 Y23.3003 
G01 X39.9608 Y23.2044 
G01 X40.1317 Y23.0802 
G01 X40.2811 Y22.9308 
G01 X40.4053 Y22.7599 
G01 X40.5012 Y22.5716 
G01 X40.5665 Y22.3707 
G01 X40.5995 Y22.1620 
G01 X40.5995 Y21.9507 
G01 X40.5665 Y21.7420 
G01 X40.5012 Y21.5411 
G01 X40.4053 Y21.3528 
G01 X40.2811 Y21.1819 
G01 X40.1317 Y21.0325 
G01 X39.9608 Y20.9083 
G01 X39.7725 Y20.8124 
G01 X39.5716 Y20.7471 
G01 X39.3629 Y20.7141 
G00 Z2.0000 
G00 X39.3629 Y24.6765 
G01 Z-0.1000 F600.00 
G01 X36.6370 Y24.6765 
G01 X36.4283 Y24.7095 
G01 X36.2274 Y24.7748 
G01 X36.0391 Y24.8707 
G01 X35.8682 Y24.9949 
G01 X35.7188 Y25.1443 
G01 X35.5946 Y25.3152 
G01 X35.4987 Y25.5035 
G01 X35.4579 Y25.6290 
G01 X26.0513 Y25.6290 
G01 X25.9486 Y25.6290 
G01 X25.8495 Y25.6556 
G01 X25.7606 Y25.7069 
G01 X25.6881 Y25.7794 
G01 X25.6368 Y25.8683 
G01 X25.6102 Y25.9674 
G01 X25.6102 Y34.6286 
G01 X25.5795 Y34.6368 
G01 X25.4906 Y34.6881 
G01 X25.4181 Y34.7606 
G01 X25.3668 Y34.8495 
G01 X25.3402 Y34.9486 
G01 X25.3402 Y35.9910 
G01 X24.3491 Y35.9910 
G01 X24.2064 Y36.0194 
G01 X24.0719 Y36.0751 
G01 X23.9509 Y36.1560 
G01 X23.8480 Y36.2589 
G01 X23.7671 Y36.3799 
G01 X23.7114 Y36.5144 
G01 X23.6830 Y36.6571 
G01 X23.6830 Y36.8028 
G01 X23.7114 Y36.9455 
G01 X23.7671 Y37.0800 
G01 X23.8480 Y37.2010 
G01 X23.9509 Y37.3039 
G01 X24.0719 Y37.3848 
G01 X24.2064 Y37.4405 
G01 X24.3491 Y37.4689 
G01 X25.8028 Y37.4689 
G01 X25.9455 Y37.4405 
G01 X26.0800 Y37.3848 
G01 X26.2010 Y37.3039 
G01 X26.3039 Y37.2010 
G01 X26.3848 Y37.0800 
G01 X26.4405 Y36.9455 
G01 X26.4689 Y36.8028 
G01 X26.4689 Y36.6571 
G01 X26.4405 Y36.5144 
G01 X26.3848 Y36.3799 
G01 X26.3039 Y36.2589 
G01 X26.2010 Y36.1560 
G01 X26.1197 Y36.1017 
G01 X26.1197 Y35.3713 
G01 X26.1504 Y35.3631 
G01 X26.2393 Y35.3118 
G01 X26.3118 Y35.2393 
G01 X26.3631 Y35.1504 
G01 X26.3897 Y35.0513 
G01 X26.3897 Y34.9486 
G01 X26.3897 Y26.4085 
G01 X35.4579 Y26.4085 
G01 X35.4987 Y26.5340 
G01 X35.5946 Y26.7223 
G01 X35.7188 Y26.8932 
G01 X35.8682 Y27.0426 
G01 X36.0391 Y27.1668 
G01 X36.2274 Y27.2627 
G01 X36.4283 Y27.3280 
G01 X36.6370 Y27.3610 
G01 X39.3629 Y27.3610 
G01 X39.5716 Y27.3280 
G01 X39.7725 Y27.2627 
G01 X39.9608 Y27.1668 
G01 X40.1317 Y27.0426 
G01 X40.2811 Y26.8932 
G01 X40.4053 Y26.7223 
G01 X40.5012 Y26.5340 
G01 X40.5665 Y26.3331 
G01 X40.5995 Y26.1244 
G01 X40.5995 Y25.9131 
G01 X40.5665 Y25.7044 
G01 X40.5012 Y25.5035 
G01 X40.4053 Y25.3152 
G01 X40.2811 Y25.1443 
G01 X40.1317 Y24.9949 
G01 X39.9608 Y24.8707 
G01 X39.7725 Y24.7748 
G01 X39.5716 Y24.7095 
G01 X39.3629 Y24.6765 
G00 Z2.0000 
G00 X39.3629 Y28.6389 
G01 Z-0.1000 F600.00 
G01 X36.6370 Y28.6389 
G01 X36.4283 Y28.6719 
G01 X36.2274 Y28.7372 
G01 X36.0391 Y28.8331 
G01 X35.8682 Y28.9573 
G01 X35.7188 Y29.1067 
G01 X35.5946 Y29.2776 
G01 X35.4987 Y29.4659 
G01 X35.4334 Y29.6668 
G01 X35.4004 Y29.8755 
G01 X35.4004 Y30.0868 
G01 X35.4334 Y30.2955 
G01 X35.4987 Y30.4964 
G01 X35.5946 Y30.6847 
G01 X35.7188 Y30.8556 
G01 X35.8682 Y31.0050 
G01 X36.0391 Y31.1292 
G01 X36.2274 Y31.2251 
G01 X36.4283 Y31.2904 
G01 X36.6370 Y31.3234 
G01 X39.3629 Y31.3234 
G01 X39.5716 Y31.2904 
G01 X39.7725 Y31.2251 
G01 X39.9608 Y31.1292 
G01 X40.1317 Y31.0050 
G01 X40.2811 Y30.8556 
G01 X40.4053 Y30.6847 
G01 X40.5012 Y30.4964 
G01 X40.5420 Y30.3709 
G01 X43.6102 Y30.3709 
G01 X43.6102 Y53.6102 
G01 X20.3897 Y53.6102 
G01 X20.3897 Y42.3897 
G01 X23.7631 Y42.3897 
G01 X23.7114 Y42.5144 
G01 X23.6830 Y42.6571 
G01 X23.6830 Y42.8028 
G01 X23.7114 Y42.9455 
G01 X23.7671 Y43.0800 
G01 X23.8480 Y43.2010 
G01 X23.9509 Y43.3039 
G01 X24.0719 Y43.3848 
G01 X24.2064 Y43.4405 
G01 X24.3491 Y43.4689 
G01 X25.8028 Y43.4689 
G01 X25.9455 Y43.4405 
G01 X26.0800 Y43.3848 
G01 X26.2010 Y43.3039 
G01 X26.3039 Y43.2010 
G01 X26.3848 Y43.0800 
G01 X26.4405 Y42.9455 
G01 X26.4689 Y42.8028 
G01 X26.4689 Y42.6571 
G01 X26.4405 Y42.5144 
G01 X26.3848 Y42.3799 
G01 X26.3039 Y42.2589 
G01 X26.2010 Y42.1560 
G01 X26.1197 Y42.1017 
G01 X26.1197 Y41.9486 
G01 X26.0931 Y41.8495 
G01 X26.0418 Y41.7606 
G01 X25.9693 Y41.6881 
G01 X25.8804 Y41.6368 
G01 X25.7813 Y41.6102 
G01 X25.6786 Y41.6102 
G01 X19.9486 Y41.6102 
G01 X19.8495 Y41.6368 
G01 X19.7606 Y41.6881 
G01 X19.6881 Y41.7606 
G01 X19.6368 Y41.8495 
G01 X19.6102 Y41.9486 
G01 X19.6102 Y42.0513 
G01 X19.6102 Y54.0513 
G01 X19.6368 Y54.1504 
G01 X19.6881 Y54.2393 
G01 X19.7606 Y54.3118 
G01 X19.8495 Y54.3631 
G01 X19.9486 Y54.3897 
G01 X20.0513 Y54.3897 
G01 X44.0513 Y54.3897 
G01 X44.1504 Y54.3631 
G01 X44.2393 Y54.3118 
G01 X44.3118 Y54.2393 
G01 X44.3631 Y54.1504 
G01 X44.3897 Y54.0513 
G01 X44.3897 Y53.9486 
G01 X44.3897 Y29.9298 
G01 X44.3631 Y29.8307 
G01 X44.3118 Y29.7418 
G01 X44.2393 Y29.6693 
G01 X44.1504 Y29.6180 
G01 X44.0513 Y29.5914 
G01 X43.9486 Y29.5914 
G01 X40.5420 Y29.5914 
G01 X40.5012 Y29.4659 
G01 X40.4053 Y29.2776 
G01 X40.2811 Y29.1067 
G01 X40.1317 Y28.9573 
G01 X39.9608 Y28.8331 
G01 X39.7725 Y28.7372 
G01 X39.5716 Y28.6719 
G01 X39.3629 Y28.6389 
G00 Z2.0000 
G00 X39.3629 Y32.6013 
G01 Z-0.1000 F600.00 
G01 X36.6370 Y32.6013 
G01 X36.4283 Y32.6343 
G01 X36.2274 Y32.6996 
G01 X36.0391 Y32.7955 
G01 X35.8682 Y32.9197 
G01 X35.7188 Y33.0691 
G01 X35.5946 Y33.2400 
G01 X35.4987 Y33.4283 
G01 X35.4334 Y33.6292 
G01 X35.4004 Y33.8379 
G01 X35.4004 Y34.0492 
G01 X35.4334 Y34.2579 
G01 X35.4987 Y34.4588 
G01 X35.5946 Y34.6471 
G01 X35.7188 Y34.8180 
G01 X35.8682 Y34.9674 
G01 X36.0391 Y35.0916 
G01 X36.2274 Y35.1875 
G01 X36.4283 Y35.2528 
G01 X36.6370 Y35.2858 
G01 X39.3629 Y35.2858 
G01 X39.5716 Y35.2528 
G01 X39.7725 Y35.1875 
G01 X39.9608 Y35.0916 
G01 X40.1317 Y34.9674 
G01 X40.2811 Y34.8180 
G01 X40.4053 Y34.6471 
G01 X40.5012 Y34.4588 
G01 X40.5420 Y34.3333 
G01 X42.6102 Y34.3333 
G01 X42.6102 Y52.6102 
G01 X22.3897 Y52.6102 
G01 X22.3897 Y45.3897 
G01 X24.0839 Y45.3897 
G01 X24.2064 Y45.4405 
G01 X24.3491 Y45.4689 
G01 X25.8028 Y45.4689 
G01 X25.9455 Y45.4405 
G01 X26.0800 Y45.3848 
G01 X26.2010 Y45.3039 
G01 X26.3039 Y45.2010 
G01 X26.3848 Y45.0800 
G01 X26.4405 Y44.9455 
G01 X26.4689 Y44.8028 
G01 X26.4689 Y44.6571 
G01 X26.4405 Y44.5144 
G01 X26.3848 Y44.3799 
G01 X26.3039 Y44.2589 
G01 X26.2010 Y44.1560 
G01 X26.0800 Y44.0751 
G01 X25.9455 Y44.0194 
G01 X25.8028 Y43.9910 
G01 X24.3491 Y43.9910 
G01 X24.2064 Y44.0194 
G01 X24.0719 Y44.0751 
G01 X23.9509 Y44.1560 
G01 X23.8480 Y44.2589 
G01 X23.7671 Y44.3799 
G01 X23.7114 Y44.5144 
G01 X23.6924 Y44.6102 
G01 X21.9486 Y44.6102 
G01 X21.8495 Y44.6368 
G01 X21.7606 Y44.6881 
G01 X21.6881 Y44.7606 
G01 X21.6368 Y44.8495 
G01 X21.6102 Y44.9486 
G01 X21.6102 Y45.0513 
G01 X21.6102 Y53.0513 
G01 X21.6368 Y53.1504 
G01 X21.6881 Y53.2393 
G01 X21.7606 Y53.3118 
G01 X21.8495 Y53.3631 
G01 X21.9486 Y53.3897 
G01 X22.0513 Y53.3897 
G01 X43.0513 Y53.3897 
G01 X43.1504 Y53.3631 
G01 X43.2393 Y53.3118 
G01 X43.3118 Y53.2393 
G01 X43.3631 Y53.1504 
G01 X43.3897 Y53.0513 
G01 X43.3897 Y52.9486 
G01 X43.3897 Y33.8922 
G01 X43.3631 Y33.7931 
G01 X43.3118 Y33.7042 
G01 X43.2393 Y33.6317 
G01 X43.1504 Y33.5804 
G01 X43.0513 Y33.5538 
G01 X42.9486 Y33.5538 
G01 X40.5420 Y33.5538 
G01 X40.5012 Y33.4283 
G01 X40.4053 Y33.2400 
G01 X40.2811 Y33.0691 
G01 X40.1317 Y32.9197 
G01 X39.9608 Y32.7955 
G01 X39.7725 Y32.6996 
G01 X39.5716 Y32.6343 
G01 X39.3629 Y32.6013 
G00 Z2.0000 
G00 X39.3629 Y36.5637 
G01 Z-0.1000 F600.00 
G01 X36.6370 Y36.5637 
G01 X36.4283 Y36.5967 
G01 X36.2274 Y36.6620 
G01 X36.0391 Y36.7579 
G01 X35.8682 Y36.8821 
G01 X35.7188 Y37.0315 
G01 X35.5946 Y37.2024 
G01 X35.4987 Y37.3907 
G01 X35.4579 Y37.5162 
G01 X32.0513 Y37.5162 
G01 X31.9486 Y37.5162 
G01 X31.8495 Y37.5428 
G01 X31.7606 Y37.5941 
G01 X31.6881 Y37.6666 
G01 X31.6368 Y37.7555 
G01 X31.6102 Y37.8546 
G01 X31.6102 Y42.6102 
G01 X29.7675 Y42.6102 
G01 X29.7485 Y42.5144 
G01 X29.6928 Y42.3799 
G01 X29.6119 Y42.2589 
G01 X29.5090 Y42.1560 
G01 X29.3880 Y42.0751 
G01 X29.2535 Y42.0194 
G01 X29.1108 Y41.9910 
G01 X27.6571 Y41.9910 
G01 X27.5144 Y42.0194 
G01 X27.3799 Y42.0751 
G01 X27.2589 Y42.1560 
G01 X27.1560 Y42.2589 
G01 X27.0751 Y42.3799 
G01 X27.0194 Y42.5144 
G01 X26.9910 Y42.6571 
G01 X26.9910 Y42.8028 
G01 X27.0194 Y42.9455 
G01 X27.0751 Y43.0800 
G01 X27.1560 Y43.2010 
G01 X27.2589 Y43.3039 
G01 X27.3799 Y43.3848 
G01 X27.5144 Y43.4405 
G01 X27.6571 Y43.4689 
G01 X29.1108 Y43.4689 
G01 X29.2535 Y43.4405 
G01 X29.3761 Y43.3897 
G01 X31.9486 Y43.3897 
G01 X32.0513 Y43.3897 
G01 X32.1504 Y43.3631 
G01 X32.2393 Y43.3118 
G01 X32.3118 Y43.2393 
G01 X32.3631 Y43.1504 
G01 X32.3897 Y43.0513 
G01 X32.3897 Y38.2957 
G01 X35.4579 Y38.2957 
G01 X35.4987 Y38.4212 
G01 X35.5946 Y38.6095 
G01 X35.7188 Y38.7804 
G01 X35.8682 Y38.9298 
G01 X36.0391 Y39.0540 
G01 X36.2274 Y39.1499 
G01 X36.4283 Y39.2152 
G01 X36.6370 Y39.2482 
G01 X39.3629 Y39.2482 
G01 X39.5716 Y39.2152 
G01 X39.7725 Y39.1499 
G01 X39.9608 Y39.0540 
G01 X40.1317 Y38.9298 
G01 X40.2811 Y38.7804 
G01 X40.4053 Y38.6095 
G01 X40.5012 Y38.4212 
G01 X40.5665 Y38.2203 
G01 X40.5995 Y38.0116 
G01 X40.5995 Y37.8003 
G01 X40.5665 Y37.5916 
G01 X40.5012 Y37.3907 
G01 X40.4053 Y37.2024 
G01 X40.2811 Y37.0315 
G01 X40.1317 Y36.8821 
G01 X39.9608 Y36.7579 
G01 X39.7725 Y36.6620 
G01 X39.5716 Y36.5967 
G01 X39.3629 Y36.5637 
G00 Z2.0000 
G00 X39.3629 Y40.5261 
G01 Z-0.1000 F600.00 
G01 X36.6370 Y40.5261 
G01 X36.4283 Y40.5591 
G01 X36.2274 Y40.6244 
G01 X36.0391 Y40.7203 
G01 X35.8682 Y40.8445 
G01 X35.7188 Y40.9939 
G01 X35.5946 Y41.1648 
G01 X35.4987 Y41.3531 
G01 X35.4579 Y41.4786 
G01 X34.0513 Y41.4786 
G01 X33.9486 Y41.4786 
G01 X33.8495 Y41.5052 
G01 X33.7606 Y41.5565 
G01 X33.6881 Y41.6290 
G01 X33.6368 Y41.7179 
G01 X33.6102 Y41.8170 
G01 X33.6102 Y43.6102 
G01 X27.7813 Y43.6102 
G01 X27.6786 Y43.6102 
G01 X27.5795 Y43.6368 
G01 X27.4906 Y43.6881 
G01 X27.4181 Y43.7606 
G01 X27.3668 Y43.8495 
G01 X27.3402 Y43.9486 
G01 X27.3402 Y44.1017 
G01 X27.2589 Y44.1560 
G01 X27.1560 Y44.2589 
G01 X27.0751 Y44.3799 
G01 X27.0194 Y44.5144 
G01 X26.9910 Y44.6571 
G01 X26.9910 Y44.8028 
G01 X27.0194 Y44.9455 
G01 X27.0751 Y45.0800 
G01 X27.1560 Y45.2010 
G01 X27.2589 Y45.3039 
G01 X27.3799 Y45.3848 
G01 X27.5144 Y45.4405 
G01 X27.6571 Y45.4689 
G01 X29.1108 Y45.4689 
G01 X29.2535 Y45.4405 
G01 X29.3880 Y45.3848 
G01 X29.5090 Y45.3039 
G01 X29.6119 Y45.2010 
G01 X29.6928 Y45.0800 
G01 X29.7485 Y44.9455 
G01 X29.7769 Y44.8028 
G01 X29.7769 Y44.6571 
G01 X29.7485 Y44.5144 
G01 X29.6968 Y44.3897 
G01 X34.0513 Y44.3897 
G01 X34.1504 Y44.3631 
G01 X34.2393 Y44.3118 
G01 X34.3118 Y44.2393 
G01 X34.3631 Y44.1504 
G01 X34.3897 Y44.0513 
G01 X34.3897 Y43.9486 
G01 X34.3897 Y42.2581 
G01 X35.4579 Y42.2581 
G01 X35.4987 Y42.3836 
G01 X35.5946 Y42.5719 
G01 X35.7188 Y42.7428 
G01 X35.8682 Y42.8922 
G01 X36.0391 Y43.0164 
G01 X36.2274 Y43.1123 
G01 X36.4283 Y43.1776 
G01 X36.6370 Y43.2106 
G01 X39.3629 Y43.2106 
G01 X39.5716 Y43.1776 
G01 X39.7725 Y43.1123 
G01 X39.9608 Y43.0164 
G01 X40.1317 Y42.8922 
G01 X40.2811 Y42.7428 
G01 X40.4053 Y42.5719 
G01 X40.5012 Y42.3836 
G01 X40.5665 Y42.1827 
G01 X40.5995 Y41.9740 
G01 X40.5995 Y41.7627 
G01 X40.5665 Y41.5540 
G01 X40.5012 Y41.3531 
G01 X40.4053 Y41.1648 
G01 X40.2811 Y40.9939 
G01 X40.1317 Y40.8445 
G01 X39.9608 Y40.7203 
G01 X39.7725 Y40.6244 
G01 X39.5716 Y40.5591 
G01 X39.3629 Y40.5261 
G00 Z2.0000 
G00 X39.3629 Y44.4885 
G01 Z-0.1000 F600.00 
G01 X36.6370 Y44.4885 
G01 X36.4283 Y44.5215 
G01 X36.2274 Y44.5868 
G01 X36.0391 Y44.6827 
G01 X35.8682 Y44.8069 
G01 X35.7188 Y44.9563 
G01 X35.5946 Y45.1272 
G01 X35.4987 Y45.3155 
G01 X35.4579 Y45.4410 
G01 X31.9486 Y45.4410 
G01 X31.8495 Y45.4676 
G01 X31.7606 Y45.5189 
G01 X31.6881 Y45.5914 
G01 X31.6368 Y45.6803 
G01 X31.6102 Y45.7794 
G01 X31.6102 Y45.8821 
G01 X31.6102 Y49.6102 
G01 X26.1197 Y49.6102 
G01 X26.1197 Y47.3582 
G01 X26.2010 Y47.3039 
G01 X26.3039 Y47.2010 
G01 X26.3848 Y47.0800 
G01 X26.4405 Y46.9455 
G01 X26.4689 Y46.8028 
G01 X26.4689 Y46.6571 
G01 X26.4405 Y46.5144 
G01 X26.3848 Y46.3799 
G01 X26.3039 Y46.2589 
G01 X26.2010 Y46.1560 
G01 X26.0800 Y46.0751 
G01 X25.9455 Y46.0194 
G01 X25.8028 Y45.9910 
G01 X24.3491 Y45.9910 
G01 X24.2064 Y46.0194 
G01 X24.0719 Y46.0751 
G01 X23.9509 Y46.1560 
G01 X23.8480 Y46.2589 
G01 X23.7671 Y46.3799 
G01 X23.7114 Y46.5144 
G01 X23.6830 Y46.6571 
G01 X23.6830 Y46.8028 
G01 X23.7114 Y46.9455 
G01 X23.7671 Y47.0800 
G01 X23.8480 Y47.2010 
G01 X23.9509 Y47.3039 
G01 X24.0719 Y47.3848 
G01 X24.2064 Y47.4405 
G01 X24.3491 Y47.4689 
G01 X25.3402 Y47.4689 
G01 X25.3402 Y50.0513 
G01 X25.3668 Y50.1504 
G01 X25.4181 Y50.2393 
G01 X25.4906 Y50.3118 
G01 X25.5795 Y50.3631 
G01 X25.6786 Y50.3897 
G01 X25.7813 Y50.3897 
G01 X32.0513 Y50.3897 
G01 X32.1504 Y50.3631 
G01 X32.2393 Y50.3118 
G01 X32.3118 Y50.2393 
G01 X32.3631 Y50.1504 
G01 X32.3897 Y50.0513 
G01 X32.3897 Y49.9486 
G01 X32.3897 Y46.2205 
G01 X35.4579 Y46.2205 
G01 X35.4987 Y46.3460 
G01 X35.5946 Y46.5343 
G01 X35.7188 Y46.7052 
G01 X35.8682 Y46.8546 
G01 X36.0391 Y46.9788 
G01 X36.2274 Y47.0747 
G01 X36.4283 Y47.1400 
G01 X36.6370 Y47.1730 
G01 X39.3629 Y47.1730 
G01 X39.5716 Y47.1400 
G01 X39.7725 Y47.0747 
G01 X39.9608 Y46.9788 
G01 X40.1317 Y46.8546 
G01 X40.2811 Y46.7052 
G01 X40.4053 Y46.5343 
G01 X40.5012 Y46.3460 
G01 X40.5420 Y46.2205 
G01 X41.9486 Y46.2205 
G01 X42.0513 Y46.2205 
G01 X42.1504 Y46.1939 
G01 X42.2393 Y46.1426 
G01 X42.3118 Y46.0701 
G01 X42.3631 Y45.9812 
G01 X42.3897 Y45.8821 
G01 X42.3897 Y36.0513 
G01 X42.3897 Y35.9486 
G01 X42.3631 Y35.8495 
G01 X42.3118 Y35.7606 
G01 X42.2393 Y35.6881 
G01 X42.1504 Y35.6368 
G01 X42.0513 Y35.6102 
G01 X31.1997 Y35.6102 
G01 X31.1997 Y32.3549 
G01 X31.3712 Y32.3549 
G01 X32.1649 Y31.5612 
G01 X32.1649 Y30.4387 
G01 X31.3712 Y29.6450 
G01 X30.2487 Y29.6450 
G01 X29.4550 Y30.4387 
G01 X29.4550 Y30.6102 
G01 X27.7813 Y30.6102 
G01 X27.6786 Y30.6102 
G01 X27.5795 Y30.6368 
G01 X27.4906 Y30.6881 
G01 X27.4181 Y30.7606 
G01 X27.3668 Y30.8495 
G01 X27.3402 Y30.9486 
G01 X27.3402 Y36.1017 
G01 X27.2589 Y36.1560 
G01 X27.1560 Y36.2589 
G01 X27.0751 Y36.3799 
G01 X27.0194 Y36.5144 
G01 X26.9910 Y36.6571 
G01 X26.9910 Y36.8028 
G01 X27.0194 Y36.9455 
G01 X27.0751 Y37.0800 
G01 X27.1560 Y37.2010 
G01 X27.2589 Y37.3039 
G01 X27.3799 Y37.3848 
G01 X27.5144 Y37.4405 
G01 X27.6571 Y37.4689 
G01 X29.1108 Y37.4689 
G01 X29.2535 Y37.4405 
G01 X29.3880 Y37.3848 
G01 X29.5090 Y37.3039 
G01 X29.6119 Y37.2010 
G01 X29.6928 Y37.0800 
G01 X29.7485 Y36.9455 
G01 X29.7769 Y36.8028 
G01 X29.7769 Y36.6571 
G01 X29.7485 Y36.5144 
G01 X29.6928 Y36.3799 
G01 X29.6119 Y36.2589 
G01 X29.5090 Y36.1560 
G01 X29.3880 Y36.0751 
G01 X29.2535 Y36.0194 
G01 X29.1108 Y35.9910 
G01 X28.1197 Y35.9910 
G01 X28.1197 Y31.3897 
G01 X29.4550 Y31.3897 
G01 X29.4550 Y31.5612 
G01 X30.2487 Y32.3549 
G01 X30.4202 Y32.3549 
G01 X30.4202 Y36.0513 
G01 X30.4468 Y36.1504 
G01 X30.4981 Y36.2393 
G01 X30.5706 Y36.3118 
G01 X30.6595 Y36.3631 
G01 X30.7586 Y36.3897 
G01 X30.8613 Y36.3897 
G01 X41.6102 Y36.3897 
G01 X41.6102 Y45.4410 
G01 X40.5420 Y45.4410 
G01 X40.5012 Y45.3155 
G01 X40.4053 Y45.1272 
G01 X40.2811 Y44.9563 
G01 X40.1317 Y44.8069 
G01 X39.9608 Y44.6827 
G01 X39.7725 Y44.5868 
G01 X39.5716 Y44.5215 
G01 X39.3629 Y44.4885 
G00 Z2.0000 
G00 X39.3629 Y48.4509 
G01 Z-0.1000 F600.00 
G01 X36.6370 Y48.4509 
G01 X36.4283 Y48.4839 
G01 X36.2274 Y48.5492 
G01 X36.0391 Y48.6451 
G01 X35.8682 Y48.7693 
G01 X35.7188 Y48.9187 
G01 X35.5946 Y49.0896 
G01 X35.4987 Y49.2779 
G01 X35.4334 Y49.4788 
G01 X35.4004 Y49.6875 
G01 X35.4004 Y49.8988 
G01 X35.4334 Y50.1075 
G01 X35.4987 Y50.3084 
G01 X35.5946 Y50.4967 
G01 X35.7188 Y50.6676 
G01 X35.8682 Y50.8170 
G01 X36.0391 Y50.9412 
G01 X36.2274 Y51.0371 
G01 X36.4283 Y51.1024 
G01 X36.6370 Y51.1354 
G01 X39.3629 Y51.1354 
G01 X39.5716 Y51.1024 
G01 X39.7725 Y51.0371 
G01 X39.9608 Y50.9412 
G01 X40.1317 Y50.8170 
G01 X40.2811 Y50.6676 
G01 X40.4053 Y50.4967 
G01 X40.5012 Y50.3084 
G01 X40.5665 Y50.1075 
G01 X40.5995 Y49.8988 
G01 X40.5995 Y49.6875 
G01 X40.5665 Y49.4788 
G01 X40.5012 Y49.2779 
G01 X40.4053 Y49.0896 
G01 X40.2811 Y48.9187 
G01 X40.1317 Y48.7693 
G01 X39.9608 Y48.6451 
G01 X39.7725 Y48.5492 
G01 X39.5716 Y48.4839 
G01 X39.3629 Y48.4509 
G00 Z2.0000 
G00 X39.3629 Y16.7517 
G01 Z-0.1000 F600.00 
G01 X36.6370 Y16.7517 
G01 X36.4283 Y16.7847 
G01 X36.2274 Y16.8500 
G01 X36.0391 Y16.9459 
G01 X35.8682 Y17.0701 
G01 X35.7188 Y17.2195 
G01 X35.5946 Y17.3904 
G01 X35.4987 Y17.5787 
G01 X35.4334 Y17.7796 
G01 X35.4004 Y17.9883 
G01 X35.4004 Y18.1996 
G01 X35.4334 Y18.4083 
G01 X35.4987 Y18.6092 
G01 X35.5946 Y18.7975 
G01 X35.7188 Y18.9684 
G01 X35.8682 Y19.1178 
G01 X36.0391 Y19.2420 
G01 X36.2274 Y19.3379 
G01 X36.4283 Y19.4032 
G01 X36.6370 Y19.4362 
G01 X39.3629 Y19.4362 
G01 X39.5716 Y19.4032 
G01 X39.7725 Y19.3379 
G01 X39.9608 Y19.2420 
G01 X40.1317 Y19.1178 
G01 X40.2811 Y18.9684 
G01 X40.4053 Y18.7975 
G01 X40.5012 Y18.6092 
G01 X40.5665 Y18.4083 
G01 X40.5995 Y18.1996 
G01 X40.5995 Y17.9883 
G01 X40.5665 Y17.7796 
G01 X40.5012 Y17.5787 
G01 X40.4053 Y17.3904 
G01 X40.2811 Y17.2195 
G01 X40.1317 Y17.0701 
G01 X39.9608 Y16.9459 
G01 X39.7725 Y16.8500 
G01 X39.5716 Y16.7847 
G01 X39.3629 Y16.7517 
G00 Z2.0000 
G00 X39.3629 Y12.7893 
G01 Z-0.1000 F600.00 
G01 X36.6370 Y12.7893 
G01 X36.4283 Y12.8223 
G01 X36.2274 Y12.8876 
G01 X36.0391 Y12.9835 
G01 X35.8682 Y13.1077 
G01 X35.7188 Y13.2571 
G01 X35.5946 Y13.4280 
G01 X35.4987 Y13.6163 
G01 X35.4334 Y13.8172 
G01 X35.4004 Y14.0259 
G01 X35.4004 Y14.2372 
G01 X35.4334 Y14.4459 
G01 X35.4987 Y14.6468 
G01 X35.5946 Y14.8351 
G01 X35.7188 Y15.0060 
G01 X35.8682 Y15.1554 
G01 X36.0391 Y15.2796 
G01 X36.2274 Y15.3755 
G01 X36.4283 Y15.4408 
G01 X36.6370 Y15.4738 
G01 X39.3629 Y15.4738 
G01 X39.5716 Y15.4408 
G01 X39.7725 Y15.3755 
G01 X39.9608 Y15.2796 
G01 X40.1317 Y15.1554 
G01 X40.2811 Y15.0060 
G01 X40.4053 Y14.8351 
G01 X40.5012 Y14.6468 
G01 X40.5665 Y14.4459 
G01 X40.5995 Y14.2372 
G01 X40.5995 Y14.0259 
G01 X40.5665 Y13.8172 
G01 X40.5012 Y13.6163 
G01 X40.4053 Y13.4280 
G01 X40.2811 Y13.2571 
G01 X40.1317 Y13.1077 
G01 X39.9608 Y12.9835 
G01 X39.7725 Y12.8876 
G01 X39.5716 Y12.8223 
G01 X39.3629 Y12.7893 
G00 Z2.0000 
G00 X39.3629 Y8.8269 
G01 Z-0.1000 F600.00 
G01 X36.6370 Y8.8269 
G01 X36.4283 Y8.8599 
G01 X36.2274 Y8.9252 
G01 X36.0391 Y9.0211 
G01 X35.8682 Y9.1453 
G01 X35.7188 Y9.2947 
G01 X35.5946 Y9.4656 
G01 X35.4987 Y9.6539 
G01 X35.4334 Y9.8548 
G01 X35.4004 Y10.0635 
G01 X35.4004 Y10.2748 
G01 X35.4334 Y10.4835 
G01 X35.4987 Y10.6844 
G01 X35.5946 Y10.8727 
G01 X35.7188 Y11.0436 
G01 X35.8682 Y11.1930 
G01 X36.0391 Y11.3172 
G01 X36.2274 Y11.4131 
G01 X36.4283 Y11.4784 
G01 X36.6370 Y11.5114 
G01 X39.3629 Y11.5114 
G01 X39.5716 Y11.4784 
G01 X39.7725 Y11.4131 
G01 X39.9608 Y11.3172 
G01 X40.1317 Y11.1930 
G01 X40.2811 Y11.0436 
G01 X40.4053 Y10.8727 
G01 X40.5012 Y10.6844 
G01 X40.5665 Y10.4835 
G01 X40.5995 Y10.2748 
G01 X40.5995 Y10.0635 
G01 X40.5665 Y9.8548 
G01 X40.5012 Y9.6539 
G01 X40.4053 Y9.4656 
G01 X40.2811 Y9.2947 
G01 X40.1317 Y9.1453 
G01 X39.9608 Y9.0211 
G01 X39.7725 Y8.9252 
G01 X39.5716 Y8.8599 
G01 X39.3629 Y8.8269 
G00 Z2.0000 
G00 X39.3629 Y4.8645 
G01 Z-0.1000 F600.00 
G01 X36.6370 Y4.8645 
G01 X36.4283 Y4.8975 
G01 X36.2274 Y4.9628 
G01 X36.0391 Y5.0587 
G01 X35.8682 Y5.1829 
G01 X35.7188 Y5.3323 
G01 X35.5946 Y5.5032 
G01 X35.4987 Y5.6915 
G01 X35.4334 Y5.8924 
G01 X35.4004 Y6.1011 
G01 X35.4004 Y6.3124 
G01 X35.4334 Y6.5211 
G01 X35.4987 Y6.7220 
G01 X35.5946 Y6.9103 
G01 X35.7188 Y7.0812 
G01 X35.8682 Y7.2306 
G01 X36.0391 Y7.3548 
G01 X36.2274 Y7.4507 
G01 X36.4283 Y7.5160 
G01 X36.6370 Y7.5490 
G01 X39.3629 Y7.5490 
G01 X39.5716 Y7.5160 
G01 X39.7725 Y7.4507 
G01 X39.9608 Y7.3548 
G01 X40.1317 Y7.2306 
G01 X40.2811 Y7.0812 
G01 X40.4053 Y6.9103 
G01 X40.5012 Y6.7220 
G01 X40.5665 Y6.5211 
G01 X40.5995 Y6.3124 
G01 X40.5995 Y6.1011 
G01 X40.5665 Y5.8924 
G01 X40.5012 Y5.6915 
G01 X40.4053 Y5.5032 
G01 X40.2811 Y5.3323 
G01 X40.1317 Y5.1829 
G01 X39.9608 Y5.0587 
G01 X39.7725 Y4.9628 
G01 X39.5716 Y4.8975 
G01 X39.3629 Y4.8645 
G00 Z2.0000 
G00 X21.8350 Y30.4387 
G01 Z-0.1000 F600.00 
G01 X21.8350 Y30.6102 
G01 X21.0513 Y30.6102 
G01 X20.9486 Y30.6102 
G01 X20.8495 Y30.6368 
G01 X20.7606 Y30.6881 
G01 X20.6881 Y30.7606 
G01 X20.6368 Y30.8495 
G01 X20.6102 Y30.9486 
G01 X20.6102 Y40.9486 
G01 X20.6102 Y41.0513 
G01 X20.6368 Y41.1504 
G01 X20.6881 Y41.2393 
G01 X20.7606 Y41.3118 
G01 X20.8495 Y41.3631 
G01 X20.9486 Y41.3897 
G01 X24.0838 Y41.3897 
G01 X24.2064 Y41.4405 
G01 X24.3491 Y41.4689 
G01 X25.8028 Y41.4689 
G01 X25.9455 Y41.4405 
G01 X26.0800 Y41.3848 
G01 X26.2010 Y41.3039 
G01 X26.3039 Y41.2010 
G01 X26.3848 Y41.0800 
G01 X26.4405 Y40.9455 
G01 X26.4689 Y40.8028 
G01 X26.4689 Y40.6571 
G01 X26.4405 Y40.5144 
G01 X26.3848 Y40.3799 
G01 X26.3039 Y40.2589 
G01 X26.2010 Y40.1560 
G01 X26.0800 Y40.0751 
G01 X25.9455 Y40.0194 
G01 X25.8028 Y39.9910 
G01 X24.3491 Y39.9910 
G01 X24.2064 Y40.0194 
G01 X24.0719 Y40.0751 
G01 X23.9509 Y40.1560 
G01 X23.8480 Y40.2589 
G01 X23.7671 Y40.3799 
G01 X23.7114 Y40.5144 
G01 X23.6924 Y40.6102 
G01 X21.3897 Y40.6102 
G01 X21.3897 Y31.3897 
G01 X21.8350 Y31.3897 
G01 X21.8350 Y31.5612 
G01 X22.6287 Y32.3549 
G01 X23.7512 Y32.3549 
G01 X24.5449 Y31.5612 
G01 X24.5449 Y30.4387 
G01 X23.7512 Y29.6450 
G01 X22.6287 Y29.6450 
G01 X21.8350 Y30.4387 
(File Footer)
G00 Z2.0000 
G00 Z10.0000 
M05
M02
