( This gcode generated by /home/mattvenn/.eagle/ulp/pcb-gcode.ulp )
( Copyright 2005 by John Johnson. See readme.txt for licensing terms. )

( This file generated from the board /home/mattvenn/eagle-circuit-designs/hope rm12b bob/bob1.brd )
( This file generated 20/01/2012 14:35 )

( T01 0.600000 )
( T02 0.800000 )
( T03 0.812800 )
( T04 1.016000 )
G21

G90
M05
G00 X0.0000 Y0.0000 Z30.0000 
M06 T01  ; 0.6000 
G00 Z2.0000 
M03
G04 P3.000000
G82 X5.0000 Y26.0000 Z-2.0000 F127.00 R2.0000 P0.100000
M05
G00 X0.0000 Y0.0000 Z30.0000 
M06 T02  ; 0.8000 
G00 Z2.0000 
M03
G04 P3.000000
G82 X21.7300 Y18.7300 Z-2.0000 F127.00 R2.0000 P0.100000
G82 X21.7300 Y20.7300 
G82 X21.7300 Y22.7300 
G82 X21.7300 Y24.7300 
G82 X21.7300 Y26.7300 
G82 X21.7300 Y28.7300 
G82 X23.7300 Y18.7300 
G82 X23.7300 Y20.7300 
G82 X23.7300 Y22.7300 
G82 X23.7300 Y24.7300 
G82 X23.7300 Y26.7300 
G82 X23.7300 Y28.7300 
G82 X8.5272 Y26.2538 
M05
G00 X0.0000 Y0.0000 Z30.0000 
M06 T03  ; 0.8128 
G00 Z2.0000 
M03
G04 P3.000000
G82 X19.1900 Y15.0000 Z-2.0000 F127.00 R2.0000 P0.100000
G82 X26.8100 Y15.0000 
M05
G00 X0.0000 Y0.0000 Z30.0000 
M06 T04  ; 1.0160 
G00 Z2.0000 
M03
G04 P3.000000
G82 X34.0000 Y15.6500 Z-2.0000 F127.00 R2.0000 P0.100000
G82 X34.0000 Y18.1900 
G82 X34.0000 Y20.7300 
G82 X34.0000 Y23.2700 
G82 X34.0000 Y25.8100 
G82 X34.0000 Y28.3500 
(File Footer)
T01 
G00 Z10.0000 
M05
M02
