( This gcode generated by /home/mattvenn/.eagle/ulp/pcb-gcode.ulp )
( Copyright 2005 by John Johnson. See readme.txt for licensing terms. )

( This file generated from the board /home/mattvenn/eagle-circuit-designs/hope rm12b bob/bob1.brd )
( This file generated 20/01/2012 13:58 )

G21

G90
G00 Z10.0000 
G00 X0 Y0
M03
G04 P3.000000
G00 Z2.0000 
G00 X23.6508 Y83.4689 
G01 Z-0.1000 F600.00 
G01 X22.1971 Y83.4689 
G01 X22.0544 Y83.4405 
G01 X21.9199 Y83.3848 
G01 X21.7989 Y83.3039 
G01 X21.6960 Y83.2010 
G01 X21.6151 Y83.0800 
G01 X21.5594 Y82.9455 
G01 X21.5310 Y82.8028 
G01 X21.5310 Y82.6571 
G01 X21.5594 Y82.5144 
G01 X21.6151 Y82.3799 
G01 X21.6960 Y82.2589 
G01 X21.7989 Y82.1560 
G01 X21.9199 Y82.0751 
G01 X22.0544 Y82.0194 
G01 X22.1971 Y81.9910 
G01 X23.6508 Y81.9910 
G01 X23.7935 Y82.0194 
G01 X23.9280 Y82.0751 
G01 X24.0490 Y82.1560 
G01 X24.1519 Y82.2589 
G01 X24.2328 Y82.3799 
G01 X24.2885 Y82.5144 
G01 X24.3169 Y82.6571 
G01 X24.3169 Y82.8028 
G01 X24.2885 Y82.9455 
G01 X24.2328 Y83.0800 
G01 X24.1519 Y83.2010 
G01 X24.0490 Y83.3039 
G01 X23.9280 Y83.3848 
G01 X23.7935 Y83.4405 
G01 X23.6508 Y83.4689 
G00 Z2.0000 
G00 X23.6508 Y85.4689 
G01 Z-0.1000 F600.00 
G01 X22.1971 Y85.4689 
G01 X22.0544 Y85.4405 
G01 X21.9199 Y85.3848 
G01 X21.7989 Y85.3039 
G01 X21.6960 Y85.2010 
G01 X21.6151 Y85.0800 
G01 X21.5594 Y84.9455 
G01 X21.5310 Y84.8028 
G01 X21.5310 Y84.6571 
G01 X21.5594 Y84.5144 
G01 X21.6151 Y84.3799 
G01 X21.6960 Y84.2589 
G01 X21.7989 Y84.1560 
G01 X21.9199 Y84.0751 
G01 X22.0544 Y84.0194 
G01 X22.1971 Y83.9910 
G01 X23.6508 Y83.9910 
G01 X23.7935 Y84.0194 
G01 X23.9280 Y84.0751 
G01 X24.0490 Y84.1560 
G01 X24.1519 Y84.2589 
G01 X24.2328 Y84.3799 
G01 X24.2885 Y84.5144 
G01 X24.3169 Y84.6571 
G01 X24.3169 Y84.8028 
G01 X24.2885 Y84.9455 
G01 X24.2328 Y85.0800 
G01 X24.1519 Y85.2010 
G01 X24.0490 Y85.3039 
G01 X23.9280 Y85.3848 
G01 X23.7935 Y85.4405 
G01 X23.6508 Y85.4689 
G00 Z2.0000 
G00 X23.6508 Y87.4689 
G01 Z-0.1000 F600.00 
G01 X22.1971 Y87.4689 
G01 X22.0544 Y87.4405 
G01 X21.9199 Y87.3848 
G01 X21.7989 Y87.3039 
G01 X21.6960 Y87.2010 
G01 X21.6151 Y87.0800 
G01 X21.5594 Y86.9455 
G01 X21.5310 Y86.8028 
G01 X21.5310 Y86.6571 
G01 X21.5594 Y86.5144 
G01 X21.6151 Y86.3799 
G01 X21.6960 Y86.2589 
G01 X21.7989 Y86.1560 
G01 X21.9199 Y86.0751 
G01 X22.0544 Y86.0194 
G01 X22.1971 Y85.9910 
G01 X23.6508 Y85.9910 
G01 X23.7935 Y86.0194 
G01 X23.9280 Y86.0751 
G01 X24.0490 Y86.1560 
G01 X24.1519 Y86.2589 
G01 X24.2328 Y86.3799 
G01 X24.2885 Y86.5144 
G01 X24.3169 Y86.6571 
G01 X24.3169 Y86.8028 
G01 X24.2885 Y86.9455 
G01 X24.2328 Y87.0800 
G01 X24.1519 Y87.2010 
G01 X24.0490 Y87.3039 
G01 X23.9280 Y87.3848 
G01 X23.7935 Y87.4405 
G01 X23.6508 Y87.4689 
G00 Z2.0000 
G00 X23.6508 Y89.4689 
G01 Z-0.1000 F600.00 
G01 X22.1971 Y89.4689 
G01 X22.0544 Y89.4405 
G01 X21.9199 Y89.3848 
G01 X21.7989 Y89.3039 
G01 X21.6960 Y89.2010 
G01 X21.6151 Y89.0800 
G01 X21.5594 Y88.9455 
G01 X21.5310 Y88.8028 
G01 X21.5310 Y88.6571 
G01 X21.5594 Y88.5144 
G01 X21.6151 Y88.3799 
G01 X21.6960 Y88.2589 
G01 X21.7989 Y88.1560 
G01 X21.9199 Y88.0751 
G01 X22.0544 Y88.0194 
G01 X22.1971 Y87.9910 
G01 X23.6508 Y87.9910 
G01 X23.7935 Y88.0194 
G01 X23.9280 Y88.0751 
G01 X24.0490 Y88.1560 
G01 X24.1519 Y88.2589 
G01 X24.2328 Y88.3799 
G01 X24.2885 Y88.5144 
G01 X24.3169 Y88.6571 
G01 X24.3169 Y88.8028 
G01 X24.2885 Y88.9455 
G01 X24.2328 Y89.0800 
G01 X24.1519 Y89.2010 
G01 X24.0490 Y89.3039 
G01 X23.9280 Y89.3848 
G01 X23.7935 Y89.4405 
G01 X23.6508 Y89.4689 
G00 Z2.0000 
G00 X23.6508 Y91.4689 
G01 Z-0.1000 F600.00 
G01 X22.1971 Y91.4689 
G01 X22.0544 Y91.4405 
G01 X21.9199 Y91.3848 
G01 X21.7989 Y91.3039 
G01 X21.6960 Y91.2010 
G01 X21.6151 Y91.0800 
G01 X21.5594 Y90.9455 
G01 X21.5310 Y90.8028 
G01 X21.5310 Y90.6571 
G01 X21.5594 Y90.5144 
G01 X21.6151 Y90.3799 
G01 X21.6960 Y90.2589 
G01 X21.7989 Y90.1560 
G01 X21.9199 Y90.0751 
G01 X22.0544 Y90.0194 
G01 X22.1971 Y89.9910 
G01 X23.6508 Y89.9910 
G01 X23.7935 Y90.0194 
G01 X23.9280 Y90.0751 
G01 X24.0490 Y90.1560 
G01 X24.1519 Y90.2589 
G01 X24.2328 Y90.3799 
G01 X24.2885 Y90.5144 
G01 X24.3169 Y90.6571 
G01 X24.3169 Y90.8028 
G01 X24.2885 Y90.9455 
G01 X24.2328 Y91.0800 
G01 X24.1519 Y91.2010 
G01 X24.0490 Y91.3039 
G01 X23.9280 Y91.3848 
G01 X23.7935 Y91.4405 
G01 X23.6508 Y91.4689 
G00 Z2.0000 
G00 X23.6508 Y93.4689 
G01 Z-0.1000 F600.00 
G01 X22.1971 Y93.4689 
G01 X22.0544 Y93.4405 
G01 X21.9199 Y93.3848 
G01 X21.7989 Y93.3039 
G01 X21.6960 Y93.2010 
G01 X21.6151 Y93.0800 
G01 X21.5594 Y92.9455 
G01 X21.5310 Y92.8028 
G01 X21.5310 Y92.6571 
G01 X21.5594 Y92.5144 
G01 X21.6151 Y92.3799 
G01 X21.6960 Y92.2589 
G01 X21.7989 Y92.1560 
G01 X21.9199 Y92.0751 
G01 X22.0544 Y92.0194 
G01 X22.1971 Y91.9910 
G01 X23.6508 Y91.9910 
G01 X23.7935 Y92.0194 
G01 X23.9280 Y92.0751 
G01 X24.0490 Y92.1560 
G01 X24.1519 Y92.2589 
G01 X24.2328 Y92.3799 
G01 X24.2885 Y92.5144 
G01 X24.3169 Y92.6571 
G01 X24.3169 Y92.8028 
G01 X24.2885 Y92.9455 
G01 X24.2328 Y93.0800 
G01 X24.1519 Y93.2010 
G01 X24.0490 Y93.3039 
G01 X23.9280 Y93.3848 
G01 X23.7935 Y93.4405 
G01 X23.6508 Y93.4689 
G00 Z2.0000 
G00 X18.8891 Y81.9910 
G01 Z-0.1000 F600.00 
G01 X20.3428 Y81.9910 
G01 X20.4855 Y82.0194 
G01 X20.6200 Y82.0751 
G01 X20.7410 Y82.1560 
G01 X20.8439 Y82.2589 
G01 X20.9248 Y82.3799 
G01 X20.9805 Y82.5144 
G01 X21.0089 Y82.6571 
G01 X21.0089 Y82.8028 
G01 X20.9805 Y82.9455 
G01 X20.9248 Y83.0800 
G01 X20.8439 Y83.2010 
G01 X20.7410 Y83.3039 
G01 X20.6200 Y83.3848 
G01 X20.4855 Y83.4405 
G01 X20.3428 Y83.4689 
G01 X18.8891 Y83.4689 
G01 X18.7464 Y83.4405 
G01 X18.6119 Y83.3848 
G01 X18.4909 Y83.3039 
G01 X18.3880 Y83.2010 
G01 X18.3071 Y83.0800 
G01 X18.2514 Y82.9455 
G01 X18.2230 Y82.8028 
G01 X18.2230 Y82.6571 
G01 X18.2514 Y82.5144 
G01 X18.3071 Y82.3799 
G01 X18.3880 Y82.2589 
G01 X18.4909 Y82.1560 
G01 X18.6119 Y82.0751 
G01 X18.7464 Y82.0194 
G01 X18.8891 Y81.9910 
G00 Z2.0000 
G00 X18.8891 Y83.9910 
G01 Z-0.1000 F600.00 
G01 X20.3428 Y83.9910 
G01 X20.4855 Y84.0194 
G01 X20.6200 Y84.0751 
G01 X20.7410 Y84.1560 
G01 X20.8439 Y84.2589 
G01 X20.9248 Y84.3799 
G01 X20.9805 Y84.5144 
G01 X21.0089 Y84.6571 
G01 X21.0089 Y84.8028 
G01 X20.9805 Y84.9455 
G01 X20.9248 Y85.0800 
G01 X20.8439 Y85.2010 
G01 X20.7410 Y85.3039 
G01 X20.6200 Y85.3848 
G01 X20.4855 Y85.4405 
G01 X20.3428 Y85.4689 
G01 X18.8891 Y85.4689 
G01 X18.7464 Y85.4405 
G01 X18.6119 Y85.3848 
G01 X18.4909 Y85.3039 
G01 X18.3880 Y85.2010 
G01 X18.3071 Y85.0800 
G01 X18.2514 Y84.9455 
G01 X18.2230 Y84.8028 
G01 X18.2230 Y84.6571 
G01 X18.2514 Y84.5144 
G01 X18.3071 Y84.3799 
G01 X18.3880 Y84.2589 
G01 X18.4909 Y84.1560 
G01 X18.6119 Y84.0751 
G01 X18.7464 Y84.0194 
G01 X18.8891 Y83.9910 
G00 Z2.0000 
G00 X18.8891 Y85.9910 
G01 Z-0.1000 F600.00 
G01 X20.3428 Y85.9910 
G01 X20.4855 Y86.0194 
G01 X20.6200 Y86.0751 
G01 X20.7410 Y86.1560 
G01 X20.8439 Y86.2589 
G01 X20.9248 Y86.3799 
G01 X20.9805 Y86.5144 
G01 X21.0089 Y86.6571 
G01 X21.0089 Y86.8028 
G01 X20.9805 Y86.9455 
G01 X20.9248 Y87.0800 
G01 X20.8439 Y87.2010 
G01 X20.7410 Y87.3039 
G01 X20.6200 Y87.3848 
G01 X20.4855 Y87.4405 
G01 X20.3428 Y87.4689 
G01 X18.8891 Y87.4689 
G01 X18.7464 Y87.4405 
G01 X18.6119 Y87.3848 
G01 X18.4909 Y87.3039 
G01 X18.3880 Y87.2010 
G01 X18.3071 Y87.0800 
G01 X18.2514 Y86.9455 
G01 X18.2230 Y86.8028 
G01 X18.2230 Y86.6571 
G01 X18.2514 Y86.5144 
G01 X18.3071 Y86.3799 
G01 X18.3880 Y86.2589 
G01 X18.4909 Y86.1560 
G01 X18.6119 Y86.0751 
G01 X18.7464 Y86.0194 
G01 X18.8891 Y85.9910 
G00 Z2.0000 
G00 X18.8891 Y87.9910 
G01 Z-0.1000 F600.00 
G01 X20.3428 Y87.9910 
G01 X20.4855 Y88.0194 
G01 X20.6200 Y88.0751 
G01 X20.7410 Y88.1560 
G01 X20.8439 Y88.2589 
G01 X20.9248 Y88.3799 
G01 X20.9805 Y88.5144 
G01 X21.0089 Y88.6571 
G01 X21.0089 Y88.8028 
G01 X20.9805 Y88.9455 
G01 X20.9248 Y89.0800 
G01 X20.8439 Y89.2010 
G01 X20.7410 Y89.3039 
G01 X20.6200 Y89.3848 
G01 X20.4855 Y89.4405 
G01 X20.3428 Y89.4689 
G01 X18.8891 Y89.4689 
G01 X18.7464 Y89.4405 
G01 X18.6119 Y89.3848 
G01 X18.4909 Y89.3039 
G01 X18.3880 Y89.2010 
G01 X18.3071 Y89.0800 
G01 X18.2514 Y88.9455 
G01 X18.2230 Y88.8028 
G01 X18.2230 Y88.6571 
G01 X18.2514 Y88.5144 
G01 X18.3071 Y88.3799 
G01 X18.3880 Y88.2589 
G01 X18.4909 Y88.1560 
G01 X18.6119 Y88.0751 
G01 X18.7464 Y88.0194 
G01 X18.8891 Y87.9910 
G00 Z2.0000 
G00 X18.8891 Y89.9910 
G01 Z-0.1000 F600.00 
G01 X20.3428 Y89.9910 
G01 X20.4855 Y90.0194 
G01 X20.6200 Y90.0751 
G01 X20.7410 Y90.1560 
G01 X20.8439 Y90.2589 
G01 X20.9248 Y90.3799 
G01 X20.9805 Y90.5144 
G01 X21.0089 Y90.6571 
G01 X21.0089 Y90.8028 
G01 X20.9805 Y90.9455 
G01 X20.9248 Y91.0800 
G01 X20.8439 Y91.2010 
G01 X20.7410 Y91.3039 
G01 X20.6200 Y91.3848 
G01 X20.4855 Y91.4405 
G01 X20.3428 Y91.4689 
G01 X18.8891 Y91.4689 
G01 X18.7464 Y91.4405 
G01 X18.6119 Y91.3848 
G01 X18.4909 Y91.3039 
G01 X18.3880 Y91.2010 
G01 X18.3071 Y91.0800 
G01 X18.2514 Y90.9455 
G01 X18.2230 Y90.8028 
G01 X18.2230 Y90.6571 
G01 X18.2514 Y90.5144 
G01 X18.3071 Y90.3799 
G01 X18.3880 Y90.2589 
G01 X18.4909 Y90.1560 
G01 X18.6119 Y90.0751 
G01 X18.7464 Y90.0194 
G01 X18.8891 Y89.9910 
G00 Z2.0000 
G00 X18.8891 Y91.9910 
G01 Z-0.1000 F600.00 
G01 X20.3428 Y91.9910 
G01 X20.4855 Y92.0194 
G01 X20.6200 Y92.0751 
G01 X20.7410 Y92.1560 
G01 X20.8439 Y92.2589 
G01 X20.9248 Y92.3799 
G01 X20.9805 Y92.5144 
G01 X21.0089 Y92.6571 
G01 X21.0089 Y92.8028 
G01 X20.9805 Y92.9455 
G01 X20.9248 Y93.0800 
G01 X20.8439 Y93.2010 
G01 X20.7410 Y93.3039 
G01 X20.6200 Y93.3848 
G01 X20.4855 Y93.4405 
G01 X20.3428 Y93.4689 
G01 X18.8891 Y93.4689 
G01 X18.7464 Y93.4405 
G01 X18.6119 Y93.3848 
G01 X18.4909 Y93.3039 
G01 X18.3880 Y93.2010 
G01 X18.3071 Y93.0800 
G01 X18.2514 Y92.9455 
G01 X18.2230 Y92.8028 
G01 X18.2230 Y92.6571 
G01 X18.2514 Y92.5144 
G01 X18.3071 Y92.3799 
G01 X18.3880 Y92.2589 
G01 X18.4909 Y92.1560 
G01 X18.6119 Y92.0751 
G01 X18.7464 Y92.0194 
G01 X18.8891 Y91.9910 
G00 Z2.0000 
G00 X36.0089 Y89.6571 
G01 Z-0.1000 F600.00 
G01 X36.0089 Y89.8028 
G01 X35.9805 Y89.9455 
G01 X35.9248 Y90.0800 
G01 X35.8439 Y90.2010 
G01 X35.7410 Y90.3039 
G01 X35.6200 Y90.3848 
G01 X35.4855 Y90.4405 
G01 X35.3428 Y90.4689 
G01 X35.1971 Y90.4689 
G01 X35.0544 Y90.4405 
G01 X34.9199 Y90.3848 
G01 X34.7989 Y90.3039 
G01 X34.6960 Y90.2010 
G01 X34.6151 Y90.0800 
G01 X34.5594 Y89.9455 
G01 X34.5310 Y89.8028 
G01 X34.5310 Y89.6571 
G01 X34.5594 Y89.5144 
G01 X34.6151 Y89.3799 
G01 X34.6960 Y89.2589 
G01 X34.7989 Y89.1560 
G01 X34.9199 Y89.0751 
G01 X35.0544 Y89.0194 
G01 X35.1971 Y88.9910 
G01 X35.3428 Y88.9910 
G01 X35.4855 Y89.0194 
G01 X35.6200 Y89.0751 
G01 X35.7410 Y89.1560 
G01 X35.8439 Y89.2589 
G01 X35.9248 Y89.3799 
G01 X35.9805 Y89.5144 
G01 X36.0089 Y89.6571 
G00 Z2.0000 
G00 X8.6370 Y66.7141 
G01 Z-0.1000 F600.00 
G01 X11.3629 Y66.7141 
G01 X11.5716 Y66.7471 
G01 X11.7725 Y66.8124 
G01 X11.9608 Y66.9083 
G01 X12.1317 Y67.0325 
G01 X12.2811 Y67.1819 
G01 X12.4053 Y67.3528 
G01 X12.5012 Y67.5411 
G01 X12.5665 Y67.7420 
G01 X12.5995 Y67.9507 
G01 X12.5995 Y68.1620 
G01 X12.5665 Y68.3707 
G01 X12.5012 Y68.5716 
G01 X12.4053 Y68.7599 
G01 X12.2811 Y68.9308 
G01 X12.1317 Y69.0802 
G01 X11.9608 Y69.2044 
G01 X11.7725 Y69.3003 
G01 X11.5716 Y69.3656 
G01 X11.3629 Y69.3986 
G01 X8.6370 Y69.3986 
G01 X8.4283 Y69.3656 
G01 X8.2274 Y69.3003 
G01 X8.0391 Y69.2044 
G01 X7.8682 Y69.0802 
G01 X7.7188 Y68.9308 
G01 X7.5946 Y68.7599 
G01 X7.4987 Y68.5716 
G01 X7.4334 Y68.3707 
G01 X7.4004 Y68.1620 
G01 X7.4004 Y67.9507 
G01 X7.4334 Y67.7420 
G01 X7.4987 Y67.5411 
G01 X7.5946 Y67.3528 
G01 X7.7188 Y67.1819 
G01 X7.8682 Y67.0325 
G01 X8.0391 Y66.9083 
G01 X8.2274 Y66.8124 
G01 X8.4283 Y66.7471 
G01 X8.6370 Y66.7141 
G00 Z2.0000 
G00 X8.6370 Y70.6765 
G01 Z-0.1000 F600.00 
G01 X11.3629 Y70.6765 
G01 X11.5716 Y70.7095 
G01 X11.7725 Y70.7748 
G01 X11.9608 Y70.8707 
G01 X12.1317 Y70.9949 
G01 X12.2811 Y71.1443 
G01 X12.4053 Y71.3152 
G01 X12.5012 Y71.5035 
G01 X12.5665 Y71.7044 
G01 X12.5995 Y71.9131 
G01 X12.5995 Y72.1244 
G01 X12.5665 Y72.3331 
G01 X12.5012 Y72.5340 
G01 X12.4053 Y72.7223 
G01 X12.2811 Y72.8932 
G01 X12.1317 Y73.0426 
G01 X11.9608 Y73.1668 
G01 X11.7725 Y73.2627 
G01 X11.5716 Y73.3280 
G01 X11.3629 Y73.3610 
G01 X8.6370 Y73.3610 
G01 X8.4283 Y73.3280 
G01 X8.2274 Y73.2627 
G01 X8.0391 Y73.1668 
G01 X7.8682 Y73.0426 
G01 X7.7188 Y72.8932 
G01 X7.5946 Y72.7223 
G01 X7.4987 Y72.5340 
G01 X7.4334 Y72.3331 
G01 X7.4004 Y72.1244 
G01 X7.4004 Y71.9131 
G01 X7.4334 Y71.7044 
G01 X7.4987 Y71.5035 
G01 X7.5946 Y71.3152 
G01 X7.7188 Y71.1443 
G01 X7.8682 Y70.9949 
G01 X8.0391 Y70.8707 
G01 X8.2274 Y70.7748 
G01 X8.4283 Y70.7095 
G01 X8.6370 Y70.6765 
G00 Z2.0000 
G00 X8.6370 Y74.6389 
G01 Z-0.1000 F600.00 
G01 X11.3629 Y74.6389 
G01 X11.5716 Y74.6719 
G01 X11.7725 Y74.7372 
G01 X11.9608 Y74.8331 
G01 X12.1317 Y74.9573 
G01 X12.2811 Y75.1067 
G01 X12.4053 Y75.2776 
G01 X12.5012 Y75.4659 
G01 X12.5665 Y75.6668 
G01 X12.5995 Y75.8755 
G01 X12.5995 Y76.0868 
G01 X12.5665 Y76.2955 
G01 X12.5012 Y76.4964 
G01 X12.4053 Y76.6847 
G01 X12.2811 Y76.8556 
G01 X12.1317 Y77.0050 
G01 X11.9608 Y77.1292 
G01 X11.7725 Y77.2251 
G01 X11.5716 Y77.2904 
G01 X11.3629 Y77.3234 
G01 X8.6370 Y77.3234 
G01 X8.4283 Y77.2904 
G01 X8.2274 Y77.2251 
G01 X8.0391 Y77.1292 
G01 X7.8682 Y77.0050 
G01 X7.7188 Y76.8556 
G01 X7.5946 Y76.6847 
G01 X7.4987 Y76.4964 
G01 X7.4334 Y76.2955 
G01 X7.4004 Y76.0868 
G01 X7.4004 Y75.8755 
G01 X7.4334 Y75.6668 
G01 X7.4987 Y75.4659 
G01 X7.5946 Y75.2776 
G01 X7.7188 Y75.1067 
G01 X7.8682 Y74.9573 
G01 X8.0391 Y74.8331 
G01 X8.2274 Y74.7372 
G01 X8.4283 Y74.6719 
G01 X8.6370 Y74.6389 
G00 Z2.0000 
G00 X8.6370 Y78.6013 
G01 Z-0.1000 F600.00 
G01 X11.3629 Y78.6013 
G01 X11.5716 Y78.6343 
G01 X11.7725 Y78.6996 
G01 X11.9608 Y78.7955 
G01 X12.1317 Y78.9197 
G01 X12.2811 Y79.0691 
G01 X12.4053 Y79.2400 
G01 X12.5012 Y79.4283 
G01 X12.5665 Y79.6292 
G01 X12.5995 Y79.8379 
G01 X12.5995 Y80.0492 
G01 X12.5665 Y80.2579 
G01 X12.5012 Y80.4588 
G01 X12.4053 Y80.6471 
G01 X12.2811 Y80.8180 
G01 X12.1317 Y80.9674 
G01 X11.9608 Y81.0916 
G01 X11.7725 Y81.1875 
G01 X11.5716 Y81.2528 
G01 X11.3629 Y81.2858 
G01 X8.6370 Y81.2858 
G01 X8.4283 Y81.2528 
G01 X8.2274 Y81.1875 
G01 X8.0391 Y81.0916 
G01 X7.8682 Y80.9674 
G01 X7.7188 Y80.8180 
G01 X7.5946 Y80.6471 
G01 X7.4987 Y80.4588 
G01 X7.4334 Y80.2579 
G01 X7.4004 Y80.0492 
G01 X7.4004 Y79.8379 
G01 X7.4334 Y79.6292 
G01 X7.4987 Y79.4283 
G01 X7.5946 Y79.2400 
G01 X7.7188 Y79.0691 
G01 X7.8682 Y78.9197 
G01 X8.0391 Y78.7955 
G01 X8.2274 Y78.6996 
G01 X8.4283 Y78.6343 
G01 X8.6370 Y78.6013 
G00 Z2.0000 
G00 X8.6370 Y82.5637 
G01 Z-0.1000 F600.00 
G01 X11.3629 Y82.5637 
G01 X11.5716 Y82.5967 
G01 X11.7725 Y82.6620 
G01 X11.9608 Y82.7579 
G01 X12.1317 Y82.8821 
G01 X12.2811 Y83.0315 
G01 X12.4053 Y83.2024 
G01 X12.5012 Y83.3907 
G01 X12.5665 Y83.5916 
G01 X12.5995 Y83.8003 
G01 X12.5995 Y84.0116 
G01 X12.5665 Y84.2203 
G01 X12.5012 Y84.4212 
G01 X12.4053 Y84.6095 
G01 X12.2811 Y84.7804 
G01 X12.1317 Y84.9298 
G01 X11.9608 Y85.0540 
G01 X11.7725 Y85.1499 
G01 X11.5716 Y85.2152 
G01 X11.3629 Y85.2482 
G01 X8.6370 Y85.2482 
G01 X8.4283 Y85.2152 
G01 X8.2274 Y85.1499 
G01 X8.0391 Y85.0540 
G01 X7.8682 Y84.9298 
G01 X7.7188 Y84.7804 
G01 X7.5946 Y84.6095 
G01 X7.4987 Y84.4212 
G01 X7.4334 Y84.2203 
G01 X7.4004 Y84.0116 
G01 X7.4004 Y83.8003 
G01 X7.4334 Y83.5916 
G01 X7.4987 Y83.3907 
G01 X7.5946 Y83.2024 
G01 X7.7188 Y83.0315 
G01 X7.8682 Y82.8821 
G01 X8.0391 Y82.7579 
G01 X8.2274 Y82.6620 
G01 X8.4283 Y82.5967 
G01 X8.6370 Y82.5637 
G00 Z2.0000 
G00 X8.6370 Y86.5261 
G01 Z-0.1000 F600.00 
G01 X11.3629 Y86.5261 
G01 X11.5716 Y86.5591 
G01 X11.7725 Y86.6244 
G01 X11.9608 Y86.7203 
G01 X12.1317 Y86.8445 
G01 X12.2811 Y86.9939 
G01 X12.4053 Y87.1648 
G01 X12.5012 Y87.3531 
G01 X12.5665 Y87.5540 
G01 X12.5995 Y87.7627 
G01 X12.5995 Y87.9740 
G01 X12.5665 Y88.1827 
G01 X12.5012 Y88.3836 
G01 X12.4053 Y88.5719 
G01 X12.2811 Y88.7428 
G01 X12.1317 Y88.8922 
G01 X11.9608 Y89.0164 
G01 X11.7725 Y89.1123 
G01 X11.5716 Y89.1776 
G01 X11.3629 Y89.2106 
G01 X8.6370 Y89.2106 
G01 X8.4283 Y89.1776 
G01 X8.2274 Y89.1123 
G01 X8.0391 Y89.0164 
G01 X7.8682 Y88.8922 
G01 X7.7188 Y88.7428 
G01 X7.5946 Y88.5719 
G01 X7.4987 Y88.3836 
G01 X7.4334 Y88.1827 
G01 X7.4004 Y87.9740 
G01 X7.4004 Y87.7627 
G01 X7.4334 Y87.5540 
G01 X7.4987 Y87.3531 
G01 X7.5946 Y87.1648 
G01 X7.7188 Y86.9939 
G01 X7.8682 Y86.8445 
G01 X8.0391 Y86.7203 
G01 X8.2274 Y86.6244 
G01 X8.4283 Y86.5591 
G01 X8.6370 Y86.5261 
G00 Z2.0000 
G00 X8.6370 Y90.4885 
G01 Z-0.1000 F600.00 
G01 X11.3629 Y90.4885 
G01 X11.5716 Y90.5215 
G01 X11.7725 Y90.5868 
G01 X11.9608 Y90.6827 
G01 X12.1317 Y90.8069 
G01 X12.2811 Y90.9563 
G01 X12.4053 Y91.1272 
G01 X12.5012 Y91.3155 
G01 X12.5665 Y91.5164 
G01 X12.5995 Y91.7251 
G01 X12.5995 Y91.9364 
G01 X12.5665 Y92.1451 
G01 X12.5012 Y92.3460 
G01 X12.4053 Y92.5343 
G01 X12.2811 Y92.7052 
G01 X12.1317 Y92.8546 
G01 X11.9608 Y92.9788 
G01 X11.7725 Y93.0747 
G01 X11.5716 Y93.1400 
G01 X11.3629 Y93.1730 
G01 X8.6370 Y93.1730 
G01 X8.4283 Y93.1400 
G01 X8.2274 Y93.0747 
G01 X8.0391 Y92.9788 
G01 X7.8682 Y92.8546 
G01 X7.7188 Y92.7052 
G01 X7.5946 Y92.5343 
G01 X7.4987 Y92.3460 
G01 X7.4334 Y92.1451 
G01 X7.4004 Y91.9364 
G01 X7.4004 Y91.7251 
G01 X7.4334 Y91.5164 
G01 X7.4987 Y91.3155 
G01 X7.5946 Y91.1272 
G01 X7.7188 Y90.9563 
G01 X7.8682 Y90.8069 
G01 X8.0391 Y90.6827 
G01 X8.2274 Y90.5868 
G01 X8.4283 Y90.5215 
G01 X8.6370 Y90.4885 
G00 Z2.0000 
G00 X8.6370 Y94.4509 
G01 Z-0.1000 F600.00 
G01 X11.3629 Y94.4509 
G01 X11.5716 Y94.4839 
G01 X11.7725 Y94.5492 
G01 X11.9608 Y94.6451 
G01 X12.1317 Y94.7693 
G01 X12.2811 Y94.9187 
G01 X12.4053 Y95.0896 
G01 X12.5012 Y95.2779 
G01 X12.5665 Y95.4788 
G01 X12.5995 Y95.6875 
G01 X12.5995 Y95.8988 
G01 X12.5665 Y96.1075 
G01 X12.5012 Y96.3084 
G01 X12.4053 Y96.4967 
G01 X12.2811 Y96.6676 
G01 X12.1317 Y96.8170 
G01 X11.9608 Y96.9412 
G01 X11.7725 Y97.0371 
G01 X11.5716 Y97.1024 
G01 X11.3629 Y97.1354 
G01 X8.6370 Y97.1354 
G01 X8.4283 Y97.1024 
G01 X8.2274 Y97.0371 
G01 X8.0391 Y96.9412 
G01 X7.8682 Y96.8170 
G01 X7.7188 Y96.6676 
G01 X7.5946 Y96.4967 
G01 X7.4987 Y96.3084 
G01 X7.4334 Y96.1075 
G01 X7.4004 Y95.8988 
G01 X7.4004 Y95.6875 
G01 X7.4334 Y95.4788 
G01 X7.4987 Y95.2779 
G01 X7.5946 Y95.0896 
G01 X7.7188 Y94.9187 
G01 X7.8682 Y94.7693 
G01 X8.0391 Y94.6451 
G01 X8.2274 Y94.5492 
G01 X8.4283 Y94.4839 
G01 X8.6370 Y94.4509 
G00 Z2.0000 
G00 X8.6370 Y62.7517 
G01 Z-0.1000 F600.00 
G01 X11.3629 Y62.7517 
G01 X11.5716 Y62.7847 
G01 X11.7725 Y62.8500 
G01 X11.9608 Y62.9459 
G01 X12.1317 Y63.0701 
G01 X12.2811 Y63.2195 
G01 X12.4053 Y63.3904 
G01 X12.5012 Y63.5787 
G01 X12.5665 Y63.7796 
G01 X12.5995 Y63.9883 
G01 X12.5995 Y64.1996 
G01 X12.5665 Y64.4083 
G01 X12.5012 Y64.6092 
G01 X12.4053 Y64.7975 
G01 X12.2811 Y64.9684 
G01 X12.1317 Y65.1178 
G01 X11.9608 Y65.2420 
G01 X11.7725 Y65.3379 
G01 X11.5716 Y65.4032 
G01 X11.3629 Y65.4362 
G01 X8.6370 Y65.4362 
G01 X8.4283 Y65.4032 
G01 X8.2274 Y65.3379 
G01 X8.0391 Y65.2420 
G01 X7.8682 Y65.1178 
G01 X7.7188 Y64.9684 
G01 X7.5946 Y64.7975 
G01 X7.4987 Y64.6092 
G01 X7.4334 Y64.4083 
G01 X7.4004 Y64.1996 
G01 X7.4004 Y63.9883 
G01 X7.4334 Y63.7796 
G01 X7.4987 Y63.5787 
G01 X7.5946 Y63.3904 
G01 X7.7188 Y63.2195 
G01 X7.8682 Y63.0701 
G01 X8.0391 Y62.9459 
G01 X8.2274 Y62.8500 
G01 X8.4283 Y62.7847 
G01 X8.6370 Y62.7517 
G00 Z2.0000 
G00 X8.6370 Y58.7893 
G01 Z-0.1000 F600.00 
G01 X11.3629 Y58.7893 
G01 X11.5716 Y58.8223 
G01 X11.7725 Y58.8876 
G01 X11.9608 Y58.9835 
G01 X12.1317 Y59.1077 
G01 X12.2811 Y59.2571 
G01 X12.4053 Y59.4280 
G01 X12.5012 Y59.6163 
G01 X12.5665 Y59.8172 
G01 X12.5995 Y60.0259 
G01 X12.5995 Y60.2372 
G01 X12.5665 Y60.4459 
G01 X12.5012 Y60.6468 
G01 X12.4053 Y60.8351 
G01 X12.2811 Y61.0060 
G01 X12.1317 Y61.1554 
G01 X11.9608 Y61.2796 
G01 X11.7725 Y61.3755 
G01 X11.5716 Y61.4408 
G01 X11.3629 Y61.4738 
G01 X8.6370 Y61.4738 
G01 X8.4283 Y61.4408 
G01 X8.2274 Y61.3755 
G01 X8.0391 Y61.2796 
G01 X7.8682 Y61.1554 
G01 X7.7188 Y61.0060 
G01 X7.5946 Y60.8351 
G01 X7.4987 Y60.6468 
G01 X7.4334 Y60.4459 
G01 X7.4004 Y60.2372 
G01 X7.4004 Y60.0259 
G01 X7.4334 Y59.8172 
G01 X7.4987 Y59.6163 
G01 X7.5946 Y59.4280 
G01 X7.7188 Y59.2571 
G01 X7.8682 Y59.1077 
G01 X8.0391 Y58.9835 
G01 X8.2274 Y58.8876 
G01 X8.4283 Y58.8223 
G01 X8.6370 Y58.7893 
G00 Z2.0000 
G00 X8.6370 Y54.8269 
G01 Z-0.1000 F600.00 
G01 X11.3629 Y54.8269 
G01 X11.5716 Y54.8599 
G01 X11.7725 Y54.9252 
G01 X11.9608 Y55.0211 
G01 X12.1317 Y55.1453 
G01 X12.2811 Y55.2947 
G01 X12.4053 Y55.4656 
G01 X12.5012 Y55.6539 
G01 X12.5665 Y55.8548 
G01 X12.5995 Y56.0635 
G01 X12.5995 Y56.2748 
G01 X12.5665 Y56.4835 
G01 X12.5012 Y56.6844 
G01 X12.4053 Y56.8727 
G01 X12.2811 Y57.0436 
G01 X12.1317 Y57.1930 
G01 X11.9608 Y57.3172 
G01 X11.7725 Y57.4131 
G01 X11.5716 Y57.4784 
G01 X11.3629 Y57.5114 
G01 X8.6370 Y57.5114 
G01 X8.4283 Y57.4784 
G01 X8.2274 Y57.4131 
G01 X8.0391 Y57.3172 
G01 X7.8682 Y57.1930 
G01 X7.7188 Y57.0436 
G01 X7.5946 Y56.8727 
G01 X7.4987 Y56.6844 
G01 X7.4334 Y56.4835 
G01 X7.4004 Y56.2748 
G01 X7.4004 Y56.0635 
G01 X7.4334 Y55.8548 
G01 X7.4987 Y55.6539 
G01 X7.5946 Y55.4656 
G01 X7.7188 Y55.2947 
G01 X7.8682 Y55.1453 
G01 X8.0391 Y55.0211 
G01 X8.2274 Y54.9252 
G01 X8.4283 Y54.8599 
G01 X8.6370 Y54.8269 
G00 Z2.0000 
G00 X8.6370 Y50.8645 
G01 Z-0.1000 F600.00 
G01 X11.3629 Y50.8645 
G01 X11.5716 Y50.8975 
G01 X11.7725 Y50.9628 
G01 X11.9608 Y51.0587 
G01 X12.1317 Y51.1829 
G01 X12.2811 Y51.3323 
G01 X12.4053 Y51.5032 
G01 X12.5012 Y51.6915 
G01 X12.5665 Y51.8924 
G01 X12.5995 Y52.1011 
G01 X12.5995 Y52.3124 
G01 X12.5665 Y52.5211 
G01 X12.5012 Y52.7220 
G01 X12.4053 Y52.9103 
G01 X12.2811 Y53.0812 
G01 X12.1317 Y53.2306 
G01 X11.9608 Y53.3548 
G01 X11.7725 Y53.4507 
G01 X11.5716 Y53.5160 
G01 X11.3629 Y53.5490 
G01 X8.6370 Y53.5490 
G01 X8.4283 Y53.5160 
G01 X8.2274 Y53.4507 
G01 X8.0391 Y53.3548 
G01 X7.8682 Y53.2306 
G01 X7.7188 Y53.0812 
G01 X7.5946 Y52.9103 
G01 X7.4987 Y52.7220 
G01 X7.4334 Y52.5211 
G01 X7.4004 Y52.3124 
G01 X7.4004 Y52.1011 
G01 X7.4334 Y51.8924 
G01 X7.4987 Y51.6915 
G01 X7.5946 Y51.5032 
G01 X7.7188 Y51.3323 
G01 X7.8682 Y51.1829 
G01 X8.0391 Y51.0587 
G01 X8.2274 Y50.9628 
G01 X8.4283 Y50.8975 
G01 X8.6370 Y50.8645 
G00 Z2.0000 
G00 X18.5449 Y76.4387 
G01 Z-0.1000 F600.00 
G01 X18.5449 Y77.5612 
G01 X17.7512 Y78.3549 
G01 X16.6287 Y78.3549 
G01 X15.8350 Y77.5612 
G01 X15.8350 Y76.4387 
G01 X16.6287 Y75.6450 
G01 X17.7512 Y75.6450 
G01 X18.5449 Y76.4387 
G00 Z2.0000 
G00 X26.1649 Y76.4387 
G01 Z-0.1000 F600.00 
G01 X26.1649 Y77.5612 
G01 X25.3712 Y78.3549 
G01 X24.2487 Y78.3549 
G01 X23.4550 Y77.5612 
G01 X23.4550 Y76.4387 
G01 X24.2487 Y75.6450 
G01 X25.3712 Y75.6450 
G01 X26.1649 Y76.4387 
G00 Z2.0000 
G00 X43.7961 Y89.2718 
G01 Z-0.1000 F600.00 
G01 X43.7961 Y90.7281 
G01 X43.7832 Y90.7593 
G01 X43.7593 Y90.7832 
G01 X43.7281 Y90.7961 
G01 X42.2718 Y90.7961 
G01 X42.2406 Y90.7832 
G01 X42.2167 Y90.7593 
G01 X42.2038 Y90.7281 
G01 X42.2038 Y89.2718 
G01 X42.2167 Y89.2406 
G01 X42.2406 Y89.2167 
G01 X42.2718 Y89.2038 
G01 X43.7281 Y89.2038 
G01 X43.7593 Y89.2167 
G01 X43.7832 Y89.2406 
G01 X43.7961 Y89.2718 
(File Footer)
G00 Z2.0000 
G00 Z10.0000 
M05
M02
