( This gcode generated by /home/mattvenn/.eagle/ulp/pcb-gcode.ulp )
( Copyright 2005 by John Johnson. See readme.txt for licensing terms. )

( This file generated from the board /home/mattvenn/eagle-circuit-designs/hope rm12b bob/bob1.brd )
( This file generated 20/01/2012 13:59 )

( T01 0.600000 )
( T02 0.800000 )
( T03 0.812800 )
( T04 1.676400 )
G21

G90
M05
G00 X0.0000 Y0.0000 Z30.0000 
M06 T01  ; 0.6000 
G00 Z2.0000 
M03
G04 P3.000000
G82 X43.0000 Y90.0000 Z-2.0000 F127.00 R2.0000 P0.100000
M05
G00 X0.0000 Y0.0000 Z30.0000 
M06 T02  ; 0.8000 
G00 Z2.0000 
M03
G04 P3.000000
G82 X20.2700 Y82.7300 Z-2.0000 F127.00 R2.0000 P0.100000
G82 X20.2700 Y84.7300 
G82 X20.2700 Y86.7300 
G82 X20.2700 Y88.7300 
G82 X20.2700 Y90.7300 
G82 X20.2700 Y92.7300 
G82 X22.2700 Y82.7300 
G82 X22.2700 Y84.7300 
G82 X22.2700 Y86.7300 
G82 X22.2700 Y88.7300 
G82 X22.2700 Y90.7300 
G82 X22.2700 Y92.7300 
G82 X35.2700 Y89.7300 
M05
G00 X0.0000 Y0.0000 Z30.0000 
M06 T03  ; 0.8128 
G00 Z2.0000 
M03
G04 P3.000000
G82 X17.1900 Y77.0000 Z-2.0000 F127.00 R2.0000 P0.100000
G82 X24.8100 Y77.0000 
M05
G00 X0.0000 Y0.0000 Z30.0000 
M06 T04  ; 1.6764 
G00 Z2.0000 
M03
G04 P3.000000
G82 X10.0000 Y52.2068 Z-2.0000 F127.00 R2.0000 P0.100000
G82 X10.0000 Y56.1692 
G82 X10.0000 Y60.1316 
G82 X10.0000 Y64.0940 
G82 X10.0000 Y68.0564 
G82 X10.0000 Y72.0188 
G82 X10.0000 Y75.9812 
G82 X10.0000 Y79.9436 
G82 X10.0000 Y83.9060 
G82 X10.0000 Y87.8684 
G82 X10.0000 Y91.8308 
G82 X10.0000 Y95.7932 
(File Footer)
T01 
G00 Z10.0000 
M05
M02
