( This gcode generated by /home/mattvenn/.eagle/ulp/pcb-gcode.ulp )
( Copyright 2005 by John Johnson. See readme.txt for licensing terms. )

( This file generated from the board /home/mattvenn/eagle-circuit-designs/hope rm12b bob/bob1.brd )
( This file generated 20/01/2012 14:35 )

( T01 0.600000 )
( T02 0.800000 )
( T03 0.812800 )
( T04 1.016000 )
G21

G90
M05
G00 X0.0000 Y0.0000 Z30.0000 
M06 T01  ; 0.6000 
G00 Z2.0000 
M03
G04 P3.000000
G82 X-9.0000 Y44.0000 Z-2.0000 F127.00 R2.0000 P0.100000
M05
G00 X0.0000 Y0.0000 Z30.0000 
M06 T02  ; 0.8000 
G00 Z2.0000 
M03
G04 P3.000000
G82 X-12.5272 Y44.2538 Z-2.0000 F127.00 R2.0000 P0.100000
G82 X-25.7300 Y36.7300 
G82 X-25.7300 Y38.7300 
G82 X-25.7300 Y40.7300 
G82 X-25.7300 Y42.7300 
G82 X-25.7300 Y44.7300 
G82 X-25.7300 Y46.7300 
G82 X-27.7300 Y36.7300 
G82 X-27.7300 Y38.7300 
G82 X-27.7300 Y40.7300 
G82 X-27.7300 Y42.7300 
G82 X-27.7300 Y44.7300 
G82 X-27.7300 Y46.7300 
M05
G00 X0.0000 Y0.0000 Z30.0000 
M06 T03  ; 0.8128 
G00 Z2.0000 
M03
G04 P3.000000
G82 X-23.1900 Y33.0000 Z-2.0000 F127.00 R2.0000 P0.100000
G82 X-30.8100 Y33.0000 
M05
G00 X0.0000 Y0.0000 Z30.0000 
M06 T04  ; 1.0160 
G00 Z2.0000 
M03
G04 P3.000000
G82 X-38.0000 Y33.6500 Z-2.0000 F127.00 R2.0000 P0.100000
G82 X-38.0000 Y36.1900 
G82 X-38.0000 Y38.7300 
G82 X-38.0000 Y41.2700 
G82 X-38.0000 Y43.8100 
G82 X-38.0000 Y46.3500 
(File Footer)
T01 
G00 Z10.0000 
M05
M02
