( This gcode generated by /home/mattvenn/.eagle/ulp/pcb-gcode.ulp )
( Copyright 2005 by John Johnson. See readme.txt for licensing terms. )

( This file generated from the board /home/mattvenn/eagle-circuit-designs/hope rm12b bob/bob1.brd )
( This file generated 20/01/2012 14:35 )

G21

G90
G00 Z10.0000 
G00 X0 Y0
M03
G04 P3.000000
G00 Z2.0000 
G00 X-24.3491 Y37.4689 
G01 Z-0.1000 F600.00 
G01 X-25.8028 Y37.4689 
G01 X-25.9455 Y37.4405 
G01 X-26.0800 Y37.3848 
G01 X-26.2010 Y37.3039 
G01 X-26.3039 Y37.2010 
G01 X-26.3848 Y37.0800 
G01 X-26.4405 Y36.9455 
G01 X-26.4689 Y36.8028 
G01 X-26.4689 Y36.6571 
G01 X-26.4405 Y36.5144 
G01 X-26.3848 Y36.3799 
G01 X-26.3039 Y36.2589 
G01 X-26.2010 Y36.1560 
G01 X-26.0800 Y36.0751 
G01 X-25.9455 Y36.0194 
G01 X-25.8028 Y35.9910 
G01 X-24.3491 Y35.9910 
G01 X-24.2064 Y36.0194 
G01 X-24.0719 Y36.0751 
G01 X-23.9509 Y36.1560 
G01 X-23.8480 Y36.2589 
G01 X-23.7671 Y36.3799 
G01 X-23.7114 Y36.5144 
G01 X-23.6830 Y36.6571 
G01 X-23.6830 Y36.8028 
G01 X-23.7114 Y36.9455 
G01 X-23.7671 Y37.0800 
G01 X-23.8480 Y37.2010 
G01 X-23.9509 Y37.3039 
G01 X-24.0719 Y37.3848 
G01 X-24.2064 Y37.4405 
G01 X-24.3491 Y37.4689 
G00 Z2.0000 
G00 X-24.3491 Y39.4689 
G01 Z-0.1000 F600.00 
G01 X-25.8028 Y39.4689 
G01 X-25.9455 Y39.4405 
G01 X-26.0800 Y39.3848 
G01 X-26.2010 Y39.3039 
G01 X-26.3039 Y39.2010 
G01 X-26.3848 Y39.0800 
G01 X-26.4405 Y38.9455 
G01 X-26.4689 Y38.8028 
G01 X-26.4689 Y38.6571 
G01 X-26.4405 Y38.5144 
G01 X-26.3848 Y38.3799 
G01 X-26.3039 Y38.2589 
G01 X-26.2010 Y38.1560 
G01 X-26.0800 Y38.0751 
G01 X-25.9455 Y38.0194 
G01 X-25.8028 Y37.9910 
G01 X-24.3491 Y37.9910 
G01 X-24.2064 Y38.0194 
G01 X-24.0719 Y38.0751 
G01 X-23.9509 Y38.1560 
G01 X-23.8480 Y38.2589 
G01 X-23.7671 Y38.3799 
G01 X-23.7114 Y38.5144 
G01 X-23.6830 Y38.6571 
G01 X-23.6830 Y38.8028 
G01 X-23.7114 Y38.9455 
G01 X-23.7671 Y39.0800 
G01 X-23.8480 Y39.2010 
G01 X-23.9509 Y39.3039 
G01 X-24.0719 Y39.3848 
G01 X-24.2064 Y39.4405 
G01 X-24.3491 Y39.4689 
G00 Z2.0000 
G00 X-24.3491 Y41.4689 
G01 Z-0.1000 F600.00 
G01 X-25.8028 Y41.4689 
G01 X-25.9455 Y41.4405 
G01 X-26.0800 Y41.3848 
G01 X-26.2010 Y41.3039 
G01 X-26.3039 Y41.2010 
G01 X-26.3848 Y41.0800 
G01 X-26.4405 Y40.9455 
G01 X-26.4689 Y40.8028 
G01 X-26.4689 Y40.6571 
G01 X-26.4405 Y40.5144 
G01 X-26.3848 Y40.3799 
G01 X-26.3039 Y40.2589 
G01 X-26.2010 Y40.1560 
G01 X-26.0800 Y40.0751 
G01 X-25.9455 Y40.0194 
G01 X-25.8028 Y39.9910 
G01 X-24.3491 Y39.9910 
G01 X-24.2064 Y40.0194 
G01 X-24.0719 Y40.0751 
G01 X-23.9509 Y40.1560 
G01 X-23.8480 Y40.2589 
G01 X-23.7671 Y40.3799 
G01 X-23.7114 Y40.5144 
G01 X-23.6830 Y40.6571 
G01 X-23.6830 Y40.8028 
G01 X-23.7114 Y40.9455 
G01 X-23.7671 Y41.0800 
G01 X-23.8480 Y41.2010 
G01 X-23.9509 Y41.3039 
G01 X-24.0719 Y41.3848 
G01 X-24.2064 Y41.4405 
G01 X-24.3491 Y41.4689 
G00 Z2.0000 
G00 X-24.3491 Y43.4689 
G01 Z-0.1000 F600.00 
G01 X-25.8028 Y43.4689 
G01 X-25.9455 Y43.4405 
G01 X-26.0800 Y43.3848 
G01 X-26.2010 Y43.3039 
G01 X-26.3039 Y43.2010 
G01 X-26.3848 Y43.0800 
G01 X-26.4405 Y42.9455 
G01 X-26.4689 Y42.8028 
G01 X-26.4689 Y42.6571 
G01 X-26.4405 Y42.5144 
G01 X-26.3848 Y42.3799 
G01 X-26.3039 Y42.2589 
G01 X-26.2010 Y42.1560 
G01 X-26.0800 Y42.0751 
G01 X-25.9455 Y42.0194 
G01 X-25.8028 Y41.9910 
G01 X-24.3491 Y41.9910 
G01 X-24.2064 Y42.0194 
G01 X-24.0719 Y42.0751 
G01 X-23.9509 Y42.1560 
G01 X-23.8480 Y42.2589 
G01 X-23.7671 Y42.3799 
G01 X-23.7114 Y42.5144 
G01 X-23.6830 Y42.6571 
G01 X-23.6830 Y42.8028 
G01 X-23.7114 Y42.9455 
G01 X-23.7671 Y43.0800 
G01 X-23.8480 Y43.2010 
G01 X-23.9509 Y43.3039 
G01 X-24.0719 Y43.3848 
G01 X-24.2064 Y43.4405 
G01 X-24.3491 Y43.4689 
G00 Z2.0000 
G00 X-24.3491 Y45.4689 
G01 Z-0.1000 F600.00 
G01 X-25.8028 Y45.4689 
G01 X-25.9455 Y45.4405 
G01 X-26.0800 Y45.3848 
G01 X-26.2010 Y45.3039 
G01 X-26.3039 Y45.2010 
G01 X-26.3848 Y45.0800 
G01 X-26.4405 Y44.9455 
G01 X-26.4689 Y44.8028 
G01 X-26.4689 Y44.6571 
G01 X-26.4405 Y44.5144 
G01 X-26.3848 Y44.3799 
G01 X-26.3039 Y44.2589 
G01 X-26.2010 Y44.1560 
G01 X-26.0800 Y44.0751 
G01 X-25.9455 Y44.0194 
G01 X-25.8028 Y43.9910 
G01 X-24.3491 Y43.9910 
G01 X-24.2064 Y44.0194 
G01 X-24.0719 Y44.0751 
G01 X-23.9509 Y44.1560 
G01 X-23.8480 Y44.2589 
G01 X-23.7671 Y44.3799 
G01 X-23.7114 Y44.5144 
G01 X-23.6830 Y44.6571 
G01 X-23.6830 Y44.8028 
G01 X-23.7114 Y44.9455 
G01 X-23.7671 Y45.0800 
G01 X-23.8480 Y45.2010 
G01 X-23.9509 Y45.3039 
G01 X-24.0719 Y45.3848 
G01 X-24.2064 Y45.4405 
G01 X-24.3491 Y45.4689 
G00 Z2.0000 
G00 X-24.3491 Y47.4689 
G01 Z-0.1000 F600.00 
G01 X-25.8028 Y47.4689 
G01 X-25.9455 Y47.4405 
G01 X-26.0800 Y47.3848 
G01 X-26.2010 Y47.3039 
G01 X-26.3039 Y47.2010 
G01 X-26.3848 Y47.0800 
G01 X-26.4405 Y46.9455 
G01 X-26.4689 Y46.8028 
G01 X-26.4689 Y46.6571 
G01 X-26.4405 Y46.5144 
G01 X-26.3848 Y46.3799 
G01 X-26.3039 Y46.2589 
G01 X-26.2010 Y46.1560 
G01 X-26.0800 Y46.0751 
G01 X-25.9455 Y46.0194 
G01 X-25.8028 Y45.9910 
G01 X-24.3491 Y45.9910 
G01 X-24.2064 Y46.0194 
G01 X-24.0719 Y46.0751 
G01 X-23.9509 Y46.1560 
G01 X-23.8480 Y46.2589 
G01 X-23.7671 Y46.3799 
G01 X-23.7114 Y46.5144 
G01 X-23.6830 Y46.6571 
G01 X-23.6830 Y46.8028 
G01 X-23.7114 Y46.9455 
G01 X-23.7671 Y47.0800 
G01 X-23.8480 Y47.2010 
G01 X-23.9509 Y47.3039 
G01 X-24.0719 Y47.3848 
G01 X-24.2064 Y47.4405 
G01 X-24.3491 Y47.4689 
G00 Z2.0000 
G00 X-29.1108 Y35.9910 
G01 Z-0.1000 F600.00 
G01 X-27.6571 Y35.9910 
G01 X-27.5144 Y36.0194 
G01 X-27.3799 Y36.0751 
G01 X-27.2589 Y36.1560 
G01 X-27.1560 Y36.2589 
G01 X-27.0751 Y36.3799 
G01 X-27.0194 Y36.5144 
G01 X-26.9910 Y36.6571 
G01 X-26.9910 Y36.8028 
G01 X-27.0194 Y36.9455 
G01 X-27.0751 Y37.0800 
G01 X-27.1560 Y37.2010 
G01 X-27.2589 Y37.3039 
G01 X-27.3799 Y37.3848 
G01 X-27.5144 Y37.4405 
G01 X-27.6571 Y37.4689 
G01 X-29.1108 Y37.4689 
G01 X-29.2535 Y37.4405 
G01 X-29.3880 Y37.3848 
G01 X-29.5090 Y37.3039 
G01 X-29.6119 Y37.2010 
G01 X-29.6928 Y37.0800 
G01 X-29.7485 Y36.9455 
G01 X-29.7769 Y36.8028 
G01 X-29.7769 Y36.6571 
G01 X-29.7485 Y36.5144 
G01 X-29.6928 Y36.3799 
G01 X-29.6119 Y36.2589 
G01 X-29.5090 Y36.1560 
G01 X-29.3880 Y36.0751 
G01 X-29.2535 Y36.0194 
G01 X-29.1108 Y35.9910 
G00 Z2.0000 
G00 X-29.1108 Y37.9910 
G01 Z-0.1000 F600.00 
G01 X-27.6571 Y37.9910 
G01 X-27.5144 Y38.0194 
G01 X-27.3799 Y38.0751 
G01 X-27.2589 Y38.1560 
G01 X-27.1560 Y38.2589 
G01 X-27.0751 Y38.3799 
G01 X-27.0194 Y38.5144 
G01 X-26.9910 Y38.6571 
G01 X-26.9910 Y38.8028 
G01 X-27.0194 Y38.9455 
G01 X-27.0751 Y39.0800 
G01 X-27.1560 Y39.2010 
G01 X-27.2589 Y39.3039 
G01 X-27.3799 Y39.3848 
G01 X-27.5144 Y39.4405 
G01 X-27.6571 Y39.4689 
G01 X-29.1108 Y39.4689 
G01 X-29.2535 Y39.4405 
G01 X-29.3880 Y39.3848 
G01 X-29.5090 Y39.3039 
G01 X-29.6119 Y39.2010 
G01 X-29.6928 Y39.0800 
G01 X-29.7485 Y38.9455 
G01 X-29.7769 Y38.8028 
G01 X-29.7769 Y38.6571 
G01 X-29.7485 Y38.5144 
G01 X-29.6928 Y38.3799 
G01 X-29.6119 Y38.2589 
G01 X-29.5090 Y38.1560 
G01 X-29.3880 Y38.0751 
G01 X-29.2535 Y38.0194 
G01 X-29.1108 Y37.9910 
G00 Z2.0000 
G00 X-29.1108 Y39.9910 
G01 Z-0.1000 F600.00 
G01 X-27.6571 Y39.9910 
G01 X-27.5144 Y40.0194 
G01 X-27.3799 Y40.0751 
G01 X-27.2589 Y40.1560 
G01 X-27.1560 Y40.2589 
G01 X-27.0751 Y40.3799 
G01 X-27.0194 Y40.5144 
G01 X-26.9910 Y40.6571 
G01 X-26.9910 Y40.8028 
G01 X-27.0194 Y40.9455 
G01 X-27.0751 Y41.0800 
G01 X-27.1560 Y41.2010 
G01 X-27.2589 Y41.3039 
G01 X-27.3799 Y41.3848 
G01 X-27.5144 Y41.4405 
G01 X-27.6571 Y41.4689 
G01 X-29.1108 Y41.4689 
G01 X-29.2535 Y41.4405 
G01 X-29.3880 Y41.3848 
G01 X-29.5090 Y41.3039 
G01 X-29.6119 Y41.2010 
G01 X-29.6928 Y41.0800 
G01 X-29.7485 Y40.9455 
G01 X-29.7769 Y40.8028 
G01 X-29.7769 Y40.6571 
G01 X-29.7485 Y40.5144 
G01 X-29.6928 Y40.3799 
G01 X-29.6119 Y40.2589 
G01 X-29.5090 Y40.1560 
G01 X-29.3880 Y40.0751 
G01 X-29.2535 Y40.0194 
G01 X-29.1108 Y39.9910 
G00 Z2.0000 
G00 X-29.1108 Y41.9910 
G01 Z-0.1000 F600.00 
G01 X-27.6571 Y41.9910 
G01 X-27.5144 Y42.0194 
G01 X-27.3799 Y42.0751 
G01 X-27.2589 Y42.1560 
G01 X-27.1560 Y42.2589 
G01 X-27.0751 Y42.3799 
G01 X-27.0194 Y42.5144 
G01 X-26.9910 Y42.6571 
G01 X-26.9910 Y42.8028 
G01 X-27.0194 Y42.9455 
G01 X-27.0751 Y43.0800 
G01 X-27.1560 Y43.2010 
G01 X-27.2589 Y43.3039 
G01 X-27.3799 Y43.3848 
G01 X-27.5144 Y43.4405 
G01 X-27.6571 Y43.4689 
G01 X-29.1108 Y43.4689 
G01 X-29.2535 Y43.4405 
G01 X-29.3880 Y43.3848 
G01 X-29.5090 Y43.3039 
G01 X-29.6119 Y43.2010 
G01 X-29.6928 Y43.0800 
G01 X-29.7485 Y42.9455 
G01 X-29.7769 Y42.8028 
G01 X-29.7769 Y42.6571 
G01 X-29.7485 Y42.5144 
G01 X-29.6928 Y42.3799 
G01 X-29.6119 Y42.2589 
G01 X-29.5090 Y42.1560 
G01 X-29.3880 Y42.0751 
G01 X-29.2535 Y42.0194 
G01 X-29.1108 Y41.9910 
G00 Z2.0000 
G00 X-29.1108 Y43.9910 
G01 Z-0.1000 F600.00 
G01 X-27.6571 Y43.9910 
G01 X-27.5144 Y44.0194 
G01 X-27.3799 Y44.0751 
G01 X-27.2589 Y44.1560 
G01 X-27.1560 Y44.2589 
G01 X-27.0751 Y44.3799 
G01 X-27.0194 Y44.5144 
G01 X-26.9910 Y44.6571 
G01 X-26.9910 Y44.8028 
G01 X-27.0194 Y44.9455 
G01 X-27.0751 Y45.0800 
G01 X-27.1560 Y45.2010 
G01 X-27.2589 Y45.3039 
G01 X-27.3799 Y45.3848 
G01 X-27.5144 Y45.4405 
G01 X-27.6571 Y45.4689 
G01 X-29.1108 Y45.4689 
G01 X-29.2535 Y45.4405 
G01 X-29.3880 Y45.3848 
G01 X-29.5090 Y45.3039 
G01 X-29.6119 Y45.2010 
G01 X-29.6928 Y45.0800 
G01 X-29.7485 Y44.9455 
G01 X-29.7769 Y44.8028 
G01 X-29.7769 Y44.6571 
G01 X-29.7485 Y44.5144 
G01 X-29.6928 Y44.3799 
G01 X-29.6119 Y44.2589 
G01 X-29.5090 Y44.1560 
G01 X-29.3880 Y44.0751 
G01 X-29.2535 Y44.0194 
G01 X-29.1108 Y43.9910 
G00 Z2.0000 
G00 X-29.1108 Y45.9910 
G01 Z-0.1000 F600.00 
G01 X-27.6571 Y45.9910 
G01 X-27.5144 Y46.0194 
G01 X-27.3799 Y46.0751 
G01 X-27.2589 Y46.1560 
G01 X-27.1560 Y46.2589 
G01 X-27.0751 Y46.3799 
G01 X-27.0194 Y46.5144 
G01 X-26.9910 Y46.6571 
G01 X-26.9910 Y46.8028 
G01 X-27.0194 Y46.9455 
G01 X-27.0751 Y47.0800 
G01 X-27.1560 Y47.2010 
G01 X-27.2589 Y47.3039 
G01 X-27.3799 Y47.3848 
G01 X-27.5144 Y47.4405 
G01 X-27.6571 Y47.4689 
G01 X-29.1108 Y47.4689 
G01 X-29.2535 Y47.4405 
G01 X-29.3880 Y47.3848 
G01 X-29.5090 Y47.3039 
G01 X-29.6119 Y47.2010 
G01 X-29.6928 Y47.0800 
G01 X-29.7485 Y46.9455 
G01 X-29.7769 Y46.8028 
G01 X-29.7769 Y46.6571 
G01 X-29.7485 Y46.5144 
G01 X-29.6928 Y46.3799 
G01 X-29.6119 Y46.2589 
G01 X-29.5090 Y46.1560 
G01 X-29.3880 Y46.0751 
G01 X-29.2535 Y46.0194 
G01 X-29.1108 Y45.9910 
G00 Z2.0000 
G00 X-11.6212 Y45.2277 
G01 Z-0.1000 F600.00 
G01 X-13.4331 Y45.2277 
G01 X-13.4643 Y45.2148 
G01 X-13.4882 Y45.1909 
G01 X-13.5011 Y45.1597 
G01 X-13.5011 Y43.3478 
G01 X-13.4882 Y43.3166 
G01 X-13.4643 Y43.2927 
G01 X-13.4331 Y43.2798 
G01 X-11.6212 Y43.2798 
G01 X-11.5900 Y43.2927 
G01 X-11.5661 Y43.3166 
G01 X-11.5532 Y43.3478 
G01 X-11.5532 Y45.1597 
G01 X-11.5661 Y45.1909 
G01 X-11.5900 Y45.2148 
G01 X-11.6212 Y45.2277 
G00 Z2.0000 
G00 X-29.4550 Y32.4387 
G01 Z-0.1000 F600.00 
G01 X-29.4550 Y33.5612 
G01 X-30.2487 Y34.3549 
G01 X-31.3712 Y34.3549 
G01 X-32.1649 Y33.5612 
G01 X-32.1649 Y32.4387 
G01 X-31.3712 Y31.6450 
G01 X-30.2487 Y31.6450 
G01 X-29.4550 Y32.4387 
G00 Z2.0000 
G00 X-21.8350 Y32.4387 
G01 Z-0.1000 F600.00 
G01 X-21.8350 Y33.5612 
G01 X-22.6287 Y34.3549 
G01 X-23.7512 Y34.3549 
G01 X-24.5449 Y33.5612 
G01 X-24.5449 Y32.4387 
G01 X-23.7512 Y31.6450 
G01 X-22.6287 Y31.6450 
G01 X-21.8350 Y32.4387 
G00 Z2.0000 
G00 X-37.0150 Y47.3239 
G01 Z-0.1000 F600.00 
G01 X-38.9849 Y47.3239 
G01 X-39.1731 Y47.2865 
G01 X-39.3503 Y47.2131 
G01 X-39.5098 Y47.1065 
G01 X-39.6455 Y46.9708 
G01 X-39.7521 Y46.8113 
G01 X-39.8255 Y46.6341 
G01 X-39.8629 Y46.4459 
G01 X-39.8629 Y46.2540 
G01 X-39.8255 Y46.0658 
G01 X-39.7521 Y45.8886 
G01 X-39.6455 Y45.7291 
G01 X-39.5098 Y45.5934 
G01 X-39.3503 Y45.4868 
G01 X-39.1731 Y45.4134 
G01 X-38.9849 Y45.3760 
G01 X-37.0150 Y45.3760 
G01 X-36.8268 Y45.4134 
G01 X-36.6496 Y45.4868 
G01 X-36.4901 Y45.5934 
G01 X-36.3544 Y45.7291 
G01 X-36.2478 Y45.8886 
G01 X-36.1744 Y46.0658 
G01 X-36.1370 Y46.2540 
G01 X-36.1370 Y46.4459 
G01 X-36.1744 Y46.6341 
G01 X-36.2478 Y46.8113 
G01 X-36.3544 Y46.9708 
G01 X-36.4901 Y47.1065 
G01 X-36.6496 Y47.2131 
G01 X-36.8268 Y47.2865 
G01 X-37.0150 Y47.3239 
G00 Z2.0000 
G00 X-37.0150 Y44.7839 
G01 Z-0.1000 F600.00 
G01 X-38.9849 Y44.7839 
G01 X-39.1731 Y44.7465 
G01 X-39.3503 Y44.6731 
G01 X-39.5098 Y44.5665 
G01 X-39.6455 Y44.4308 
G01 X-39.7521 Y44.2713 
G01 X-39.8255 Y44.0941 
G01 X-39.8629 Y43.9059 
G01 X-39.8629 Y43.7140 
G01 X-39.8255 Y43.5258 
G01 X-39.7521 Y43.3486 
G01 X-39.6455 Y43.1891 
G01 X-39.5098 Y43.0534 
G01 X-39.3503 Y42.9468 
G01 X-39.1731 Y42.8734 
G01 X-38.9849 Y42.8360 
G01 X-37.0150 Y42.8360 
G01 X-36.8268 Y42.8734 
G01 X-36.6496 Y42.9468 
G01 X-36.4901 Y43.0534 
G01 X-36.3544 Y43.1891 
G01 X-36.2478 Y43.3486 
G01 X-36.1744 Y43.5258 
G01 X-36.1370 Y43.7140 
G01 X-36.1370 Y43.9059 
G01 X-36.1744 Y44.0941 
G01 X-36.2478 Y44.2713 
G01 X-36.3544 Y44.4308 
G01 X-36.4901 Y44.5665 
G01 X-36.6496 Y44.6731 
G01 X-36.8268 Y44.7465 
G01 X-37.0150 Y44.7839 
G00 Z2.0000 
G00 X-37.0150 Y42.2439 
G01 Z-0.1000 F600.00 
G01 X-38.9849 Y42.2439 
G01 X-39.1731 Y42.2065 
G01 X-39.3503 Y42.1331 
G01 X-39.5098 Y42.0265 
G01 X-39.6455 Y41.8908 
G01 X-39.7521 Y41.7313 
G01 X-39.8255 Y41.5541 
G01 X-39.8629 Y41.3659 
G01 X-39.8629 Y41.1740 
G01 X-39.8255 Y40.9858 
G01 X-39.7521 Y40.8086 
G01 X-39.6455 Y40.6491 
G01 X-39.5098 Y40.5134 
G01 X-39.3503 Y40.4068 
G01 X-39.1731 Y40.3334 
G01 X-38.9849 Y40.2960 
G01 X-37.0150 Y40.2960 
G01 X-36.8268 Y40.3334 
G01 X-36.6496 Y40.4068 
G01 X-36.4901 Y40.5134 
G01 X-36.3544 Y40.6491 
G01 X-36.2478 Y40.8086 
G01 X-36.1744 Y40.9858 
G01 X-36.1370 Y41.1740 
G01 X-36.1370 Y41.3659 
G01 X-36.1744 Y41.5541 
G01 X-36.2478 Y41.7313 
G01 X-36.3544 Y41.8908 
G01 X-36.4901 Y42.0265 
G01 X-36.6496 Y42.1331 
G01 X-36.8268 Y42.2065 
G01 X-37.0150 Y42.2439 
G00 Z2.0000 
G00 X-37.0150 Y39.7039 
G01 Z-0.1000 F600.00 
G01 X-38.9849 Y39.7039 
G01 X-39.1731 Y39.6665 
G01 X-39.3503 Y39.5931 
G01 X-39.5098 Y39.4865 
G01 X-39.6455 Y39.3508 
G01 X-39.7521 Y39.1913 
G01 X-39.8255 Y39.0141 
G01 X-39.8629 Y38.8259 
G01 X-39.8629 Y38.6340 
G01 X-39.8255 Y38.4458 
G01 X-39.7521 Y38.2686 
G01 X-39.6455 Y38.1091 
G01 X-39.5098 Y37.9734 
G01 X-39.3503 Y37.8668 
G01 X-39.1731 Y37.7934 
G01 X-38.9849 Y37.7560 
G01 X-37.0150 Y37.7560 
G01 X-36.8268 Y37.7934 
G01 X-36.6496 Y37.8668 
G01 X-36.4901 Y37.9734 
G01 X-36.3544 Y38.1091 
G01 X-36.2478 Y38.2686 
G01 X-36.1744 Y38.4458 
G01 X-36.1370 Y38.6340 
G01 X-36.1370 Y38.8259 
G01 X-36.1744 Y39.0141 
G01 X-36.2478 Y39.1913 
G01 X-36.3544 Y39.3508 
G01 X-36.4901 Y39.4865 
G01 X-36.6496 Y39.5931 
G01 X-36.8268 Y39.6665 
G01 X-37.0150 Y39.7039 
G00 Z2.0000 
G00 X-37.0150 Y37.1639 
G01 Z-0.1000 F600.00 
G01 X-38.9849 Y37.1639 
G01 X-39.1731 Y37.1265 
G01 X-39.3503 Y37.0531 
G01 X-39.5098 Y36.9465 
G01 X-39.6455 Y36.8108 
G01 X-39.7521 Y36.6513 
G01 X-39.8255 Y36.4741 
G01 X-39.8629 Y36.2859 
G01 X-39.8629 Y36.0940 
G01 X-39.8255 Y35.9058 
G01 X-39.7521 Y35.7286 
G01 X-39.6455 Y35.5691 
G01 X-39.5098 Y35.4334 
G01 X-39.3503 Y35.3268 
G01 X-39.1731 Y35.2534 
G01 X-38.9849 Y35.2160 
G01 X-37.0150 Y35.2160 
G01 X-36.8268 Y35.2534 
G01 X-36.6496 Y35.3268 
G01 X-36.4901 Y35.4334 
G01 X-36.3544 Y35.5691 
G01 X-36.2478 Y35.7286 
G01 X-36.1744 Y35.9058 
G01 X-36.1370 Y36.0940 
G01 X-36.1370 Y36.2859 
G01 X-36.1744 Y36.4741 
G01 X-36.2478 Y36.6513 
G01 X-36.3544 Y36.8108 
G01 X-36.4901 Y36.9465 
G01 X-36.6496 Y37.0531 
G01 X-36.8268 Y37.1265 
G01 X-37.0150 Y37.1639 
G00 Z2.0000 
G00 X-37.0150 Y34.6239 
G01 Z-0.1000 F600.00 
G01 X-38.9849 Y34.6239 
G01 X-39.1731 Y34.5865 
G01 X-39.3503 Y34.5131 
G01 X-39.5098 Y34.4065 
G01 X-39.6455 Y34.2708 
G01 X-39.7521 Y34.1113 
G01 X-39.8255 Y33.9341 
G01 X-39.8629 Y33.7459 
G01 X-39.8629 Y33.5540 
G01 X-39.8255 Y33.3658 
G01 X-39.7521 Y33.1886 
G01 X-39.6455 Y33.0291 
G01 X-39.5098 Y32.8934 
G01 X-39.3503 Y32.7868 
G01 X-39.1731 Y32.7134 
G01 X-38.9849 Y32.6760 
G01 X-37.0150 Y32.6760 
G01 X-36.8268 Y32.7134 
G01 X-36.6496 Y32.7868 
G01 X-36.4901 Y32.8934 
G01 X-36.3544 Y33.0291 
G01 X-36.2478 Y33.1886 
G01 X-36.1744 Y33.3658 
G01 X-36.1370 Y33.5540 
G01 X-36.1370 Y33.7459 
G01 X-36.1744 Y33.9341 
G01 X-36.2478 Y34.1113 
G01 X-36.3544 Y34.2708 
G01 X-36.4901 Y34.4065 
G01 X-36.6496 Y34.5131 
G01 X-36.8268 Y34.5865 
G01 X-37.0150 Y34.6239 
G00 Z2.0000 
G00 X-8.2038 Y43.2718 
G01 Z-0.1000 F600.00 
G01 X-8.2038 Y44.7281 
G01 X-8.2167 Y44.7593 
G01 X-8.2406 Y44.7832 
G01 X-8.2718 Y44.7961 
G01 X-9.7281 Y44.7961 
G01 X-9.7593 Y44.7832 
G01 X-9.7832 Y44.7593 
G01 X-9.7961 Y44.7281 
G01 X-9.7961 Y43.2718 
G01 X-9.7832 Y43.2406 
G01 X-9.7593 Y43.2167 
G01 X-9.7281 Y43.2038 
G01 X-8.2718 Y43.2038 
G01 X-8.2406 Y43.2167 
G01 X-8.2167 Y43.2406 
G01 X-8.2038 Y43.2718 
(File Footer)
G00 Z2.0000 
G00 Z10.0000 
M05
M02
