( This gcode generated by /home/mattvenn/.eagle/ulp/pcb-gcode.ulp )
( Copyright 2005 by John Johnson. See readme.txt for licensing terms. )

( This file generated from the board /home/mattvenn/eagle-circuit-designs/hope rm12b bob/bob1.brd )
( This file generated 20/01/2012 14:00 )

( T01 0.600000 )
( T02 0.800000 )
( T03 0.812800 )
( T04 1.676400 )
G21

G90
M05
G00 X0.0000 Y0.0000 Z30.0000 
M06 T01  ; 0.6000 
G00 Z2.0000 
M03
G04 P3.000000
G82 X5.0000 Y44.0000 Z-2.0000 F127.00 R2.0000 P0.100000
M05
G00 X0.0000 Y0.0000 Z30.0000 
M06 T02  ; 0.8000 
G00 Z2.0000 
M03
G04 P3.000000
G82 X12.7300 Y43.7300 Z-2.0000 F127.00 R2.0000 P0.100000
G82 X25.7300 Y36.7300 
G82 X25.7300 Y38.7300 
G82 X25.7300 Y40.7300 
G82 X25.7300 Y42.7300 
G82 X25.7300 Y44.7300 
G82 X25.7300 Y46.7300 
G82 X27.7300 Y36.7300 
G82 X27.7300 Y38.7300 
G82 X27.7300 Y40.7300 
G82 X27.7300 Y42.7300 
G82 X27.7300 Y44.7300 
G82 X27.7300 Y46.7300 
M05
G00 X0.0000 Y0.0000 Z30.0000 
M06 T03  ; 0.8128 
G00 Z2.0000 
M03
G04 P3.000000
G82 X23.1900 Y31.0000 Z-2.0000 F127.00 R2.0000 P0.100000
G82 X30.8100 Y31.0000 
M05
G00 X0.0000 Y0.0000 Z30.0000 
M06 T04  ; 1.6764 
G00 Z2.0000 
M03
G04 P3.000000
G82 X38.0000 Y6.2068 Z-2.0000 F127.00 R2.0000 P0.100000
G82 X38.0000 Y10.1692 
G82 X38.0000 Y14.1316 
G82 X38.0000 Y18.0940 
G82 X38.0000 Y22.0564 
G82 X38.0000 Y26.0188 
G82 X38.0000 Y29.9812 
G82 X38.0000 Y33.9436 
G82 X38.0000 Y37.9060 
G82 X38.0000 Y41.8684 
G82 X38.0000 Y45.8308 
G82 X38.0000 Y49.7932 
(File Footer)
T01 
G00 Z10.0000 
M05
M02
