( This gcode generated by /home/mattvenn/.eagle/ulp/pcb-gcode.ulp )
( Copyright 2005 by John Johnson. See readme.txt for licensing terms. )

( This file generated from the board /home/mattvenn/eagle-circuit-designs/30w developer kit/30w developer board.brd )
( This file generated 23/02/2012 10:17 )

G21

G90
G00 Z10.0000 
G00 X0 Y0
M03
G04 P3.000000
G00 Z2.0000 
G00 X2.0000 Y58.0000 
G01 Z-2.0000 F600.00 
G01 X68.0000 Y58.0000 
G01 X71.0000 Y55.0000 
G01 X71.0000 Y44.0000 
G01 X73.0000 Y42.0000 
G01 X73.0000 Y9.0000 
G01 X70.0000 Y6.0000 
G01 X70.0000 Y2.0000 
G01 X2.0000 Y2.0000 
G01 X2.0000 Y58.0000 
(File Footer)
G00 Z10.0000 
M05
M02
