( This gcode generated by /home/mattvenn/.eagle/ulp/pcb-gcode.ulp )
( Copyright 2005 by John Johnson. See readme.txt for licensing terms. )

( This file generated from the board /home/mattvenn/eagle-circuit-designs/30w developer kit/30w developer board.brd )
( This file generated 23/02/2012 10:17 )

G21

G90
G00 Z10.0000 
G00 X0 Y0
M03
G04 P3.000000
G00 Z2.0000 
G00 X54.3509 Y30.9537 
G01 Z-0.2000 F600.00 
G01 X54.3509 Y31.0462 
G01 X54.3270 Y31.1354 
G01 X54.2861 Y31.2063 
G01 X54.2896 Y31.2115 
G01 X54.3355 Y31.3223 
G01 X54.3589 Y31.4399 
G01 X54.3589 Y31.5600 
G01 X54.3355 Y31.6776 
G01 X54.2896 Y31.7884 
G01 X54.2230 Y31.8882 
G01 X54.1382 Y31.9730 
G01 X54.0384 Y32.0396 
G01 X53.9276 Y32.0855 
G01 X53.8100 Y32.1089 
G01 X53.6899 Y32.1089 
G01 X53.5723 Y32.0855 
G01 X53.4615 Y32.0396 
G01 X53.3617 Y31.9730 
G01 X53.2769 Y31.8882 
G01 X53.2103 Y31.7884 
G01 X53.1644 Y31.6776 
G01 X53.1410 Y31.5600 
G01 X53.1410 Y31.4399 
G01 X53.1644 Y31.3223 
G01 X53.2103 Y31.2115 
G01 X53.2769 Y31.1117 
G01 X53.3617 Y31.0269 
G01 X53.4615 Y30.9603 
G01 X53.5723 Y30.9144 
G01 X53.5933 Y30.9103 
G01 X53.6490 Y30.8545 
G01 X53.6490 Y23.9978 
G01 X53.6117 Y23.9730 
G01 X53.5269 Y23.8882 
G01 X53.4603 Y23.7884 
G01 X53.4144 Y23.6776 
G01 X53.3910 Y23.5600 
G01 X53.3910 Y23.4399 
G01 X53.4144 Y23.3223 
G01 X53.4603 Y23.2115 
G01 X53.5269 Y23.1117 
G01 X53.6117 Y23.0269 
G01 X53.7115 Y22.9603 
G01 X53.8223 Y22.9144 
G01 X53.9399 Y22.8910 
G01 X54.0600 Y22.8910 
G01 X54.1776 Y22.9144 
G01 X54.2884 Y22.9603 
G01 X54.3882 Y23.0269 
G01 X54.4730 Y23.1117 
G01 X54.5396 Y23.2115 
G01 X54.5855 Y23.3223 
G01 X54.6089 Y23.4399 
G01 X54.6089 Y23.5600 
G01 X54.5855 Y23.6776 
G01 X54.5396 Y23.7884 
G01 X54.4730 Y23.8882 
G01 X54.3882 Y23.9730 
G01 X54.3509 Y23.9978 
G01 X54.3509 Y30.9537 
G00 Z2.0000 
G00 X49.7155 Y32.2191 
G01 Z-0.2000 F600.00 
G01 X49.7808 Y32.2844 
G01 X49.8270 Y32.3645 
G01 X49.8509 Y32.4537 
G01 X49.8509 Y33.5990 
G01 X50.2701 Y33.5990 
G01 X50.3072 Y33.6144 
G01 X50.3355 Y33.6427 
G01 X50.3509 Y33.6798 
G01 X50.3509 Y36.3201 
G01 X50.3509 Y36.3545 
G01 X51.2154 Y37.2191 
G01 X51.2155 Y37.2191 
G01 X51.2808 Y37.2844 
G01 X51.3270 Y37.3645 
G01 X51.3509 Y37.4537 
G01 X51.3509 Y42.4537 
G01 X51.3509 Y42.5462 
G01 X51.3270 Y42.6354 
G01 X51.2808 Y42.7155 
G01 X49.2155 Y44.7808 
G01 X49.1354 Y44.8270 
G01 X49.0462 Y44.8509 
G01 X48.9537 Y44.8509 
G01 X48.8645 Y44.8270 
G01 X48.7844 Y44.7808 
G01 X48.7191 Y44.7155 
G01 X48.6729 Y44.6354 
G01 X48.6490 Y44.5462 
G01 X48.6490 Y44.4537 
G01 X48.6729 Y44.3645 
G01 X48.7191 Y44.2844 
G01 X50.6490 Y42.3545 
G01 X50.6490 Y37.6454 
G01 X49.7191 Y36.7155 
G01 X49.6729 Y36.6354 
G01 X49.6490 Y36.5462 
G01 X49.6490 Y36.4537 
G01 X49.6490 Y36.4009 
G01 X48.7298 Y36.4009 
G01 X48.6927 Y36.3855 
G01 X48.6644 Y36.3572 
G01 X48.6490 Y36.3201 
G01 X48.6490 Y33.6798 
G01 X48.6644 Y33.6427 
G01 X48.6927 Y33.6144 
G01 X48.7298 Y33.5990 
G01 X49.1490 Y33.5990 
G01 X49.1490 Y32.6454 
G01 X48.1038 Y31.6001 
G01 X48.0600 Y31.6089 
G01 X47.9399 Y31.6089 
G01 X47.8223 Y31.5855 
G01 X47.7115 Y31.5396 
G01 X47.6117 Y31.4730 
G01 X47.5269 Y31.3882 
G01 X47.4603 Y31.2884 
G01 X47.4144 Y31.1776 
G01 X47.3910 Y31.0600 
G01 X47.3910 Y30.9399 
G01 X47.4144 Y30.8223 
G01 X47.4603 Y30.7115 
G01 X47.5269 Y30.6117 
G01 X47.6117 Y30.5269 
G01 X47.7115 Y30.4603 
G01 X47.8223 Y30.4144 
G01 X47.9399 Y30.3910 
G01 X48.0600 Y30.3910 
G01 X48.1776 Y30.4144 
G01 X48.2884 Y30.4603 
G01 X48.3882 Y30.5269 
G01 X48.4730 Y30.6117 
G01 X48.5396 Y30.7115 
G01 X48.5855 Y30.8223 
G01 X48.6089 Y30.9399 
G01 X48.6089 Y31.0600 
G01 X48.6001 Y31.1038 
G01 X49.7155 Y32.2191 
G00 Z2.0000 
G00 X31.3509 Y39.1009 
G01 Z-0.2000 F600.00 
G01 X31.3509 Y42.7520 
G01 X31.3882 Y42.7769 
G01 X31.4730 Y42.8617 
G01 X31.5396 Y42.9615 
G01 X31.5855 Y43.0723 
G01 X31.6089 Y43.1899 
G01 X31.6089 Y43.3100 
G01 X31.5855 Y43.4276 
G01 X31.5396 Y43.5384 
G01 X31.4730 Y43.6382 
G01 X31.3882 Y43.7230 
G01 X31.2884 Y43.7896 
G01 X31.1776 Y43.8355 
G01 X31.0600 Y43.8589 
G01 X30.9399 Y43.8589 
G01 X30.8223 Y43.8355 
G01 X30.7115 Y43.7896 
G01 X30.6117 Y43.7230 
G01 X30.5269 Y43.6382 
G01 X30.4603 Y43.5384 
G01 X30.4144 Y43.4276 
G01 X30.3910 Y43.3100 
G01 X30.3910 Y43.1899 
G01 X30.4144 Y43.0723 
G01 X30.4603 Y42.9615 
G01 X30.5269 Y42.8617 
G01 X30.6117 Y42.7769 
G01 X30.6490 Y42.7520 
G01 X30.6490 Y38.7037 
G01 X30.6729 Y38.6145 
G01 X30.7191 Y38.5344 
G01 X30.7844 Y38.4691 
G01 X30.8645 Y38.4229 
G01 X30.9537 Y38.3990 
G01 X31.0462 Y38.3990 
G01 X32.5020 Y38.3990 
G01 X32.5269 Y38.3617 
G01 X32.6117 Y38.2769 
G01 X32.7115 Y38.2103 
G01 X32.8223 Y38.1644 
G01 X32.9399 Y38.1410 
G01 X33.0600 Y38.1410 
G01 X33.1776 Y38.1644 
G01 X33.2884 Y38.2103 
G01 X33.3882 Y38.2769 
G01 X33.4730 Y38.3617 
G01 X33.5396 Y38.4615 
G01 X33.5855 Y38.5723 
G01 X33.6089 Y38.6899 
G01 X33.6089 Y38.8100 
G01 X33.5855 Y38.9276 
G01 X33.5396 Y39.0384 
G01 X33.4730 Y39.1382 
G01 X33.3882 Y39.2230 
G01 X33.2884 Y39.2896 
G01 X33.1776 Y39.3355 
G01 X33.0600 Y39.3589 
G01 X32.9399 Y39.3589 
G01 X32.8223 Y39.3355 
G01 X32.7115 Y39.2896 
G01 X32.6117 Y39.2230 
G01 X32.5269 Y39.1382 
G01 X32.5020 Y39.1009 
G01 X31.3509 Y39.1009 
G00 Z2.0000 
G00 X38.8990 Y8.8739 
G01 Z-0.2000 F600.00 
G01 X38.9384 Y8.6250 
G01 X39.0163 Y8.3854 
G01 X39.1307 Y8.1608 
G01 X39.2788 Y7.9570 
G01 X39.4570 Y7.7788 
G01 X39.6608 Y7.6307 
G01 X39.8854 Y7.5163 
G01 X40.1250 Y7.4384 
G01 X40.3739 Y7.3990 
G01 X40.6260 Y7.3990 
G01 X40.8749 Y7.4384 
G01 X41.1145 Y7.5163 
G01 X41.3391 Y7.6307 
G01 X41.5429 Y7.7788 
G01 X41.7211 Y7.9570 
G01 X41.8692 Y8.1608 
G01 X41.9836 Y8.3854 
G01 X42.0615 Y8.6250 
G01 X42.1009 Y8.8739 
G01 X42.1009 Y11.1260 
G01 X42.0615 Y11.3749 
G01 X41.9836 Y11.6145 
G01 X41.8692 Y11.8391 
G01 X41.7211 Y12.0429 
G01 X41.5429 Y12.2211 
G01 X41.4152 Y12.3488 
G01 X41.3692 Y12.4391 
G01 X41.2211 Y12.6429 
G01 X41.0429 Y12.8211 
G01 X40.8391 Y12.9692 
G01 X40.6145 Y13.0836 
G01 X40.3749 Y13.1615 
G01 X40.1260 Y13.2009 
G01 X39.8739 Y13.2009 
G01 X39.6250 Y13.1615 
G01 X39.3854 Y13.0836 
G01 X39.1608 Y12.9692 
G01 X38.9570 Y12.8211 
G01 X38.7788 Y12.6429 
G01 X38.6307 Y12.4391 
G01 X38.5163 Y12.2145 
G01 X38.4384 Y11.9749 
G01 X38.3990 Y11.7260 
G01 X38.3990 Y11.3739 
G01 X38.4384 Y11.1250 
G01 X38.5163 Y10.8854 
G01 X38.6307 Y10.6608 
G01 X38.7788 Y10.4570 
G01 X38.8990 Y10.3368 
G01 X38.8990 Y8.8739 
G00 Z2.0000 
G00 X52.9655 Y29.9691 
G01 Z-0.2000 F600.00 
G01 X53.0308 Y30.0344 
G01 X53.0770 Y30.1145 
G01 X53.1009 Y30.2037 
G01 X53.1009 Y32.3545 
G01 X54.2155 Y33.4691 
G01 X54.2808 Y33.5344 
G01 X54.3270 Y33.6145 
G01 X54.3509 Y33.7037 
G01 X54.3509 Y36.1045 
G01 X54.8961 Y36.6497 
G01 X54.9399 Y36.6410 
G01 X55.0600 Y36.6410 
G01 X55.1776 Y36.6644 
G01 X55.2884 Y36.7103 
G01 X55.3882 Y36.7769 
G01 X55.4730 Y36.8617 
G01 X55.5396 Y36.9615 
G01 X55.5855 Y37.0723 
G01 X55.6089 Y37.1899 
G01 X55.6089 Y37.3100 
G01 X55.5855 Y37.4276 
G01 X55.5396 Y37.5384 
G01 X55.4730 Y37.6382 
G01 X55.3882 Y37.7230 
G01 X55.2884 Y37.7896 
G01 X55.1776 Y37.8355 
G01 X55.0600 Y37.8589 
G01 X54.9399 Y37.8589 
G01 X54.8223 Y37.8355 
G01 X54.7115 Y37.7896 
G01 X54.6117 Y37.7230 
G01 X54.5269 Y37.6382 
G01 X54.4603 Y37.5384 
G01 X54.4144 Y37.4276 
G01 X54.3910 Y37.3100 
G01 X54.3910 Y37.1899 
G01 X54.3997 Y37.1461 
G01 X53.7191 Y36.4655 
G01 X53.6729 Y36.3854 
G01 X53.6490 Y36.2962 
G01 X53.6490 Y36.2037 
G01 X53.6490 Y33.8954 
G01 X52.4691 Y32.7155 
G01 X52.4229 Y32.6354 
G01 X52.3990 Y32.5462 
G01 X52.3990 Y32.4537 
G01 X52.3990 Y30.3954 
G01 X52.1038 Y30.1001 
G01 X52.0600 Y30.1089 
G01 X51.9399 Y30.1089 
G01 X51.8223 Y30.0855 
G01 X51.7115 Y30.0396 
G01 X51.6117 Y29.9730 
G01 X51.5269 Y29.8882 
G01 X51.4603 Y29.7884 
G01 X51.4144 Y29.6776 
G01 X51.3910 Y29.5600 
G01 X51.3910 Y29.4399 
G01 X51.4144 Y29.3223 
G01 X51.4603 Y29.2115 
G01 X51.5269 Y29.1117 
G01 X51.6117 Y29.0269 
G01 X51.7115 Y28.9603 
G01 X51.8223 Y28.9144 
G01 X51.9399 Y28.8910 
G01 X52.0600 Y28.8910 
G01 X52.1776 Y28.9144 
G01 X52.2884 Y28.9603 
G01 X52.3882 Y29.0269 
G01 X52.4730 Y29.1117 
G01 X52.5396 Y29.2115 
G01 X52.5855 Y29.3223 
G01 X52.6089 Y29.4399 
G01 X52.6089 Y29.5600 
G01 X52.6001 Y29.6038 
G01 X52.9655 Y29.9691 
G00 Z2.0000 
G00 X50.3739 Y18.6009 
G01 Z-0.2000 F600.00 
G01 X50.3680 Y18.5999 
G01 X50.3618 Y18.5999 
G01 X50.2436 Y18.5802 
G01 X50.1250 Y18.5615 
G01 X50.1192 Y18.5596 
G01 X50.1132 Y18.5586 
G01 X49.9977 Y18.5201 
G01 X49.8854 Y18.4836 
G01 X49.8802 Y18.4809 
G01 X49.1241 Y18.2289 
G01 X48.9005 Y18.1128 
G01 X48.6977 Y17.9631 
G01 X48.5209 Y17.7836 
G01 X48.3744 Y17.5786 
G01 X48.2617 Y17.3533 
G01 X48.1856 Y17.1130 
G01 X48.1481 Y16.8638 
G01 X48.1500 Y16.6118 
G01 X48.1913 Y16.3632 
G01 X48.2710 Y16.1241 
G01 X48.3871 Y15.9005 
G01 X48.5368 Y15.6977 
G01 X48.7163 Y15.5209 
G01 X48.9213 Y15.3744 
G01 X49.1466 Y15.2617 
G01 X49.3869 Y15.1856 
G01 X49.6361 Y15.1481 
G01 X49.8881 Y15.1500 
G01 X50.1367 Y15.1913 
G01 X50.7598 Y15.3990 
G01 X50.8974 Y15.3990 
G01 X50.8990 Y15.3877 
G01 X50.8990 Y15.3739 
G01 X50.9168 Y15.2620 
G01 X50.9323 Y15.1515 
G01 X50.9363 Y15.1387 
G01 X50.9384 Y15.1250 
G01 X50.9734 Y15.0177 
G01 X51.0061 Y14.9106 
G01 X51.0121 Y14.8983 
G01 X51.0163 Y14.8854 
G01 X51.0679 Y14.7843 
G01 X51.1167 Y14.6842 
G01 X51.1244 Y14.6733 
G01 X51.1307 Y14.6608 
G01 X51.1973 Y14.5693 
G01 X51.2613 Y14.4778 
G01 X51.2710 Y14.4679 
G01 X51.2788 Y14.4570 
G01 X51.3576 Y14.3783 
G01 X51.4364 Y14.2967 
G01 X51.4474 Y14.2885 
G01 X51.4570 Y14.2788 
G01 X51.5346 Y14.2224 
G01 X51.5346 Y13.8354 
G01 X51.5500 Y13.7983 
G01 X51.5783 Y13.7700 
G01 X51.6154 Y13.7546 
G01 X53.6369 Y13.7546 
G01 X53.6740 Y13.7700 
G01 X53.7023 Y13.7983 
G01 X53.7177 Y13.8354 
G01 X53.7177 Y14.2334 
G01 X53.8294 Y14.3414 
G01 X53.9810 Y14.5428 
G01 X54.0992 Y14.7653 
G01 X54.1811 Y15.0036 
G01 X54.2247 Y15.2518 
G01 X54.2290 Y15.5038 
G01 X54.1938 Y15.7534 
G01 X54.1200 Y15.9943 
G01 X54.1009 Y16.0334 
G01 X54.1009 Y16.3368 
G01 X61.7211 Y23.9570 
G01 X61.8692 Y24.1608 
G01 X61.9836 Y24.3854 
G01 X62.0615 Y24.6250 
G01 X62.1009 Y24.8739 
G01 X62.1009 Y25.1260 
G01 X62.1009 Y35.8368 
G01 X65.1161 Y38.8521 
G01 X65.1913 Y38.9231 
G01 X65.2050 Y38.9410 
G01 X65.2211 Y38.9570 
G01 X65.2820 Y39.0409 
G01 X65.3451 Y39.1227 
G01 X65.3559 Y39.1426 
G01 X65.3692 Y39.1608 
G01 X65.4158 Y39.2523 
G01 X65.4546 Y39.3235 
G01 X65.4873 Y39.3370 
G01 X65.6505 Y39.4460 
G01 X65.7893 Y39.5848 
G01 X65.8983 Y39.7480 
G01 X65.9734 Y39.9293 
G01 X66.0117 Y40.1218 
G01 X66.0117 Y40.3181 
G01 X65.9734 Y40.5106 
G01 X65.8983 Y40.6919 
G01 X65.7893 Y40.8551 
G01 X65.6505 Y40.9939 
G01 X65.4873 Y41.1029 
G01 X65.4431 Y41.1212 
G01 X65.3699 Y41.2282 
G01 X65.1968 Y41.4113 
G01 X64.9972 Y41.5651 
G01 X64.7760 Y41.6858 
G01 X64.5386 Y41.7703 
G01 X64.2909 Y41.8167 
G01 X64.0389 Y41.8238 
G01 X63.7891 Y41.7914 
G01 X63.5473 Y41.7203 
G01 X63.3197 Y41.6123 
G01 X63.1117 Y41.4699 
G01 X62.9286 Y41.2968 
G01 X62.7917 Y41.1191 
G01 X62.7526 Y41.1029 
G01 X62.5894 Y40.9939 
G01 X62.4506 Y40.8551 
G01 X62.3416 Y40.6919 
G01 X62.2807 Y40.5447 
G01 X59.4570 Y37.7211 
G01 X59.2788 Y37.5429 
G01 X59.1307 Y37.3391 
G01 X59.0163 Y37.1145 
G01 X58.9384 Y36.8749 
G01 X58.8990 Y36.6260 
G01 X58.8990 Y25.6631 
G01 X51.8368 Y18.6009 
G01 X50.6198 Y18.6009 
G01 X50.6138 Y18.6018 
G01 X50.4930 Y18.6009 
G01 X50.3739 Y18.6009 
G00 Z2.0000 
G00 X53.7177 Y13.1645 
G01 Z-0.2000 F600.00 
G01 X53.7023 Y13.2016 
G01 X53.6740 Y13.2299 
G01 X53.6369 Y13.2453 
G01 X51.6154 Y13.2453 
G01 X51.5783 Y13.2299 
G01 X51.5500 Y13.2016 
G01 X51.5346 Y13.1645 
G01 X51.5346 Y12.7775 
G01 X51.4570 Y12.7211 
G01 X51.4474 Y12.7114 
G01 X51.4364 Y12.7032 
G01 X51.3576 Y12.6216 
G01 X51.2788 Y12.5429 
G01 X51.2709 Y12.5320 
G01 X51.2613 Y12.5221 
G01 X51.1973 Y12.4307 
G01 X51.1307 Y12.3391 
G01 X51.1243 Y12.3266 
G01 X51.1167 Y12.3157 
G01 X51.0679 Y12.2157 
G01 X51.0163 Y12.1145 
G01 X51.0121 Y12.1016 
G01 X51.0061 Y12.0893 
G01 X50.9733 Y11.9823 
G01 X50.9384 Y11.8749 
G01 X50.9363 Y11.8612 
G01 X50.9323 Y11.8484 
G01 X50.9167 Y11.7380 
G01 X50.8990 Y11.6260 
G01 X50.8990 Y11.6122 
G01 X50.8971 Y11.5988 
G01 X50.8990 Y11.4874 
G01 X50.8990 Y9.3739 
G01 X50.9384 Y9.1250 
G01 X51.0163 Y8.8854 
G01 X51.1307 Y8.6608 
G01 X51.2788 Y8.4570 
G01 X51.4570 Y8.2788 
G01 X51.6608 Y8.1307 
G01 X51.8854 Y8.0163 
G01 X52.1250 Y7.9384 
G01 X52.3739 Y7.8990 
G01 X52.6260 Y7.8990 
G01 X52.8749 Y7.9384 
G01 X53.1145 Y8.0163 
G01 X53.3391 Y8.1307 
G01 X53.5429 Y8.2788 
G01 X53.7211 Y8.4570 
G01 X53.8692 Y8.6608 
G01 X53.9836 Y8.8854 
G01 X54.0615 Y9.1250 
G01 X54.1009 Y9.3739 
G01 X54.1009 Y10.9665 
G01 X54.1200 Y11.0056 
G01 X54.1938 Y11.2465 
G01 X54.2290 Y11.4961 
G01 X54.2247 Y11.7481 
G01 X54.1811 Y11.9963 
G01 X54.0992 Y12.2346 
G01 X53.9810 Y12.4571 
G01 X53.8294 Y12.6585 
G01 X53.7177 Y12.7665 
G01 X53.7177 Y13.1645 
G00 Z2.0000 
G00 X58.6453 Y12.5654 
G01 Z-0.2000 F600.00 
G01 X58.6453 Y12.6490 
G01 X59.0020 Y12.6490 
G01 X59.0269 Y12.6117 
G01 X59.1117 Y12.5269 
G01 X59.2115 Y12.4603 
G01 X59.3223 Y12.4144 
G01 X59.4399 Y12.3910 
G01 X59.5600 Y12.3910 
G01 X59.6776 Y12.4144 
G01 X59.7884 Y12.4603 
G01 X59.8882 Y12.5269 
G01 X59.9730 Y12.6117 
G01 X60.0396 Y12.7115 
G01 X60.0855 Y12.8223 
G01 X60.1089 Y12.9399 
G01 X60.1089 Y13.0600 
G01 X60.0855 Y13.1776 
G01 X60.0396 Y13.2884 
G01 X59.9730 Y13.3882 
G01 X59.8882 Y13.4730 
G01 X59.7884 Y13.5396 
G01 X59.6776 Y13.5855 
G01 X59.5600 Y13.6089 
G01 X59.4399 Y13.6089 
G01 X59.3223 Y13.5855 
G01 X59.2115 Y13.5396 
G01 X59.1117 Y13.4730 
G01 X59.0269 Y13.3882 
G01 X59.0020 Y13.3509 
G01 X57.7823 Y13.3509 
G01 X57.7683 Y13.3535 
G01 X57.7354 Y13.3509 
G01 X57.7037 Y13.3509 
G01 X57.6904 Y13.3473 
G01 X57.6761 Y13.3462 
G01 X57.6452 Y13.3352 
G01 X57.6145 Y13.3270 
G01 X57.6025 Y13.3200 
G01 X57.5891 Y13.3153 
G01 X57.5626 Y13.2970 
G01 X57.5344 Y13.2808 
G01 X57.5244 Y13.2707 
G01 X57.4874 Y13.2453 
G01 X56.5430 Y13.2453 
G01 X56.5059 Y13.2299 
G01 X56.4776 Y13.2016 
G01 X56.4622 Y13.1645 
G01 X56.4622 Y12.5654 
G01 X56.4776 Y12.5283 
G01 X56.5059 Y12.5000 
G01 X56.5430 Y12.4846 
G01 X58.5645 Y12.4846 
G01 X58.6016 Y12.5000 
G01 X58.6299 Y12.5283 
G01 X58.6453 Y12.5654 
G00 Z2.0000 
G00 X46.9201 Y31.4990 
G01 Z-0.2000 F600.00 
G01 X46.9572 Y31.5144 
G01 X46.9855 Y31.5427 
G01 X47.0009 Y31.5798 
G01 X47.0009 Y33.2201 
G01 X46.9855 Y33.2572 
G01 X46.9572 Y33.2855 
G01 X46.9201 Y33.3009 
G01 X45.0798 Y33.3009 
G01 X45.0427 Y33.2855 
G01 X45.0144 Y33.2572 
G01 X44.9990 Y33.2201 
G01 X44.9990 Y31.7454 
G01 X44.0344 Y30.7808 
G01 X43.9691 Y30.7155 
G01 X43.9229 Y30.6354 
G01 X43.8990 Y30.5462 
G01 X43.8990 Y30.4979 
G01 X43.8617 Y30.4730 
G01 X43.7769 Y30.3882 
G01 X43.7103 Y30.2884 
G01 X43.6644 Y30.1776 
G01 X43.6410 Y30.0600 
G01 X43.6410 Y29.9399 
G01 X43.6644 Y29.8223 
G01 X43.7103 Y29.7115 
G01 X43.7769 Y29.6117 
G01 X43.8617 Y29.5269 
G01 X43.9615 Y29.4603 
G01 X44.0723 Y29.4144 
G01 X44.1899 Y29.3910 
G01 X44.3100 Y29.3910 
G01 X44.4276 Y29.4144 
G01 X44.5384 Y29.4603 
G01 X44.6382 Y29.5269 
G01 X44.7230 Y29.6117 
G01 X44.7896 Y29.7115 
G01 X44.8355 Y29.8223 
G01 X44.8589 Y29.9399 
G01 X44.8589 Y30.0600 
G01 X44.8355 Y30.1776 
G01 X44.7896 Y30.2884 
G01 X44.7230 Y30.3882 
G01 X44.6787 Y30.4324 
G01 X45.7454 Y31.4990 
G01 X46.9201 Y31.4990 
G00 Z2.0000 
G00 X59.9791 Y54.0010 
G01 Z-0.2000 F600.00 
G01 X59.9791 Y54.7789 
G01 X59.4289 Y55.3291 
G01 X58.6510 Y55.3291 
G01 X58.1008 Y54.7789 
G01 X58.1008 Y54.0010 
G01 X58.6510 Y53.4508 
G01 X59.4289 Y53.4508 
G01 X59.9791 Y54.0010 
G00 Z2.0000 
G00 X62.5191 Y54.0010 
G01 Z-0.2000 F600.00 
G01 X62.5191 Y54.7789 
G01 X61.9689 Y55.3291 
G01 X61.1910 Y55.3291 
G01 X60.6408 Y54.7789 
G01 X60.6408 Y54.0010 
G01 X61.1910 Y53.4508 
G01 X61.6490 Y53.4508 
G01 X61.6490 Y49.3009 
G01 X60.9798 Y49.3009 
G01 X60.9427 Y49.2855 
G01 X60.9144 Y49.2572 
G01 X60.8990 Y49.2201 
G01 X60.8990 Y47.8954 
G01 X60.2191 Y47.2155 
G01 X60.1729 Y47.1354 
G01 X60.1490 Y47.0462 
G01 X60.1490 Y46.9537 
G01 X60.1490 Y42.1454 
G01 X58.0933 Y40.0896 
G01 X58.0723 Y40.0855 
G01 X57.9615 Y40.0396 
G01 X57.8617 Y39.9730 
G01 X57.7769 Y39.8882 
G01 X57.7103 Y39.7884 
G01 X57.6644 Y39.6776 
G01 X57.6410 Y39.5600 
G01 X57.6410 Y39.4399 
G01 X57.6644 Y39.3223 
G01 X57.7103 Y39.2115 
G01 X57.7769 Y39.1117 
G01 X57.8617 Y39.0269 
G01 X57.9615 Y38.9603 
G01 X58.0723 Y38.9144 
G01 X58.1899 Y38.8910 
G01 X58.3100 Y38.8910 
G01 X58.4276 Y38.9144 
G01 X58.5384 Y38.9603 
G01 X58.6382 Y39.0269 
G01 X58.7230 Y39.1117 
G01 X58.7896 Y39.2115 
G01 X58.8355 Y39.3223 
G01 X58.8589 Y39.4399 
G01 X58.8589 Y39.5600 
G01 X58.8355 Y39.6776 
G01 X58.7896 Y39.7884 
G01 X58.7876 Y39.7913 
G01 X60.7155 Y41.7191 
G01 X60.7808 Y41.7844 
G01 X60.8270 Y41.8645 
G01 X60.8509 Y41.9537 
G01 X60.8509 Y46.8545 
G01 X61.4954 Y47.4990 
G01 X63.0201 Y47.4990 
G01 X63.0572 Y47.5144 
G01 X63.0855 Y47.5427 
G01 X63.1009 Y47.5798 
G01 X63.1009 Y48.1490 
G01 X64.8990 Y48.1490 
G01 X64.8990 Y47.5798 
G01 X64.9144 Y47.5427 
G01 X64.9427 Y47.5144 
G01 X64.9798 Y47.4990 
G01 X67.0201 Y47.4990 
G01 X67.0572 Y47.5144 
G01 X67.0855 Y47.5427 
G01 X67.1009 Y47.5798 
G01 X67.1009 Y49.2201 
G01 X67.0855 Y49.2572 
G01 X67.0572 Y49.2855 
G01 X67.0201 Y49.3009 
G01 X64.9798 Y49.3009 
G01 X64.9427 Y49.2855 
G01 X64.9144 Y49.2572 
G01 X64.8990 Y49.2201 
G01 X64.8990 Y48.8509 
G01 X63.1009 Y48.8509 
G01 X63.1009 Y49.2201 
G01 X63.0855 Y49.2572 
G01 X63.0572 Y49.2855 
G01 X63.0201 Y49.3009 
G01 X62.3509 Y49.3009 
G01 X62.3509 Y53.8329 
G01 X62.5191 Y54.0010 
G00 Z2.0000 
G00 X65.0591 Y54.0010 
G01 Z-0.2000 F600.00 
G01 X65.0591 Y54.7789 
G01 X64.5089 Y55.3291 
G01 X63.7310 Y55.3291 
G01 X63.1808 Y54.7789 
G01 X63.1808 Y54.0010 
G01 X63.7310 Y53.4508 
G01 X64.5089 Y53.4508 
G01 X65.0591 Y54.0010 
G00 Z2.0000 
G00 X67.5991 Y54.0010 
G01 Z-0.2000 F600.00 
G01 X67.5991 Y54.7789 
G01 X67.0489 Y55.3291 
G01 X66.2710 Y55.3291 
G01 X65.7208 Y54.7789 
G01 X65.7208 Y54.0010 
G01 X66.2710 Y53.4508 
G01 X67.0489 Y53.4508 
G01 X67.5991 Y54.0010 
G00 Z2.0000 
G00 X54.8991 Y54.0010 
G01 Z-0.2000 F600.00 
G01 X54.8991 Y54.7789 
G01 X54.3489 Y55.3291 
G01 X53.5710 Y55.3291 
G01 X53.0208 Y54.7789 
G01 X53.0208 Y54.0010 
G01 X53.5710 Y53.4508 
G01 X54.3489 Y53.4508 
G01 X54.8991 Y54.0010 
G00 Z2.0000 
G00 X52.3591 Y54.0010 
G01 Z-0.2000 F600.00 
G01 X52.3591 Y54.7789 
G01 X51.8089 Y55.3291 
G01 X51.0310 Y55.3291 
G01 X50.4808 Y54.7789 
G01 X50.4808 Y54.0010 
G01 X51.0310 Y53.4508 
G01 X51.8089 Y53.4508 
G01 X52.3591 Y54.0010 
G00 Z2.0000 
G00 X49.8191 Y54.0010 
G01 Z-0.2000 F600.00 
G01 X49.8191 Y54.7789 
G01 X49.2689 Y55.3291 
G01 X48.4910 Y55.3291 
G01 X47.9408 Y54.7789 
G01 X47.9408 Y54.0010 
G01 X48.4910 Y53.4508 
G01 X49.2689 Y53.4508 
G01 X49.8191 Y54.0010 
G00 Z2.0000 
G00 X45.7551 Y54.0010 
G01 Z-0.2000 F600.00 
G01 X45.7551 Y54.7789 
G01 X45.2049 Y55.3291 
G01 X44.4270 Y55.3291 
G01 X43.8768 Y54.7789 
G01 X43.8768 Y54.0010 
G01 X44.4270 Y53.4508 
G01 X45.2049 Y53.4508 
G01 X45.7551 Y54.0010 
G00 Z2.0000 
G00 X43.2151 Y54.0010 
G01 Z-0.2000 F600.00 
G01 X43.2151 Y54.7789 
G01 X42.6649 Y55.3291 
G01 X41.8870 Y55.3291 
G01 X41.3368 Y54.7789 
G01 X41.3368 Y54.0010 
G01 X41.8870 Y53.4508 
G01 X42.6649 Y53.4508 
G01 X43.2151 Y54.0010 
G00 Z2.0000 
G00 X40.6751 Y54.0010 
G01 Z-0.2000 F600.00 
G01 X40.6751 Y54.7789 
G01 X40.1249 Y55.3291 
G01 X39.3470 Y55.3291 
G01 X38.7968 Y54.7789 
G01 X38.7968 Y54.0010 
G01 X39.3470 Y53.4508 
G01 X40.1249 Y53.4508 
G01 X40.6751 Y54.0010 
G00 Z2.0000 
G00 X38.1351 Y54.0010 
G01 Z-0.2000 F600.00 
G01 X38.1351 Y54.7789 
G01 X37.5849 Y55.3291 
G01 X36.8070 Y55.3291 
G01 X36.2568 Y54.7789 
G01 X36.2568 Y54.0010 
G01 X36.8070 Y53.4508 
G01 X37.5849 Y53.4508 
G01 X38.1351 Y54.0010 
G00 Z2.0000 
G00 X35.5951 Y54.0010 
G01 Z-0.2000 F600.00 
G01 X35.5951 Y54.7789 
G01 X35.0449 Y55.3291 
G01 X34.2670 Y55.3291 
G01 X33.7168 Y54.7789 
G01 X33.7168 Y54.0010 
G01 X34.2670 Y53.4508 
G01 X35.0449 Y53.4508 
G01 X35.5951 Y54.0010 
G00 Z2.0000 
G00 X33.0551 Y54.0010 
G01 Z-0.2000 F600.00 
G01 X33.0551 Y54.7789 
G01 X32.5049 Y55.3291 
G01 X31.7270 Y55.3291 
G01 X31.1768 Y54.7789 
G01 X31.1768 Y54.0010 
G01 X31.7270 Y53.4508 
G01 X32.5049 Y53.4508 
G01 X33.0551 Y54.0010 
G00 Z2.0000 
G00 X27.9751 Y54.0010 
G01 Z-0.2000 F600.00 
G01 X27.9751 Y54.7789 
G01 X27.4249 Y55.3291 
G01 X26.6470 Y55.3291 
G01 X26.0968 Y54.7789 
G01 X26.0968 Y54.0010 
G01 X26.6470 Y53.4508 
G01 X27.4249 Y53.4508 
G01 X27.9751 Y54.0010 
G00 Z2.0000 
G00 X57.4391 Y5.7410 
G01 Z-0.2000 F600.00 
G01 X57.4391 Y6.5189 
G01 X56.8889 Y7.0691 
G01 X56.1110 Y7.0691 
G01 X55.5608 Y6.5189 
G01 X55.5608 Y5.7410 
G01 X56.1110 Y5.1908 
G01 X56.8889 Y5.1908 
G01 X57.4391 Y5.7410 
G00 Z2.0000 
G00 X59.9791 Y5.7410 
G01 Z-0.2000 F600.00 
G01 X59.9791 Y6.5189 
G01 X59.4289 Y7.0691 
G01 X58.6510 Y7.0691 
G01 X58.1008 Y6.5189 
G01 X58.1008 Y5.7410 
G01 X58.6510 Y5.1908 
G01 X59.4289 Y5.1908 
G01 X59.9791 Y5.7410 
G00 Z2.0000 
G00 X62.5191 Y5.7410 
G01 Z-0.2000 F600.00 
G01 X62.5191 Y6.5189 
G01 X61.9689 Y7.0691 
G01 X61.1910 Y7.0691 
G01 X60.6408 Y6.5189 
G01 X60.6408 Y5.7410 
G01 X61.1910 Y5.1908 
G01 X61.9689 Y5.1908 
G01 X62.5191 Y5.7410 
G00 Z2.0000 
G00 X65.0591 Y5.7410 
G01 Z-0.2000 F600.00 
G01 X65.0591 Y6.5189 
G01 X64.5089 Y7.0691 
G01 X63.7310 Y7.0691 
G01 X63.1808 Y6.5189 
G01 X63.1808 Y5.7410 
G01 X63.7310 Y5.1908 
G01 X64.5089 Y5.1908 
G01 X65.0591 Y5.7410 
G00 Z2.0000 
G00 X67.5991 Y5.7410 
G01 Z-0.2000 F600.00 
G01 X67.5991 Y6.5189 
G01 X67.0489 Y7.0691 
G01 X66.2710 Y7.0691 
G01 X65.7208 Y6.5189 
G01 X65.7208 Y5.7410 
G01 X66.2710 Y5.1908 
G01 X67.0489 Y5.1908 
G01 X67.5991 Y5.7410 
G00 Z2.0000 
G00 X49.8191 Y5.7410 
G01 Z-0.2000 F600.00 
G01 X49.8191 Y6.5189 
G01 X49.2689 Y7.0691 
G01 X48.4910 Y7.0691 
G01 X47.9408 Y6.5189 
G01 X47.9408 Y5.7410 
G01 X48.4910 Y5.1908 
G01 X49.2689 Y5.1908 
G01 X49.8191 Y5.7410 
G00 Z2.0000 
G00 X42.1991 Y5.7410 
G01 Z-0.2000 F600.00 
G01 X42.1991 Y6.5189 
G01 X41.6489 Y7.0691 
G01 X40.8710 Y7.0691 
G01 X40.3208 Y6.5189 
G01 X40.3208 Y5.7410 
G01 X40.8710 Y5.1908 
G01 X41.6489 Y5.1908 
G01 X42.1991 Y5.7410 
G00 Z2.0000 
G00 X39.6591 Y5.7410 
G01 Z-0.2000 F600.00 
G01 X39.6591 Y6.5189 
G01 X39.1089 Y7.0691 
G01 X38.3310 Y7.0691 
G01 X37.7808 Y6.5189 
G01 X37.7808 Y5.7410 
G01 X38.3310 Y5.1908 
G01 X39.1089 Y5.1908 
G01 X39.6591 Y5.7410 
G00 Z2.0000 
G00 X37.1191 Y5.7410 
G01 Z-0.2000 F600.00 
G01 X37.1191 Y6.5189 
G01 X36.5689 Y7.0691 
G01 X35.7910 Y7.0691 
G01 X35.2408 Y6.5189 
G01 X35.2408 Y5.7410 
G01 X35.7910 Y5.1908 
G01 X36.5689 Y5.1908 
G01 X37.1191 Y5.7410 
G00 Z2.0000 
G00 X47.2616 Y37.3589 
G01 Z-0.2000 F600.00 
G01 X45.4183 Y37.3589 
G01 X45.3812 Y37.3435 
G01 X45.3529 Y37.3152 
G01 X45.3375 Y37.2781 
G01 X45.3375 Y35.6378 
G01 X45.3529 Y35.6007 
G01 X45.3812 Y35.5724 
G01 X45.4183 Y35.5570 
G01 X46.4465 Y35.5570 
G01 X47.6490 Y34.3545 
G01 X47.6490 Y32.9978 
G01 X47.6117 Y32.9730 
G01 X47.5269 Y32.8882 
G01 X47.4603 Y32.7884 
G01 X47.4144 Y32.6776 
G01 X47.3910 Y32.5600 
G01 X47.3910 Y32.4399 
G01 X47.4144 Y32.3223 
G01 X47.4603 Y32.2115 
G01 X47.5269 Y32.1117 
G01 X47.6117 Y32.0269 
G01 X47.7115 Y31.9603 
G01 X47.8223 Y31.9144 
G01 X47.9399 Y31.8910 
G01 X48.0600 Y31.8910 
G01 X48.1776 Y31.9144 
G01 X48.2884 Y31.9603 
G01 X48.3882 Y32.0269 
G01 X48.4730 Y32.1117 
G01 X48.5396 Y32.2115 
G01 X48.5855 Y32.3223 
G01 X48.6089 Y32.4399 
G01 X48.6089 Y32.5600 
G01 X48.5855 Y32.6776 
G01 X48.5396 Y32.7884 
G01 X48.4730 Y32.8882 
G01 X48.3882 Y32.9730 
G01 X48.3509 Y32.9978 
G01 X48.3509 Y34.5462 
G01 X48.3270 Y34.6354 
G01 X48.2808 Y34.7155 
G01 X48.2155 Y34.7808 
G01 X47.3424 Y35.6539 
G01 X47.3424 Y37.2781 
G01 X47.3270 Y37.3152 
G01 X47.2987 Y37.3435 
G01 X47.2616 Y37.3589 
G00 Z2.0000 
G00 X58.9216 Y44.6770 
G01 Z-0.2000 F600.00 
G01 X58.9587 Y44.6924 
G01 X58.9870 Y44.7207 
G01 X59.0024 Y44.7578 
G01 X59.0024 Y46.3981 
G01 X58.9870 Y46.4352 
G01 X58.9587 Y46.4635 
G01 X58.9216 Y46.4789 
G01 X57.0783 Y46.4789 
G01 X57.0412 Y46.4635 
G01 X57.0129 Y46.4352 
G01 X56.9975 Y46.3981 
G01 X56.9975 Y44.9939 
G01 X56.2844 Y44.2808 
G01 X56.2191 Y44.2155 
G01 X56.1729 Y44.1354 
G01 X56.1490 Y44.0462 
G01 X56.1490 Y39.9978 
G01 X56.1117 Y39.9730 
G01 X56.0269 Y39.8882 
G01 X55.9603 Y39.7884 
G01 X55.9144 Y39.6776 
G01 X55.8910 Y39.5600 
G01 X55.8910 Y39.4399 
G01 X55.9144 Y39.3223 
G01 X55.9603 Y39.2115 
G01 X56.0269 Y39.1117 
G01 X56.1117 Y39.0269 
G01 X56.2115 Y38.9603 
G01 X56.3223 Y38.9144 
G01 X56.4399 Y38.8910 
G01 X56.5600 Y38.8910 
G01 X56.6776 Y38.9144 
G01 X56.7884 Y38.9603 
G01 X56.8882 Y39.0269 
G01 X56.9730 Y39.1117 
G01 X57.0396 Y39.2115 
G01 X57.0855 Y39.3223 
G01 X57.1089 Y39.4399 
G01 X57.1089 Y39.5600 
G01 X57.0855 Y39.6776 
G01 X57.0396 Y39.7884 
G01 X56.9730 Y39.8882 
G01 X56.8882 Y39.9730 
G01 X56.8509 Y39.9978 
G01 X56.8509 Y43.8545 
G01 X57.6734 Y44.6770 
G01 X58.9216 Y44.6770 
G00 Z2.0000 
G00 X48.9201 Y12.5009 
G01 Z-0.2000 F600.00 
G01 X47.0798 Y12.5009 
G01 X47.0427 Y12.4855 
G01 X47.0144 Y12.4572 
G01 X46.9990 Y12.4201 
G01 X46.9990 Y10.7798 
G01 X47.0144 Y10.7427 
G01 X47.0427 Y10.7144 
G01 X47.0798 Y10.6990 
G01 X48.3045 Y10.6990 
G01 X50.0712 Y8.9324 
G01 X50.0269 Y8.8882 
G01 X49.9603 Y8.7884 
G01 X49.9144 Y8.6776 
G01 X49.8910 Y8.5600 
G01 X49.8910 Y8.4399 
G01 X49.9144 Y8.3223 
G01 X49.9603 Y8.2115 
G01 X50.0269 Y8.1117 
G01 X50.1117 Y8.0269 
G01 X50.2115 Y7.9603 
G01 X50.3223 Y7.9144 
G01 X50.4399 Y7.8910 
G01 X50.5600 Y7.8910 
G01 X50.6776 Y7.9144 
G01 X50.7884 Y7.9603 
G01 X50.8882 Y8.0269 
G01 X50.9730 Y8.1117 
G01 X51.0396 Y8.2115 
G01 X51.0855 Y8.3223 
G01 X51.1089 Y8.4399 
G01 X51.1089 Y8.5600 
G01 X51.0855 Y8.6776 
G01 X51.0396 Y8.7884 
G01 X50.9730 Y8.8882 
G01 X50.8882 Y8.9730 
G01 X50.8509 Y8.9978 
G01 X50.8509 Y9.0462 
G01 X50.8270 Y9.1354 
G01 X50.7808 Y9.2155 
G01 X50.7155 Y9.2808 
G01 X49.0009 Y10.9954 
G01 X49.0009 Y12.4201 
G01 X48.9855 Y12.4572 
G01 X48.9572 Y12.4855 
G01 X48.9201 Y12.5009 
G00 Z2.0000 
G00 X26.6201 Y39.4490 
G01 Z-0.2000 F600.00 
G01 X26.6572 Y39.4644 
G01 X26.6855 Y39.4927 
G01 X26.7009 Y39.5298 
G01 X26.7009 Y40.5701 
G01 X26.6855 Y40.6072 
G01 X26.6572 Y40.6355 
G01 X26.6201 Y40.6509 
G01 X25.1798 Y40.6509 
G01 X25.1427 Y40.6355 
G01 X25.1144 Y40.6072 
G01 X25.0990 Y40.5701 
G01 X25.0990 Y40.0954 
G01 X18.3545 Y33.3509 
G01 X13.0377 Y33.3509 
G01 X12.3978 Y33.9909 
G01 X11.2621 Y33.9909 
G01 X10.4590 Y33.1878 
G01 X10.4590 Y32.0521 
G01 X11.2621 Y31.2490 
G01 X12.3978 Y31.2490 
G01 X13.2009 Y32.0521 
G01 X13.2009 Y32.6490 
G01 X18.1490 Y32.6490 
G01 X18.1490 Y23.4537 
G01 X18.1729 Y23.3645 
G01 X18.2191 Y23.2844 
G01 X18.2844 Y23.2191 
G01 X22.1490 Y19.3545 
G01 X22.1490 Y8.9537 
G01 X22.1729 Y8.8645 
G01 X22.2191 Y8.7844 
G01 X22.2844 Y8.7191 
G01 X22.6208 Y8.3828 
G01 X22.6208 Y6.9292 
G01 X22.6569 Y6.7478 
G01 X22.7277 Y6.5769 
G01 X22.8305 Y6.4231 
G01 X22.9613 Y6.2923 
G01 X23.1151 Y6.1895 
G01 X23.2860 Y6.1187 
G01 X23.4674 Y6.0826 
G01 X23.6525 Y6.0826 
G01 X23.8339 Y6.1187 
G01 X24.0048 Y6.1895 
G01 X24.1586 Y6.2923 
G01 X24.2894 Y6.4231 
G01 X24.3922 Y6.5769 
G01 X24.4630 Y6.7478 
G01 X24.4991 Y6.9292 
G01 X24.4991 Y8.7907 
G01 X24.4630 Y8.9721 
G01 X24.3922 Y9.1430 
G01 X24.2894 Y9.2968 
G01 X24.1586 Y9.4276 
G01 X24.0048 Y9.5304 
G01 X23.8339 Y9.6012 
G01 X23.6525 Y9.6373 
G01 X23.4674 Y9.6373 
G01 X23.2860 Y9.6012 
G01 X23.1151 Y9.5304 
G01 X22.9613 Y9.4276 
G01 X22.8509 Y9.3171 
G01 X22.8509 Y19.4537 
G01 X22.8509 Y19.5462 
G01 X22.8270 Y19.6354 
G01 X22.7808 Y19.7155 
G01 X18.8509 Y23.6454 
G01 X18.8509 Y32.8546 
G01 X25.4454 Y39.4490 
G01 X26.6201 Y39.4490 
G00 Z2.0000 
G00 X26.6201 Y41.3490 
G01 Z-0.2000 F600.00 
G01 X26.6572 Y41.3644 
G01 X26.6855 Y41.3927 
G01 X26.7009 Y41.4298 
G01 X26.7009 Y42.4701 
G01 X26.6855 Y42.5072 
G01 X26.6572 Y42.5355 
G01 X26.6201 Y42.5509 
G01 X25.1798 Y42.5509 
G01 X25.1427 Y42.5355 
G01 X25.1144 Y42.5072 
G01 X25.0990 Y42.4701 
G01 X25.0990 Y41.5953 
G01 X21.3545 Y37.8509 
G01 X16.3509 Y37.8509 
G01 X16.3509 Y38.6990 
G01 X17.0201 Y38.6990 
G01 X17.0572 Y38.7144 
G01 X17.0855 Y38.7427 
G01 X17.1009 Y38.7798 
G01 X17.1009 Y40.4201 
G01 X17.0855 Y40.4572 
G01 X17.0572 Y40.4855 
G01 X17.0201 Y40.5009 
G01 X14.9798 Y40.5009 
G01 X14.9427 Y40.4855 
G01 X14.9144 Y40.4572 
G01 X14.8990 Y40.4201 
G01 X14.8990 Y38.7798 
G01 X14.9144 Y38.7427 
G01 X14.9427 Y38.7144 
G01 X14.9798 Y38.6990 
G01 X15.6490 Y38.6990 
G01 X15.6490 Y37.4537 
G01 X15.6729 Y37.3645 
G01 X15.7191 Y37.2844 
G01 X15.7844 Y37.2191 
G01 X15.8645 Y37.1729 
G01 X15.9537 Y37.1490 
G01 X16.0462 Y37.1490 
G01 X21.5462 Y37.1490 
G01 X21.6354 Y37.1729 
G01 X21.7155 Y37.2191 
G01 X21.7808 Y37.2844 
G01 X25.7228 Y41.2265 
G01 X25.7316 Y41.2322 
G01 X25.7556 Y41.2593 
G01 X25.7808 Y41.2844 
G01 X25.7859 Y41.2934 
G01 X25.8354 Y41.3490 
G01 X26.6201 Y41.3490 
G00 Z2.0000 
G00 X16.9201 Y49.3009 
G01 Z-0.2000 F600.00 
G01 X15.0798 Y49.3009 
G01 X15.0427 Y49.2855 
G01 X15.0144 Y49.2572 
G01 X14.9990 Y49.2201 
G01 X14.9990 Y47.5798 
G01 X15.0144 Y47.5427 
G01 X15.0427 Y47.5144 
G01 X15.0798 Y47.4990 
G01 X16.9201 Y47.4990 
G01 X16.9572 Y47.5144 
G01 X16.9855 Y47.5427 
G01 X17.0009 Y47.5798 
G01 X17.0009 Y47.6490 
G01 X17.5020 Y47.6490 
G01 X17.5269 Y47.6117 
G01 X17.6117 Y47.5269 
G01 X17.7115 Y47.4603 
G01 X17.8223 Y47.4144 
G01 X17.9399 Y47.3910 
G01 X18.0600 Y47.3910 
G01 X18.1776 Y47.4144 
G01 X18.2884 Y47.4603 
G01 X18.3882 Y47.5269 
G01 X18.4730 Y47.6117 
G01 X18.5396 Y47.7115 
G01 X18.5855 Y47.8223 
G01 X18.6089 Y47.9399 
G01 X18.6089 Y48.0600 
G01 X18.5855 Y48.1776 
G01 X18.5396 Y48.2884 
G01 X18.4730 Y48.3882 
G01 X18.3882 Y48.4730 
G01 X18.2884 Y48.5396 
G01 X18.1776 Y48.5855 
G01 X18.0600 Y48.6089 
G01 X17.9399 Y48.6089 
G01 X17.8223 Y48.5855 
G01 X17.7115 Y48.5396 
G01 X17.6117 Y48.4730 
G01 X17.5269 Y48.3882 
G01 X17.5020 Y48.3509 
G01 X17.0009 Y48.3509 
G01 X17.0009 Y49.2201 
G01 X16.9855 Y49.2572 
G01 X16.9572 Y49.2855 
G01 X16.9201 Y49.3009 
G00 Z2.0000 
G00 X36.8298 Y35.0790 
G01 Z-0.2000 F600.00 
G01 X43.0701 Y35.0790 
G01 X43.1072 Y35.0944 
G01 X43.1355 Y35.1227 
G01 X43.1509 Y35.1598 
G01 X43.1509 Y37.3990 
G01 X45.9529 Y37.3990 
G01 X46.0312 Y37.3944 
G01 X46.0781 Y37.3990 
G01 X46.1260 Y37.3990 
G01 X46.2039 Y37.4114 
G01 X46.2820 Y37.4190 
G01 X46.3277 Y37.4310 
G01 X46.3749 Y37.4384 
G01 X46.4501 Y37.4629 
G01 X46.5258 Y37.4826 
G01 X46.5692 Y37.5016 
G01 X46.6145 Y37.5163 
G01 X46.6844 Y37.5519 
G01 X46.7567 Y37.5835 
G01 X46.7967 Y37.6092 
G01 X46.8391 Y37.6307 
G01 X46.9028 Y37.6771 
G01 X46.9689 Y37.7193 
G01 X47.0043 Y37.7508 
G01 X47.0429 Y37.7788 
G01 X47.0987 Y37.8347 
G01 X47.3245 Y38.0353 
G01 X47.3429 Y38.0477 
G01 X47.4214 Y38.1214 
G01 X47.4973 Y38.1887 
G01 X47.5106 Y38.2049 
G01 X47.5268 Y38.2201 
G01 X47.5921 Y38.3042 
G01 X47.6572 Y38.3834 
G01 X47.6680 Y38.4019 
G01 X47.6814 Y38.4191 
G01 X47.7322 Y38.5114 
G01 X47.7847 Y38.6008 
G01 X47.7925 Y38.6208 
G01 X48.3538 Y39.6397 
G01 X48.3692 Y39.6608 
G01 X48.4147 Y39.7501 
G01 X48.4630 Y39.8378 
G01 X48.4719 Y39.8625 
G01 X48.4836 Y39.8854 
G01 X48.5143 Y39.9799 
G01 X48.5486 Y40.0748 
G01 X48.5535 Y40.1005 
G01 X48.5615 Y40.1250 
G01 X48.5771 Y40.2239 
G01 X48.5960 Y40.3223 
G01 X48.5968 Y40.3483 
G01 X48.6009 Y40.3739 
G01 X48.6009 Y40.4746 
G01 X48.6041 Y40.5742 
G01 X48.6009 Y40.5997 
G01 X48.6009 Y41.3368 
G01 X48.9711 Y41.7070 
G01 X49.1192 Y41.9108 
G01 X49.2336 Y42.1354 
G01 X49.3115 Y42.3750 
G01 X49.3509 Y42.6239 
G01 X49.3509 Y42.8760 
G01 X49.3115 Y43.1249 
G01 X49.2336 Y43.3645 
G01 X49.1192 Y43.5891 
G01 X48.9711 Y43.7929 
G01 X48.7929 Y43.9711 
G01 X48.5891 Y44.1192 
G01 X48.3645 Y44.2336 
G01 X48.1249 Y44.3115 
G01 X47.8760 Y44.3509 
G01 X47.6239 Y44.3509 
G01 X47.3750 Y44.3115 
G01 X47.1354 Y44.2336 
G01 X46.9108 Y44.1192 
G01 X46.7070 Y43.9711 
G01 X45.7788 Y43.0429 
G01 X45.6307 Y42.8391 
G01 X45.5163 Y42.6145 
G01 X45.4384 Y42.3749 
G01 X45.3990 Y42.1260 
G01 X45.3990 Y41.8739 
G01 X45.3990 Y40.9117 
G01 X45.2278 Y40.6009 
G01 X43.1505 Y40.6009 
G01 X43.1355 Y40.6372 
G01 X43.1072 Y40.6655 
G01 X43.0701 Y40.6809 
G01 X36.8298 Y40.6809 
G01 X36.7927 Y40.6655 
G01 X36.7644 Y40.6372 
G01 X36.7490 Y40.6001 
G01 X36.7490 Y35.1598 
G01 X36.7644 Y35.1227 
G01 X36.7927 Y35.0944 
G01 X36.8298 Y35.0790 
G00 Z2.0000 
G00 X31.8298 Y39.5590 
G01 Z-0.2000 F600.00 
G01 X33.4701 Y39.5590 
G01 X33.5072 Y39.5744 
G01 X33.5355 Y39.6027 
G01 X33.5509 Y39.6398 
G01 X33.5509 Y40.5545 
G01 X33.7155 Y40.7191 
G01 X33.7808 Y40.7844 
G01 X33.8270 Y40.8645 
G01 X33.8509 Y40.9537 
G01 X33.8509 Y46.8545 
G01 X34.4954 Y47.4990 
G01 X36.0201 Y47.4990 
G01 X36.0572 Y47.5144 
G01 X36.0855 Y47.5427 
G01 X36.1009 Y47.5798 
G01 X36.1009 Y48.1490 
G01 X38.3990 Y48.1490 
G01 X38.3990 Y47.3798 
G01 X38.4144 Y47.3427 
G01 X38.4427 Y47.3144 
G01 X38.4798 Y47.2990 
G01 X39.5201 Y47.2990 
G01 X39.5572 Y47.3144 
G01 X39.5855 Y47.3427 
G01 X39.6009 Y47.3798 
G01 X39.6009 Y48.8201 
G01 X39.5855 Y48.8572 
G01 X39.5572 Y48.8855 
G01 X39.5201 Y48.9009 
G01 X38.4798 Y48.9009 
G01 X38.4427 Y48.8855 
G01 X38.4144 Y48.8572 
G01 X38.4118 Y48.8509 
G01 X36.1009 Y48.8509 
G01 X36.1009 Y49.2201 
G01 X36.0855 Y49.2572 
G01 X36.0572 Y49.2855 
G01 X36.0201 Y49.3009 
G01 X33.9798 Y49.3009 
G01 X33.9427 Y49.2855 
G01 X33.9144 Y49.2572 
G01 X33.8990 Y49.2201 
G01 X33.8990 Y47.8954 
G01 X33.2191 Y47.2155 
G01 X33.1729 Y47.1354 
G01 X33.1490 Y47.0462 
G01 X33.1490 Y46.9537 
G01 X33.1490 Y41.1454 
G01 X32.7645 Y40.7609 
G01 X31.8298 Y40.7609 
G01 X31.7927 Y40.7455 
G01 X31.7644 Y40.7172 
G01 X31.7490 Y40.6801 
G01 X31.7490 Y39.6398 
G01 X31.7644 Y39.6027 
G01 X31.7927 Y39.5744 
G01 X31.8298 Y39.5590 
G00 Z2.0000 
G00 X38.6509 Y46.6201 
G01 Z-0.2000 F600.00 
G01 X38.6355 Y46.6572 
G01 X38.6072 Y46.6855 
G01 X38.5701 Y46.7009 
G01 X37.5298 Y46.7009 
G01 X37.4927 Y46.6855 
G01 X37.4644 Y46.6572 
G01 X37.4490 Y46.6201 
G01 X37.4490 Y45.1798 
G01 X37.4644 Y45.1427 
G01 X37.4927 Y45.1144 
G01 X37.5298 Y45.0990 
G01 X38.4045 Y45.0990 
G01 X39.2191 Y44.2844 
G01 X39.2844 Y44.2191 
G01 X39.3645 Y44.1729 
G01 X39.4537 Y44.1490 
G01 X42.9537 Y44.1490 
G01 X43.0462 Y44.1490 
G01 X43.1354 Y44.1729 
G01 X43.2155 Y44.2191 
G01 X43.2808 Y44.2844 
G01 X43.3270 Y44.3645 
G01 X43.3509 Y44.4537 
G01 X43.3509 Y44.6990 
G01 X44.0201 Y44.6990 
G01 X44.0572 Y44.7144 
G01 X44.0855 Y44.7427 
G01 X44.1009 Y44.7798 
G01 X44.1009 Y46.4201 
G01 X44.0855 Y46.4572 
G01 X44.0572 Y46.4855 
G01 X44.0201 Y46.5009 
G01 X41.9798 Y46.5009 
G01 X41.9427 Y46.4855 
G01 X41.9144 Y46.4572 
G01 X41.8990 Y46.4201 
G01 X41.8990 Y44.8509 
G01 X39.6454 Y44.8509 
G01 X38.7734 Y45.7228 
G01 X38.7677 Y45.7316 
G01 X38.7406 Y45.7556 
G01 X38.7155 Y45.7808 
G01 X38.7065 Y45.7859 
G01 X38.6509 Y45.8354 
G01 X38.6509 Y46.6201 
G00 Z2.0000 
G00 X33.9798 Y44.6990 
G01 Z-0.2000 F600.00 
G01 X36.0201 Y44.6990 
G01 X36.0572 Y44.7144 
G01 X36.0855 Y44.7427 
G01 X36.1009 Y44.7798 
G01 X36.1009 Y46.1046 
G01 X36.3961 Y46.3998 
G01 X36.4399 Y46.3910 
G01 X36.5600 Y46.3910 
G01 X36.6776 Y46.4144 
G01 X36.7884 Y46.4603 
G01 X36.8882 Y46.5269 
G01 X36.9730 Y46.6117 
G01 X37.0396 Y46.7115 
G01 X37.0855 Y46.8223 
G01 X37.1089 Y46.9399 
G01 X37.1089 Y47.0600 
G01 X37.0855 Y47.1776 
G01 X37.0396 Y47.2884 
G01 X36.9730 Y47.3882 
G01 X36.8882 Y47.4730 
G01 X36.7884 Y47.5396 
G01 X36.6776 Y47.5855 
G01 X36.5600 Y47.6089 
G01 X36.4399 Y47.6089 
G01 X36.3223 Y47.5855 
G01 X36.2115 Y47.5396 
G01 X36.1117 Y47.4730 
G01 X36.0269 Y47.3882 
G01 X35.9603 Y47.2884 
G01 X35.9144 Y47.1776 
G01 X35.8910 Y47.0600 
G01 X35.8910 Y46.9399 
G01 X35.8998 Y46.8961 
G01 X35.5046 Y46.5009 
G01 X33.9798 Y46.5009 
G01 X33.9427 Y46.4855 
G01 X33.9144 Y46.4572 
G01 X33.8990 Y46.4201 
G01 X33.8990 Y44.7798 
G01 X33.9144 Y44.7427 
G01 X33.9427 Y44.7144 
G01 X33.9798 Y44.6990 
G00 Z2.0000 
G00 X30.0798 Y44.6990 
G01 Z-0.2000 F600.00 
G01 X31.9201 Y44.6990 
G01 X31.9572 Y44.7144 
G01 X31.9855 Y44.7427 
G01 X32.0009 Y44.7798 
G01 X32.0009 Y46.4201 
G01 X31.9855 Y46.4572 
G01 X31.9572 Y46.4855 
G01 X31.9201 Y46.5009 
G01 X30.9953 Y46.5009 
G01 X28.8509 Y48.6454 
G01 X28.8509 Y49.4537 
G01 X28.8509 Y49.5462 
G01 X28.8270 Y49.6354 
G01 X28.7808 Y49.7155 
G01 X28.2808 Y50.2155 
G01 X28.2155 Y50.2808 
G01 X28.1354 Y50.3270 
G01 X28.0462 Y50.3509 
G01 X23.0462 Y50.3509 
G01 X22.9537 Y50.3509 
G01 X22.8645 Y50.3270 
G01 X22.7844 Y50.2808 
G01 X22.7191 Y50.2155 
G01 X22.6729 Y50.1354 
G01 X22.6490 Y50.0462 
G01 X22.6490 Y49.3009 
G01 X22.0798 Y49.3009 
G01 X22.0427 Y49.2855 
G01 X22.0144 Y49.2572 
G01 X21.9990 Y49.2201 
G01 X21.9990 Y48.8509 
G01 X21.0009 Y48.8509 
G01 X21.0009 Y49.2201 
G01 X20.9855 Y49.2572 
G01 X20.9572 Y49.2855 
G01 X20.9201 Y49.3009 
G01 X19.0798 Y49.3009 
G01 X19.0427 Y49.2855 
G01 X19.0144 Y49.2572 
G01 X18.9990 Y49.2201 
G01 X18.9990 Y47.5798 
G01 X19.0144 Y47.5427 
G01 X19.0427 Y47.5144 
G01 X19.0798 Y47.4990 
G01 X20.9201 Y47.4990 
G01 X20.9572 Y47.5144 
G01 X20.9855 Y47.5427 
G01 X21.0009 Y47.5798 
G01 X21.0009 Y48.1490 
G01 X21.9990 Y48.1490 
G01 X21.9990 Y47.5798 
G01 X22.0144 Y47.5427 
G01 X22.0427 Y47.5144 
G01 X22.0798 Y47.4990 
G01 X23.9201 Y47.4990 
G01 X23.9572 Y47.5144 
G01 X23.9855 Y47.5427 
G01 X24.0009 Y47.5798 
G01 X24.0009 Y49.2201 
G01 X23.9855 Y49.2572 
G01 X23.9572 Y49.2855 
G01 X23.9201 Y49.3009 
G01 X23.3509 Y49.3009 
G01 X23.3509 Y49.6490 
G01 X27.8545 Y49.6490 
G01 X28.1490 Y49.3545 
G01 X28.1490 Y48.4537 
G01 X28.1729 Y48.3645 
G01 X28.2191 Y48.2844 
G01 X28.2844 Y48.2191 
G01 X30.0304 Y46.4732 
G01 X30.0144 Y46.4572 
G01 X29.9990 Y46.4201 
G01 X29.9990 Y44.7798 
G01 X30.0144 Y44.7427 
G01 X30.0427 Y44.7144 
G01 X30.0798 Y44.6990 
G00 Z2.0000 
G00 X19.0798 Y38.6990 
G01 Z-0.2000 F600.00 
G01 X20.9201 Y38.6990 
G01 X20.9572 Y38.7144 
G01 X20.9855 Y38.7427 
G01 X21.0009 Y38.7798 
G01 X21.0009 Y40.4201 
G01 X20.9855 Y40.4572 
G01 X20.9572 Y40.4855 
G01 X20.9201 Y40.5009 
G01 X19.9953 Y40.5009 
G01 X18.8509 Y41.6454 
G01 X18.8509 Y45.6490 
G01 X18.9990 Y45.6490 
G01 X18.9990 Y44.7798 
G01 X19.0144 Y44.7427 
G01 X19.0427 Y44.7144 
G01 X19.0798 Y44.6990 
G01 X20.9201 Y44.6990 
G01 X20.9572 Y44.7144 
G01 X20.9855 Y44.7427 
G01 X21.0009 Y44.7798 
G01 X21.0009 Y46.4201 
G01 X20.9855 Y46.4572 
G01 X20.9572 Y46.4855 
G01 X20.9201 Y46.5009 
G01 X19.0798 Y46.5009 
G01 X19.0427 Y46.4855 
G01 X19.0144 Y46.4572 
G01 X18.9990 Y46.4201 
G01 X18.9990 Y46.3509 
G01 X18.5462 Y46.3509 
G01 X18.4537 Y46.3509 
G01 X17.0009 Y46.3509 
G01 X17.0009 Y46.4201 
G01 X16.9855 Y46.4572 
G01 X16.9572 Y46.4855 
G01 X16.9201 Y46.5009 
G01 X15.0798 Y46.5009 
G01 X15.0427 Y46.4855 
G01 X15.0144 Y46.4572 
G01 X14.9990 Y46.4201 
G01 X14.9990 Y44.7798 
G01 X15.0144 Y44.7427 
G01 X15.0427 Y44.7144 
G01 X15.0798 Y44.6990 
G01 X16.9201 Y44.6990 
G01 X16.9572 Y44.7144 
G01 X16.9855 Y44.7427 
G01 X17.0009 Y44.7798 
G01 X17.0009 Y45.6490 
G01 X18.1490 Y45.6490 
G01 X18.1490 Y41.4537 
G01 X18.1729 Y41.3645 
G01 X18.2191 Y41.2844 
G01 X18.2844 Y41.2191 
G01 X19.0304 Y40.4732 
G01 X19.0144 Y40.4572 
G01 X18.9990 Y40.4201 
G01 X18.9990 Y38.7798 
G01 X19.0144 Y38.7427 
G01 X19.0427 Y38.7144 
G01 X19.0798 Y38.6990 
G00 Z2.0000 
G00 X44.9201 Y12.5009 
G01 Z-0.2000 F600.00 
G01 X43.9953 Y12.5009 
G01 X42.8509 Y13.6454 
G01 X42.8509 Y17.5020 
G01 X42.8882 Y17.5269 
G01 X42.9730 Y17.6117 
G01 X43.0396 Y17.7115 
G01 X43.0855 Y17.8223 
G01 X43.1089 Y17.9399 
G01 X43.1089 Y18.0600 
G01 X43.0855 Y18.1776 
G01 X43.0396 Y18.2884 
G01 X42.9730 Y18.3882 
G01 X42.8882 Y18.4730 
G01 X42.7884 Y18.5396 
G01 X42.6776 Y18.5855 
G01 X42.5600 Y18.6089 
G01 X42.4399 Y18.6089 
G01 X42.3223 Y18.5855 
G01 X42.2115 Y18.5396 
G01 X42.1117 Y18.4730 
G01 X42.0269 Y18.3882 
G01 X41.9603 Y18.2884 
G01 X41.9144 Y18.1776 
G01 X41.8910 Y18.0600 
G01 X41.8910 Y17.9399 
G01 X41.9144 Y17.8223 
G01 X41.9603 Y17.7115 
G01 X42.0269 Y17.6117 
G01 X42.1117 Y17.5269 
G01 X42.1490 Y17.5020 
G01 X42.1490 Y13.4537 
G01 X42.1729 Y13.3645 
G01 X42.2191 Y13.2844 
G01 X42.2844 Y13.2191 
G01 X43.0304 Y12.4732 
G01 X43.0144 Y12.4572 
G01 X42.9990 Y12.4201 
G01 X42.9990 Y10.7798 
G01 X43.0144 Y10.7427 
G01 X43.0427 Y10.7144 
G01 X43.0798 Y10.6990 
G01 X44.9201 Y10.6990 
G01 X44.9572 Y10.7144 
G01 X44.9855 Y10.7427 
G01 X45.0009 Y10.7798 
G01 X45.0009 Y12.4201 
G01 X44.9855 Y12.4572 
G01 X44.9572 Y12.4855 
G01 X44.9201 Y12.5009 
G00 Z2.0000 
G00 X17.0201 Y43.3009 
G01 Z-0.2000 F600.00 
G01 X15.6953 Y43.3009 
G01 X14.8509 Y44.1454 
G01 X14.8509 Y50.6490 
G01 X28.3545 Y50.6490 
G01 X29.9990 Y49.0045 
G01 X29.9990 Y47.5798 
G01 X30.0144 Y47.5427 
G01 X30.0427 Y47.5144 
G01 X30.0798 Y47.4990 
G01 X31.9201 Y47.4990 
G01 X31.9572 Y47.5144 
G01 X31.9855 Y47.5427 
G01 X32.0009 Y47.5798 
G01 X32.0009 Y49.0046 
G01 X32.3961 Y49.3998 
G01 X32.4399 Y49.3910 
G01 X32.5600 Y49.3910 
G01 X32.6776 Y49.4144 
G01 X32.7884 Y49.4603 
G01 X32.8882 Y49.5269 
G01 X32.9730 Y49.6117 
G01 X33.0396 Y49.7115 
G01 X33.0855 Y49.8223 
G01 X33.1089 Y49.9399 
G01 X33.1089 Y50.0600 
G01 X33.0855 Y50.1776 
G01 X33.0396 Y50.2884 
G01 X32.9730 Y50.3882 
G01 X32.8882 Y50.4730 
G01 X32.7884 Y50.5396 
G01 X32.6776 Y50.5855 
G01 X32.5600 Y50.6089 
G01 X32.4399 Y50.6089 
G01 X32.3223 Y50.5855 
G01 X32.2115 Y50.5396 
G01 X32.1117 Y50.4730 
G01 X32.0269 Y50.3882 
G01 X31.9603 Y50.2884 
G01 X31.9144 Y50.1776 
G01 X31.8910 Y50.0600 
G01 X31.8910 Y49.9399 
G01 X31.8998 Y49.8961 
G01 X31.3046 Y49.3009 
G01 X30.6954 Y49.3009 
G01 X28.7808 Y51.2155 
G01 X28.7155 Y51.2808 
G01 X28.6354 Y51.3270 
G01 X28.5462 Y51.3509 
G01 X14.4537 Y51.3509 
G01 X14.3645 Y51.3270 
G01 X14.2844 Y51.2808 
G01 X14.2191 Y51.2155 
G01 X14.1729 Y51.1354 
G01 X14.1490 Y51.0462 
G01 X14.1490 Y50.9537 
G01 X14.1490 Y50.9536 
G01 X14.1490 Y44.0462 
G01 X14.1490 Y43.9537 
G01 X14.1729 Y43.8645 
G01 X14.2191 Y43.7844 
G01 X14.8990 Y43.1046 
G01 X14.8990 Y41.5798 
G01 X14.9144 Y41.5427 
G01 X14.9427 Y41.5144 
G01 X14.9798 Y41.4990 
G01 X17.0201 Y41.4990 
G01 X17.0572 Y41.5144 
G01 X17.0855 Y41.5427 
G01 X17.1009 Y41.5798 
G01 X17.1009 Y43.2201 
G01 X17.0855 Y43.2572 
G01 X17.0572 Y43.2855 
G01 X17.0201 Y43.3009 
G00 Z2.0000 
G00 X28.0201 Y49.3009 
G01 Z-0.2000 F600.00 
G01 X25.9798 Y49.3009 
G01 X25.9427 Y49.2855 
G01 X25.9144 Y49.2572 
G01 X25.8990 Y49.2201 
G01 X25.8990 Y48.3509 
G01 X24.5462 Y48.3509 
G01 X24.4537 Y48.3509 
G01 X24.3645 Y48.3270 
G01 X24.2844 Y48.2808 
G01 X24.2191 Y48.2155 
G01 X24.1729 Y48.1354 
G01 X24.1490 Y48.0462 
G01 X24.1490 Y47.6454 
G01 X23.8545 Y47.3509 
G01 X21.5462 Y47.3509 
G01 X21.4537 Y47.3509 
G01 X21.3645 Y47.3270 
G01 X21.2844 Y47.2808 
G01 X21.2191 Y47.2155 
G01 X21.1729 Y47.1354 
G01 X21.1490 Y47.0462 
G01 X21.1490 Y43.3509 
G01 X20.0462 Y43.3509 
G01 X19.9537 Y43.3509 
G01 X19.8645 Y43.3270 
G01 X19.8193 Y43.3009 
G01 X19.0798 Y43.3009 
G01 X19.0427 Y43.2855 
G01 X19.0144 Y43.2572 
G01 X18.9990 Y43.2201 
G01 X18.9990 Y41.5798 
G01 X19.0144 Y41.5427 
G01 X19.0427 Y41.5144 
G01 X19.0798 Y41.4990 
G01 X20.9201 Y41.4990 
G01 X20.9572 Y41.5144 
G01 X20.9855 Y41.5427 
G01 X21.0009 Y41.5798 
G01 X21.0009 Y42.6490 
G01 X21.4537 Y42.6490 
G01 X21.5462 Y42.6490 
G01 X26.8545 Y42.6490 
G01 X27.1490 Y42.3545 
G01 X27.1490 Y41.4537 
G01 X27.1729 Y41.3645 
G01 X27.2191 Y41.2844 
G01 X27.2844 Y41.2191 
G01 X27.2990 Y41.2045 
G01 X27.2990 Y40.4798 
G01 X27.3144 Y40.4427 
G01 X27.3427 Y40.4144 
G01 X27.3798 Y40.3990 
G01 X28.8201 Y40.3990 
G01 X28.8572 Y40.4144 
G01 X28.8855 Y40.4427 
G01 X28.9009 Y40.4798 
G01 X28.9009 Y41.5201 
G01 X28.8855 Y41.5572 
G01 X28.8572 Y41.5855 
G01 X28.8201 Y41.6009 
G01 X27.8954 Y41.6009 
G01 X27.8509 Y41.6454 
G01 X27.8509 Y42.4537 
G01 X27.8509 Y42.5462 
G01 X27.8270 Y42.6354 
G01 X27.7808 Y42.7155 
G01 X27.2808 Y43.2155 
G01 X27.2155 Y43.2808 
G01 X27.1354 Y43.3270 
G01 X27.0462 Y43.3509 
G01 X21.8509 Y43.3509 
G01 X21.8509 Y46.6490 
G01 X24.0462 Y46.6490 
G01 X24.1354 Y46.6729 
G01 X24.2155 Y46.7191 
G01 X24.2808 Y46.7844 
G01 X24.7808 Y47.2844 
G01 X24.8270 Y47.3645 
G01 X24.8509 Y47.4537 
G01 X24.8509 Y47.5462 
G01 X24.8509 Y47.6490 
G01 X25.8990 Y47.6490 
G01 X25.8990 Y47.5798 
G01 X25.9144 Y47.5427 
G01 X25.9427 Y47.5144 
G01 X25.9798 Y47.4990 
G01 X28.0201 Y47.4990 
G01 X28.0572 Y47.5144 
G01 X28.0855 Y47.5427 
G01 X28.1009 Y47.5798 
G01 X28.1009 Y49.2201 
G01 X28.0855 Y49.2572 
G01 X28.0572 Y49.2855 
G01 X28.0201 Y49.3009 
G00 Z2.0000 
G00 X56.0201 Y49.3009 
G01 Z-0.2000 F600.00 
G01 X55.3509 Y49.3009 
G01 X55.3509 Y51.0462 
G01 X55.3509 Y51.0463 
G01 X55.3509 Y52.3545 
G01 X56.4472 Y53.4508 
G01 X56.8889 Y53.4508 
G01 X57.4391 Y54.0010 
G01 X57.4391 Y54.7789 
G01 X56.8889 Y55.3291 
G01 X56.1110 Y55.3291 
G01 X55.5608 Y54.7789 
G01 X55.5608 Y54.0010 
G01 X55.7828 Y53.7791 
G01 X54.7844 Y52.7808 
G01 X54.7191 Y52.7155 
G01 X54.6729 Y52.6354 
G01 X54.6490 Y52.5462 
G01 X54.6490 Y51.3509 
G01 X45.4537 Y51.3509 
G01 X45.3645 Y51.3270 
G01 X45.2844 Y51.2808 
G01 X45.2191 Y51.2155 
G01 X43.7844 Y49.7808 
G01 X43.3045 Y49.3009 
G01 X41.9798 Y49.3009 
G01 X41.9427 Y49.2855 
G01 X41.9144 Y49.2572 
G01 X41.8990 Y49.2201 
G01 X41.8990 Y47.5798 
G01 X41.9144 Y47.5427 
G01 X41.9427 Y47.5144 
G01 X41.9798 Y47.4990 
G01 X44.0201 Y47.4990 
G01 X44.0572 Y47.5144 
G01 X44.0855 Y47.5427 
G01 X44.1009 Y47.5798 
G01 X44.1009 Y48.4027 
G01 X44.3998 Y48.1038 
G01 X44.3910 Y48.0600 
G01 X44.3910 Y47.9399 
G01 X44.4144 Y47.8223 
G01 X44.4603 Y47.7115 
G01 X44.5269 Y47.6117 
G01 X44.6117 Y47.5269 
G01 X44.7115 Y47.4603 
G01 X44.8223 Y47.4144 
G01 X44.9399 Y47.3910 
G01 X45.0600 Y47.3910 
G01 X45.1776 Y47.4144 
G01 X45.2884 Y47.4603 
G01 X45.3882 Y47.5269 
G01 X45.4730 Y47.6117 
G01 X45.5396 Y47.7115 
G01 X45.5855 Y47.8223 
G01 X45.6089 Y47.9399 
G01 X45.6089 Y48.0600 
G01 X45.5855 Y48.1776 
G01 X45.5396 Y48.2884 
G01 X45.4730 Y48.3882 
G01 X45.3882 Y48.4730 
G01 X45.2884 Y48.5396 
G01 X45.1776 Y48.5855 
G01 X45.0600 Y48.6089 
G01 X44.9399 Y48.6089 
G01 X44.8961 Y48.6001 
G01 X44.3509 Y49.1454 
G01 X44.3509 Y49.3545 
G01 X45.6454 Y50.6490 
G01 X54.6490 Y50.6490 
G01 X54.6490 Y49.3009 
G01 X53.9798 Y49.3009 
G01 X53.9427 Y49.2855 
G01 X53.9144 Y49.2572 
G01 X53.8990 Y49.2201 
G01 X53.8990 Y47.5798 
G01 X53.9144 Y47.5427 
G01 X53.9427 Y47.5144 
G01 X53.9798 Y47.4990 
G01 X56.0201 Y47.4990 
G01 X56.0572 Y47.5144 
G01 X56.0855 Y47.5427 
G01 X56.1009 Y47.5798 
G01 X56.1009 Y49.2201 
G01 X56.0855 Y49.2572 
G01 X56.0572 Y49.2855 
G01 X56.0201 Y49.3009 
G00 Z2.0000 
G00 X36.8298 Y19.1090 
G01 Z-0.2000 F600.00 
G01 X43.0701 Y19.1090 
G01 X43.1072 Y19.1244 
G01 X43.1355 Y19.1527 
G01 X43.1509 Y19.1898 
G01 X43.1509 Y21.3990 
G01 X44.9990 Y21.3990 
G01 X44.9990 Y20.7798 
G01 X45.0144 Y20.7427 
G01 X45.0427 Y20.7144 
G01 X45.0798 Y20.6990 
G01 X46.9201 Y20.6990 
G01 X46.9572 Y20.7144 
G01 X46.9855 Y20.7427 
G01 X47.0009 Y20.7798 
G01 X47.0009 Y22.4201 
G01 X46.9855 Y22.4572 
G01 X46.9572 Y22.4855 
G01 X46.9201 Y22.5009 
G01 X46.3319 Y22.5009 
G01 X46.2846 Y22.5325 
G01 X46.1753 Y22.5778 
G01 X46.0592 Y22.6009 
G01 X45.9407 Y22.6009 
G01 X43.1509 Y22.6009 
G01 X43.1509 Y24.6301 
G01 X43.1355 Y24.6672 
G01 X43.1072 Y24.6955 
G01 X43.0701 Y24.7109 
G01 X36.8298 Y24.7109 
G01 X36.7927 Y24.6955 
G01 X36.7644 Y24.6672 
G01 X36.7490 Y24.6301 
G01 X36.7490 Y19.1898 
G01 X36.7644 Y19.1527 
G01 X36.7927 Y19.1244 
G01 X36.8298 Y19.1090 
G00 Z2.0000 
G00 X31.8298 Y23.5890 
G01 Z-0.2000 F600.00 
G01 X33.4701 Y23.5890 
G01 X33.5072 Y23.6044 
G01 X33.5355 Y23.6327 
G01 X33.5509 Y23.6698 
G01 X33.5509 Y24.5545 
G01 X35.2155 Y26.2191 
G01 X35.2808 Y26.2844 
G01 X35.3270 Y26.3645 
G01 X35.3509 Y26.4537 
G01 X35.3509 Y29.3990 
G01 X35.8201 Y29.3990 
G01 X35.8572 Y29.4144 
G01 X35.8855 Y29.4427 
G01 X35.9009 Y29.4798 
G01 X35.9009 Y29.6490 
G01 X38.1390 Y29.6490 
G01 X38.1390 Y28.7998 
G01 X38.1544 Y28.7627 
G01 X38.1827 Y28.7344 
G01 X38.2198 Y28.7190 
G01 X39.8601 Y28.7190 
G01 X39.8972 Y28.7344 
G01 X39.9255 Y28.7627 
G01 X39.9409 Y28.7998 
G01 X39.9409 Y30.8401 
G01 X39.9255 Y30.8772 
G01 X39.8972 Y30.9055 
G01 X39.8601 Y30.9209 
G01 X38.2198 Y30.9209 
G01 X38.1827 Y30.9055 
G01 X38.1544 Y30.8772 
G01 X38.1390 Y30.8401 
G01 X38.1390 Y30.3509 
G01 X35.9009 Y30.3509 
G01 X35.9009 Y30.5201 
G01 X35.8855 Y30.5572 
G01 X35.8572 Y30.5855 
G01 X35.8201 Y30.6009 
G01 X34.3798 Y30.6009 
G01 X34.3427 Y30.5855 
G01 X34.3144 Y30.5572 
G01 X34.2990 Y30.5201 
G01 X34.2990 Y29.4798 
G01 X34.3144 Y29.4427 
G01 X34.3427 Y29.4144 
G01 X34.3798 Y29.3990 
G01 X34.6490 Y29.3990 
G01 X34.6490 Y26.6454 
G01 X32.7945 Y24.7909 
G01 X31.8298 Y24.7909 
G01 X31.7927 Y24.7755 
G01 X31.7644 Y24.7472 
G01 X31.7490 Y24.7101 
G01 X31.7490 Y23.6698 
G01 X31.7644 Y23.6327 
G01 X31.7927 Y23.6044 
G01 X31.8298 Y23.5890 
G00 Z2.0000 
G00 X31.8298 Y19.0290 
G01 Z-0.2000 F600.00 
G01 X33.4701 Y19.0290 
G01 X33.5072 Y19.0444 
G01 X33.5355 Y19.0727 
G01 X33.5509 Y19.1098 
G01 X33.5509 Y20.1501 
G01 X33.5355 Y20.1872 
G01 X33.5072 Y20.2155 
G01 X33.4701 Y20.2309 
G01 X31.8298 Y20.2309 
G01 X31.7927 Y20.2155 
G01 X31.7644 Y20.1872 
G01 X31.7490 Y20.1501 
G01 X31.7490 Y19.1098 
G01 X31.7644 Y19.0727 
G01 X31.7927 Y19.0444 
G01 X31.8298 Y19.0290 
G00 Z2.0000 
G00 X32.1798 Y30.3490 
G01 Z-0.2000 F600.00 
G01 X33.6201 Y30.3490 
G01 X33.6572 Y30.3644 
G01 X33.6855 Y30.3927 
G01 X33.7009 Y30.4298 
G01 X33.7009 Y31.4701 
G01 X33.6855 Y31.5072 
G01 X33.6572 Y31.5355 
G01 X33.6201 Y31.5509 
G01 X32.4454 Y31.5509 
G01 X32.3509 Y31.6454 
G01 X32.3509 Y32.5020 
G01 X32.3882 Y32.5269 
G01 X32.4730 Y32.6117 
G01 X32.5396 Y32.7115 
G01 X32.5855 Y32.8223 
G01 X32.6089 Y32.9399 
G01 X32.6089 Y33.0600 
G01 X32.5855 Y33.1776 
G01 X32.5396 Y33.2884 
G01 X32.4730 Y33.3882 
G01 X32.3882 Y33.4730 
G01 X32.2884 Y33.5396 
G01 X32.1776 Y33.5855 
G01 X32.0600 Y33.6089 
G01 X31.9399 Y33.6089 
G01 X31.8223 Y33.5855 
G01 X31.7115 Y33.5396 
G01 X31.6117 Y33.4730 
G01 X31.5269 Y33.3882 
G01 X31.4603 Y33.2884 
G01 X31.4144 Y33.1776 
G01 X31.3910 Y33.0600 
G01 X31.3910 Y32.9399 
G01 X31.4144 Y32.8223 
G01 X31.4603 Y32.7115 
G01 X31.5269 Y32.6117 
G01 X31.6117 Y32.5269 
G01 X31.6490 Y32.5020 
G01 X31.6490 Y31.4537 
G01 X31.6729 Y31.3645 
G01 X31.7191 Y31.2844 
G01 X31.7844 Y31.2191 
G01 X32.0990 Y30.9045 
G01 X32.0990 Y30.4298 
G01 X32.1144 Y30.3927 
G01 X32.1427 Y30.3644 
G01 X32.1798 Y30.3490 
G00 Z2.0000 
G00 X42.7409 Y28.7998 
G01 Z-0.2000 F600.00 
G01 X42.7409 Y30.8401 
G01 X42.7255 Y30.8772 
G01 X42.6972 Y30.9055 
G01 X42.6601 Y30.9209 
G01 X41.0198 Y30.9209 
G01 X40.9827 Y30.9055 
G01 X40.9544 Y30.8772 
G01 X40.9390 Y30.8401 
G01 X40.9390 Y29.4354 
G01 X40.2844 Y28.7808 
G01 X40.2191 Y28.7155 
G01 X40.1729 Y28.6354 
G01 X40.1490 Y28.5462 
G01 X40.1490 Y28.4979 
G01 X40.1117 Y28.4730 
G01 X40.0269 Y28.3882 
G01 X39.9603 Y28.2884 
G01 X39.9144 Y28.1776 
G01 X39.8910 Y28.0600 
G01 X39.8910 Y27.9399 
G01 X39.9144 Y27.8223 
G01 X39.9603 Y27.7115 
G01 X40.0269 Y27.6117 
G01 X40.1117 Y27.5269 
G01 X40.2115 Y27.4603 
G01 X40.3223 Y27.4144 
G01 X40.4399 Y27.3910 
G01 X40.5600 Y27.3910 
G01 X40.6776 Y27.4144 
G01 X40.7884 Y27.4603 
G01 X40.8882 Y27.5269 
G01 X40.9730 Y27.6117 
G01 X41.0396 Y27.7115 
G01 X41.0855 Y27.8223 
G01 X41.1089 Y27.9399 
G01 X41.1089 Y28.0600 
G01 X41.0855 Y28.1776 
G01 X41.0396 Y28.2884 
G01 X40.9730 Y28.3882 
G01 X40.9287 Y28.4324 
G01 X41.2154 Y28.7190 
G01 X42.6601 Y28.7190 
G01 X42.6972 Y28.7344 
G01 X42.7255 Y28.7627 
G01 X42.7409 Y28.7998 
G00 Z2.0000 
G00 X60.9798 Y46.5009 
G01 Z-0.2000 F600.00 
G01 X60.9427 Y46.4855 
G01 X60.9144 Y46.4572 
G01 X60.8990 Y46.4201 
G01 X60.8990 Y44.7798 
G01 X60.9144 Y44.7427 
G01 X60.9427 Y44.7144 
G01 X60.9798 Y44.6990 
G01 X63.0201 Y44.6990 
G01 X63.0572 Y44.7144 
G01 X63.0855 Y44.7427 
G01 X63.1009 Y44.7798 
G01 X63.1009 Y46.1045 
G01 X63.3961 Y46.3998 
G01 X63.4399 Y46.3910 
G01 X63.5600 Y46.3910 
G01 X63.6776 Y46.4144 
G01 X63.7884 Y46.4603 
G01 X63.8882 Y46.5269 
G01 X63.9730 Y46.6117 
G01 X64.0396 Y46.7115 
G01 X64.0855 Y46.8223 
G01 X64.1089 Y46.9399 
G01 X64.1089 Y47.0600 
G01 X64.0855 Y47.1776 
G01 X64.0396 Y47.2884 
G01 X63.9730 Y47.3882 
G01 X63.8882 Y47.4730 
G01 X63.7884 Y47.5396 
G01 X63.6776 Y47.5855 
G01 X63.5600 Y47.6089 
G01 X63.4399 Y47.6089 
G01 X63.3223 Y47.5855 
G01 X63.2115 Y47.5396 
G01 X63.1117 Y47.4730 
G01 X63.0269 Y47.3882 
G01 X62.9603 Y47.2884 
G01 X62.9144 Y47.1776 
G01 X62.8910 Y47.0600 
G01 X62.8910 Y46.9399 
G01 X62.8998 Y46.8961 
G01 X62.5045 Y46.5009 
G01 X60.9798 Y46.5009 
G00 Z2.0000 
G00 X45.0798 Y23.4990 
G01 Z-0.2000 F600.00 
G01 X46.9201 Y23.4990 
G01 X46.9572 Y23.5144 
G01 X46.9855 Y23.5427 
G01 X47.0009 Y23.5798 
G01 X47.0009 Y23.8990 
G01 X47.6497 Y23.8990 
G01 X47.6899 Y23.8910 
G01 X47.8100 Y23.8910 
G01 X47.8502 Y23.8990 
G01 X48.0592 Y23.8990 
G01 X48.1753 Y23.9221 
G01 X48.2846 Y23.9674 
G01 X48.3831 Y24.0332 
G01 X48.4667 Y24.1168 
G01 X48.5325 Y24.2153 
G01 X48.5778 Y24.3246 
G01 X48.6009 Y24.4407 
G01 X48.6009 Y24.5592 
G01 X48.5778 Y24.6753 
G01 X48.5325 Y24.7846 
G01 X48.4667 Y24.8831 
G01 X48.3831 Y24.9667 
G01 X48.2846 Y25.0325 
G01 X48.1753 Y25.0778 
G01 X48.0592 Y25.1009 
G01 X47.8502 Y25.1009 
G01 X47.8100 Y25.1089 
G01 X47.6899 Y25.1089 
G01 X47.6497 Y25.1009 
G01 X47.0009 Y25.1009 
G01 X47.0009 Y25.2201 
G01 X46.9855 Y25.2572 
G01 X46.9572 Y25.2855 
G01 X46.9201 Y25.3009 
G01 X45.0798 Y25.3009 
G01 X45.0427 Y25.2855 
G01 X45.0144 Y25.2572 
G01 X44.9990 Y25.2201 
G01 X44.9990 Y23.5798 
G01 X45.0144 Y23.5427 
G01 X45.0427 Y23.5144 
G01 X45.0798 Y23.4990 
G00 Z2.0000 
G00 X50.3509 Y20.6798 
G01 Z-0.2000 F600.00 
G01 X50.3509 Y21.6490 
G01 X50.5021 Y21.6490 
G01 X50.5269 Y21.6117 
G01 X50.6117 Y21.5269 
G01 X50.7115 Y21.4603 
G01 X50.8223 Y21.4144 
G01 X50.9399 Y21.3910 
G01 X51.0600 Y21.3910 
G01 X51.1776 Y21.4144 
G01 X51.2884 Y21.4603 
G01 X51.3882 Y21.5269 
G01 X51.4730 Y21.6117 
G01 X51.5396 Y21.7115 
G01 X51.5855 Y21.8223 
G01 X51.6089 Y21.9399 
G01 X51.6089 Y22.0600 
G01 X51.5855 Y22.1776 
G01 X51.5396 Y22.2884 
G01 X51.4730 Y22.3882 
G01 X51.3882 Y22.4730 
G01 X51.2884 Y22.5396 
G01 X51.1776 Y22.5855 
G01 X51.0600 Y22.6089 
G01 X50.9399 Y22.6089 
G01 X50.8223 Y22.5855 
G01 X50.7115 Y22.5396 
G01 X50.6117 Y22.4730 
G01 X50.5269 Y22.3882 
G01 X50.5021 Y22.3509 
G01 X50.3509 Y22.3509 
G01 X50.3509 Y23.3201 
G01 X50.3355 Y23.3572 
G01 X50.3072 Y23.3855 
G01 X50.2701 Y23.4009 
G01 X48.7298 Y23.4009 
G01 X48.6927 Y23.3855 
G01 X48.6644 Y23.3572 
G01 X48.6490 Y23.3201 
G01 X48.6490 Y20.6798 
G01 X48.6644 Y20.6427 
G01 X48.6927 Y20.6144 
G01 X48.7298 Y20.5990 
G01 X50.2701 Y20.5990 
G01 X50.3072 Y20.6144 
G01 X50.3355 Y20.6427 
G01 X50.3509 Y20.6798 
G00 Z2.0000 
G00 X51.6490 Y20.6798 
G01 Z-0.2000 F600.00 
G01 X51.6644 Y20.6427 
G01 X51.6927 Y20.6144 
G01 X51.7298 Y20.5990 
G01 X53.2701 Y20.5990 
G01 X53.3072 Y20.6144 
G01 X53.3355 Y20.6427 
G01 X53.3509 Y20.6798 
G01 X53.3509 Y23.3201 
G01 X53.3355 Y23.3572 
G01 X53.3072 Y23.3855 
G01 X53.2701 Y23.4009 
G01 X51.7298 Y23.4009 
G01 X51.6927 Y23.3855 
G01 X51.6644 Y23.3572 
G01 X51.6570 Y23.3393 
G01 X51.3509 Y23.6454 
G01 X51.3509 Y25.0462 
G01 X51.3270 Y25.1354 
G01 X51.2808 Y25.2155 
G01 X51.2155 Y25.2808 
G01 X50.5009 Y25.9954 
G01 X50.5009 Y27.0201 
G01 X50.4855 Y27.0572 
G01 X50.4572 Y27.0855 
G01 X50.4201 Y27.1009 
G01 X48.7798 Y27.1009 
G01 X48.7427 Y27.0855 
G01 X48.7144 Y27.0572 
G01 X48.6990 Y27.0201 
G01 X48.6990 Y24.9798 
G01 X48.7144 Y24.9427 
G01 X48.7427 Y24.9144 
G01 X48.7798 Y24.8990 
G01 X50.4201 Y24.8990 
G01 X50.4572 Y24.9144 
G01 X50.4855 Y24.9427 
G01 X50.5009 Y24.9798 
G01 X50.5009 Y25.0027 
G01 X50.6490 Y24.8545 
G01 X50.6490 Y23.5462 
G01 X50.6490 Y23.4537 
G01 X50.6729 Y23.3645 
G01 X50.7191 Y23.2844 
G01 X51.6490 Y22.3545 
G01 X51.6490 Y20.6798 
G00 Z2.0000 
G00 X53.3009 Y24.9798 
G01 Z-0.2000 F600.00 
G01 X53.3009 Y27.0201 
G01 X53.2855 Y27.0572 
G01 X53.2572 Y27.0855 
G01 X53.2201 Y27.1009 
G01 X51.5798 Y27.1009 
G01 X51.5427 Y27.0855 
G01 X51.5144 Y27.0572 
G01 X51.4990 Y27.0201 
G01 X51.4990 Y26.9972 
G01 X51.3509 Y27.1454 
G01 X51.3509 Y27.4537 
G01 X51.3509 Y27.5462 
G01 X51.3509 Y36.3545 
G01 X52.2155 Y37.2191 
G01 X52.2808 Y37.2844 
G01 X52.3270 Y37.3645 
G01 X52.3509 Y37.4537 
G01 X52.3509 Y37.8990 
G01 X53.2201 Y37.8990 
G01 X53.2572 Y37.9144 
G01 X53.2855 Y37.9427 
G01 X53.3009 Y37.9798 
G01 X53.3009 Y39.3192 
G01 X53.3270 Y39.3645 
G01 X53.3509 Y39.4537 
G01 X53.3509 Y46.6490 
G01 X56.5462 Y46.6490 
G01 X56.6354 Y46.6729 
G01 X56.7155 Y46.7191 
G01 X56.7808 Y46.7844 
G01 X56.8270 Y46.8645 
G01 X56.8509 Y46.9537 
G01 X56.8509 Y47.0462 
G01 X56.8509 Y47.6490 
G01 X56.9975 Y47.6490 
G01 X56.9975 Y47.6018 
G01 X57.0129 Y47.5647 
G01 X57.0412 Y47.5364 
G01 X57.0783 Y47.5210 
G01 X58.9216 Y47.5210 
G01 X58.9587 Y47.5364 
G01 X58.9870 Y47.5647 
G01 X59.0024 Y47.6018 
G01 X59.0024 Y49.2421 
G01 X58.9870 Y49.2792 
G01 X58.9587 Y49.3075 
G01 X58.9216 Y49.3229 
G01 X57.0783 Y49.3229 
G01 X57.0412 Y49.3075 
G01 X57.0129 Y49.2792 
G01 X56.9975 Y49.2421 
G01 X56.9975 Y48.3509 
G01 X56.5462 Y48.3509 
G01 X56.4537 Y48.3509 
G01 X56.3645 Y48.3270 
G01 X56.2844 Y48.2808 
G01 X56.2191 Y48.2155 
G01 X56.1729 Y48.1354 
G01 X56.1490 Y48.0462 
G01 X56.1490 Y47.3509 
G01 X53.0462 Y47.3509 
G01 X52.9537 Y47.3509 
G01 X47.3509 Y47.3509 
G01 X47.3509 Y47.4990 
G01 X48.0201 Y47.4990 
G01 X48.0572 Y47.5144 
G01 X48.0855 Y47.5427 
G01 X48.1009 Y47.5798 
G01 X48.1009 Y49.2201 
G01 X48.0855 Y49.2572 
G01 X48.0572 Y49.2855 
G01 X48.0201 Y49.3009 
G01 X45.9798 Y49.3009 
G01 X45.9427 Y49.2855 
G01 X45.9144 Y49.2572 
G01 X45.8990 Y49.2201 
G01 X45.8990 Y47.5798 
G01 X45.9144 Y47.5427 
G01 X45.9427 Y47.5144 
G01 X45.9798 Y47.4990 
G01 X46.6490 Y47.4990 
G01 X46.6490 Y47.3509 
G01 X41.4537 Y47.3509 
G01 X41.3645 Y47.3270 
G01 X41.2844 Y47.2808 
G01 X41.2191 Y47.2155 
G01 X41.1729 Y47.1354 
G01 X41.1490 Y47.0462 
G01 X41.1490 Y46.9537 
G01 X41.1490 Y46.3509 
G01 X40.5509 Y46.3509 
G01 X40.5509 Y46.6201 
G01 X40.5355 Y46.6572 
G01 X40.5072 Y46.6855 
G01 X40.4701 Y46.7009 
G01 X40.3509 Y46.7009 
G01 X40.3509 Y49.9536 
G01 X40.3509 Y49.9537 
G01 X40.3509 Y50.0462 
G01 X40.3270 Y50.1354 
G01 X40.2808 Y50.2155 
G01 X40.2155 Y50.2808 
G01 X40.1354 Y50.3270 
G01 X40.0462 Y50.3509 
G01 X34.1454 Y50.3509 
G01 X30.5051 Y53.9911 
G01 X30.5151 Y54.0010 
G01 X30.5151 Y54.7789 
G01 X29.9649 Y55.3291 
G01 X29.1870 Y55.3291 
G01 X28.6368 Y54.7789 
G01 X28.6368 Y54.0010 
G01 X29.1870 Y53.4508 
G01 X29.9649 Y53.4508 
G01 X30.0088 Y53.4948 
G01 X33.7191 Y49.7844 
G01 X33.7844 Y49.7191 
G01 X33.8645 Y49.6729 
G01 X33.9537 Y49.6490 
G01 X39.6490 Y49.6490 
G01 X39.6490 Y46.7009 
G01 X39.4298 Y46.7009 
G01 X39.3927 Y46.6855 
G01 X39.3644 Y46.6572 
G01 X39.3490 Y46.6201 
G01 X39.3490 Y45.1798 
G01 X39.3644 Y45.1427 
G01 X39.3927 Y45.1144 
G01 X39.4298 Y45.0990 
G01 X40.4701 Y45.0990 
G01 X40.5072 Y45.1144 
G01 X40.5355 Y45.1427 
G01 X40.5509 Y45.1798 
G01 X40.5509 Y45.6490 
G01 X41.4537 Y45.6490 
G01 X41.5462 Y45.6490 
G01 X41.6354 Y45.6729 
G01 X41.7155 Y45.7191 
G01 X41.7808 Y45.7844 
G01 X41.8270 Y45.8645 
G01 X41.8509 Y45.9537 
G01 X41.8509 Y46.6490 
G01 X46.9537 Y46.6490 
G01 X52.6490 Y46.6490 
G01 X52.6490 Y40.1009 
G01 X51.5798 Y40.1009 
G01 X51.5427 Y40.0855 
G01 X51.5144 Y40.0572 
G01 X51.4990 Y40.0201 
G01 X51.4990 Y37.9798 
G01 X51.5144 Y37.9427 
G01 X51.5427 Y37.9144 
G01 X51.5798 Y37.8990 
G01 X51.6490 Y37.8990 
G01 X51.6490 Y37.6454 
G01 X50.7191 Y36.7155 
G01 X50.6729 Y36.6354 
G01 X50.6490 Y36.5462 
G01 X50.6490 Y36.4537 
G01 X50.6490 Y27.8509 
G01 X46.3509 Y27.8509 
G01 X46.3509 Y28.6990 
G01 X46.9201 Y28.6990 
G01 X46.9572 Y28.7144 
G01 X46.9855 Y28.7427 
G01 X47.0009 Y28.7798 
G01 X47.0009 Y30.4201 
G01 X46.9855 Y30.4572 
G01 X46.9572 Y30.4855 
G01 X46.9201 Y30.5009 
G01 X45.0798 Y30.5009 
G01 X45.0427 Y30.4855 
G01 X45.0144 Y30.4572 
G01 X44.9990 Y30.4201 
G01 X44.9990 Y28.7798 
G01 X45.0144 Y28.7427 
G01 X45.0427 Y28.7144 
G01 X45.0798 Y28.6990 
G01 X45.6490 Y28.6990 
G01 X45.6490 Y27.5462 
G01 X45.6490 Y27.4537 
G01 X45.6490 Y27.3509 
G01 X44.5462 Y27.3509 
G01 X38.4537 Y27.3509 
G01 X38.3645 Y27.3270 
G01 X38.2844 Y27.2808 
G01 X38.2191 Y27.2155 
G01 X35.7191 Y24.7155 
G01 X35.6729 Y24.6354 
G01 X35.6490 Y24.5462 
G01 X35.6490 Y24.4537 
G01 X35.6490 Y23.3509 
G01 X31.6454 Y23.3509 
G01 X31.3509 Y23.6454 
G01 X31.3509 Y27.3545 
G01 X32.4454 Y28.4490 
G01 X33.6201 Y28.4490 
G01 X33.6572 Y28.4644 
G01 X33.6855 Y28.4927 
G01 X33.7009 Y28.5298 
G01 X33.7009 Y29.5701 
G01 X33.6855 Y29.6072 
G01 X33.6572 Y29.6355 
G01 X33.6201 Y29.6509 
G01 X32.1798 Y29.6509 
G01 X32.1427 Y29.6355 
G01 X32.1144 Y29.6072 
G01 X32.0990 Y29.5701 
G01 X32.0990 Y29.0954 
G01 X30.7844 Y27.7808 
G01 X30.7191 Y27.7155 
G01 X30.6729 Y27.6354 
G01 X30.6490 Y27.5462 
G01 X30.6490 Y23.5462 
G01 X30.6490 Y23.4537 
G01 X30.6729 Y23.3645 
G01 X30.7191 Y23.2844 
G01 X31.2191 Y22.7844 
G01 X31.2844 Y22.7191 
G01 X31.3645 Y22.6729 
G01 X31.4537 Y22.6490 
G01 X35.9537 Y22.6490 
G01 X36.0462 Y22.6490 
G01 X36.1354 Y22.6729 
G01 X36.2155 Y22.7191 
G01 X36.2808 Y22.7844 
G01 X36.3270 Y22.8645 
G01 X36.3509 Y22.9537 
G01 X36.3509 Y24.3545 
G01 X38.6454 Y26.6490 
G01 X44.1490 Y26.6490 
G01 X44.1490 Y22.9537 
G01 X44.1729 Y22.8645 
G01 X44.2191 Y22.7844 
G01 X44.2844 Y22.7191 
G01 X44.3645 Y22.6729 
G01 X44.4537 Y22.6490 
G01 X44.5462 Y22.6490 
G01 X46.8545 Y22.6490 
G01 X47.1490 Y22.3545 
G01 X47.1490 Y15.3009 
G01 X47.0798 Y15.3009 
G01 X47.0427 Y15.2855 
G01 X47.0144 Y15.2572 
G01 X46.9990 Y15.2201 
G01 X46.9990 Y14.8509 
G01 X46.0462 Y14.8509 
G01 X45.9537 Y14.8509 
G01 X45.0009 Y14.8509 
G01 X45.0009 Y15.2201 
G01 X44.9855 Y15.2572 
G01 X44.9572 Y15.2855 
G01 X44.9201 Y15.3009 
G01 X43.0798 Y15.3009 
G01 X43.0427 Y15.2855 
G01 X43.0144 Y15.2572 
G01 X42.9990 Y15.2201 
G01 X42.9990 Y13.5798 
G01 X43.0144 Y13.5427 
G01 X43.0427 Y13.5144 
G01 X43.0798 Y13.4990 
G01 X44.9201 Y13.4990 
G01 X44.9572 Y13.5144 
G01 X44.9855 Y13.5427 
G01 X45.0009 Y13.5798 
G01 X45.0009 Y14.1490 
G01 X45.6490 Y14.1490 
G01 X45.6490 Y7.4537 
G01 X45.6490 Y6.8509 
G01 X44.4071 Y6.8509 
G01 X44.1889 Y7.0691 
G01 X43.4110 Y7.0691 
G01 X42.8608 Y6.5189 
G01 X42.8608 Y5.7410 
G01 X43.4110 Y5.1908 
G01 X44.1889 Y5.1908 
G01 X44.7391 Y5.7410 
G01 X44.7391 Y6.1490 
G01 X45.4008 Y6.1490 
G01 X45.4008 Y5.7410 
G01 X45.9510 Y5.1908 
G01 X46.7289 Y5.1908 
G01 X47.2791 Y5.7410 
G01 X47.2791 Y6.5189 
G01 X46.7289 Y7.0691 
G01 X46.3509 Y7.0691 
G01 X46.3509 Y7.1490 
G01 X53.5462 Y7.1490 
G01 X53.6354 Y7.1729 
G01 X53.7155 Y7.2191 
G01 X53.7808 Y7.2844 
G01 X55.2808 Y8.7844 
G01 X55.3270 Y8.8645 
G01 X55.3509 Y8.9537 
G01 X55.3509 Y9.0462 
G01 X55.3509 Y11.1490 
G01 X57.4551 Y11.1490 
G01 X57.4566 Y11.1486 
G01 X57.5034 Y11.1490 
G01 X57.5462 Y11.1490 
G01 X57.5476 Y11.1494 
G01 X57.5491 Y11.1494 
G01 X57.5902 Y11.1608 
G01 X57.6354 Y11.1729 
G01 X57.6368 Y11.1738 
G01 X57.6382 Y11.1741 
G01 X57.6758 Y11.1963 
G01 X57.6934 Y11.2064 
G01 X57.9176 Y11.1587 
G01 X57.9537 Y11.1490 
G01 X57.9631 Y11.1490 
G01 X57.9720 Y11.1471 
G01 X58.0086 Y11.1490 
G01 X63.3545 Y11.1490 
G01 X64.4990 Y10.0045 
G01 X64.4990 Y9.0798 
G01 X64.5144 Y9.0427 
G01 X64.5427 Y9.0144 
G01 X64.5798 Y8.9990 
G01 X66.2201 Y8.9990 
G01 X66.2572 Y9.0144 
G01 X66.2855 Y9.0427 
G01 X66.3009 Y9.0798 
G01 X66.3009 Y10.9201 
G01 X66.2855 Y10.9572 
G01 X66.2572 Y10.9855 
G01 X66.2201 Y11.0009 
G01 X64.5798 Y11.0009 
G01 X64.5427 Y10.9855 
G01 X64.5267 Y10.9695 
G01 X63.7808 Y11.7155 
G01 X63.7155 Y11.7808 
G01 X63.6354 Y11.8270 
G01 X63.5462 Y11.8509 
G01 X58.6453 Y11.8509 
G01 X58.6453 Y11.8945 
G01 X58.6299 Y11.9316 
G01 X58.6016 Y11.9599 
G01 X58.5645 Y11.9753 
G01 X56.5430 Y11.9753 
G01 X56.5059 Y11.9599 
G01 X56.4776 Y11.9316 
G01 X56.4622 Y11.8945 
G01 X56.4622 Y11.8509 
G01 X55.0462 Y11.8509 
G01 X54.9537 Y11.8509 
G01 X54.8645 Y11.8270 
G01 X54.7844 Y11.7808 
G01 X54.7191 Y11.7155 
G01 X54.6729 Y11.6354 
G01 X54.6490 Y11.5462 
G01 X54.6490 Y9.1454 
G01 X53.3545 Y7.8509 
G01 X46.3509 Y7.8509 
G01 X46.3509 Y14.1490 
G01 X46.9990 Y14.1490 
G01 X46.9990 Y13.5798 
G01 X47.0144 Y13.5427 
G01 X47.0427 Y13.5144 
G01 X47.0798 Y13.4990 
G01 X48.9201 Y13.4990 
G01 X48.9572 Y13.5144 
G01 X48.9855 Y13.5427 
G01 X49.0009 Y13.5798 
G01 X49.0009 Y15.2201 
G01 X48.9855 Y15.2572 
G01 X48.9572 Y15.2855 
G01 X48.9201 Y15.3009 
G01 X47.8509 Y15.3009 
G01 X47.8509 Y22.4537 
G01 X47.8509 Y22.5462 
G01 X47.8270 Y22.6354 
G01 X47.7808 Y22.7155 
G01 X47.2808 Y23.2155 
G01 X47.2155 Y23.2808 
G01 X47.1354 Y23.3270 
G01 X47.0462 Y23.3509 
G01 X44.8509 Y23.3509 
G01 X44.8509 Y26.6490 
G01 X45.9537 Y26.6490 
G01 X46.0462 Y26.6490 
G01 X46.1354 Y26.6729 
G01 X46.2155 Y26.7191 
G01 X46.2808 Y26.7844 
G01 X46.3270 Y26.8645 
G01 X46.3509 Y26.9537 
G01 X46.3509 Y27.1490 
G01 X50.6490 Y27.1490 
G01 X50.6490 Y26.9537 
G01 X50.6729 Y26.8645 
G01 X50.7191 Y26.7844 
G01 X50.7844 Y26.7191 
G01 X51.4990 Y26.0045 
G01 X51.4990 Y24.9798 
G01 X51.5144 Y24.9427 
G01 X51.5427 Y24.9144 
G01 X51.5798 Y24.8990 
G01 X53.2201 Y24.8990 
G01 X53.2572 Y24.9144 
G01 X53.2855 Y24.9427 
G01 X53.3009 Y24.9798 
G00 Z2.0000 
G00 X65.1135 Y31.2163 
G01 Z-0.2000 F600.00 
G01 X63.1264 Y31.2163 
G01 X62.9339 Y31.1780 
G01 X62.7526 Y31.1029 
G01 X62.5894 Y30.9939 
G01 X62.4506 Y30.8551 
G01 X62.3416 Y30.6919 
G01 X62.2665 Y30.5106 
G01 X62.2282 Y30.3181 
G01 X62.2282 Y30.1218 
G01 X62.2665 Y29.9293 
G01 X62.3416 Y29.7480 
G01 X62.4506 Y29.5848 
G01 X62.5894 Y29.4460 
G01 X62.7526 Y29.3370 
G01 X62.9339 Y29.2619 
G01 X63.1264 Y29.2236 
G01 X65.1135 Y29.2236 
G01 X65.3060 Y29.2619 
G01 X65.4873 Y29.3370 
G01 X65.6505 Y29.4460 
G01 X65.7893 Y29.5848 
G01 X65.8983 Y29.7480 
G01 X65.9734 Y29.9293 
G01 X66.0117 Y30.1218 
G01 X66.0117 Y30.3181 
G01 X65.9734 Y30.5106 
G01 X65.8983 Y30.6919 
G01 X65.7893 Y30.8551 
G01 X65.6505 Y30.9939 
G01 X65.4873 Y31.1029 
G01 X65.3060 Y31.1780 
G01 X65.1135 Y31.2163 
G00 Z2.0000 
G00 X65.1135 Y26.2163 
G01 Z-0.2000 F600.00 
G01 X63.1264 Y26.2163 
G01 X62.9339 Y26.1780 
G01 X62.7526 Y26.1029 
G01 X62.5894 Y25.9939 
G01 X62.4506 Y25.8551 
G01 X62.3416 Y25.6919 
G01 X62.2665 Y25.5106 
G01 X62.2282 Y25.3181 
G01 X62.2282 Y25.1218 
G01 X62.2665 Y24.9293 
G01 X62.3416 Y24.7480 
G01 X62.4506 Y24.5848 
G01 X62.5894 Y24.4460 
G01 X62.7526 Y24.3370 
G01 X62.9339 Y24.2619 
G01 X63.1264 Y24.2236 
G01 X65.1135 Y24.2236 
G01 X65.3060 Y24.2619 
G01 X65.4873 Y24.3370 
G01 X65.6505 Y24.4460 
G01 X65.7893 Y24.5848 
G01 X65.8983 Y24.7480 
G01 X65.9734 Y24.9293 
G01 X66.0117 Y25.1218 
G01 X66.0117 Y25.3181 
G01 X65.9734 Y25.5106 
G01 X65.8983 Y25.6919 
G01 X65.7893 Y25.8551 
G01 X65.6505 Y25.9939 
G01 X65.4873 Y26.1029 
G01 X65.3060 Y26.1780 
G01 X65.1135 Y26.2163 
G00 Z2.0000 
G00 X65.1135 Y21.2163 
G01 Z-0.2000 F600.00 
G01 X63.1264 Y21.2163 
G01 X62.9339 Y21.1780 
G01 X62.7526 Y21.1029 
G01 X62.5894 Y20.9939 
G01 X62.4506 Y20.8551 
G01 X62.3416 Y20.6919 
G01 X62.2665 Y20.5106 
G01 X62.2282 Y20.3181 
G01 X62.2282 Y20.1218 
G01 X62.2665 Y19.9293 
G01 X62.3416 Y19.7480 
G01 X62.4506 Y19.5848 
G01 X62.5894 Y19.4460 
G01 X62.7526 Y19.3370 
G01 X62.9339 Y19.2619 
G01 X63.1264 Y19.2236 
G01 X65.1135 Y19.2236 
G01 X65.3060 Y19.2619 
G01 X65.4873 Y19.3370 
G01 X65.6505 Y19.4460 
G01 X65.7893 Y19.5848 
G01 X65.8983 Y19.7480 
G01 X65.9734 Y19.9293 
G01 X66.0117 Y20.1218 
G01 X66.0117 Y20.3181 
G01 X65.9734 Y20.5106 
G01 X65.8983 Y20.6919 
G01 X65.7893 Y20.8551 
G01 X65.6505 Y20.9939 
G01 X65.4873 Y21.1029 
G01 X65.3060 Y21.1780 
G01 X65.1135 Y21.2163 
G00 Z2.0000 
G00 X62.7526 Y16.1029 
G01 Z-0.2000 F600.00 
G01 X62.5894 Y15.9939 
G01 X62.4506 Y15.8551 
G01 X62.3416 Y15.6919 
G01 X62.2665 Y15.5106 
G01 X62.2282 Y15.3181 
G01 X62.2282 Y15.1218 
G01 X62.2665 Y14.9293 
G01 X62.3416 Y14.7480 
G01 X62.4506 Y14.5848 
G01 X62.5894 Y14.4460 
G01 X62.7526 Y14.3370 
G01 X62.7948 Y14.3196 
G01 X62.9058 Y14.1688 
G01 X63.0852 Y13.9918 
G01 X63.2900 Y13.8451 
G01 X63.5153 Y13.7322 
G01 X63.7555 Y13.6559 
G01 X64.0046 Y13.6182 
G01 X64.2567 Y13.6199 
G01 X64.5053 Y13.6610 
G01 X64.7445 Y13.7404 
G01 X64.9682 Y13.8563 
G01 X65.4488 Y14.2105 
G01 X65.5429 Y14.2788 
G01 X65.5465 Y14.2825 
G01 X65.5511 Y14.2858 
G01 X65.6399 Y14.3759 
G01 X69.0429 Y17.7788 
G01 X69.2211 Y17.9570 
G01 X69.3692 Y18.1608 
G01 X69.4836 Y18.3854 
G01 X69.5615 Y18.6250 
G01 X69.6009 Y18.8739 
G01 X69.6009 Y31.3739 
G01 X69.6009 Y31.6260 
G01 X69.5615 Y31.8749 
G01 X69.4836 Y32.1145 
G01 X69.3692 Y32.3391 
G01 X69.2211 Y32.5429 
G01 X65.6626 Y36.1013 
G01 X65.6068 Y36.1635 
G01 X65.5733 Y36.1906 
G01 X65.5429 Y36.2211 
G01 X65.4751 Y36.2703 
G01 X65.4111 Y36.3223 
G01 X65.3743 Y36.3436 
G01 X65.3391 Y36.3692 
G01 X65.2645 Y36.4072 
G01 X64.8131 Y36.6686 
G01 X64.5779 Y36.7592 
G01 X64.3315 Y36.8119 
G01 X64.0798 Y36.8253 
G01 X63.8291 Y36.7993 
G01 X63.5857 Y36.7344 
G01 X63.3553 Y36.6322 
G01 X63.1438 Y36.4952 
G01 X62.9564 Y36.3268 
G01 X62.7976 Y36.1311 
G01 X62.7903 Y36.1185 
G01 X62.7526 Y36.1029 
G01 X62.5894 Y35.9939 
G01 X62.4506 Y35.8551 
G01 X62.3416 Y35.6919 
G01 X62.2665 Y35.5106 
G01 X62.2282 Y35.3181 
G01 X62.2282 Y35.1218 
G01 X62.2665 Y34.9293 
G01 X62.3416 Y34.7480 
G01 X62.4506 Y34.5848 
G01 X62.5894 Y34.4460 
G01 X62.7526 Y34.3370 
G01 X62.7960 Y34.3191 
G01 X62.8447 Y34.2438 
G01 X63.0131 Y34.0564 
G01 X63.2088 Y33.8976 
G01 X63.5163 Y33.7196 
G01 X66.3990 Y30.8368 
G01 X66.3990 Y19.6631 
G01 X63.4534 Y16.7174 
G01 X63.0688 Y16.4341 
G01 X62.8918 Y16.2547 
G01 X62.7960 Y16.1208 
G01 X62.7526 Y16.1029 
G00 Z2.0000 
G00 X63.5009 Y9.0798 
G01 Z-0.2000 F600.00 
G01 X63.5009 Y10.9201 
G01 X63.4855 Y10.9572 
G01 X63.4572 Y10.9855 
G01 X63.4201 Y11.0009 
G01 X61.7798 Y11.0009 
G01 X61.7427 Y10.9855 
G01 X61.7144 Y10.9572 
G01 X61.6990 Y10.9201 
G01 X61.6990 Y10.3509 
G01 X55.9537 Y10.3509 
G01 X55.8645 Y10.3270 
G01 X55.7844 Y10.2808 
G01 X55.7191 Y10.2155 
G01 X55.6729 Y10.1354 
G01 X55.6490 Y10.0462 
G01 X55.6490 Y9.9537 
G01 X55.6490 Y8.6454 
G01 X54.0727 Y7.0691 
G01 X53.5710 Y7.0691 
G01 X53.0208 Y6.5189 
G01 X53.0208 Y5.7410 
G01 X53.5710 Y5.1908 
G01 X54.3489 Y5.1908 
G01 X54.8991 Y5.7410 
G01 X54.8991 Y6.5189 
G01 X54.7071 Y6.7108 
G01 X56.2808 Y8.2844 
G01 X56.3270 Y8.3645 
G01 X56.3509 Y8.4537 
G01 X56.3509 Y8.5462 
G01 X56.3509 Y9.6490 
G01 X61.6990 Y9.6490 
G01 X61.6990 Y9.0798 
G01 X61.7144 Y9.0427 
G01 X61.7427 Y9.0144 
G01 X61.7798 Y8.9990 
G01 X62.6490 Y8.9990 
G01 X62.6490 Y8.5463 
G01 X62.6490 Y8.5462 
G01 X62.6490 Y8.4537 
G01 X62.6729 Y8.3645 
G01 X62.7191 Y8.2844 
G01 X62.7844 Y8.2191 
G01 X62.8645 Y8.1729 
G01 X62.9537 Y8.1490 
G01 X66.5462 Y8.1490 
G01 X66.6354 Y8.1729 
G01 X66.7155 Y8.2191 
G01 X66.7808 Y8.2844 
G01 X67.2808 Y8.7844 
G01 X67.3270 Y8.8645 
G01 X67.3509 Y8.9537 
G01 X67.3509 Y9.0462 
G01 X67.3509 Y11.5462 
G01 X67.3270 Y11.6354 
G01 X67.2808 Y11.7155 
G01 X67.2155 Y11.7808 
G01 X67.1354 Y11.8270 
G01 X67.0462 Y11.8509 
G01 X66.9537 Y11.8509 
G01 X65.1454 Y11.8509 
G01 X62.7155 Y14.2808 
G01 X62.6354 Y14.3270 
G01 X62.5462 Y14.3509 
G01 X62.4537 Y14.3509 
G01 X58.6453 Y14.3509 
G01 X58.6453 Y14.4345 
G01 X58.6299 Y14.4716 
G01 X58.6016 Y14.4999 
G01 X58.5645 Y14.5153 
G01 X56.5430 Y14.5153 
G01 X56.5059 Y14.4999 
G01 X56.4776 Y14.4716 
G01 X56.4622 Y14.4345 
G01 X56.4622 Y13.8354 
G01 X56.4776 Y13.7983 
G01 X56.5059 Y13.7700 
G01 X56.5430 Y13.7546 
G01 X57.5991 Y13.7546 
G01 X57.8593 Y13.6759 
G01 X57.8645 Y13.6729 
G01 X57.9058 Y13.6619 
G01 X57.9425 Y13.6507 
G01 X57.9479 Y13.6506 
G01 X57.9537 Y13.6490 
G01 X57.9958 Y13.6490 
G01 X58.0349 Y13.6477 
G01 X58.0403 Y13.6490 
G01 X62.3545 Y13.6490 
G01 X64.7191 Y11.2844 
G01 X64.7844 Y11.2191 
G01 X64.8645 Y11.1729 
G01 X64.9537 Y11.1490 
G01 X66.6490 Y11.1490 
G01 X66.6490 Y9.1454 
G01 X66.3545 Y8.8509 
G01 X63.3509 Y8.8509 
G01 X63.3509 Y8.9990 
G01 X63.4201 Y8.9990 
G01 X63.4572 Y9.0144 
G01 X63.4855 Y9.0427 
G01 X63.5009 Y9.0798 
G00 Z2.0000 
G00 X25.1608 Y8.7907 
G01 Z-0.2000 F600.00 
G01 X25.1608 Y6.9292 
G01 X25.1969 Y6.7478 
G01 X25.2677 Y6.5769 
G01 X25.3705 Y6.4231 
G01 X25.5013 Y6.2923 
G01 X25.6551 Y6.1895 
G01 X25.8260 Y6.1187 
G01 X26.0074 Y6.0826 
G01 X26.1925 Y6.0826 
G01 X26.3739 Y6.1187 
G01 X26.5448 Y6.1895 
G01 X26.6986 Y6.2923 
G01 X26.8294 Y6.4231 
G01 X26.9322 Y6.5769 
G01 X27.0030 Y6.7478 
G01 X27.0391 Y6.9292 
G01 X27.0391 Y8.7907 
G01 X27.0030 Y8.9721 
G01 X26.9322 Y9.1430 
G01 X26.8294 Y9.2968 
G01 X26.6986 Y9.4276 
G01 X26.5448 Y9.5304 
G01 X26.3739 Y9.6012 
G01 X26.1925 Y9.6373 
G01 X26.0074 Y9.6373 
G01 X25.8260 Y9.6012 
G01 X25.6551 Y9.5304 
G01 X25.5013 Y9.4276 
G01 X25.3705 Y9.2968 
G01 X25.2677 Y9.1430 
G01 X25.1969 Y8.9721 
G01 X25.1608 Y8.7907 
G00 Z2.0000 
G00 X35.7912 Y12.5421 
G01 Z-0.2000 F600.00 
G01 X34.8076 Y12.5421 
G01 X30.6009 Y16.7489 
G01 X30.6009 Y42.5592 
G01 X30.5778 Y42.6753 
G01 X30.5325 Y42.7846 
G01 X30.4667 Y42.8831 
G01 X30.3831 Y42.9667 
G01 X28.1009 Y45.2488 
G01 X28.1009 Y46.4201 
G01 X28.0855 Y46.4572 
G01 X28.0572 Y46.4855 
G01 X28.0201 Y46.5009 
G01 X27.3318 Y46.5009 
G01 X27.2846 Y46.5325 
G01 X27.1753 Y46.5778 
G01 X27.0592 Y46.6009 
G01 X26.9407 Y46.6009 
G01 X23.0592 Y46.6009 
G01 X22.9407 Y46.6009 
G01 X22.8246 Y46.5778 
G01 X22.7153 Y46.5325 
G01 X22.6680 Y46.5009 
G01 X22.0798 Y46.5009 
G01 X22.0427 Y46.4855 
G01 X22.0144 Y46.4572 
G01 X21.9990 Y46.4201 
G01 X21.9990 Y44.7798 
G01 X22.0144 Y44.7427 
G01 X22.0427 Y44.7144 
G01 X22.0798 Y44.6990 
G01 X23.9201 Y44.6990 
G01 X23.9572 Y44.7144 
G01 X23.9855 Y44.7427 
G01 X24.0009 Y44.7798 
G01 X24.0009 Y45.3990 
G01 X25.8990 Y45.3990 
G01 X25.8990 Y44.7798 
G01 X25.9144 Y44.7427 
G01 X25.9427 Y44.7144 
G01 X25.9798 Y44.6990 
G01 X26.9511 Y44.6990 
G01 X29.3990 Y42.2510 
G01 X29.3990 Y16.5592 
G01 X29.3990 Y16.4407 
G01 X29.4221 Y16.3246 
G01 X29.4674 Y16.2153 
G01 X29.5332 Y16.1168 
G01 X33.5592 Y12.0909 
G01 X33.5078 Y11.9669 
G01 X33.4766 Y11.8100 
G01 X33.4766 Y11.6499 
G01 X33.5078 Y11.4930 
G01 X33.5690 Y11.3452 
G01 X33.6579 Y11.2122 
G01 X33.7710 Y11.0991 
G01 X33.9040 Y11.0102 
G01 X34.0518 Y10.9490 
G01 X34.2087 Y10.9178 
G01 X34.8463 Y10.9178 
G01 X34.9407 Y10.8990 
G01 X35.0592 Y10.8990 
G01 X35.1536 Y10.9178 
G01 X35.7912 Y10.9178 
G01 X35.9481 Y10.9490 
G01 X36.0959 Y11.0102 
G01 X36.2289 Y11.0991 
G01 X36.3420 Y11.2122 
G01 X36.4309 Y11.3452 
G01 X36.4921 Y11.4930 
G01 X36.5233 Y11.6499 
G01 X36.5233 Y11.8100 
G01 X36.4921 Y11.9669 
G01 X36.4309 Y12.1147 
G01 X36.3420 Y12.2477 
G01 X36.2289 Y12.3608 
G01 X36.0959 Y12.4497 
G01 X35.9481 Y12.5109 
G01 X35.7912 Y12.5421 
G00 Z2.0000 
G00 X35.7912 Y15.0821 
G01 Z-0.2000 F600.00 
G01 X34.2087 Y15.0821 
G01 X34.0518 Y15.0509 
G01 X33.9040 Y14.9897 
G01 X33.7710 Y14.9008 
G01 X33.6579 Y14.7877 
G01 X33.5690 Y14.6547 
G01 X33.5078 Y14.5069 
G01 X33.4766 Y14.3500 
G01 X33.4766 Y14.1899 
G01 X33.5078 Y14.0330 
G01 X33.5690 Y13.8852 
G01 X33.6579 Y13.7522 
G01 X33.7710 Y13.6391 
G01 X33.9040 Y13.5502 
G01 X34.0518 Y13.4890 
G01 X34.2087 Y13.4578 
G01 X35.7912 Y13.4578 
G01 X35.9481 Y13.4890 
G01 X36.0959 Y13.5502 
G01 X36.2289 Y13.6391 
G01 X36.3420 Y13.7522 
G01 X36.4309 Y13.8852 
G01 X36.4921 Y14.0330 
G01 X36.5233 Y14.1899 
G01 X36.5233 Y14.3500 
G01 X36.4921 Y14.5069 
G01 X36.4309 Y14.6547 
G01 X36.3420 Y14.7877 
G01 X36.2289 Y14.9008 
G01 X36.0959 Y14.9897 
G01 X35.9481 Y15.0509 
G01 X35.7912 Y15.0821 
G00 Z2.0000 
G00 X8.2309 Y11.0520 
G01 Z-0.2000 F600.00 
G01 X8.2309 Y11.2679 
G01 X8.1971 Y11.4810 
G01 X8.1305 Y11.6862 
G01 X8.0325 Y11.8785 
G01 X7.9057 Y12.0531 
G01 X7.7531 Y12.2057 
G01 X7.5785 Y12.3325 
G01 X7.3862 Y12.4305 
G01 X7.1810 Y12.4971 
G01 X6.9679 Y12.5309 
G01 X6.7520 Y12.5309 
G01 X6.5389 Y12.4971 
G01 X6.3337 Y12.4305 
G01 X6.1414 Y12.3325 
G01 X5.9668 Y12.2057 
G01 X5.8142 Y12.0531 
G01 X5.6874 Y11.8785 
G01 X5.5894 Y11.6862 
G01 X5.5228 Y11.4810 
G01 X5.4890 Y11.2679 
G01 X5.4890 Y11.0520 
G01 X5.5228 Y10.8389 
G01 X5.5894 Y10.6337 
G01 X5.6874 Y10.4414 
G01 X5.8142 Y10.2668 
G01 X5.9668 Y10.1142 
G01 X6.1414 Y9.9874 
G01 X6.3337 Y9.8894 
G01 X6.5389 Y9.8228 
G01 X6.7520 Y9.7890 
G01 X6.9679 Y9.7890 
G01 X7.1810 Y9.8228 
G01 X7.3862 Y9.8894 
G01 X7.5785 Y9.9874 
G01 X7.7531 Y10.1142 
G01 X7.9057 Y10.2668 
G01 X8.0325 Y10.4414 
G01 X8.1305 Y10.6337 
G01 X8.1971 Y10.8389 
G01 X8.2309 Y11.0520 
G00 Z2.0000 
G00 X13.3109 Y10.5921 
G01 Z-0.2000 F600.00 
G01 X13.3109 Y11.7278 
G01 X12.5078 Y12.5309 
G01 X11.3721 Y12.5309 
G01 X11.1687 Y12.3275 
G01 X7.3509 Y16.1454 
G01 X7.3509 Y31.3875 
G01 X7.4685 Y31.4474 
G01 X7.6431 Y31.5742 
G01 X7.7957 Y31.7268 
G01 X7.9225 Y31.9014 
G01 X8.0205 Y32.0937 
G01 X8.0871 Y32.2989 
G01 X8.1209 Y32.5120 
G01 X8.1209 Y32.7279 
G01 X8.0871 Y32.9410 
G01 X8.0205 Y33.1462 
G01 X7.9225 Y33.3385 
G01 X7.7957 Y33.5131 
G01 X7.6431 Y33.6657 
G01 X7.4685 Y33.7925 
G01 X7.2762 Y33.8905 
G01 X7.0710 Y33.9571 
G01 X6.8579 Y33.9909 
G01 X6.6420 Y33.9909 
G01 X6.4289 Y33.9571 
G01 X6.2237 Y33.8905 
G01 X6.0314 Y33.7925 
G01 X5.8568 Y33.6657 
G01 X5.7042 Y33.5131 
G01 X5.5774 Y33.3385 
G01 X5.4794 Y33.1462 
G01 X5.4128 Y32.9410 
G01 X5.3790 Y32.7279 
G01 X5.3790 Y32.5120 
G01 X5.4128 Y32.2989 
G01 X5.4794 Y32.0937 
G01 X5.5774 Y31.9014 
G01 X5.7042 Y31.7268 
G01 X5.8568 Y31.5742 
G01 X6.0314 Y31.4474 
G01 X6.2237 Y31.3494 
G01 X6.4289 Y31.2828 
G01 X6.6420 Y31.2490 
G01 X6.6490 Y31.2490 
G01 X6.6490 Y15.9537 
G01 X6.6729 Y15.8645 
G01 X6.7191 Y15.7844 
G01 X6.7844 Y15.7191 
G01 X6.7845 Y15.7191 
G01 X10.6724 Y11.8312 
G01 X10.5690 Y11.7278 
G01 X10.5690 Y10.5921 
G01 X11.3721 Y9.7890 
G01 X12.5078 Y9.7890 
G01 X13.3109 Y10.5921 
G00 Z2.0000 
G00 X40.9201 Y15.3009 
G01 Z-0.2000 F600.00 
G01 X39.0798 Y15.3009 
G01 X39.0427 Y15.2855 
G01 X39.0144 Y15.2572 
G01 X38.9990 Y15.2201 
G01 X38.9990 Y14.3509 
G01 X37.0462 Y14.3509 
G01 X36.9537 Y14.3509 
G01 X36.8645 Y14.3270 
G01 X36.7844 Y14.2808 
G01 X36.7191 Y14.2155 
G01 X36.6729 Y14.1354 
G01 X36.6490 Y14.0462 
G01 X36.6490 Y11.1454 
G01 X31.3545 Y5.8509 
G01 X21.8509 Y5.8509 
G01 X21.8509 Y6.5750 
G01 X21.8522 Y6.5769 
G01 X21.9230 Y6.7478 
G01 X21.9591 Y6.9292 
G01 X21.9591 Y8.7907 
G01 X21.9230 Y8.9721 
G01 X21.8522 Y9.1430 
G01 X21.7494 Y9.2968 
G01 X21.6186 Y9.4276 
G01 X21.4648 Y9.5304 
G01 X21.2939 Y9.6012 
G01 X21.1125 Y9.6373 
G01 X20.9274 Y9.6373 
G01 X20.7460 Y9.6012 
G01 X20.5751 Y9.5304 
G01 X20.4213 Y9.4276 
G01 X20.2905 Y9.2968 
G01 X20.1877 Y9.1430 
G01 X20.1169 Y8.9721 
G01 X20.0808 Y8.7907 
G01 X20.0808 Y6.9292 
G01 X20.1169 Y6.7478 
G01 X20.1877 Y6.5769 
G01 X20.2905 Y6.4231 
G01 X20.4213 Y6.2923 
G01 X20.5751 Y6.1895 
G01 X20.7460 Y6.1187 
G01 X20.9274 Y6.0826 
G01 X21.1125 Y6.0826 
G01 X21.1490 Y6.0899 
G01 X21.1490 Y5.4537 
G01 X21.1729 Y5.3645 
G01 X21.2191 Y5.2844 
G01 X21.2844 Y5.2191 
G01 X21.3645 Y5.1729 
G01 X21.4537 Y5.1490 
G01 X21.5462 Y5.1490 
G01 X31.5462 Y5.1490 
G01 X31.6354 Y5.1729 
G01 X31.7155 Y5.2191 
G01 X31.7808 Y5.2844 
G01 X37.2808 Y10.7844 
G01 X37.3270 Y10.8645 
G01 X37.3509 Y10.9537 
G01 X37.3509 Y11.0462 
G01 X37.3509 Y13.6490 
G01 X38.9990 Y13.6490 
G01 X38.9990 Y13.5798 
G01 X39.0144 Y13.5427 
G01 X39.0427 Y13.5144 
G01 X39.0798 Y13.4990 
G01 X40.9201 Y13.4990 
G01 X40.9572 Y13.5144 
G01 X40.9855 Y13.5427 
G01 X41.0009 Y13.5798 
G01 X41.0009 Y15.2201 
G01 X40.9855 Y15.2572 
G01 X40.9572 Y15.2855 
G01 X40.9201 Y15.3009 
G00 Z2.0000 
G00 X57.9201 Y35.5009 
G01 Z-0.2000 F600.00 
G01 X56.0798 Y35.5009 
G01 X56.0427 Y35.4855 
G01 X56.0144 Y35.4572 
G01 X55.9990 Y35.4201 
G01 X55.9990 Y33.7798 
G01 X56.0144 Y33.7427 
G01 X56.0427 Y33.7144 
G01 X56.0798 Y33.6990 
G01 X57.3045 Y33.6990 
G01 X57.6490 Y33.3545 
G01 X57.6490 Y32.4978 
G01 X57.6117 Y32.4730 
G01 X57.5269 Y32.3882 
G01 X57.4603 Y32.2884 
G01 X57.4144 Y32.1776 
G01 X57.3910 Y32.0600 
G01 X57.3910 Y31.9399 
G01 X57.4144 Y31.8223 
G01 X57.4603 Y31.7115 
G01 X57.5269 Y31.6117 
G01 X57.6117 Y31.5269 
G01 X57.7115 Y31.4603 
G01 X57.8223 Y31.4144 
G01 X57.9399 Y31.3910 
G01 X58.0600 Y31.3910 
G01 X58.1776 Y31.4144 
G01 X58.2884 Y31.4603 
G01 X58.3882 Y31.5269 
G01 X58.4730 Y31.6117 
G01 X58.5396 Y31.7115 
G01 X58.5855 Y31.8223 
G01 X58.6089 Y31.9399 
G01 X58.6089 Y32.0600 
G01 X58.5855 Y32.1776 
G01 X58.5396 Y32.2884 
G01 X58.4730 Y32.3882 
G01 X58.3882 Y32.4730 
G01 X58.3509 Y32.4978 
G01 X58.3509 Y33.5462 
G01 X58.3270 Y33.6354 
G01 X58.2808 Y33.7155 
G01 X58.2155 Y33.7808 
G01 X58.0009 Y33.9954 
G01 X58.0009 Y35.4201 
G01 X57.9855 Y35.4572 
G01 X57.9572 Y35.4855 
G01 X57.9201 Y35.5009 
G00 Z2.0000 
G00 X57.9201 Y28.5009 
G01 Z-0.2000 F600.00 
G01 X56.0798 Y28.5009 
G01 X56.0427 Y28.4855 
G01 X56.0144 Y28.4572 
G01 X55.9990 Y28.4201 
G01 X55.9990 Y26.7798 
G01 X56.0144 Y26.7427 
G01 X56.0427 Y26.7144 
G01 X56.0798 Y26.6990 
G01 X56.3990 Y26.6990 
G01 X56.3990 Y25.4979 
G01 X56.3617 Y25.4730 
G01 X56.2769 Y25.3882 
G01 X56.2103 Y25.2884 
G01 X56.1644 Y25.1776 
G01 X56.1410 Y25.0600 
G01 X56.1410 Y24.9399 
G01 X56.1644 Y24.8223 
G01 X56.2103 Y24.7115 
G01 X56.2769 Y24.6117 
G01 X56.3617 Y24.5269 
G01 X56.4615 Y24.4603 
G01 X56.5723 Y24.4144 
G01 X56.6899 Y24.3910 
G01 X56.8100 Y24.3910 
G01 X56.8502 Y24.3990 
G01 X57.0592 Y24.3990 
G01 X57.1753 Y24.4221 
G01 X57.2846 Y24.4674 
G01 X57.3831 Y24.5332 
G01 X57.4667 Y24.6168 
G01 X57.5325 Y24.7153 
G01 X57.5778 Y24.8246 
G01 X57.6009 Y24.9407 
G01 X57.6009 Y25.0592 
G01 X57.6009 Y26.6990 
G01 X57.9201 Y26.6990 
G01 X57.9572 Y26.7144 
G01 X57.9855 Y26.7427 
G01 X58.0009 Y26.7798 
G01 X58.0009 Y28.4201 
G01 X57.9855 Y28.4572 
G01 X57.9572 Y28.4855 
G01 X57.9201 Y28.5009 
G00 Z2.0000 
G00 X57.9201 Y31.3009 
G01 Z-0.2000 F600.00 
G01 X57.0489 Y31.3009 
G01 X55.6009 Y32.7489 
G01 X55.6009 Y35.2510 
G01 X56.8489 Y36.4990 
G01 X57.9201 Y36.4990 
G01 X57.9572 Y36.5144 
G01 X57.9855 Y36.5427 
G01 X58.0009 Y36.5798 
G01 X58.0009 Y36.8990 
G01 X58.0592 Y36.8990 
G01 X58.1753 Y36.9221 
G01 X58.2846 Y36.9674 
G01 X58.3831 Y37.0332 
G01 X58.4667 Y37.1168 
G01 X66.0488 Y44.6990 
G01 X67.0201 Y44.6990 
G01 X67.0572 Y44.7144 
G01 X67.0855 Y44.7427 
G01 X67.1009 Y44.7798 
G01 X67.1009 Y46.4201 
G01 X67.0855 Y46.4572 
G01 X67.0572 Y46.4855 
G01 X67.0201 Y46.5009 
G01 X64.9798 Y46.5009 
G01 X64.9427 Y46.4855 
G01 X64.9144 Y46.4572 
G01 X64.8990 Y46.4201 
G01 X64.8990 Y45.2488 
G01 X57.9420 Y38.2918 
G01 X57.9201 Y38.3009 
G01 X56.5488 Y38.3009 
G01 X55.6009 Y39.2489 
G01 X55.6009 Y44.6990 
G01 X56.0201 Y44.6990 
G01 X56.0572 Y44.7144 
G01 X56.0855 Y44.7427 
G01 X56.1009 Y44.7798 
G01 X56.1009 Y46.4201 
G01 X56.0855 Y46.4572 
G01 X56.0572 Y46.4855 
G01 X56.0201 Y46.5009 
G01 X53.9798 Y46.5009 
G01 X53.9427 Y46.4855 
G01 X53.9144 Y46.4572 
G01 X53.8990 Y46.4201 
G01 X53.8990 Y44.7798 
G01 X53.9144 Y44.7427 
G01 X53.9427 Y44.7144 
G01 X53.9798 Y44.6990 
G01 X54.3990 Y44.6990 
G01 X54.3990 Y38.9407 
G01 X54.4221 Y38.8246 
G01 X54.4674 Y38.7153 
G01 X54.5332 Y38.6168 
G01 X54.6168 Y38.5332 
G01 X54.6169 Y38.5332 
G01 X55.9001 Y37.2500 
G01 X54.5332 Y35.8831 
G01 X54.4674 Y35.7846 
G01 X54.4221 Y35.6753 
G01 X54.3990 Y35.5592 
G01 X54.3990 Y35.4407 
G01 X54.3990 Y32.4407 
G01 X54.4221 Y32.3246 
G01 X54.4674 Y32.2153 
G01 X54.5332 Y32.1168 
G01 X54.6168 Y32.0332 
G01 X55.9001 Y30.7499 
G01 X55.1168 Y29.9667 
G01 X55.0332 Y29.8831 
G01 X54.9674 Y29.7846 
G01 X54.9221 Y29.6753 
G01 X54.8990 Y29.5592 
G01 X54.8990 Y29.2489 
G01 X54.8960 Y29.2458 
G01 X54.8617 Y29.2230 
G01 X54.7769 Y29.1382 
G01 X54.7103 Y29.0384 
G01 X54.6644 Y28.9276 
G01 X54.6410 Y28.8100 
G01 X54.6410 Y28.6899 
G01 X54.6644 Y28.5723 
G01 X54.7103 Y28.4615 
G01 X54.7769 Y28.3617 
G01 X54.8617 Y28.2769 
G01 X54.9615 Y28.2103 
G01 X55.0723 Y28.1644 
G01 X55.1899 Y28.1410 
G01 X55.3100 Y28.1410 
G01 X55.4276 Y28.1644 
G01 X55.5384 Y28.2103 
G01 X55.6382 Y28.2769 
G01 X55.7230 Y28.3617 
G01 X55.7458 Y28.3960 
G01 X55.9667 Y28.6168 
G01 X56.0325 Y28.7153 
G01 X56.0778 Y28.8246 
G01 X56.1009 Y28.9407 
G01 X56.1009 Y29.0592 
G01 X56.1009 Y29.2510 
G01 X56.3489 Y29.4990 
G01 X57.9201 Y29.4990 
G01 X57.9572 Y29.5144 
G01 X57.9855 Y29.5427 
G01 X58.0009 Y29.5798 
G01 X58.0009 Y31.2201 
G01 X57.9855 Y31.2572 
G01 X57.9572 Y31.2855 
G01 X57.9201 Y31.3009 
G00 Z2.0000 
G00 X51.6490 Y36.3201 
G01 Z-0.2000 F600.00 
G01 X51.6490 Y33.6798 
G01 X51.6644 Y33.6427 
G01 X51.6927 Y33.6144 
G01 X51.7298 Y33.5990 
G01 X53.2701 Y33.5990 
G01 X53.3072 Y33.6144 
G01 X53.3355 Y33.6427 
G01 X53.3509 Y33.6798 
G01 X53.3509 Y36.3201 
G01 X53.3407 Y36.3444 
G01 X53.9066 Y36.9102 
G01 X53.9276 Y36.9144 
G01 X54.0384 Y36.9603 
G01 X54.1382 Y37.0269 
G01 X54.2230 Y37.1117 
G01 X54.2896 Y37.2115 
G01 X54.3355 Y37.3223 
G01 X54.3589 Y37.4399 
G01 X54.3589 Y37.5600 
G01 X54.3355 Y37.6776 
G01 X54.2896 Y37.7884 
G01 X54.2230 Y37.8882 
G01 X54.1382 Y37.9730 
G01 X54.0384 Y38.0396 
G01 X53.9276 Y38.0855 
G01 X53.8100 Y38.1089 
G01 X53.6899 Y38.1089 
G01 X53.5723 Y38.0855 
G01 X53.4615 Y38.0396 
G01 X53.3617 Y37.9730 
G01 X53.2769 Y37.8882 
G01 X53.2103 Y37.7884 
G01 X53.1644 Y37.6776 
G01 X53.1410 Y37.5600 
G01 X53.1410 Y37.4399 
G01 X53.1644 Y37.3223 
G01 X53.2103 Y37.2115 
G01 X53.2123 Y37.2086 
G01 X52.4045 Y36.4009 
G01 X51.7298 Y36.4009 
G01 X51.6927 Y36.3855 
G01 X51.6644 Y36.3572 
G01 X51.6490 Y36.3201 
G00 Z2.0000 
G00 X49.6798 Y47.6490 
G01 Z-0.2000 F600.00 
G01 X52.3201 Y47.6490 
G01 X52.3572 Y47.6644 
G01 X52.3855 Y47.6927 
G01 X52.4009 Y47.7298 
G01 X52.4009 Y49.2701 
G01 X52.3855 Y49.3072 
G01 X52.3572 Y49.3355 
G01 X52.3201 Y49.3509 
G01 X51.3509 Y49.3509 
G01 X51.3509 Y49.5020 
G01 X51.3882 Y49.5269 
G01 X51.4730 Y49.6117 
G01 X51.5396 Y49.7115 
G01 X51.5855 Y49.8223 
G01 X51.6089 Y49.9399 
G01 X51.6089 Y50.0600 
G01 X51.5855 Y50.1776 
G01 X51.5396 Y50.2884 
G01 X51.4730 Y50.3882 
G01 X51.3882 Y50.4730 
G01 X51.2884 Y50.5396 
G01 X51.1776 Y50.5855 
G01 X51.0600 Y50.6089 
G01 X50.9399 Y50.6089 
G01 X50.8223 Y50.5855 
G01 X50.7115 Y50.5396 
G01 X50.6117 Y50.4730 
G01 X50.5269 Y50.3882 
G01 X50.4603 Y50.2884 
G01 X50.4144 Y50.1776 
G01 X50.3910 Y50.0600 
G01 X50.3910 Y49.9399 
G01 X50.4144 Y49.8223 
G01 X50.4603 Y49.7115 
G01 X50.5269 Y49.6117 
G01 X50.6117 Y49.5269 
G01 X50.6490 Y49.5020 
G01 X50.6490 Y49.3509 
G01 X49.6798 Y49.3509 
G01 X49.6427 Y49.3355 
G01 X49.6144 Y49.3072 
G01 X49.5990 Y49.2701 
G01 X49.5990 Y47.7298 
G01 X49.6144 Y47.6927 
G01 X49.6427 Y47.6644 
G01 X49.6798 Y47.6490 
G00 Z2.0000 
G00 X52.3201 Y46.3509 
G01 Z-0.2000 F600.00 
G01 X49.6798 Y46.3509 
G01 X49.6427 Y46.3355 
G01 X49.6144 Y46.3072 
G01 X49.5990 Y46.2701 
G01 X49.5990 Y45.8509 
G01 X48.1009 Y45.8509 
G01 X48.1009 Y46.4201 
G01 X48.0855 Y46.4572 
G01 X48.0572 Y46.4855 
G01 X48.0201 Y46.5009 
G01 X45.9798 Y46.5009 
G01 X45.9427 Y46.4855 
G01 X45.9144 Y46.4572 
G01 X45.8990 Y46.4201 
G01 X45.8990 Y44.7798 
G01 X45.9144 Y44.7427 
G01 X45.9427 Y44.7144 
G01 X45.9798 Y44.6990 
G01 X48.0201 Y44.6990 
G01 X48.0572 Y44.7144 
G01 X48.0855 Y44.7427 
G01 X48.1009 Y44.7798 
G01 X48.1009 Y45.1490 
G01 X49.5990 Y45.1490 
G01 X49.5990 Y44.7298 
G01 X49.6144 Y44.6927 
G01 X49.6427 Y44.6644 
G01 X49.6798 Y44.6490 
G01 X52.3201 Y44.6490 
G01 X52.3572 Y44.6644 
G01 X52.3855 Y44.6927 
G01 X52.4009 Y44.7298 
G01 X52.4009 Y46.2701 
G01 X52.3855 Y46.3072 
G01 X52.3572 Y46.3355 
G01 X52.3201 Y46.3509 
G00 Z2.0000 
G00 X66.1002 Y36.8961 
G01 Z-0.2000 F600.00 
G01 X66.1089 Y36.9399 
G01 X66.1089 Y37.0600 
G01 X66.0855 Y37.1776 
G01 X66.0396 Y37.2884 
G01 X65.9730 Y37.3882 
G01 X65.8882 Y37.4730 
G01 X65.7884 Y37.5396 
G01 X65.6776 Y37.5855 
G01 X65.5600 Y37.6089 
G01 X65.4399 Y37.6089 
G01 X65.3223 Y37.5855 
G01 X65.2115 Y37.5396 
G01 X65.1117 Y37.4730 
G01 X65.0269 Y37.3882 
G01 X64.9603 Y37.2884 
G01 X64.9144 Y37.1776 
G01 X64.8910 Y37.0600 
G01 X64.8910 Y36.9399 
G01 X64.9144 Y36.8223 
G01 X64.9603 Y36.7115 
G01 X65.0269 Y36.6117 
G01 X65.1117 Y36.5269 
G01 X65.2115 Y36.4603 
G01 X65.3223 Y36.4144 
G01 X65.4399 Y36.3910 
G01 X65.5600 Y36.3910 
G01 X65.6038 Y36.3997 
G01 X66.9102 Y35.0933 
G01 X66.9144 Y35.0723 
G01 X66.9603 Y34.9615 
G01 X67.0269 Y34.8617 
G01 X67.1117 Y34.7769 
G01 X67.2115 Y34.7103 
G01 X67.3223 Y34.6644 
G01 X67.4399 Y34.6410 
G01 X67.5600 Y34.6410 
G01 X67.6776 Y34.6644 
G01 X67.7884 Y34.7103 
G01 X67.8882 Y34.7769 
G01 X67.9730 Y34.8617 
G01 X68.0396 Y34.9615 
G01 X68.0855 Y35.0723 
G01 X68.1089 Y35.1899 
G01 X68.1089 Y35.3100 
G01 X68.0855 Y35.4276 
G01 X68.0396 Y35.5384 
G01 X67.9730 Y35.6382 
G01 X67.8882 Y35.7230 
G01 X67.7884 Y35.7896 
G01 X67.6776 Y35.8355 
G01 X67.5600 Y35.8589 
G01 X67.4399 Y35.8589 
G01 X67.3223 Y35.8355 
G01 X67.2115 Y35.7896 
G01 X67.2086 Y35.7876 
G01 X66.1002 Y36.8961 
G00 Z2.0000 
G00 X67.3961 Y14.6497 
G01 Z-0.2000 F600.00 
G01 X67.4399 Y14.6410 
G01 X67.5600 Y14.6410 
G01 X67.6776 Y14.6644 
G01 X67.7884 Y14.7103 
G01 X67.8882 Y14.7769 
G01 X67.9730 Y14.8617 
G01 X68.0396 Y14.9615 
G01 X68.0855 Y15.0723 
G01 X68.1089 Y15.1899 
G01 X68.1089 Y15.3100 
G01 X68.0855 Y15.4276 
G01 X68.0396 Y15.5384 
G01 X67.9730 Y15.6382 
G01 X67.8882 Y15.7230 
G01 X67.7884 Y15.7896 
G01 X67.6776 Y15.8355 
G01 X67.5600 Y15.8589 
G01 X67.4399 Y15.8589 
G01 X67.3223 Y15.8355 
G01 X67.2115 Y15.7896 
G01 X67.1117 Y15.7230 
G01 X67.0269 Y15.6382 
G01 X66.9603 Y15.5384 
G01 X66.9144 Y15.4276 
G01 X66.8910 Y15.3100 
G01 X66.8910 Y15.1899 
G01 X66.8997 Y15.1461 
G01 X65.3538 Y13.6002 
G01 X65.3100 Y13.6089 
G01 X65.1899 Y13.6089 
G01 X65.0723 Y13.5855 
G01 X64.9615 Y13.5396 
G01 X64.8617 Y13.4730 
G01 X64.7769 Y13.3882 
G01 X64.7103 Y13.2884 
G01 X64.6644 Y13.1776 
G01 X64.6410 Y13.0600 
G01 X64.6410 Y12.9399 
G01 X64.6644 Y12.8223 
G01 X64.7103 Y12.7115 
G01 X64.7769 Y12.6117 
G01 X64.8617 Y12.5269 
G01 X64.9615 Y12.4603 
G01 X65.0723 Y12.4144 
G01 X65.1899 Y12.3910 
G01 X65.3100 Y12.3910 
G01 X65.4276 Y12.4144 
G01 X65.5384 Y12.4603 
G01 X65.6382 Y12.5269 
G01 X65.7230 Y12.6117 
G01 X65.7896 Y12.7115 
G01 X65.8355 Y12.8223 
G01 X65.8589 Y12.9399 
G01 X65.8589 Y13.0600 
G01 X65.8502 Y13.1038 
G01 X67.3961 Y14.6497 
G00 Z2.0000 
G00 X54.9407 Y14.8990 
G01 Z-0.2000 F600.00 
G01 X55.1497 Y14.8990 
G01 X55.1899 Y14.8910 
G01 X55.3100 Y14.8910 
G01 X55.3502 Y14.8990 
G01 X57.2253 Y14.8990 
G01 X57.2306 Y14.8948 
G01 X57.3363 Y14.8416 
G01 X57.4504 Y14.8100 
G01 X57.5685 Y14.8013 
G01 X57.6860 Y14.8157 
G01 X57.7984 Y14.8529 
G01 X57.9014 Y14.9112 
G01 X57.9910 Y14.9885 
G01 X58.0192 Y15.0246 
G01 X58.5645 Y15.0246 
G01 X58.6016 Y15.0400 
G01 X58.6299 Y15.0683 
G01 X58.6453 Y15.1054 
G01 X58.6453 Y15.7045 
G01 X58.6299 Y15.7416 
G01 X58.6016 Y15.7699 
G01 X58.5645 Y15.7853 
G01 X58.0320 Y15.7853 
G01 X58.0119 Y15.8153 
G01 X57.9937 Y15.8476 
G01 X57.9791 Y15.8644 
G01 X57.9667 Y15.8831 
G01 X57.9403 Y15.9095 
G01 X57.9164 Y15.9372 
G01 X57.8990 Y15.9507 
G01 X57.8831 Y15.9667 
G01 X57.8524 Y15.9872 
G01 X57.8231 Y16.0101 
G01 X57.8029 Y16.0202 
G01 X57.7846 Y16.0325 
G01 X57.7506 Y16.0466 
G01 X57.7174 Y16.0633 
G01 X57.6959 Y16.0692 
G01 X57.6753 Y16.0778 
G01 X57.6388 Y16.0850 
G01 X57.6033 Y16.0949 
G01 X57.5811 Y16.0965 
G01 X57.5592 Y16.1009 
G01 X57.5219 Y16.1009 
G01 X57.4852 Y16.1036 
G01 X57.4632 Y16.1009 
G01 X55.3502 Y16.1009 
G01 X55.3100 Y16.1089 
G01 X55.1899 Y16.1089 
G01 X55.1497 Y16.1009 
G01 X54.9407 Y16.1009 
G01 X54.8246 Y16.0778 
G01 X54.7153 Y16.0325 
G01 X54.6168 Y15.9667 
G01 X54.5332 Y15.8831 
G01 X54.4674 Y15.7846 
G01 X54.4221 Y15.6753 
G01 X54.3990 Y15.5592 
G01 X54.3990 Y15.4407 
G01 X54.4221 Y15.3246 
G01 X54.4674 Y15.2153 
G01 X54.5332 Y15.1168 
G01 X54.6168 Y15.0332 
G01 X54.7153 Y14.9674 
G01 X54.8246 Y14.9221 
G01 X54.9407 Y14.8990 
G00 Z2.0000 
G00 X32.6250 Y33.9384 
G01 Z-0.2000 F600.00 
G01 X32.6537 Y33.9339 
G01 X32.6812 Y33.9260 
G01 X32.7776 Y33.9143 
G01 X32.8739 Y33.8990 
G01 X32.9027 Y33.8990 
G01 X32.9314 Y33.8955 
G01 X33.0294 Y33.8990 
G01 X33.3990 Y33.8990 
G01 X33.3990 Y33.8739 
G01 X33.4384 Y33.6250 
G01 X33.5163 Y33.3854 
G01 X33.6307 Y33.1608 
G01 X33.7788 Y32.9570 
G01 X33.9570 Y32.7788 
G01 X34.1608 Y32.6307 
G01 X34.3854 Y32.5163 
G01 X34.6250 Y32.4384 
G01 X34.8739 Y32.3990 
G01 X35.1260 Y32.3990 
G01 X35.3749 Y32.4384 
G01 X35.6145 Y32.5163 
G01 X35.8391 Y32.6307 
G01 X36.0429 Y32.7788 
G01 X36.2211 Y32.9570 
G01 X36.2549 Y33.0036 
G01 X36.3413 Y33.0718 
G01 X36.5121 Y33.2570 
G01 X36.6519 Y33.4667 
G01 X36.7572 Y33.6957 
G01 X36.8253 Y33.9383 
G01 X36.8547 Y34.1885 
G01 X36.8445 Y34.4404 
G01 X36.5762 Y35.7820 
G01 X36.5615 Y35.8749 
G01 X36.5514 Y35.9058 
G01 X36.5451 Y35.9375 
G01 X36.5126 Y36.0252 
G01 X36.4836 Y36.1145 
G01 X36.4688 Y36.1435 
G01 X36.4576 Y36.1738 
G01 X36.4118 Y36.2554 
G01 X36.3692 Y36.3391 
G01 X36.3502 Y36.3651 
G01 X36.3343 Y36.3936 
G01 X36.2755 Y36.4679 
G01 X36.2211 Y36.5429 
G01 X36.1984 Y36.5655 
G01 X36.1781 Y36.5913 
G01 X36.1085 Y36.6554 
G01 X36.0429 Y36.7211 
G01 X36.0168 Y36.7400 
G01 X35.9929 Y36.7621 
G01 X35.9150 Y36.8140 
G01 X35.8391 Y36.8692 
G01 X35.8101 Y36.8839 
G01 X35.7832 Y36.9019 
G01 X35.6976 Y36.9412 
G01 X35.6145 Y36.9836 
G01 X35.5839 Y36.9935 
G01 X35.5542 Y37.0072 
G01 X35.4640 Y37.0325 
G01 X35.3749 Y37.0615 
G01 X35.3425 Y37.0666 
G01 X35.3116 Y37.0753 
G01 X35.2187 Y37.0862 
G01 X35.1260 Y37.1009 
G01 X35.0938 Y37.1009 
G01 X35.0614 Y37.1047 
G01 X34.9674 Y37.1009 
G01 X34.8739 Y37.1009 
G01 X33.2242 Y37.1009 
G01 X32.9687 Y37.1739 
G01 X32.7185 Y37.2044 
G01 X32.4666 Y37.1954 
G01 X32.2193 Y37.1470 
G01 X31.9826 Y37.0606 
G01 X31.7623 Y36.9383 
G01 X31.5639 Y36.7829 
G01 X31.3922 Y36.5985 
G01 X31.2515 Y36.3894 
G01 X31.1452 Y36.1609 
G01 X31.0760 Y35.9187 
G01 X31.0455 Y35.6685 
G01 X31.0545 Y35.4166 
G01 X31.1029 Y35.1693 
G01 X31.1893 Y34.9326 
G01 X31.3116 Y34.7123 
G01 X31.4670 Y34.5139 
G01 X31.6514 Y34.3422 
G01 X31.8605 Y34.2015 
G01 X32.0890 Y34.0952 
G01 X32.5323 Y33.9686 
G01 X32.6250 Y33.9384 
G00 Z2.0000 
G00 X48.8954 Y37.8990 
G01 Z-0.2000 F600.00 
G01 X50.4201 Y37.8990 
G01 X50.4572 Y37.9144 
G01 X50.4855 Y37.9427 
G01 X50.5009 Y37.9798 
G01 X50.5009 Y40.0201 
G01 X50.4855 Y40.0572 
G01 X50.4572 Y40.0855 
G01 X50.4201 Y40.1009 
G01 X48.7798 Y40.1009 
G01 X48.7427 Y40.0855 
G01 X48.7144 Y40.0572 
G01 X48.6990 Y40.0201 
G01 X48.6990 Y38.6954 
G01 X48.0933 Y38.0897 
G01 X48.0723 Y38.0855 
G01 X47.9615 Y38.0396 
G01 X47.8617 Y37.9730 
G01 X47.7769 Y37.8882 
G01 X47.7103 Y37.7884 
G01 X47.6644 Y37.6776 
G01 X47.6410 Y37.5600 
G01 X47.6410 Y37.4399 
G01 X47.6644 Y37.3223 
G01 X47.7103 Y37.2115 
G01 X47.7769 Y37.1117 
G01 X47.8617 Y37.0269 
G01 X47.9615 Y36.9603 
G01 X48.0723 Y36.9144 
G01 X48.1899 Y36.8910 
G01 X48.3100 Y36.8910 
G01 X48.4276 Y36.9144 
G01 X48.5384 Y36.9603 
G01 X48.6382 Y37.0269 
G01 X48.7230 Y37.1117 
G01 X48.7896 Y37.2115 
G01 X48.8355 Y37.3223 
G01 X48.8589 Y37.4399 
G01 X48.8589 Y37.5600 
G01 X48.8355 Y37.6776 
G01 X48.7896 Y37.7884 
G01 X48.7876 Y37.7913 
G01 X48.8954 Y37.8990 
(File Footer)
G00 Z2.0000 
G00 Z10.0000 
M05
M02
