( This gcode generated by /home/mattvenn/.eagle/ulp/pcb-gcode.ulp )
( Copyright 2005 by John Johnson. See readme.txt for licensing terms. )

( This file generated from the board /home/mattvenn/eagle-circuit-designs/30w developer kit/30w developer board.brd )
( This file generated 23/02/2012 10:17 )

( T01 0.600000 )
( T02 0.609600 )
( T03 0.914400 )
( T04 1.000000 )
( T05 1.016000 )
( T06 1.117600 )
( T07 1.193800 )
( T08 3.200000 )
( T09 3.302000 )
G21

G90
M05
G00 X0.0000 Y0.0000 Z30.0000 
M06 T01  ; 0.6000 
G00 Z2.0000 
M03
G04 P3.000000
G82 X0.0000 Y0.0000 Z-2.0000 F127.00 R2.0000 P0.100000
G82 X-74.0000 Y0.0000 
M05
G00 X0.0000 Y0.0000 Z30.0000 
M06 T02  ; 0.6096 
G00 Z2.0000 
M03
G04 P3.000000
G82 X-18.0000 Y48.0000 Z-2.0000 F127.00 R2.0000 P0.100000
G82 X-31.0000 Y43.2500 
G82 X-32.0000 Y33.0000 
G82 X-32.5000 Y50.0000 
G82 X-33.0000 Y38.7500 
G82 X-35.2500 Y34.2500 
G82 X-36.5000 Y47.0000 
G82 X-40.5000 Y9.0000 
G82 X-40.5000 Y28.0000 
G82 X-42.5000 Y18.0000 
G82 X-44.2500 Y30.0000 
G82 X-45.0000 Y48.0000 
G82 X-47.7500 Y24.5000 
G82 X-47.7500 Y42.7500 
G82 X-48.0000 Y31.0000 
G82 X-48.0000 Y32.5000 
G82 X-48.2500 Y37.5000 
G82 X-49.7500 Y16.7500 
G82 X-50.5000 Y8.5000 
G82 X-51.0000 Y22.0000 
G82 X-51.0000 Y50.0000 
G82 X-52.0000 Y29.5000 
G82 X-52.5000 Y9.5000 
G82 X-53.7500 Y31.5000 
G82 X-53.7500 Y37.5000 
G82 X-54.0000 Y23.5000 
G82 X-55.0000 Y37.2500 
G82 X-55.2500 Y15.5000 
G82 X-55.2500 Y28.7500 
G82 X-56.5000 Y39.5000 
G82 X-56.7500 Y25.0000 
G82 X-58.0000 Y32.0000 
G82 X-58.2500 Y39.5000 
G82 X-59.5000 Y13.0000 
G82 X-63.5000 Y47.0000 
G82 X-65.2500 Y13.0000 
G82 X-65.5000 Y37.0000 
G82 X-67.5000 Y15.2500 
G82 X-67.5000 Y35.2500 
M05
G00 X0.0000 Y0.0000 Z30.0000 
M06 T03  ; 0.9144 
G00 Z2.0000 
M03
G04 P3.000000
G82 X-35.0000 Y11.7300 Z-2.0000 F127.00 R2.0000 P0.100000
G82 X-35.0000 Y14.2700 
M05
G00 X0.0000 Y0.0000 Z30.0000 
M06 T04  ; 1.0000 
G00 Z2.0000 
M03
G04 P3.000000
G82 X-27.0360 Y54.3900 Z-2.0000 F127.00 R2.0000 P0.100000
G82 X-29.5760 Y54.3900 
G82 X-32.1160 Y54.3900 
G82 X-34.6560 Y54.3900 
G82 X-36.1800 Y6.1300 
G82 X-37.1960 Y54.3900 
G82 X-38.7200 Y6.1300 
G82 X-39.7360 Y54.3900 
G82 X-41.2600 Y6.1300 
G82 X-42.2760 Y54.3900 
G82 X-43.8000 Y6.1300 
G82 X-44.8160 Y54.3900 
G82 X-46.3400 Y6.1300 
G82 X-48.8800 Y6.1300 
G82 X-48.8800 Y54.3900 
G82 X-51.4200 Y54.3900 
G82 X-53.9600 Y6.1300 
G82 X-53.9600 Y54.3900 
G82 X-56.5000 Y6.1300 
G82 X-56.5000 Y54.3900 
G82 X-59.0400 Y6.1300 
G82 X-59.0400 Y54.3900 
G82 X-61.5800 Y6.1300 
G82 X-61.5800 Y54.3900 
G82 X-64.1200 Y6.1300 
G82 X-64.1200 Y54.3900 
G82 X-66.6600 Y6.1300 
G82 X-66.6600 Y54.3900 
M05
G00 X0.0000 Y0.0000 Z30.0000 
M06 T05  ; 1.0160 
G00 Z2.0000 
M03
G04 P3.000000
G82 X-6.7500 Y32.6200 Z-2.0000 F127.00 R2.0000 P0.100000
G82 X-6.8600 Y11.1600 
G82 X-11.8300 Y32.6200 
G82 X-11.9400 Y11.1600 
M05
G00 X0.0000 Y0.0000 Z30.0000 
M06 T06  ; 1.1176 
G00 Z2.0000 
M03
G04 P3.000000
G82 X-21.0200 Y7.8600 Z-2.0000 F127.00 R2.0000 P0.100000
G82 X-23.5600 Y7.8600 
G82 X-26.1000 Y7.8600 
M05
G00 X0.0000 Y0.0000 Z30.0000 
M06 T07  ; 1.1938 
G00 Z2.0000 
M03
G04 P3.000000
G82 X-64.1200 Y15.2200 Z-2.0000 F127.00 R2.0000 P0.100000
G82 X-64.1200 Y20.2200 
G82 X-64.1200 Y25.2200 
G82 X-64.1200 Y30.2200 
G82 X-64.1200 Y35.2200 
G82 X-64.1200 Y40.2200 
M05
G00 X0.0000 Y0.0000 Z30.0000 
M06 T08  ; 3.2000 
G00 Z2.0000 
M03
G04 P3.000000
G82 X-17.1300 Y6.1300 Z-2.0000 F127.00 R2.0000 P0.100000
G82 X-18.4000 Y54.3900 
G82 X-69.2000 Y39.1500 
M05
G00 X0.0000 Y0.0000 Z30.0000 
M06 T09  ; 3.3020 
G00 Z2.0000 
M03
G04 P3.000000
G82 X-23.5600 Y22.8460 Z-2.0000 F127.00 R2.0000 P0.100000
(File Footer)
T01 
G00 Z10.0000 
M05
M02
