( This gcode generated by /home/mattvenn/.eagle/ulp/pcb-gcode.ulp )
( Copyright 2005 by John Johnson. See readme.txt for licensing terms. )

( This file generated from the board /home/mattvenn/eagle-circuit-designs/30w developer kit/30w developer board.brd )
( This file generated 23/02/2012 10:15 )

G21

G90
G00 Z10.0000 
G00 X0 Y0
M03
G04 P3.000000
G00 Z2.0000 
G00 X-54.2155 Y52.7191 
G01 Z-0.2000 F600.00 
G01 X-54.2808 Y52.7844 
G01 X-54.3270 Y52.8645 
G01 X-54.3509 Y52.9537 
G01 X-54.3509 Y53.4529 
G01 X-54.8991 Y54.0010 
G01 X-54.8991 Y54.7789 
G01 X-54.3489 Y55.3291 
G01 X-53.5710 Y55.3291 
G01 X-53.0208 Y54.7789 
G01 X-53.0208 Y54.0010 
G01 X-53.5710 Y53.4508 
G01 X-53.6490 Y53.4508 
G01 X-53.6490 Y53.1454 
G01 X-51.1038 Y50.6001 
G01 X-51.0600 Y50.6089 
G01 X-50.9399 Y50.6089 
G01 X-50.8223 Y50.5855 
G01 X-50.7115 Y50.5396 
G01 X-50.6117 Y50.4730 
G01 X-50.5269 Y50.3882 
G01 X-50.4603 Y50.2884 
G01 X-50.4144 Y50.1776 
G01 X-50.3910 Y50.0600 
G01 X-50.3910 Y49.9399 
G01 X-50.4144 Y49.8223 
G01 X-50.4603 Y49.7115 
G01 X-50.5269 Y49.6117 
G01 X-50.6117 Y49.5269 
G01 X-50.7115 Y49.4603 
G01 X-50.8223 Y49.4144 
G01 X-50.9399 Y49.3910 
G01 X-51.0600 Y49.3910 
G01 X-51.1776 Y49.4144 
G01 X-51.2884 Y49.4603 
G01 X-51.3882 Y49.5269 
G01 X-51.4730 Y49.6117 
G01 X-51.5396 Y49.7115 
G01 X-51.5855 Y49.8223 
G01 X-51.6089 Y49.9399 
G01 X-51.6089 Y50.0600 
G01 X-51.6001 Y50.1038 
G01 X-54.2155 Y52.7191 
G00 Z2.0000 
G00 X-32.3509 Y45.6490 
G01 Z-0.2000 F600.00 
G01 X-41.4537 Y45.6490 
G01 X-41.5462 Y45.6490 
G01 X-41.6354 Y45.6729 
G01 X-41.7155 Y45.7191 
G01 X-44.6454 Y48.6490 
G01 X-45.8545 Y48.6490 
G01 X-47.7191 Y46.7844 
G01 X-47.7844 Y46.7191 
G01 X-47.8645 Y46.6729 
G01 X-47.9537 Y46.6490 
G01 X-63.0020 Y46.6490 
G01 X-63.0269 Y46.6117 
G01 X-63.1117 Y46.5269 
G01 X-63.2115 Y46.4603 
G01 X-63.3223 Y46.4144 
G01 X-63.4399 Y46.3910 
G01 X-63.5600 Y46.3910 
G01 X-63.6776 Y46.4144 
G01 X-63.7884 Y46.4603 
G01 X-63.8882 Y46.5269 
G01 X-63.9730 Y46.6117 
G01 X-64.0396 Y46.7115 
G01 X-64.0855 Y46.8223 
G01 X-64.1089 Y46.9399 
G01 X-64.1089 Y47.0600 
G01 X-64.0855 Y47.1776 
G01 X-64.0396 Y47.2884 
G01 X-63.9730 Y47.3882 
G01 X-63.8882 Y47.4730 
G01 X-63.7884 Y47.5396 
G01 X-63.6776 Y47.5855 
G01 X-63.5600 Y47.6089 
G01 X-63.4399 Y47.6089 
G01 X-63.3223 Y47.5855 
G01 X-63.2115 Y47.5396 
G01 X-63.1117 Y47.4730 
G01 X-63.0269 Y47.3882 
G01 X-63.0020 Y47.3509 
G01 X-48.1454 Y47.3509 
G01 X-46.2155 Y49.2808 
G01 X-46.1354 Y49.3270 
G01 X-46.0462 Y49.3509 
G01 X-45.9537 Y49.3509 
G01 X-44.4537 Y49.3509 
G01 X-44.3645 Y49.3270 
G01 X-44.2844 Y49.2808 
G01 X-44.2191 Y49.2155 
G01 X-41.3545 Y46.3509 
G01 X-31.9537 Y46.3509 
G01 X-31.8645 Y46.3270 
G01 X-31.7844 Y46.2808 
G01 X-31.7191 Y46.2155 
G01 X-31.6729 Y46.1354 
G01 X-31.6490 Y46.0462 
G01 X-31.6490 Y45.9537 
G01 X-31.6490 Y33.4979 
G01 X-31.6117 Y33.4730 
G01 X-31.5269 Y33.3882 
G01 X-31.4603 Y33.2884 
G01 X-31.4144 Y33.1776 
G01 X-31.3910 Y33.0600 
G01 X-31.3910 Y32.9399 
G01 X-31.4144 Y32.8223 
G01 X-31.4603 Y32.7115 
G01 X-31.5269 Y32.6117 
G01 X-31.6117 Y32.5269 
G01 X-31.7115 Y32.4603 
G01 X-31.8223 Y32.4144 
G01 X-31.9399 Y32.3910 
G01 X-32.0600 Y32.3910 
G01 X-32.1776 Y32.4144 
G01 X-32.2884 Y32.4603 
G01 X-32.3882 Y32.5269 
G01 X-32.4730 Y32.6117 
G01 X-32.5396 Y32.7115 
G01 X-32.5855 Y32.8223 
G01 X-32.6089 Y32.9399 
G01 X-32.6089 Y33.0600 
G01 X-32.5855 Y33.1776 
G01 X-32.5396 Y33.2884 
G01 X-32.4730 Y33.3882 
G01 X-32.3882 Y33.4730 
G01 X-32.3509 Y33.4979 
G01 X-32.3509 Y45.6490 
G00 Z2.0000 
G00 X-52.6454 Y23.1490 
G01 Z-0.2000 F600.00 
G01 X-53.5020 Y23.1490 
G01 X-53.5269 Y23.1117 
G01 X-53.6117 Y23.0269 
G01 X-53.7115 Y22.9603 
G01 X-53.8223 Y22.9144 
G01 X-53.9399 Y22.8910 
G01 X-54.0600 Y22.8910 
G01 X-54.1776 Y22.9144 
G01 X-54.2884 Y22.9603 
G01 X-54.3882 Y23.0269 
G01 X-54.4730 Y23.1117 
G01 X-54.5396 Y23.2115 
G01 X-54.5855 Y23.3223 
G01 X-54.6089 Y23.4399 
G01 X-54.6089 Y23.5600 
G01 X-54.5855 Y23.6776 
G01 X-54.5396 Y23.7884 
G01 X-54.4730 Y23.8882 
G01 X-54.3882 Y23.9730 
G01 X-54.2884 Y24.0396 
G01 X-54.1776 Y24.0855 
G01 X-54.0600 Y24.1089 
G01 X-53.9399 Y24.1089 
G01 X-53.8223 Y24.0855 
G01 X-53.7115 Y24.0396 
G01 X-53.6117 Y23.9730 
G01 X-53.5269 Y23.8882 
G01 X-53.5020 Y23.8509 
G01 X-52.4537 Y23.8509 
G01 X-52.3645 Y23.8270 
G01 X-52.2844 Y23.7808 
G01 X-52.2191 Y23.7155 
G01 X-52.2191 Y23.7154 
G01 X-51.1038 Y22.6001 
G01 X-51.0600 Y22.6089 
G01 X-50.9399 Y22.6089 
G01 X-50.8223 Y22.5855 
G01 X-50.7115 Y22.5396 
G01 X-50.6117 Y22.4730 
G01 X-50.5269 Y22.3882 
G01 X-50.4603 Y22.2884 
G01 X-50.4144 Y22.1776 
G01 X-50.3910 Y22.0600 
G01 X-50.3910 Y21.9399 
G01 X-50.4144 Y21.8223 
G01 X-50.4603 Y21.7115 
G01 X-50.5269 Y21.6117 
G01 X-50.6117 Y21.5269 
G01 X-50.7115 Y21.4603 
G01 X-50.8223 Y21.4144 
G01 X-50.9399 Y21.3910 
G01 X-51.0600 Y21.3910 
G01 X-51.1776 Y21.4144 
G01 X-51.2884 Y21.4603 
G01 X-51.3882 Y21.5269 
G01 X-51.4730 Y21.6117 
G01 X-51.5396 Y21.7115 
G01 X-51.5855 Y21.8223 
G01 X-51.6089 Y21.9399 
G01 X-51.6089 Y22.0600 
G01 X-51.6001 Y22.1038 
G01 X-52.6454 Y23.1490 
G00 Z2.0000 
G00 X-49.2808 Y44.7155 
G01 Z-0.2000 F600.00 
G01 X-45.7808 Y48.2155 
G01 X-45.7155 Y48.2808 
G01 X-45.6354 Y48.3270 
G01 X-45.5462 Y48.3509 
G01 X-45.4979 Y48.3509 
G01 X-45.4730 Y48.3882 
G01 X-45.3882 Y48.4730 
G01 X-45.2884 Y48.5396 
G01 X-45.1776 Y48.5855 
G01 X-45.0600 Y48.6089 
G01 X-44.9399 Y48.6089 
G01 X-44.8223 Y48.5855 
G01 X-44.7115 Y48.5396 
G01 X-44.6117 Y48.4730 
G01 X-44.5269 Y48.3882 
G01 X-44.4603 Y48.2884 
G01 X-44.4144 Y48.1776 
G01 X-44.3910 Y48.0600 
G01 X-44.3910 Y47.9399 
G01 X-44.3997 Y47.8961 
G01 X-35.6045 Y39.1009 
G01 X-33.4978 Y39.1009 
G01 X-33.4730 Y39.1382 
G01 X-33.3882 Y39.2230 
G01 X-33.2884 Y39.2896 
G01 X-33.1776 Y39.3355 
G01 X-33.0600 Y39.3589 
G01 X-32.9399 Y39.3589 
G01 X-32.8223 Y39.3355 
G01 X-32.7115 Y39.2896 
G01 X-32.6117 Y39.2230 
G01 X-32.5269 Y39.1382 
G01 X-32.4603 Y39.0384 
G01 X-32.4144 Y38.9276 
G01 X-32.3910 Y38.8100 
G01 X-32.3910 Y38.6899 
G01 X-32.4144 Y38.5723 
G01 X-32.4603 Y38.4615 
G01 X-32.5269 Y38.3617 
G01 X-32.6117 Y38.2769 
G01 X-32.7115 Y38.2103 
G01 X-32.8223 Y38.1644 
G01 X-32.9399 Y38.1410 
G01 X-33.0600 Y38.1410 
G01 X-33.1776 Y38.1644 
G01 X-33.2884 Y38.2103 
G01 X-33.3882 Y38.2769 
G01 X-33.4730 Y38.3617 
G01 X-33.4978 Y38.3990 
G01 X-35.7962 Y38.3990 
G01 X-35.8854 Y38.4229 
G01 X-35.9655 Y38.4691 
G01 X-36.0308 Y38.5344 
G01 X-44.8961 Y47.3997 
G01 X-44.9399 Y47.3910 
G01 X-45.0600 Y47.3910 
G01 X-45.1776 Y47.4144 
G01 X-45.2884 Y47.4603 
G01 X-45.3882 Y47.5269 
G01 X-45.4324 Y47.5711 
G01 X-48.7844 Y44.2191 
G01 X-48.8645 Y44.1729 
G01 X-48.9537 Y44.1490 
G01 X-49.0462 Y44.1490 
G01 X-49.1354 Y44.1729 
G01 X-49.2155 Y44.2191 
G01 X-49.2808 Y44.2844 
G01 X-49.3270 Y44.3645 
G01 X-49.3509 Y44.4537 
G01 X-49.3509 Y44.5462 
G01 X-49.3270 Y44.6354 
G01 X-49.2808 Y44.7155 
G00 Z2.0000 
G00 X-39.2788 Y10.0429 
G01 Z-0.2000 F600.00 
G01 X-39.1307 Y9.8391 
G01 X-39.0163 Y9.6145 
G01 X-38.9384 Y9.3749 
G01 X-38.8990 Y9.1260 
G01 X-38.8990 Y8.8739 
G01 X-38.9384 Y8.6250 
G01 X-39.0163 Y8.3854 
G01 X-39.1307 Y8.1608 
G01 X-39.2788 Y7.9570 
G01 X-39.4570 Y7.7788 
G01 X-39.6608 Y7.6307 
G01 X-39.8854 Y7.5163 
G01 X-40.1250 Y7.4384 
G01 X-40.3739 Y7.3990 
G01 X-40.6260 Y7.3990 
G01 X-40.8749 Y7.4384 
G01 X-41.1145 Y7.5163 
G01 X-41.3391 Y7.6307 
G01 X-41.5429 Y7.7788 
G01 X-49.0261 Y15.2621 
G01 X-49.5595 Y15.1554 
G01 X-49.8114 Y15.1452 
G01 X-50.0616 Y15.1746 
G01 X-50.3042 Y15.2427 
G01 X-50.5332 Y15.3480 
G01 X-50.6097 Y15.3990 
G01 X-50.6260 Y15.3990 
G01 X-50.8749 Y15.4384 
G01 X-51.1145 Y15.5163 
G01 X-51.3391 Y15.6307 
G01 X-51.5429 Y15.7788 
G01 X-51.7211 Y15.9570 
G01 X-51.8692 Y16.1608 
G01 X-51.9836 Y16.3854 
G01 X-52.0615 Y16.6250 
G01 X-52.1009 Y16.8739 
G01 X-52.1009 Y17.1260 
G01 X-52.0615 Y17.3749 
G01 X-51.9836 Y17.6145 
G01 X-51.8692 Y17.8391 
G01 X-51.7211 Y18.0429 
G01 X-51.5429 Y18.2211 
G01 X-51.3391 Y18.3692 
G01 X-51.1145 Y18.4836 
G01 X-50.8749 Y18.5615 
G01 X-50.6260 Y18.6009 
G01 X-48.5325 Y18.6009 
G01 X-48.4385 Y18.6047 
G01 X-48.4062 Y18.6009 
G01 X-48.3739 Y18.6009 
G01 X-48.2811 Y18.5862 
G01 X-48.1883 Y18.5753 
G01 X-48.1574 Y18.5666 
G01 X-48.1250 Y18.5615 
G01 X-48.0358 Y18.5325 
G01 X-47.9457 Y18.5072 
G01 X-47.9160 Y18.4935 
G01 X-47.8854 Y18.4836 
G01 X-47.8022 Y18.4412 
G01 X-47.7167 Y18.4019 
G01 X-47.6898 Y18.3839 
G01 X-47.6608 Y18.3692 
G01 X-47.5849 Y18.3140 
G01 X-47.5070 Y18.2621 
G01 X-47.4831 Y18.2400 
G01 X-47.4570 Y18.2211 
G01 X-47.3914 Y18.1554 
G01 X-47.3218 Y18.0913 
G01 X-47.3015 Y18.0655 
G01 X-47.2788 Y18.0429 
G01 X-39.2788 Y10.0429 
G00 Z2.0000 
G00 X-60.5592 Y25.8990 
G01 Z-0.2000 F600.00 
G01 X-60.6753 Y25.9221 
G01 X-60.7846 Y25.9674 
G01 X-60.8831 Y26.0332 
G01 X-60.9667 Y26.1168 
G01 X-60.9667 Y26.1169 
G01 X-64.0734 Y29.2236 
G01 X-65.1135 Y29.2236 
G01 X-65.3060 Y29.2619 
G01 X-65.4873 Y29.3370 
G01 X-65.6505 Y29.4460 
G01 X-65.7893 Y29.5848 
G01 X-65.8983 Y29.7480 
G01 X-65.9734 Y29.9293 
G01 X-66.0117 Y30.1218 
G01 X-66.0117 Y30.3181 
G01 X-65.9734 Y30.5106 
G01 X-65.8983 Y30.6919 
G01 X-65.7893 Y30.8551 
G01 X-65.6505 Y30.9939 
G01 X-65.4873 Y31.1029 
G01 X-65.3060 Y31.1780 
G01 X-65.1135 Y31.2163 
G01 X-63.1264 Y31.2163 
G01 X-62.9339 Y31.1780 
G01 X-62.7526 Y31.1029 
G01 X-62.5894 Y30.9939 
G01 X-62.4506 Y30.8551 
G01 X-62.3416 Y30.6919 
G01 X-62.2665 Y30.5106 
G01 X-62.2282 Y30.3181 
G01 X-62.2282 Y30.1218 
G01 X-62.2665 Y29.9293 
G01 X-62.3416 Y29.7480 
G01 X-62.4506 Y29.5848 
G01 X-62.5894 Y29.4460 
G01 X-62.5935 Y29.4433 
G01 X-60.2511 Y27.1009 
G01 X-56.1009 Y27.1009 
G01 X-56.1009 Y28.6907 
G01 X-56.1009 Y28.8092 
G01 X-56.1009 Y29.0592 
G01 X-56.0778 Y29.1753 
G01 X-56.0325 Y29.2846 
G01 X-55.9667 Y29.3831 
G01 X-55.8831 Y29.4667 
G01 X-55.7846 Y29.5325 
G01 X-55.6753 Y29.5778 
G01 X-55.5592 Y29.6009 
G01 X-55.4407 Y29.6009 
G01 X-55.3246 Y29.5778 
G01 X-55.2153 Y29.5325 
G01 X-55.1168 Y29.4667 
G01 X-55.0332 Y29.3831 
G01 X-54.9743 Y29.2949 
G01 X-54.9615 Y29.2896 
G01 X-54.8617 Y29.2230 
G01 X-54.7769 Y29.1382 
G01 X-54.7103 Y29.0384 
G01 X-54.6644 Y28.9276 
G01 X-54.6410 Y28.8100 
G01 X-54.6410 Y28.6899 
G01 X-54.6644 Y28.5723 
G01 X-54.7103 Y28.4615 
G01 X-54.7769 Y28.3617 
G01 X-54.8617 Y28.2769 
G01 X-54.8990 Y28.2520 
G01 X-54.8990 Y27.1009 
G01 X-48.0592 Y27.1009 
G01 X-47.9407 Y27.1009 
G01 X-47.8246 Y27.0778 
G01 X-47.7153 Y27.0325 
G01 X-47.6168 Y26.9667 
G01 X-46.1168 Y25.4667 
G01 X-46.0332 Y25.3831 
G01 X-45.9674 Y25.2846 
G01 X-45.9221 Y25.1753 
G01 X-45.8990 Y25.0592 
G01 X-45.8990 Y19.5592 
G01 X-45.8990 Y19.4407 
G01 X-45.9221 Y19.3246 
G01 X-45.9674 Y19.2153 
G01 X-46.0332 Y19.1168 
G01 X-46.1168 Y19.0332 
G01 X-46.1567 Y19.0066 
G01 X-40.2510 Y13.1009 
G01 X-35.4407 Y13.1009 
G01 X-35.3246 Y13.0778 
G01 X-35.2153 Y13.0325 
G01 X-35.1168 Y12.9667 
G01 X-35.0332 Y12.8831 
G01 X-34.6922 Y12.5421 
G01 X-34.2087 Y12.5421 
G01 X-34.0518 Y12.5109 
G01 X-33.9040 Y12.4497 
G01 X-33.7710 Y12.3608 
G01 X-33.6579 Y12.2477 
G01 X-33.5690 Y12.1147 
G01 X-33.5078 Y11.9669 
G01 X-33.4766 Y11.8100 
G01 X-33.4766 Y11.6499 
G01 X-33.5078 Y11.4930 
G01 X-33.5690 Y11.3452 
G01 X-33.6579 Y11.2122 
G01 X-33.7710 Y11.0991 
G01 X-33.9040 Y11.0102 
G01 X-34.0518 Y10.9490 
G01 X-34.2087 Y10.9178 
G01 X-35.7912 Y10.9178 
G01 X-35.9481 Y10.9490 
G01 X-36.0959 Y11.0102 
G01 X-36.2289 Y11.0991 
G01 X-36.3420 Y11.2122 
G01 X-36.4309 Y11.3452 
G01 X-36.4921 Y11.4930 
G01 X-36.5233 Y11.6499 
G01 X-36.5233 Y11.8100 
G01 X-36.5055 Y11.8990 
G01 X-40.4407 Y11.8990 
G01 X-40.5592 Y11.8990 
G01 X-40.6753 Y11.9221 
G01 X-40.7846 Y11.9674 
G01 X-40.8831 Y12.0332 
G01 X-47.7167 Y18.8668 
G01 X-47.7489 Y18.8990 
G01 X-51.2510 Y18.8990 
G01 X-53.8990 Y16.2510 
G01 X-53.8990 Y15.4407 
G01 X-53.9221 Y15.3246 
G01 X-53.9375 Y15.2874 
G01 X-47.2510 Y8.6009 
G01 X-43.0592 Y8.6009 
G01 X-42.9407 Y8.6009 
G01 X-42.8246 Y8.5778 
G01 X-42.7153 Y8.5325 
G01 X-42.6168 Y8.4667 
G01 X-41.2192 Y7.0691 
G01 X-40.8710 Y7.0691 
G01 X-40.3208 Y6.5189 
G01 X-40.3208 Y5.7410 
G01 X-40.8710 Y5.1908 
G01 X-41.6489 Y5.1908 
G01 X-42.1991 Y5.7410 
G01 X-42.1991 Y6.3492 
G01 X-43.2489 Y7.3990 
G01 X-47.5592 Y7.3990 
G01 X-47.6753 Y7.4221 
G01 X-47.7846 Y7.4674 
G01 X-47.8831 Y7.5332 
G01 X-47.9667 Y7.6168 
G01 X-55.2409 Y14.8910 
G01 X-55.3100 Y14.8910 
G01 X-55.4276 Y14.9144 
G01 X-55.5384 Y14.9603 
G01 X-55.6382 Y15.0269 
G01 X-55.7230 Y15.1117 
G01 X-55.7896 Y15.2115 
G01 X-55.8355 Y15.3223 
G01 X-55.8589 Y15.4399 
G01 X-55.8589 Y15.5600 
G01 X-55.8355 Y15.6776 
G01 X-55.7896 Y15.7884 
G01 X-55.7230 Y15.8882 
G01 X-55.6382 Y15.9730 
G01 X-55.5384 Y16.0396 
G01 X-55.4276 Y16.0855 
G01 X-55.3100 Y16.1089 
G01 X-55.1899 Y16.1089 
G01 X-55.1497 Y16.1009 
G01 X-55.1009 Y16.1009 
G01 X-55.1009 Y16.5592 
G01 X-55.0778 Y16.6753 
G01 X-55.0325 Y16.7846 
G01 X-54.9667 Y16.8831 
G01 X-54.8831 Y16.9667 
G01 X-51.8831 Y19.9667 
G01 X-51.7846 Y20.0325 
G01 X-51.6753 Y20.0778 
G01 X-51.5592 Y20.1009 
G01 X-51.4407 Y20.1009 
G01 X-47.4407 Y20.1009 
G01 X-47.3246 Y20.0778 
G01 X-47.2499 Y20.0468 
G01 X-47.1753 Y20.0778 
G01 X-47.1009 Y20.0926 
G01 X-47.1009 Y24.7510 
G01 X-48.2489 Y25.8990 
G01 X-55.4407 Y25.8990 
G01 X-55.5592 Y25.8990 
G01 X-60.5592 Y25.8990 
G00 Z2.0000 
G00 X-64.7520 Y12.6490 
G01 Z-0.2000 F600.00 
G01 X-64.7769 Y12.6117 
G01 X-64.8617 Y12.5269 
G01 X-64.9615 Y12.4603 
G01 X-65.0723 Y12.4144 
G01 X-65.1899 Y12.3910 
G01 X-65.3100 Y12.3910 
G01 X-65.4276 Y12.4144 
G01 X-65.5384 Y12.4603 
G01 X-65.6382 Y12.5269 
G01 X-65.7230 Y12.6117 
G01 X-65.7896 Y12.7115 
G01 X-65.8355 Y12.8223 
G01 X-65.8589 Y12.9399 
G01 X-65.8589 Y13.0600 
G01 X-65.8355 Y13.1776 
G01 X-65.7896 Y13.2884 
G01 X-65.7230 Y13.3882 
G01 X-65.6382 Y13.4730 
G01 X-65.5384 Y13.5396 
G01 X-65.4276 Y13.5855 
G01 X-65.3100 Y13.6089 
G01 X-65.1899 Y13.6089 
G01 X-65.0723 Y13.5855 
G01 X-64.9615 Y13.5396 
G01 X-64.8617 Y13.4730 
G01 X-64.7769 Y13.3882 
G01 X-64.7520 Y13.3509 
G01 X-59.9979 Y13.3509 
G01 X-59.9730 Y13.3882 
G01 X-59.8882 Y13.4730 
G01 X-59.7884 Y13.5396 
G01 X-59.6776 Y13.5855 
G01 X-59.5600 Y13.6089 
G01 X-59.4399 Y13.6089 
G01 X-59.3223 Y13.5855 
G01 X-59.2115 Y13.5396 
G01 X-59.1117 Y13.4730 
G01 X-59.0269 Y13.3882 
G01 X-58.9603 Y13.2884 
G01 X-58.9144 Y13.1776 
G01 X-58.8910 Y13.0600 
G01 X-58.8910 Y12.9399 
G01 X-58.9144 Y12.8223 
G01 X-58.9603 Y12.7115 
G01 X-59.0269 Y12.6117 
G01 X-59.1117 Y12.5269 
G01 X-59.2115 Y12.4603 
G01 X-59.3223 Y12.4144 
G01 X-59.4399 Y12.3910 
G01 X-59.5600 Y12.3910 
G01 X-59.6776 Y12.4144 
G01 X-59.7884 Y12.4603 
G01 X-59.8882 Y12.5269 
G01 X-59.9730 Y12.6117 
G01 X-59.9979 Y12.6490 
G01 X-64.7520 Y12.6490 
G00 Z2.0000 
G00 X-67.8509 Y34.7520 
G01 Z-0.2000 F600.00 
G01 X-67.8882 Y34.7769 
G01 X-67.9730 Y34.8617 
G01 X-68.0396 Y34.9615 
G01 X-68.0855 Y35.0723 
G01 X-68.1089 Y35.1899 
G01 X-68.1089 Y35.3100 
G01 X-68.0855 Y35.4276 
G01 X-68.0396 Y35.5384 
G01 X-67.9730 Y35.6382 
G01 X-67.8882 Y35.7230 
G01 X-67.7884 Y35.7896 
G01 X-67.6776 Y35.8355 
G01 X-67.5600 Y35.8589 
G01 X-67.4399 Y35.8589 
G01 X-67.3223 Y35.8355 
G01 X-67.2115 Y35.7896 
G01 X-67.1117 Y35.7230 
G01 X-67.0269 Y35.6382 
G01 X-66.9603 Y35.5384 
G01 X-66.9144 Y35.4276 
G01 X-66.8910 Y35.3100 
G01 X-66.8910 Y35.1899 
G01 X-66.9144 Y35.0723 
G01 X-66.9603 Y34.9615 
G01 X-67.0269 Y34.8617 
G01 X-67.1117 Y34.7769 
G01 X-67.1490 Y34.7520 
G01 X-67.1490 Y15.7479 
G01 X-67.1117 Y15.7230 
G01 X-67.0269 Y15.6382 
G01 X-66.9603 Y15.5384 
G01 X-66.9144 Y15.4276 
G01 X-66.8910 Y15.3100 
G01 X-66.8910 Y15.1899 
G01 X-66.9144 Y15.0723 
G01 X-66.9603 Y14.9615 
G01 X-67.0269 Y14.8617 
G01 X-67.1117 Y14.7769 
G01 X-67.2115 Y14.7103 
G01 X-67.3223 Y14.6644 
G01 X-67.4399 Y14.6410 
G01 X-67.5600 Y14.6410 
G01 X-67.6776 Y14.6644 
G01 X-67.7884 Y14.7103 
G01 X-67.8882 Y14.7769 
G01 X-67.9730 Y14.8617 
G01 X-68.0396 Y14.9615 
G01 X-68.0855 Y15.0723 
G01 X-68.1089 Y15.1899 
G01 X-68.1089 Y15.3100 
G01 X-68.0855 Y15.4276 
G01 X-68.0396 Y15.5384 
G01 X-67.9730 Y15.6382 
G01 X-67.8882 Y15.7230 
G01 X-67.8509 Y15.7479 
G01 X-67.8509 Y34.7520 
G00 Z2.0000 
G00 X-44.4691 Y29.2844 
G01 Z-0.2000 F600.00 
G01 X-44.5344 Y29.2191 
G01 X-44.6145 Y29.1729 
G01 X-44.7037 Y29.1490 
G01 X-51.5020 Y29.1490 
G01 X-51.5269 Y29.1117 
G01 X-51.6117 Y29.0269 
G01 X-51.7115 Y28.9603 
G01 X-51.8223 Y28.9144 
G01 X-51.9399 Y28.8910 
G01 X-52.0600 Y28.8910 
G01 X-52.1776 Y28.9144 
G01 X-52.2884 Y28.9603 
G01 X-52.3882 Y29.0269 
G01 X-52.4730 Y29.1117 
G01 X-52.5396 Y29.2115 
G01 X-52.5855 Y29.3223 
G01 X-52.6089 Y29.4399 
G01 X-52.6089 Y29.5600 
G01 X-52.5855 Y29.6776 
G01 X-52.5396 Y29.7884 
G01 X-52.4730 Y29.8882 
G01 X-52.3882 Y29.9730 
G01 X-52.2884 Y30.0396 
G01 X-52.1776 Y30.0855 
G01 X-52.0600 Y30.1089 
G01 X-51.9399 Y30.1089 
G01 X-51.8223 Y30.0855 
G01 X-51.7115 Y30.0396 
G01 X-51.6117 Y29.9730 
G01 X-51.5269 Y29.8882 
G01 X-51.5020 Y29.8509 
G01 X-44.8954 Y29.8509 
G01 X-44.8501 Y29.8961 
G01 X-44.8589 Y29.9399 
G01 X-44.8589 Y30.0600 
G01 X-44.8355 Y30.1776 
G01 X-44.7896 Y30.2884 
G01 X-44.7230 Y30.3882 
G01 X-44.6382 Y30.4730 
G01 X-44.5384 Y30.5396 
G01 X-44.4276 Y30.5855 
G01 X-44.3100 Y30.6089 
G01 X-44.1899 Y30.6089 
G01 X-44.0723 Y30.5855 
G01 X-43.9615 Y30.5396 
G01 X-43.8617 Y30.4730 
G01 X-43.7769 Y30.3882 
G01 X-43.7103 Y30.2884 
G01 X-43.6644 Y30.1776 
G01 X-43.6410 Y30.0600 
G01 X-43.6410 Y29.9399 
G01 X-43.6644 Y29.8223 
G01 X-43.7103 Y29.7115 
G01 X-43.7769 Y29.6117 
G01 X-43.8617 Y29.5269 
G01 X-43.9615 Y29.4603 
G01 X-44.0723 Y29.4144 
G01 X-44.1899 Y29.3910 
G01 X-44.3100 Y29.3910 
G01 X-44.3538 Y29.3998 
G01 X-44.4691 Y29.2844 
G00 Z2.0000 
G00 X-57.4391 Y54.0010 
G01 Z-0.2000 F600.00 
G01 X-57.4391 Y54.7789 
G01 X-56.8889 Y55.3291 
G01 X-56.1110 Y55.3291 
G01 X-55.5608 Y54.7789 
G01 X-55.5608 Y54.0010 
G01 X-56.1110 Y53.4508 
G01 X-56.8889 Y53.4508 
G01 X-57.4391 Y54.0010 
G00 Z2.0000 
G00 X-54.8991 Y5.7410 
G01 Z-0.2000 F600.00 
G01 X-54.8991 Y6.5189 
G01 X-54.3489 Y7.0691 
G01 X-53.5710 Y7.0691 
G01 X-53.0208 Y6.5189 
G01 X-53.0208 Y5.7410 
G01 X-53.5710 Y5.1908 
G01 X-54.3489 Y5.1908 
G01 X-54.8991 Y5.7410 
G00 Z2.0000 
G00 X-59.9791 Y54.0010 
G01 Z-0.2000 F600.00 
G01 X-59.9791 Y54.7789 
G01 X-59.4289 Y55.3291 
G01 X-58.6510 Y55.3291 
G01 X-58.1008 Y54.7789 
G01 X-58.1008 Y54.0010 
G01 X-58.3028 Y53.7991 
G01 X-53.8545 Y49.3509 
G01 X-47.1454 Y49.3509 
G01 X-46.2808 Y50.2155 
G01 X-46.2155 Y50.2808 
G01 X-46.1354 Y50.3270 
G01 X-46.0462 Y50.3509 
G01 X-32.9979 Y50.3509 
G01 X-32.9730 Y50.3882 
G01 X-32.8882 Y50.4730 
G01 X-32.7884 Y50.5396 
G01 X-32.6776 Y50.5855 
G01 X-32.5600 Y50.6089 
G01 X-32.4399 Y50.6089 
G01 X-32.3223 Y50.5855 
G01 X-32.2115 Y50.5396 
G01 X-32.1117 Y50.4730 
G01 X-32.0269 Y50.3882 
G01 X-31.9603 Y50.2884 
G01 X-31.9144 Y50.1776 
G01 X-31.8910 Y50.0600 
G01 X-31.8910 Y49.9399 
G01 X-31.9144 Y49.8223 
G01 X-31.9603 Y49.7115 
G01 X-32.0269 Y49.6117 
G01 X-32.1117 Y49.5269 
G01 X-32.2115 Y49.4603 
G01 X-32.3223 Y49.4144 
G01 X-32.4399 Y49.3910 
G01 X-32.5600 Y49.3910 
G01 X-32.6776 Y49.4144 
G01 X-32.7884 Y49.4603 
G01 X-32.8882 Y49.5269 
G01 X-32.9730 Y49.6117 
G01 X-32.9979 Y49.6490 
G01 X-45.8545 Y49.6490 
G01 X-46.7844 Y48.7191 
G01 X-46.8645 Y48.6729 
G01 X-46.9537 Y48.6490 
G01 X-47.0462 Y48.6490 
G01 X-54.0462 Y48.6490 
G01 X-54.1354 Y48.6729 
G01 X-54.2155 Y48.7191 
G01 X-54.2808 Y48.7844 
G01 X-58.9472 Y53.4508 
G01 X-59.4289 Y53.4508 
G01 X-59.9791 Y54.0010 
G00 Z2.0000 
G00 X-62.5191 Y54.0010 
G01 Z-0.2000 F600.00 
G01 X-62.5191 Y54.7789 
G01 X-61.9689 Y55.3291 
G01 X-61.1910 Y55.3291 
G01 X-60.6408 Y54.7789 
G01 X-60.6408 Y54.0010 
G01 X-61.1910 Y53.4508 
G01 X-61.9689 Y53.4508 
G01 X-62.5191 Y54.0010 
G00 Z2.0000 
G00 X-65.0591 Y54.0010 
G01 Z-0.2000 F600.00 
G01 X-65.0591 Y54.7789 
G01 X-64.5089 Y55.3291 
G01 X-63.7310 Y55.3291 
G01 X-63.1808 Y54.7789 
G01 X-63.1808 Y54.0010 
G01 X-63.7310 Y53.4508 
G01 X-64.5089 Y53.4508 
G01 X-65.0591 Y54.0010 
G00 Z2.0000 
G00 X-67.5991 Y54.0010 
G01 Z-0.2000 F600.00 
G01 X-67.5991 Y54.7789 
G01 X-67.0489 Y55.3291 
G01 X-66.2710 Y55.3291 
G01 X-65.7208 Y54.7789 
G01 X-65.7208 Y54.0010 
G01 X-66.2710 Y53.4508 
G01 X-67.0489 Y53.4508 
G01 X-67.5991 Y54.0010 
G00 Z2.0000 
G00 X-52.3591 Y54.0010 
G01 Z-0.2000 F600.00 
G01 X-52.3591 Y54.7789 
G01 X-51.8089 Y55.3291 
G01 X-51.0310 Y55.3291 
G01 X-50.4808 Y54.7789 
G01 X-50.4808 Y54.0010 
G01 X-51.0310 Y53.4508 
G01 X-51.8089 Y53.4508 
G01 X-52.3591 Y54.0010 
G00 Z2.0000 
G00 X-49.8191 Y54.0010 
G01 Z-0.2000 F600.00 
G01 X-49.8191 Y54.7789 
G01 X-49.2689 Y55.3291 
G01 X-48.4910 Y55.3291 
G01 X-47.9408 Y54.7789 
G01 X-47.9408 Y54.0010 
G01 X-48.4910 Y53.4508 
G01 X-49.2689 Y53.4508 
G01 X-49.8191 Y54.0010 
G00 Z2.0000 
G00 X-45.7551 Y54.0010 
G01 Z-0.2000 F600.00 
G01 X-45.7551 Y54.7789 
G01 X-45.2049 Y55.3291 
G01 X-44.4270 Y55.3291 
G01 X-43.8768 Y54.7789 
G01 X-43.8768 Y54.0010 
G01 X-44.4270 Y53.4508 
G01 X-45.2049 Y53.4508 
G01 X-45.7551 Y54.0010 
G00 Z2.0000 
G00 X-43.2151 Y54.0010 
G01 Z-0.2000 F600.00 
G01 X-43.2151 Y54.7789 
G01 X-42.6649 Y55.3291 
G01 X-41.8870 Y55.3291 
G01 X-41.3368 Y54.7789 
G01 X-41.3368 Y54.0010 
G01 X-41.8870 Y53.4508 
G01 X-42.6649 Y53.4508 
G01 X-43.2151 Y54.0010 
G00 Z2.0000 
G00 X-40.6751 Y54.0010 
G01 Z-0.2000 F600.00 
G01 X-40.6751 Y54.7789 
G01 X-40.1249 Y55.3291 
G01 X-39.3470 Y55.3291 
G01 X-38.7968 Y54.7789 
G01 X-38.7968 Y54.0010 
G01 X-39.3470 Y53.4508 
G01 X-40.1249 Y53.4508 
G01 X-40.6751 Y54.0010 
G00 Z2.0000 
G00 X-38.1351 Y54.0010 
G01 Z-0.2000 F600.00 
G01 X-38.1351 Y54.7789 
G01 X-37.5849 Y55.3291 
G01 X-36.8070 Y55.3291 
G01 X-36.2568 Y54.7789 
G01 X-36.2568 Y54.0010 
G01 X-36.8070 Y53.4508 
G01 X-37.5849 Y53.4508 
G01 X-38.1351 Y54.0010 
G00 Z2.0000 
G00 X-35.5951 Y54.0010 
G01 Z-0.2000 F600.00 
G01 X-35.5951 Y54.7789 
G01 X-35.0449 Y55.3291 
G01 X-34.2670 Y55.3291 
G01 X-33.7168 Y54.7789 
G01 X-33.7168 Y54.0010 
G01 X-34.2670 Y53.4508 
G01 X-35.0449 Y53.4508 
G01 X-35.5951 Y54.0010 
G00 Z2.0000 
G00 X-33.0551 Y54.0010 
G01 Z-0.2000 F600.00 
G01 X-33.0551 Y54.7789 
G01 X-32.5049 Y55.3291 
G01 X-31.7270 Y55.3291 
G01 X-31.1768 Y54.7789 
G01 X-31.1768 Y54.0010 
G01 X-31.7270 Y53.4508 
G01 X-32.5049 Y53.4508 
G01 X-33.0551 Y54.0010 
G00 Z2.0000 
G00 X-27.9751 Y54.0010 
G01 Z-0.2000 F600.00 
G01 X-27.9751 Y54.7789 
G01 X-27.4249 Y55.3291 
G01 X-26.6470 Y55.3291 
G01 X-26.0968 Y54.7789 
G01 X-26.0968 Y54.0010 
G01 X-26.6470 Y53.4508 
G01 X-27.4249 Y53.4508 
G01 X-27.9751 Y54.0010 
G00 Z2.0000 
G00 X-59.9791 Y5.7410 
G01 Z-0.2000 F600.00 
G01 X-59.9791 Y6.5189 
G01 X-59.4289 Y7.0691 
G01 X-58.6510 Y7.0691 
G01 X-58.1008 Y6.5189 
G01 X-58.1008 Y5.7410 
G01 X-58.6510 Y5.1908 
G01 X-59.4289 Y5.1908 
G01 X-59.9791 Y5.7410 
G00 Z2.0000 
G00 X-62.5191 Y5.7410 
G01 Z-0.2000 F600.00 
G01 X-62.5191 Y6.5189 
G01 X-61.9689 Y7.0691 
G01 X-61.1910 Y7.0691 
G01 X-60.6408 Y6.5189 
G01 X-60.6408 Y5.7410 
G01 X-61.1910 Y5.1908 
G01 X-61.9689 Y5.1908 
G01 X-62.5191 Y5.7410 
G00 Z2.0000 
G00 X-65.0591 Y5.7410 
G01 Z-0.2000 F600.00 
G01 X-65.0591 Y6.5189 
G01 X-64.5089 Y7.0691 
G01 X-63.7310 Y7.0691 
G01 X-63.1808 Y6.5189 
G01 X-63.1808 Y5.7410 
G01 X-63.7310 Y5.1908 
G01 X-64.5089 Y5.1908 
G01 X-65.0591 Y5.7410 
G00 Z2.0000 
G00 X-67.5991 Y5.7410 
G01 Z-0.2000 F600.00 
G01 X-67.5991 Y6.5189 
G01 X-67.0489 Y7.0691 
G01 X-66.2710 Y7.0691 
G01 X-65.7208 Y6.5189 
G01 X-65.7208 Y5.7410 
G01 X-66.2710 Y5.1908 
G01 X-67.0489 Y5.1908 
G01 X-67.5991 Y5.7410 
G00 Z2.0000 
G00 X-49.8191 Y5.7410 
G01 Z-0.2000 F600.00 
G01 X-49.8191 Y6.5189 
G01 X-49.2689 Y7.0691 
G01 X-48.4910 Y7.0691 
G01 X-47.9408 Y6.5189 
G01 X-47.9408 Y5.7410 
G01 X-48.4910 Y5.1908 
G01 X-49.2689 Y5.1908 
G01 X-49.8191 Y5.7410 
G00 Z2.0000 
G00 X-47.2791 Y5.7410 
G01 Z-0.2000 F600.00 
G01 X-47.2791 Y6.5189 
G01 X-46.7289 Y7.0691 
G01 X-45.9510 Y7.0691 
G01 X-45.4008 Y6.5189 
G01 X-45.4008 Y5.7410 
G01 X-45.9510 Y5.1908 
G01 X-46.7289 Y5.1908 
G01 X-47.2791 Y5.7410 
G00 Z2.0000 
G00 X-44.7391 Y5.7410 
G01 Z-0.2000 F600.00 
G01 X-44.7391 Y6.5189 
G01 X-44.1889 Y7.0691 
G01 X-43.4110 Y7.0691 
G01 X-42.8608 Y6.5189 
G01 X-42.8608 Y5.7410 
G01 X-43.4110 Y5.1908 
G01 X-44.1889 Y5.1908 
G01 X-44.7391 Y5.7410 
G00 Z2.0000 
G00 X-39.6591 Y5.7410 
G01 Z-0.2000 F600.00 
G01 X-39.6591 Y6.5189 
G01 X-39.1089 Y7.0691 
G01 X-38.3310 Y7.0691 
G01 X-37.7808 Y6.5189 
G01 X-37.7808 Y5.7410 
G01 X-38.3310 Y5.1908 
G01 X-39.1089 Y5.1908 
G01 X-39.6591 Y5.7410 
G00 Z2.0000 
G00 X-37.1191 Y5.7410 
G01 Z-0.2000 F600.00 
G01 X-37.1191 Y6.5189 
G01 X-36.5689 Y7.0691 
G01 X-35.7910 Y7.0691 
G01 X-35.2408 Y6.5189 
G01 X-35.2408 Y5.7410 
G01 X-35.7910 Y5.1908 
G01 X-36.5689 Y5.1908 
G01 X-37.1191 Y5.7410 
G00 Z2.0000 
G00 X-46.1608 Y43.3692 
G01 Z-0.2000 F600.00 
G01 X-45.9570 Y43.2211 
G01 X-45.7788 Y43.0429 
G01 X-45.6307 Y42.8391 
G01 X-45.5163 Y42.6145 
G01 X-45.4384 Y42.3749 
G01 X-45.3990 Y42.1260 
G01 X-45.3990 Y41.8739 
G01 X-45.4384 Y41.6250 
G01 X-45.5163 Y41.3854 
G01 X-45.6307 Y41.1608 
G01 X-45.7788 Y40.9570 
G01 X-45.9570 Y40.7788 
G01 X-46.1608 Y40.6307 
G01 X-46.3854 Y40.5163 
G01 X-46.6250 Y40.4384 
G01 X-46.8739 Y40.3990 
G01 X-47.6239 Y40.3990 
G01 X-47.8760 Y40.3990 
G01 X-61.8368 Y40.3990 
G01 X-62.2566 Y39.9793 
G01 X-62.2665 Y39.9293 
G01 X-62.3416 Y39.7480 
G01 X-62.4506 Y39.5848 
G01 X-62.5894 Y39.4460 
G01 X-62.7526 Y39.3370 
G01 X-62.7951 Y39.3194 
G01 X-62.8323 Y39.2602 
G01 X-62.9983 Y39.0706 
G01 X-63.1919 Y38.9093 
G01 X-63.4084 Y38.7803 
G01 X-63.6423 Y38.6867 
G01 X-63.8880 Y38.6309 
G01 X-64.1396 Y38.6142 
G01 X-64.3905 Y38.6370 
G01 X-64.6348 Y38.6988 
G01 X-64.8664 Y38.7981 
G01 X-65.0797 Y38.9323 
G01 X-65.2693 Y39.0983 
G01 X-65.4306 Y39.2919 
G01 X-65.4477 Y39.3206 
G01 X-65.4873 Y39.3370 
G01 X-65.6505 Y39.4460 
G01 X-65.7893 Y39.5848 
G01 X-65.8983 Y39.7480 
G01 X-65.9734 Y39.9293 
G01 X-66.0117 Y40.1218 
G01 X-66.0117 Y40.3181 
G01 X-65.9734 Y40.5106 
G01 X-65.8983 Y40.6919 
G01 X-65.7893 Y40.8551 
G01 X-65.6505 Y40.9939 
G01 X-65.4874 Y41.1028 
G01 X-65.4836 Y41.1145 
G01 X-65.4504 Y41.1796 
G01 X-65.4218 Y41.2464 
G01 X-65.3935 Y41.2913 
G01 X-65.3692 Y41.3391 
G01 X-65.3265 Y41.3977 
G01 X-65.2876 Y41.4597 
G01 X-65.2520 Y41.5003 
G01 X-65.2211 Y41.5429 
G01 X-65.1701 Y41.5938 
G01 X-65.1216 Y41.6493 
G01 X-65.0802 Y41.6837 
G01 X-63.5429 Y43.2211 
G01 X-63.3391 Y43.3692 
G01 X-63.1145 Y43.4836 
G01 X-62.8749 Y43.5615 
G01 X-62.6260 Y43.6009 
G01 X-62.3739 Y43.6009 
G01 X-49.1106 Y43.6009 
G01 X-48.9711 Y43.7929 
G01 X-48.7929 Y43.9711 
G01 X-48.5891 Y44.1192 
G01 X-48.3645 Y44.2336 
G01 X-48.1249 Y44.3115 
G01 X-47.8760 Y44.3509 
G01 X-47.6239 Y44.3509 
G01 X-47.3750 Y44.3115 
G01 X-47.1354 Y44.2336 
G01 X-46.9108 Y44.1192 
G01 X-46.7070 Y43.9711 
G01 X-46.5288 Y43.7929 
G01 X-46.3807 Y43.5891 
G01 X-46.3065 Y43.4434 
G01 X-46.1608 Y43.3692 
G00 Z2.0000 
G00 X-65.1135 Y26.2163 
G01 Z-0.2000 F600.00 
G01 X-63.1264 Y26.2163 
G01 X-62.9339 Y26.1780 
G01 X-62.7526 Y26.1029 
G01 X-62.5894 Y25.9939 
G01 X-62.4506 Y25.8551 
G01 X-62.3416 Y25.6919 
G01 X-62.3039 Y25.6009 
G01 X-56.8502 Y25.6009 
G01 X-56.8100 Y25.6089 
G01 X-56.6899 Y25.6089 
G01 X-56.6497 Y25.6009 
G01 X-48.4407 Y25.6009 
G01 X-48.3246 Y25.5778 
G01 X-48.2153 Y25.5325 
G01 X-48.1168 Y25.4667 
G01 X-48.0332 Y25.3831 
G01 X-47.7590 Y25.1089 
G01 X-47.6899 Y25.1089 
G01 X-47.5723 Y25.0855 
G01 X-47.4615 Y25.0396 
G01 X-47.3617 Y24.9730 
G01 X-47.2769 Y24.8882 
G01 X-47.2103 Y24.7884 
G01 X-47.1644 Y24.6776 
G01 X-47.1410 Y24.5600 
G01 X-47.1410 Y24.4399 
G01 X-47.1644 Y24.3223 
G01 X-47.2103 Y24.2115 
G01 X-47.2769 Y24.1117 
G01 X-47.3617 Y24.0269 
G01 X-47.4615 Y23.9603 
G01 X-47.5723 Y23.9144 
G01 X-47.6899 Y23.8910 
G01 X-47.8100 Y23.8910 
G01 X-47.8502 Y23.8990 
G01 X-48.0592 Y23.8990 
G01 X-48.1753 Y23.9221 
G01 X-48.2846 Y23.9674 
G01 X-48.3831 Y24.0332 
G01 X-48.4667 Y24.1168 
G01 X-48.7489 Y24.3990 
G01 X-56.6497 Y24.3990 
G01 X-56.6899 Y24.3910 
G01 X-56.8100 Y24.3910 
G01 X-56.8502 Y24.3990 
G01 X-62.6598 Y24.3990 
G01 X-62.7526 Y24.3370 
G01 X-62.9339 Y24.2619 
G01 X-63.1264 Y24.2236 
G01 X-65.1135 Y24.2236 
G01 X-65.3060 Y24.2619 
G01 X-65.4873 Y24.3370 
G01 X-65.6505 Y24.4460 
G01 X-65.7893 Y24.5848 
G01 X-65.8983 Y24.7480 
G01 X-65.9734 Y24.9293 
G01 X-66.0117 Y25.1218 
G01 X-66.0117 Y25.3181 
G01 X-65.9734 Y25.5106 
G01 X-65.8983 Y25.6919 
G01 X-65.7893 Y25.8551 
G01 X-65.6505 Y25.9939 
G01 X-65.4873 Y26.1029 
G01 X-65.3060 Y26.1780 
G01 X-65.1135 Y26.2163 
G00 Z2.0000 
G00 X-62.8739 Y21.6009 
G01 Z-0.2000 F600.00 
G01 X-62.6250 Y21.5615 
G01 X-62.3854 Y21.4836 
G01 X-62.1608 Y21.3692 
G01 X-61.9570 Y21.2211 
G01 X-61.7788 Y21.0429 
G01 X-61.7788 Y21.0428 
G01 X-51.2788 Y10.5429 
G01 X-51.1307 Y10.3391 
G01 X-51.0163 Y10.1145 
G01 X-50.9384 Y9.8749 
G01 X-50.8990 Y9.6260 
G01 X-50.8990 Y9.3739 
G01 X-50.9384 Y9.1250 
G01 X-51.0163 Y8.8854 
G01 X-51.1307 Y8.6608 
G01 X-51.2788 Y8.4570 
G01 X-51.4570 Y8.2788 
G01 X-51.6608 Y8.1307 
G01 X-51.8854 Y8.0163 
G01 X-52.1250 Y7.9384 
G01 X-52.3739 Y7.8990 
G01 X-52.6260 Y7.8990 
G01 X-52.8749 Y7.9384 
G01 X-53.1145 Y8.0163 
G01 X-53.3391 Y8.1307 
G01 X-53.5429 Y8.2788 
G01 X-63.6631 Y18.3990 
G01 X-63.9780 Y18.3990 
G01 X-64.0810 Y18.3961 
G01 X-64.1033 Y18.3990 
G01 X-64.1260 Y18.3990 
G01 X-64.2286 Y18.4153 
G01 X-64.3308 Y18.4285 
G01 X-64.3523 Y18.4349 
G01 X-64.3749 Y18.4384 
G01 X-64.4735 Y18.4705 
G01 X-64.5726 Y18.4996 
G01 X-64.5932 Y18.5094 
G01 X-64.6145 Y18.5163 
G01 X-64.7058 Y18.5629 
G01 X-64.8002 Y18.6076 
G01 X-64.8189 Y18.6205 
G01 X-64.8391 Y18.6307 
G01 X-64.9230 Y18.6917 
G01 X-65.0082 Y18.7500 
G01 X-65.0245 Y18.7655 
G01 X-65.0429 Y18.7788 
G01 X-65.1162 Y18.8521 
G01 X-65.1913 Y18.9231 
G01 X-65.2050 Y18.9410 
G01 X-65.2211 Y18.9570 
G01 X-65.2820 Y19.0409 
G01 X-65.3451 Y19.1227 
G01 X-65.3559 Y19.1426 
G01 X-65.3692 Y19.1608 
G01 X-65.4158 Y19.2523 
G01 X-65.4546 Y19.3235 
G01 X-65.4873 Y19.3370 
G01 X-65.6505 Y19.4460 
G01 X-65.7893 Y19.5848 
G01 X-65.8983 Y19.7480 
G01 X-65.9734 Y19.9293 
G01 X-66.0117 Y20.1218 
G01 X-66.0117 Y20.3181 
G01 X-65.9734 Y20.5106 
G01 X-65.8983 Y20.6919 
G01 X-65.7893 Y20.8551 
G01 X-65.6505 Y20.9939 
G01 X-65.4873 Y21.1029 
G01 X-65.4431 Y21.1212 
G01 X-65.3699 Y21.2282 
G01 X-65.1968 Y21.4113 
G01 X-64.9972 Y21.5651 
G01 X-64.7760 Y21.6858 
G01 X-64.5386 Y21.7703 
G01 X-64.2909 Y21.8167 
G01 X-64.0389 Y21.8238 
G01 X-63.7891 Y21.7914 
G01 X-63.5473 Y21.7203 
G01 X-63.3197 Y21.6123 
G01 X-63.3031 Y21.6009 
G01 X-62.8739 Y21.6009 
G00 Z2.0000 
G00 X-65.1135 Y16.2163 
G01 Z-0.2000 F600.00 
G01 X-63.1264 Y16.2163 
G01 X-62.9339 Y16.1780 
G01 X-62.7526 Y16.1029 
G01 X-62.5894 Y15.9939 
G01 X-62.4506 Y15.8551 
G01 X-62.3416 Y15.6919 
G01 X-62.2665 Y15.5106 
G01 X-62.2282 Y15.3181 
G01 X-62.2282 Y15.1218 
G01 X-62.2665 Y14.9293 
G01 X-62.3416 Y14.7480 
G01 X-62.4506 Y14.5848 
G01 X-62.5894 Y14.4460 
G01 X-62.7526 Y14.3370 
G01 X-62.9339 Y14.2619 
G01 X-63.1264 Y14.2236 
G01 X-65.1135 Y14.2236 
G01 X-65.3060 Y14.2619 
G01 X-65.4873 Y14.3370 
G01 X-65.6505 Y14.4460 
G01 X-65.7893 Y14.5848 
G01 X-65.8983 Y14.7480 
G01 X-65.9734 Y14.9293 
G01 X-66.0117 Y15.1218 
G01 X-66.0117 Y15.3181 
G01 X-65.9734 Y15.5106 
G01 X-65.8983 Y15.6919 
G01 X-65.7893 Y15.8551 
G01 X-65.6505 Y15.9939 
G01 X-65.4873 Y16.1029 
G01 X-65.3060 Y16.1780 
G01 X-65.1135 Y16.2163 
G00 Z2.0000 
G00 X-20.0808 Y8.7907 
G01 Z-0.2000 F600.00 
G01 X-20.0808 Y6.9292 
G01 X-20.1169 Y6.7478 
G01 X-20.1877 Y6.5769 
G01 X-20.2905 Y6.4231 
G01 X-20.4213 Y6.2923 
G01 X-20.5751 Y6.1895 
G01 X-20.7460 Y6.1187 
G01 X-20.9274 Y6.0826 
G01 X-21.1125 Y6.0826 
G01 X-21.2939 Y6.1187 
G01 X-21.4648 Y6.1895 
G01 X-21.6186 Y6.2923 
G01 X-21.7494 Y6.4231 
G01 X-21.8522 Y6.5769 
G01 X-21.9230 Y6.7478 
G01 X-21.9591 Y6.9292 
G01 X-21.9591 Y8.7907 
G01 X-21.9230 Y8.9721 
G01 X-21.8522 Y9.1430 
G01 X-21.7494 Y9.2968 
G01 X-21.6186 Y9.4276 
G01 X-21.4648 Y9.5304 
G01 X-21.2939 Y9.6012 
G01 X-21.1125 Y9.6373 
G01 X-20.9274 Y9.6373 
G01 X-20.7460 Y9.6012 
G01 X-20.5751 Y9.5304 
G01 X-20.4213 Y9.4276 
G01 X-20.2905 Y9.2968 
G01 X-20.1877 Y9.1430 
G01 X-20.1169 Y8.9721 
G01 X-20.0808 Y8.7907 
G00 Z2.0000 
G00 X-22.6208 Y8.7907 
G01 Z-0.2000 F600.00 
G01 X-22.6208 Y6.9292 
G01 X-22.6569 Y6.7478 
G01 X-22.7277 Y6.5769 
G01 X-22.8305 Y6.4231 
G01 X-22.9613 Y6.2923 
G01 X-23.1151 Y6.1895 
G01 X-23.2860 Y6.1187 
G01 X-23.4674 Y6.0826 
G01 X-23.6525 Y6.0826 
G01 X-23.8339 Y6.1187 
G01 X-24.0048 Y6.1895 
G01 X-24.1586 Y6.2923 
G01 X-24.2894 Y6.4231 
G01 X-24.3922 Y6.5769 
G01 X-24.4630 Y6.7478 
G01 X-24.4991 Y6.9292 
G01 X-24.4991 Y8.7907 
G01 X-24.4630 Y8.9721 
G01 X-24.3922 Y9.1430 
G01 X-24.2894 Y9.2968 
G01 X-24.1586 Y9.4276 
G01 X-24.0048 Y9.5304 
G01 X-23.8339 Y9.6012 
G01 X-23.6525 Y9.6373 
G01 X-23.4674 Y9.6373 
G01 X-23.2860 Y9.6012 
G01 X-23.1151 Y9.5304 
G01 X-22.9613 Y9.4276 
G01 X-22.8305 Y9.2968 
G01 X-22.7277 Y9.1430 
G01 X-22.6569 Y8.9721 
G01 X-22.6208 Y8.7907 
G00 Z2.0000 
G00 X-8.2309 Y11.0520 
G01 Z-0.2000 F600.00 
G01 X-8.2309 Y11.2679 
G01 X-8.1971 Y11.4810 
G01 X-8.1305 Y11.6862 
G01 X-8.0325 Y11.8785 
G01 X-7.9661 Y11.9698 
G01 X-8.6454 Y12.6490 
G01 X-30.6527 Y12.6490 
G01 X-26.9950 Y8.9913 
G01 X-26.9322 Y9.1430 
G01 X-26.8294 Y9.2968 
G01 X-26.6986 Y9.4276 
G01 X-26.5448 Y9.5304 
G01 X-26.3739 Y9.6012 
G01 X-26.1925 Y9.6373 
G01 X-26.0074 Y9.6373 
G01 X-25.8260 Y9.6012 
G01 X-25.6551 Y9.5304 
G01 X-25.5013 Y9.4276 
G01 X-25.3705 Y9.2968 
G01 X-25.2677 Y9.1430 
G01 X-25.1969 Y8.9721 
G01 X-25.1608 Y8.7907 
G01 X-25.1608 Y6.9292 
G01 X-25.1969 Y6.7478 
G01 X-25.2677 Y6.5769 
G01 X-25.3705 Y6.4231 
G01 X-25.5013 Y6.2923 
G01 X-25.6551 Y6.1895 
G01 X-25.8260 Y6.1187 
G01 X-26.0074 Y6.0826 
G01 X-26.1925 Y6.0826 
G01 X-26.3739 Y6.1187 
G01 X-26.5448 Y6.1895 
G01 X-26.6986 Y6.2923 
G01 X-26.8294 Y6.4231 
G01 X-26.9322 Y6.5769 
G01 X-27.0030 Y6.7478 
G01 X-27.0391 Y6.9292 
G01 X-27.0391 Y8.0428 
G01 X-31.6454 Y12.6490 
G01 X-34.0462 Y12.6490 
G01 X-34.1354 Y12.6729 
G01 X-34.2155 Y12.7191 
G01 X-34.2808 Y12.7844 
G01 X-34.9542 Y13.4578 
G01 X-35.7912 Y13.4578 
G01 X-35.9481 Y13.4890 
G01 X-36.0959 Y13.5502 
G01 X-36.2289 Y13.6391 
G01 X-36.3420 Y13.7522 
G01 X-36.4309 Y13.8852 
G01 X-36.4921 Y14.0330 
G01 X-36.5233 Y14.1899 
G01 X-36.5233 Y14.3500 
G01 X-36.4921 Y14.5069 
G01 X-36.4309 Y14.6547 
G01 X-36.3420 Y14.7877 
G01 X-36.2289 Y14.9008 
G01 X-36.0959 Y14.9897 
G01 X-35.9481 Y15.0509 
G01 X-35.7912 Y15.0821 
G01 X-34.2087 Y15.0821 
G01 X-34.0518 Y15.0509 
G01 X-33.9040 Y14.9897 
G01 X-33.7710 Y14.9008 
G01 X-33.6579 Y14.7877 
G01 X-33.5690 Y14.6547 
G01 X-33.5078 Y14.5069 
G01 X-33.4766 Y14.3500 
G01 X-33.4766 Y14.1899 
G01 X-33.5078 Y14.0330 
G01 X-33.5690 Y13.8852 
G01 X-33.6579 Y13.7522 
G01 X-33.7710 Y13.6391 
G01 X-33.9040 Y13.5502 
G01 X-34.0100 Y13.5064 
G01 X-33.8545 Y13.3509 
G01 X-31.5462 Y13.3509 
G01 X-8.4537 Y13.3509 
G01 X-8.3645 Y13.3270 
G01 X-8.2844 Y13.2808 
G01 X-8.2191 Y13.2155 
G01 X-7.4179 Y12.4143 
G01 X-7.3862 Y12.4305 
G01 X-7.1810 Y12.4971 
G01 X-6.9679 Y12.5309 
G01 X-6.7520 Y12.5309 
G01 X-6.5389 Y12.4971 
G01 X-6.3337 Y12.4305 
G01 X-6.1414 Y12.3325 
G01 X-5.9668 Y12.2057 
G01 X-5.8142 Y12.0531 
G01 X-5.6874 Y11.8785 
G01 X-5.5894 Y11.6862 
G01 X-5.5228 Y11.4810 
G01 X-5.4890 Y11.2679 
G01 X-5.4890 Y11.0520 
G01 X-5.5228 Y10.8389 
G01 X-5.5894 Y10.6337 
G01 X-5.6874 Y10.4414 
G01 X-5.8142 Y10.2668 
G01 X-5.9668 Y10.1142 
G01 X-6.1414 Y9.9874 
G01 X-6.3337 Y9.8894 
G01 X-6.5389 Y9.8228 
G01 X-6.7520 Y9.7890 
G01 X-6.9679 Y9.7890 
G01 X-7.1810 Y9.8228 
G01 X-7.3862 Y9.8894 
G01 X-7.5785 Y9.9874 
G01 X-7.7531 Y10.1142 
G01 X-7.9057 Y10.2668 
G01 X-8.0325 Y10.4414 
G01 X-8.1305 Y10.6337 
G01 X-8.1971 Y10.8389 
G01 X-8.2309 Y11.0520 
G00 Z2.0000 
G00 X-13.3109 Y10.5921 
G01 Z-0.2000 F600.00 
G01 X-13.3109 Y11.7278 
G01 X-12.5078 Y12.5309 
G01 X-11.3721 Y12.5309 
G01 X-10.5690 Y11.7278 
G01 X-10.5690 Y10.5921 
G01 X-11.3721 Y9.7890 
G01 X-12.5078 Y9.7890 
G01 X-13.3109 Y10.5921 
G00 Z2.0000 
G00 X-8.1209 Y32.5120 
G01 Z-0.2000 F600.00 
G01 X-8.1209 Y32.7279 
G01 X-8.0871 Y32.9410 
G01 X-8.0205 Y33.1462 
G01 X-7.9225 Y33.3385 
G01 X-7.7957 Y33.5131 
G01 X-7.6431 Y33.6657 
G01 X-7.4685 Y33.7925 
G01 X-7.2762 Y33.8905 
G01 X-7.0710 Y33.9571 
G01 X-6.8579 Y33.9909 
G01 X-6.6420 Y33.9909 
G01 X-6.4289 Y33.9571 
G01 X-6.2237 Y33.8905 
G01 X-6.0314 Y33.7925 
G01 X-5.8568 Y33.6657 
G01 X-5.7042 Y33.5131 
G01 X-5.5774 Y33.3385 
G01 X-5.4794 Y33.1462 
G01 X-5.4128 Y32.9410 
G01 X-5.3790 Y32.7279 
G01 X-5.3790 Y32.5120 
G01 X-5.4128 Y32.2989 
G01 X-5.4794 Y32.0937 
G01 X-5.5774 Y31.9014 
G01 X-5.7042 Y31.7268 
G01 X-5.8568 Y31.5742 
G01 X-6.0314 Y31.4474 
G01 X-6.2237 Y31.3494 
G01 X-6.4289 Y31.2828 
G01 X-6.6420 Y31.2490 
G01 X-6.8579 Y31.2490 
G01 X-7.0710 Y31.2828 
G01 X-7.2762 Y31.3494 
G01 X-7.4685 Y31.4474 
G01 X-7.6431 Y31.5742 
G01 X-7.7957 Y31.7268 
G01 X-7.9225 Y31.9014 
G01 X-8.0205 Y32.0937 
G01 X-8.0871 Y32.2989 
G01 X-8.1209 Y32.5120 
G00 Z2.0000 
G00 X-13.2009 Y32.0521 
G01 Z-0.2000 F600.00 
G01 X-13.2009 Y33.1878 
G01 X-12.3978 Y33.9909 
G01 X-12.3509 Y33.9909 
G01 X-12.3509 Y51.1490 
G01 X-26.9537 Y51.1490 
G01 X-27.0462 Y51.1490 
G01 X-27.1354 Y51.1729 
G01 X-27.2155 Y51.2191 
G01 X-29.4471 Y53.4508 
G01 X-29.9649 Y53.4508 
G01 X-30.5151 Y54.0010 
G01 X-30.5151 Y54.7789 
G01 X-29.9649 Y55.3291 
G01 X-29.1870 Y55.3291 
G01 X-28.6368 Y54.7789 
G01 X-28.6368 Y54.0010 
G01 X-28.8208 Y53.8171 
G01 X-26.8545 Y51.8509 
G01 X-11.9537 Y51.8509 
G01 X-11.8645 Y51.8270 
G01 X-11.7844 Y51.7808 
G01 X-11.7191 Y51.7155 
G01 X-11.6729 Y51.6354 
G01 X-11.6490 Y51.5462 
G01 X-11.6490 Y51.4537 
G01 X-11.6490 Y33.9909 
G01 X-11.2621 Y33.9909 
G01 X-10.4590 Y33.1878 
G01 X-10.4590 Y32.0521 
G01 X-11.2621 Y31.2490 
G01 X-12.3978 Y31.2490 
G01 X-13.2009 Y32.0521 
G00 Z2.0000 
G00 X-65.2962 Y37.6009 
G01 Z-0.2000 F600.00 
G01 X-65.2037 Y37.6009 
G01 X-55.4979 Y37.6009 
G01 X-55.4730 Y37.6382 
G01 X-55.3882 Y37.7230 
G01 X-55.2884 Y37.7896 
G01 X-55.1776 Y37.8355 
G01 X-55.0600 Y37.8589 
G01 X-54.9399 Y37.8589 
G01 X-54.8223 Y37.8355 
G01 X-54.7115 Y37.7896 
G01 X-54.6117 Y37.7230 
G01 X-54.5269 Y37.6382 
G01 X-54.4603 Y37.5384 
G01 X-54.4144 Y37.4276 
G01 X-54.3910 Y37.3100 
G01 X-54.3910 Y37.1899 
G01 X-54.4144 Y37.0723 
G01 X-54.4603 Y36.9615 
G01 X-54.5269 Y36.8617 
G01 X-54.6117 Y36.7769 
G01 X-54.7115 Y36.7103 
G01 X-54.8223 Y36.6644 
G01 X-54.9399 Y36.6410 
G01 X-55.0600 Y36.6410 
G01 X-55.1776 Y36.6644 
G01 X-55.2884 Y36.7103 
G01 X-55.3882 Y36.7769 
G01 X-55.4730 Y36.8617 
G01 X-55.4979 Y36.8990 
G01 X-64.8992 Y36.8990 
G01 X-64.9144 Y36.8223 
G01 X-64.9603 Y36.7115 
G01 X-65.0269 Y36.6117 
G01 X-65.1117 Y36.5269 
G01 X-65.2115 Y36.4603 
G01 X-65.3223 Y36.4144 
G01 X-65.4399 Y36.3910 
G01 X-65.5600 Y36.3910 
G01 X-65.6776 Y36.4144 
G01 X-65.7884 Y36.4603 
G01 X-65.8882 Y36.5269 
G01 X-65.9730 Y36.6117 
G01 X-66.0396 Y36.7115 
G01 X-66.0855 Y36.8223 
G01 X-66.1089 Y36.9399 
G01 X-66.1089 Y37.0600 
G01 X-66.0855 Y37.1776 
G01 X-66.0396 Y37.2884 
G01 X-65.9730 Y37.3882 
G01 X-65.8882 Y37.4730 
G01 X-65.7884 Y37.5396 
G01 X-65.6776 Y37.5855 
G01 X-65.5600 Y37.6089 
G01 X-65.4399 Y37.6089 
G01 X-65.3403 Y37.5890 
G01 X-65.2962 Y37.6009 
G00 Z2.0000 
G00 X-49.7844 Y30.2191 
G01 Z-0.2000 F600.00 
G01 X-49.8645 Y30.1729 
G01 X-49.9537 Y30.1490 
G01 X-50.0462 Y30.1490 
G01 X-50.0463 Y30.1490 
G01 X-56.4537 Y30.1490 
G01 X-56.5462 Y30.1490 
G01 X-56.6354 Y30.1729 
G01 X-56.7155 Y30.2191 
G01 X-57.8961 Y31.3998 
G01 X-57.9399 Y31.3910 
G01 X-58.0600 Y31.3910 
G01 X-58.1776 Y31.4144 
G01 X-58.2884 Y31.4603 
G01 X-58.3882 Y31.5269 
G01 X-58.4730 Y31.6117 
G01 X-58.4978 Y31.6490 
G01 X-65.3545 Y31.6490 
G01 X-66.1490 Y30.8545 
G01 X-66.1490 Y7.8509 
G01 X-55.4537 Y7.8509 
G01 X-51.6454 Y7.8509 
G01 X-51.1001 Y8.3961 
G01 X-51.1089 Y8.4399 
G01 X-51.1089 Y8.5600 
G01 X-51.0855 Y8.6776 
G01 X-51.0396 Y8.7884 
G01 X-50.9730 Y8.8882 
G01 X-50.8882 Y8.9730 
G01 X-50.7884 Y9.0396 
G01 X-50.6776 Y9.0855 
G01 X-50.5600 Y9.1089 
G01 X-50.4399 Y9.1089 
G01 X-50.3223 Y9.0855 
G01 X-50.2115 Y9.0396 
G01 X-50.1117 Y8.9730 
G01 X-50.0269 Y8.8882 
G01 X-49.9603 Y8.7884 
G01 X-49.9144 Y8.6776 
G01 X-49.8910 Y8.5600 
G01 X-49.8910 Y8.4399 
G01 X-49.9144 Y8.3223 
G01 X-49.9603 Y8.2115 
G01 X-50.0269 Y8.1117 
G01 X-50.1117 Y8.0269 
G01 X-50.2115 Y7.9603 
G01 X-50.3223 Y7.9144 
G01 X-50.4399 Y7.8910 
G01 X-50.5600 Y7.8910 
G01 X-50.6038 Y7.8998 
G01 X-51.2191 Y7.2844 
G01 X-51.2844 Y7.2191 
G01 X-51.3645 Y7.1729 
G01 X-51.4537 Y7.1490 
G01 X-55.3545 Y7.1490 
G01 X-55.7728 Y6.7308 
G01 X-55.5608 Y6.5189 
G01 X-55.5608 Y5.7410 
G01 X-56.1110 Y5.1908 
G01 X-56.8889 Y5.1908 
G01 X-57.4391 Y5.7410 
G01 X-57.4391 Y6.5189 
G01 X-56.8889 Y7.0691 
G01 X-56.4272 Y7.0691 
G01 X-56.3472 Y7.1490 
G01 X-66.5462 Y7.1490 
G01 X-66.6354 Y7.1729 
G01 X-66.7155 Y7.2191 
G01 X-66.7808 Y7.2844 
G01 X-66.8270 Y7.3645 
G01 X-66.8509 Y7.4537 
G01 X-66.8509 Y7.5462 
G01 X-66.8509 Y31.0462 
G01 X-66.8270 Y31.1354 
G01 X-66.7808 Y31.2155 
G01 X-66.7155 Y31.2808 
G01 X-65.7155 Y32.2808 
G01 X-65.6354 Y32.3270 
G01 X-65.5462 Y32.3509 
G01 X-65.4537 Y32.3509 
G01 X-58.4978 Y32.3509 
G01 X-58.4730 Y32.3882 
G01 X-58.3882 Y32.4730 
G01 X-58.2884 Y32.5396 
G01 X-58.1776 Y32.5855 
G01 X-58.0600 Y32.6089 
G01 X-57.9399 Y32.6089 
G01 X-57.8223 Y32.5855 
G01 X-57.7115 Y32.5396 
G01 X-57.6117 Y32.4730 
G01 X-57.5269 Y32.3882 
G01 X-57.4603 Y32.2884 
G01 X-57.4144 Y32.1776 
G01 X-57.3910 Y32.0600 
G01 X-57.3910 Y31.9399 
G01 X-57.3998 Y31.8961 
G01 X-56.3545 Y30.8509 
G01 X-50.1454 Y30.8509 
G01 X-48.7155 Y32.2808 
G01 X-48.7153 Y32.2809 
G01 X-48.6001 Y32.3961 
G01 X-48.6089 Y32.4399 
G01 X-48.6089 Y32.5600 
G01 X-48.5855 Y32.6776 
G01 X-48.5396 Y32.7884 
G01 X-48.4730 Y32.8882 
G01 X-48.3882 Y32.9730 
G01 X-48.2884 Y33.0396 
G01 X-48.1776 Y33.0855 
G01 X-48.0600 Y33.1089 
G01 X-47.9399 Y33.1089 
G01 X-47.8223 Y33.0855 
G01 X-47.7115 Y33.0396 
G01 X-47.6117 Y32.9730 
G01 X-47.5269 Y32.8882 
G01 X-47.4603 Y32.7884 
G01 X-47.4144 Y32.6776 
G01 X-47.3910 Y32.5600 
G01 X-47.3910 Y32.4399 
G01 X-47.4088 Y32.3509 
G01 X-33.3509 Y32.3509 
G01 X-33.3509 Y34.8545 
G01 X-36.6454 Y38.1490 
G01 X-55.5462 Y38.1490 
G01 X-55.6354 Y38.1729 
G01 X-55.7155 Y38.2191 
G01 X-55.7808 Y38.2844 
G01 X-55.7808 Y38.2845 
G01 X-56.3961 Y38.8998 
G01 X-56.4399 Y38.8910 
G01 X-56.5600 Y38.8910 
G01 X-56.6776 Y38.9144 
G01 X-56.7884 Y38.9603 
G01 X-56.8882 Y39.0269 
G01 X-56.9730 Y39.1117 
G01 X-57.0396 Y39.2115 
G01 X-57.0855 Y39.3223 
G01 X-57.1089 Y39.4399 
G01 X-57.1089 Y39.5600 
G01 X-57.0855 Y39.6776 
G01 X-57.0396 Y39.7884 
G01 X-56.9730 Y39.8882 
G01 X-56.8882 Y39.9730 
G01 X-56.7884 Y40.0396 
G01 X-56.6776 Y40.0855 
G01 X-56.5600 Y40.1089 
G01 X-56.4399 Y40.1089 
G01 X-56.3223 Y40.0855 
G01 X-56.2115 Y40.0396 
G01 X-56.1117 Y39.9730 
G01 X-56.0269 Y39.8882 
G01 X-55.9603 Y39.7884 
G01 X-55.9144 Y39.6776 
G01 X-55.8910 Y39.5600 
G01 X-55.8910 Y39.4399 
G01 X-55.8998 Y39.3961 
G01 X-55.3545 Y38.8509 
G01 X-36.5462 Y38.8509 
G01 X-36.4537 Y38.8509 
G01 X-36.3645 Y38.8270 
G01 X-36.2844 Y38.7808 
G01 X-32.7844 Y35.2808 
G01 X-32.7191 Y35.2155 
G01 X-32.6729 Y35.1354 
G01 X-32.6490 Y35.0462 
G01 X-32.6490 Y32.0462 
G01 X-32.6490 Y31.9537 
G01 X-32.6729 Y31.8645 
G01 X-32.7191 Y31.7844 
G01 X-32.7844 Y31.7191 
G01 X-32.8645 Y31.6729 
G01 X-32.9537 Y31.6490 
G01 X-48.3545 Y31.6490 
G01 X-49.7844 Y30.2191 
G00 Z2.0000 
G00 X-30.0462 Y47.3509 
G01 Z-0.2000 F600.00 
G01 X-29.9537 Y47.3509 
G01 X-19.1454 Y47.3509 
G01 X-18.6001 Y47.8961 
G01 X-18.6089 Y47.9399 
G01 X-18.6089 Y48.0600 
G01 X-18.5855 Y48.1776 
G01 X-18.5396 Y48.2884 
G01 X-18.4730 Y48.3882 
G01 X-18.3882 Y48.4730 
G01 X-18.2884 Y48.5396 
G01 X-18.1776 Y48.5855 
G01 X-18.0600 Y48.6089 
G01 X-17.9399 Y48.6089 
G01 X-17.8223 Y48.5855 
G01 X-17.7115 Y48.5396 
G01 X-17.6117 Y48.4730 
G01 X-17.5269 Y48.3882 
G01 X-17.4603 Y48.2884 
G01 X-17.4144 Y48.1776 
G01 X-17.3910 Y48.0600 
G01 X-17.3910 Y47.9399 
G01 X-17.4144 Y47.8223 
G01 X-17.4603 Y47.7115 
G01 X-17.5269 Y47.6117 
G01 X-17.6117 Y47.5269 
G01 X-17.7115 Y47.4603 
G01 X-17.8223 Y47.4144 
G01 X-17.9399 Y47.3910 
G01 X-18.0600 Y47.3910 
G01 X-18.1038 Y47.3998 
G01 X-18.7191 Y46.7844 
G01 X-18.7844 Y46.7191 
G01 X-18.8645 Y46.6729 
G01 X-18.9537 Y46.6490 
G01 X-29.6490 Y46.6490 
G01 X-29.6490 Y30.4537 
G01 X-29.6729 Y30.3645 
G01 X-29.7191 Y30.2844 
G01 X-29.7844 Y30.2191 
G01 X-36.2191 Y23.7844 
G01 X-36.2844 Y23.7191 
G01 X-41.8997 Y18.1038 
G01 X-41.8910 Y18.0600 
G01 X-41.8910 Y17.9399 
G01 X-41.9144 Y17.8223 
G01 X-41.9603 Y17.7115 
G01 X-42.0269 Y17.6117 
G01 X-42.1117 Y17.5269 
G01 X-42.2115 Y17.4603 
G01 X-42.3223 Y17.4144 
G01 X-42.4399 Y17.3910 
G01 X-42.5600 Y17.3910 
G01 X-42.6776 Y17.4144 
G01 X-42.7884 Y17.4603 
G01 X-42.8882 Y17.5269 
G01 X-42.9730 Y17.6117 
G01 X-43.0396 Y17.7115 
G01 X-43.0855 Y17.8223 
G01 X-43.1089 Y17.9399 
G01 X-43.1089 Y18.0600 
G01 X-43.0855 Y18.1776 
G01 X-43.0396 Y18.2884 
G01 X-42.9730 Y18.3882 
G01 X-42.8882 Y18.4730 
G01 X-42.7884 Y18.5396 
G01 X-42.6776 Y18.5855 
G01 X-42.5600 Y18.6089 
G01 X-42.4399 Y18.6089 
G01 X-42.3961 Y18.6002 
G01 X-36.9963 Y23.9999 
G01 X-40.3961 Y27.3997 
G01 X-40.4399 Y27.3910 
G01 X-40.5600 Y27.3910 
G01 X-40.6776 Y27.4144 
G01 X-40.7884 Y27.4603 
G01 X-40.8882 Y27.5269 
G01 X-40.9730 Y27.6117 
G01 X-41.0396 Y27.7115 
G01 X-41.0855 Y27.8223 
G01 X-41.1089 Y27.9399 
G01 X-41.1089 Y28.0600 
G01 X-41.0855 Y28.1776 
G01 X-41.0396 Y28.2884 
G01 X-40.9730 Y28.3882 
G01 X-40.8882 Y28.4730 
G01 X-40.7884 Y28.5396 
G01 X-40.6776 Y28.5855 
G01 X-40.5600 Y28.6089 
G01 X-40.4399 Y28.6089 
G01 X-40.3223 Y28.5855 
G01 X-40.2115 Y28.5396 
G01 X-40.1117 Y28.4730 
G01 X-40.0269 Y28.3882 
G01 X-39.9603 Y28.2884 
G01 X-39.9144 Y28.1776 
G01 X-39.8910 Y28.0600 
G01 X-39.8910 Y27.9399 
G01 X-39.8997 Y27.8961 
G01 X-36.4999 Y24.4963 
G01 X-30.3509 Y30.6454 
G01 X-30.3509 Y46.6490 
G01 X-36.0020 Y46.6490 
G01 X-36.0269 Y46.6117 
G01 X-36.1117 Y46.5269 
G01 X-36.2115 Y46.4603 
G01 X-36.3223 Y46.4144 
G01 X-36.4399 Y46.3910 
G01 X-36.5600 Y46.3910 
G01 X-36.6776 Y46.4144 
G01 X-36.7884 Y46.4603 
G01 X-36.8882 Y46.5269 
G01 X-36.9730 Y46.6117 
G01 X-37.0396 Y46.7115 
G01 X-37.0855 Y46.8223 
G01 X-37.1089 Y46.9399 
G01 X-37.1089 Y47.0600 
G01 X-37.0855 Y47.1776 
G01 X-37.0396 Y47.2884 
G01 X-36.9730 Y47.3882 
G01 X-36.8882 Y47.4730 
G01 X-36.7884 Y47.5396 
G01 X-36.6776 Y47.5855 
G01 X-36.5600 Y47.6089 
G01 X-36.4399 Y47.6089 
G01 X-36.3223 Y47.5855 
G01 X-36.2115 Y47.5396 
G01 X-36.1117 Y47.4730 
G01 X-36.0269 Y47.3882 
G01 X-36.0020 Y47.3509 
G01 X-30.0462 Y47.3509 
G00 Z2.0000 
G00 X-30.6490 Y31.0462 
G01 Z-0.2000 F600.00 
G01 X-30.6490 Y30.9537 
G01 X-30.6729 Y30.8645 
G01 X-30.7191 Y30.7844 
G01 X-30.7844 Y30.7191 
G01 X-30.8645 Y30.6729 
G01 X-30.9537 Y30.6490 
G01 X-47.5021 Y30.6490 
G01 X-47.5269 Y30.6117 
G01 X-47.6117 Y30.5269 
G01 X-47.7115 Y30.4603 
G01 X-47.8223 Y30.4144 
G01 X-47.9399 Y30.3910 
G01 X-48.0600 Y30.3910 
G01 X-48.1776 Y30.4144 
G01 X-48.2884 Y30.4603 
G01 X-48.3882 Y30.5269 
G01 X-48.4730 Y30.6117 
G01 X-48.5396 Y30.7115 
G01 X-48.5855 Y30.8223 
G01 X-48.6089 Y30.9399 
G01 X-48.6089 Y31.0600 
G01 X-48.5855 Y31.1776 
G01 X-48.5396 Y31.2884 
G01 X-48.4730 Y31.3882 
G01 X-48.3882 Y31.4730 
G01 X-48.2884 Y31.5396 
G01 X-48.1776 Y31.5855 
G01 X-48.0600 Y31.6089 
G01 X-47.9399 Y31.6089 
G01 X-47.8223 Y31.5855 
G01 X-47.7115 Y31.5396 
G01 X-47.6117 Y31.4730 
G01 X-47.5269 Y31.3882 
G01 X-47.5021 Y31.3509 
G01 X-31.3509 Y31.3509 
G01 X-31.3509 Y42.7521 
G01 X-31.3882 Y42.7769 
G01 X-31.4730 Y42.8617 
G01 X-31.5396 Y42.9615 
G01 X-31.5855 Y43.0723 
G01 X-31.6089 Y43.1899 
G01 X-31.6089 Y43.3100 
G01 X-31.5855 Y43.4276 
G01 X-31.5396 Y43.5384 
G01 X-31.4730 Y43.6382 
G01 X-31.3882 Y43.7230 
G01 X-31.2884 Y43.7896 
G01 X-31.1776 Y43.8355 
G01 X-31.0600 Y43.8589 
G01 X-30.9399 Y43.8589 
G01 X-30.8223 Y43.8355 
G01 X-30.7115 Y43.7896 
G01 X-30.6117 Y43.7230 
G01 X-30.5269 Y43.6382 
G01 X-30.4603 Y43.5384 
G01 X-30.4144 Y43.4276 
G01 X-30.3910 Y43.3100 
G01 X-30.3910 Y43.1899 
G01 X-30.4144 Y43.0723 
G01 X-30.4603 Y42.9615 
G01 X-30.5269 Y42.8617 
G01 X-30.6117 Y42.7769 
G01 X-30.6490 Y42.7521 
G01 X-30.6490 Y31.0462 
G00 Z2.0000 
G00 X-55.1454 Y32.6490 
G01 Z-0.2000 F600.00 
G01 X-64.9537 Y32.6490 
G01 X-65.0462 Y32.6490 
G01 X-65.1354 Y32.6729 
G01 X-65.2155 Y32.7191 
G01 X-66.7155 Y34.2191 
G01 X-66.7808 Y34.2844 
G01 X-66.8270 Y34.3645 
G01 X-66.8509 Y34.4537 
G01 X-66.8509 Y37.9537 
G01 X-66.8509 Y38.0462 
G01 X-66.8270 Y38.1354 
G01 X-66.7808 Y38.2155 
G01 X-66.7155 Y38.2808 
G01 X-66.6354 Y38.3270 
G01 X-66.5462 Y38.3509 
G01 X-59.6454 Y38.3509 
G01 X-58.7876 Y39.2086 
G01 X-58.7896 Y39.2115 
G01 X-58.8355 Y39.3223 
G01 X-58.8589 Y39.4399 
G01 X-58.8589 Y39.5600 
G01 X-58.8355 Y39.6776 
G01 X-58.7896 Y39.7884 
G01 X-58.7230 Y39.8882 
G01 X-58.6382 Y39.9730 
G01 X-58.5384 Y40.0396 
G01 X-58.4276 Y40.0855 
G01 X-58.3100 Y40.1089 
G01 X-58.1899 Y40.1089 
G01 X-58.0723 Y40.0855 
G01 X-57.9615 Y40.0396 
G01 X-57.8617 Y39.9730 
G01 X-57.7769 Y39.8882 
G01 X-57.7103 Y39.7884 
G01 X-57.6644 Y39.6776 
G01 X-57.6410 Y39.5600 
G01 X-57.6410 Y39.4399 
G01 X-57.6644 Y39.3223 
G01 X-57.7103 Y39.2115 
G01 X-57.7769 Y39.1117 
G01 X-57.8617 Y39.0269 
G01 X-57.9615 Y38.9603 
G01 X-58.0723 Y38.9144 
G01 X-58.0933 Y38.9103 
G01 X-59.2844 Y37.7191 
G01 X-59.3645 Y37.6729 
G01 X-59.4537 Y37.6490 
G01 X-59.5462 Y37.6490 
G01 X-66.1490 Y37.6490 
G01 X-66.1490 Y34.6454 
G01 X-64.8545 Y33.3509 
G01 X-54.9537 Y33.3509 
G01 X-54.8645 Y33.3270 
G01 X-54.7844 Y33.2808 
G01 X-54.7191 Y33.2155 
G01 X-53.5933 Y32.0896 
G01 X-53.5723 Y32.0855 
G01 X-53.4615 Y32.0396 
G01 X-53.3617 Y31.9730 
G01 X-53.2769 Y31.8882 
G01 X-53.2103 Y31.7884 
G01 X-53.1644 Y31.6776 
G01 X-53.1410 Y31.5600 
G01 X-53.1410 Y31.4399 
G01 X-53.1644 Y31.3223 
G01 X-53.2103 Y31.2115 
G01 X-53.2769 Y31.1117 
G01 X-53.3617 Y31.0269 
G01 X-53.4615 Y30.9603 
G01 X-53.5723 Y30.9144 
G01 X-53.6899 Y30.8910 
G01 X-53.8100 Y30.8910 
G01 X-53.9276 Y30.9144 
G01 X-54.0384 Y30.9603 
G01 X-54.1382 Y31.0269 
G01 X-54.2230 Y31.1117 
G01 X-54.2896 Y31.2115 
G01 X-54.3355 Y31.3223 
G01 X-54.3589 Y31.4399 
G01 X-54.3589 Y31.5600 
G01 X-54.3355 Y31.6776 
G01 X-54.2896 Y31.7884 
G01 X-54.2876 Y31.7913 
G01 X-55.1454 Y32.6490 
G00 Z2.0000 
G00 X-36.0429 Y32.7788 
G01 Z-0.2000 F600.00 
G01 X-36.2928 Y33.0288 
G01 X-36.2929 Y33.0288 
G01 X-36.6631 Y33.3990 
G01 X-63.9780 Y33.3990 
G01 X-64.0810 Y33.3961 
G01 X-64.1033 Y33.3990 
G01 X-64.1260 Y33.3990 
G01 X-64.2286 Y33.4153 
G01 X-64.3308 Y33.4285 
G01 X-64.3523 Y33.4349 
G01 X-64.3749 Y33.4384 
G01 X-64.4735 Y33.4705 
G01 X-64.5726 Y33.4996 
G01 X-64.5932 Y33.5094 
G01 X-64.6145 Y33.5163 
G01 X-64.7058 Y33.5628 
G01 X-64.8002 Y33.6076 
G01 X-64.8189 Y33.6205 
G01 X-64.8391 Y33.6307 
G01 X-64.9230 Y33.6917 
G01 X-65.0082 Y33.7500 
G01 X-65.0246 Y33.7655 
G01 X-65.0429 Y33.7788 
G01 X-65.1162 Y33.8521 
G01 X-65.1913 Y33.9231 
G01 X-65.2050 Y33.9410 
G01 X-65.2211 Y33.9570 
G01 X-65.2820 Y34.0409 
G01 X-65.3451 Y34.1227 
G01 X-65.3559 Y34.1426 
G01 X-65.3692 Y34.1608 
G01 X-65.4158 Y34.2523 
G01 X-65.4546 Y34.3235 
G01 X-65.4873 Y34.3370 
G01 X-65.6505 Y34.4460 
G01 X-65.7893 Y34.5848 
G01 X-65.8983 Y34.7480 
G01 X-65.9734 Y34.9293 
G01 X-66.0117 Y35.1218 
G01 X-66.0117 Y35.3181 
G01 X-65.9734 Y35.5106 
G01 X-65.8983 Y35.6919 
G01 X-65.7893 Y35.8551 
G01 X-65.6505 Y35.9939 
G01 X-65.4873 Y36.1029 
G01 X-65.4431 Y36.1212 
G01 X-65.3699 Y36.2282 
G01 X-65.1968 Y36.4113 
G01 X-64.9972 Y36.5651 
G01 X-64.7760 Y36.6858 
G01 X-64.5386 Y36.7703 
G01 X-64.2909 Y36.8167 
G01 X-64.0389 Y36.8238 
G01 X-63.7891 Y36.7914 
G01 X-63.5473 Y36.7203 
G01 X-63.3197 Y36.6123 
G01 X-63.3031 Y36.6009 
G01 X-36.1260 Y36.6009 
G01 X-35.8739 Y36.6009 
G01 X-35.6250 Y36.5615 
G01 X-35.3854 Y36.4836 
G01 X-35.1608 Y36.3692 
G01 X-34.9570 Y36.2211 
G01 X-34.0288 Y35.2929 
G01 X-34.0288 Y35.2928 
G01 X-33.7788 Y35.0429 
G01 X-33.6307 Y34.8391 
G01 X-33.5163 Y34.6145 
G01 X-33.4384 Y34.3749 
G01 X-33.3990 Y34.1260 
G01 X-33.3990 Y33.8739 
G01 X-33.4384 Y33.6250 
G01 X-33.5163 Y33.3854 
G01 X-33.6307 Y33.1608 
G01 X-33.7788 Y32.9570 
G01 X-33.9570 Y32.7788 
G01 X-34.1608 Y32.6307 
G01 X-34.3854 Y32.5163 
G01 X-34.6250 Y32.4384 
G01 X-34.8739 Y32.3990 
G01 X-35.1260 Y32.3990 
G01 X-35.3749 Y32.4384 
G01 X-35.6145 Y32.5163 
G01 X-35.8391 Y32.6307 
G01 X-36.0429 Y32.7788 
G00 Z2.0000 
G00 X-48.7479 Y37.8509 
G01 Z-0.2000 F600.00 
G01 X-48.7230 Y37.8882 
G01 X-48.6382 Y37.9730 
G01 X-48.5384 Y38.0396 
G01 X-48.4276 Y38.0855 
G01 X-48.3100 Y38.1089 
G01 X-48.1899 Y38.1089 
G01 X-48.0723 Y38.0855 
G01 X-47.9615 Y38.0396 
G01 X-47.8617 Y37.9730 
G01 X-47.7769 Y37.8882 
G01 X-47.7103 Y37.7884 
G01 X-47.6644 Y37.6776 
G01 X-47.6410 Y37.5600 
G01 X-47.6410 Y37.4399 
G01 X-47.6644 Y37.3223 
G01 X-47.7103 Y37.2115 
G01 X-47.7769 Y37.1117 
G01 X-47.8617 Y37.0269 
G01 X-47.9615 Y36.9603 
G01 X-48.0723 Y36.9144 
G01 X-48.1899 Y36.8910 
G01 X-48.3100 Y36.8910 
G01 X-48.4276 Y36.9144 
G01 X-48.5384 Y36.9603 
G01 X-48.6382 Y37.0269 
G01 X-48.7230 Y37.1117 
G01 X-48.7479 Y37.1490 
G01 X-53.2520 Y37.1490 
G01 X-53.2769 Y37.1117 
G01 X-53.3617 Y37.0269 
G01 X-53.4615 Y36.9603 
G01 X-53.5723 Y36.9144 
G01 X-53.6899 Y36.8910 
G01 X-53.8100 Y36.8910 
G01 X-53.9276 Y36.9144 
G01 X-54.0384 Y36.9603 
G01 X-54.1382 Y37.0269 
G01 X-54.2230 Y37.1117 
G01 X-54.2896 Y37.2115 
G01 X-54.3355 Y37.3223 
G01 X-54.3589 Y37.4399 
G01 X-54.3589 Y37.5600 
G01 X-54.3355 Y37.6776 
G01 X-54.2896 Y37.7884 
G01 X-54.2230 Y37.8882 
G01 X-54.1382 Y37.9730 
G01 X-54.0384 Y38.0396 
G01 X-53.9276 Y38.0855 
G01 X-53.8100 Y38.1089 
G01 X-53.6899 Y38.1089 
G01 X-53.5723 Y38.0855 
G01 X-53.4615 Y38.0396 
G01 X-53.3617 Y37.9730 
G01 X-53.2769 Y37.8882 
G01 X-53.2520 Y37.8509 
G01 X-48.7479 Y37.8509 
(File Footer)
G00 Z2.0000 
G00 Z10.0000 
M05
M02
