( This gcode generated by /home/mattvenn/.eagle/ulp/pcb-gcode.ulp )
( Copyright 2005 by John Johnson. See readme.txt for licensing terms. )

( This file generated from the board /home/mattvenn/eagle-circuit-designs/pcb miller test/calib-0.2mm.brd )
( This file generated 13/02/2012 10:59 )

G21

G90
G00 Z10.0000 
G00 X0 Y0
M03
G04 P3.000000
G00 Z2.0000 
G00 X-18.7839 Y12.7451 
G01 Z-0.2000 F600.00 
G01 X-18.7839 Y10.4128 
G01 X-18.7829 Y10.4133 
G01 X-18.6820 Y10.4133 
G01 X-18.5889 Y10.3747 
G01 X-18.5864 Y10.3721 
G01 X-18.5839 Y10.3747 
G01 X-18.4908 Y10.4133 
G01 X-18.3899 Y10.4133 
G01 X-18.3889 Y10.4128 
G01 X-18.3889 Y12.7434 
G01 X-18.3664 Y12.8272 
G01 X-18.3231 Y12.9023 
G01 X-18.2617 Y12.9637 
G01 X-18.1866 Y13.0070 
G01 X-18.1028 Y13.0295 
G01 X-18.0159 Y13.0295 
G01 X-17.9321 Y13.0070 
G01 X-17.8570 Y12.9637 
G01 X-17.7956 Y12.9023 
G01 X-17.7523 Y12.8272 
G01 X-17.7298 Y12.7434 
G01 X-17.7298 Y10.4128 
G01 X-17.7288 Y10.4133 
G01 X-17.6279 Y10.4133 
G01 X-17.5348 Y10.3747 
G01 X-17.5323 Y10.3721 
G01 X-17.5298 Y10.3747 
G01 X-17.4367 Y10.4133 
G01 X-17.3358 Y10.4133 
G01 X-17.3348 Y10.4128 
G01 X-17.3348 Y12.7417 
G01 X-17.3132 Y12.8223 
G01 X-17.2715 Y12.8945 
G01 X-17.2125 Y12.9535 
G01 X-17.1403 Y12.9952 
G01 X-17.0597 Y13.0168 
G01 X-16.9762 Y13.0168 
G01 X-16.8956 Y12.9952 
G01 X-16.8234 Y12.9535 
G01 X-16.7644 Y12.8945 
G01 X-16.7227 Y12.8223 
G01 X-16.7011 Y12.7417 
G01 X-16.7011 Y10.4128 
G01 X-16.7001 Y10.4133 
G01 X-16.5992 Y10.4133 
G01 X-16.5061 Y10.3747 
G01 X-16.5036 Y10.3721 
G01 X-16.5011 Y10.3747 
G01 X-16.4080 Y10.4133 
G01 X-16.3071 Y10.4133 
G01 X-16.3061 Y10.4128 
G01 X-16.3061 Y12.7400 
G01 X-16.2854 Y12.8174 
G01 X-16.2453 Y12.8867 
G01 X-16.1887 Y12.9433 
G01 X-16.1194 Y12.9834 
G01 X-16.0420 Y13.0041 
G01 X-15.9619 Y13.0041 
G01 X-15.8845 Y12.9834 
G01 X-15.8152 Y12.9433 
G01 X-15.7586 Y12.8867 
G01 X-15.7185 Y12.8174 
G01 X-15.6978 Y12.7400 
G01 X-15.6978 Y10.4128 
G01 X-15.6968 Y10.4133 
G01 X-15.5959 Y10.4133 
G01 X-15.5028 Y10.3747 
G01 X-15.5003 Y10.3721 
G01 X-15.4978 Y10.3747 
G01 X-15.4047 Y10.4133 
G01 X-15.3038 Y10.4133 
G01 X-15.3028 Y10.4128 
G01 X-15.3028 Y14.0084 
G01 X-15.2829 Y14.0825 
G01 X-15.2446 Y14.1489 
G01 X-15.1903 Y14.2032 
G01 X-15.1239 Y14.2415 
G01 X-15.0498 Y14.2614 
G01 X-14.9729 Y14.2614 
G01 X-14.8988 Y14.2415 
G01 X-14.8324 Y14.2032 
G01 X-14.7781 Y14.1489 
G01 X-14.7398 Y14.0825 
G01 X-14.7199 Y14.0084 
G01 X-14.7199 Y10.4128 
G01 X-14.7189 Y10.4133 
G01 X-14.6180 Y10.4133 
G01 X-14.5249 Y10.3747 
G01 X-14.5224 Y10.3721 
G01 X-14.5199 Y10.3747 
G01 X-14.4268 Y10.4133 
G01 X-14.3259 Y10.4133 
G01 X-14.3249 Y10.4128 
G01 X-14.3249 Y12.7367 
G01 X-14.3059 Y12.8076 
G01 X-14.2692 Y12.8711 
G01 X-14.2173 Y12.9230 
G01 X-14.1538 Y12.9597 
G01 X-14.0829 Y12.9787 
G01 X-14.0094 Y12.9787 
G01 X-13.9385 Y12.9597 
G01 X-13.8750 Y12.9230 
G01 X-13.8231 Y12.8711 
G01 X-13.7864 Y12.8076 
G01 X-13.7674 Y12.7367 
G01 X-13.7674 Y10.4128 
G01 X-13.7664 Y10.4133 
G01 X-13.6655 Y10.4133 
G01 X-13.5724 Y10.3747 
G01 X-13.5699 Y10.3721 
G01 X-13.5674 Y10.3747 
G01 X-13.4743 Y10.4133 
G01 X-13.3734 Y10.4133 
G01 X-13.3724 Y10.4128 
G01 X-13.3724 Y12.7350 
G01 X-13.3543 Y12.8027 
G01 X-13.3193 Y12.8633 
G01 X-13.2697 Y12.9129 
G01 X-13.2091 Y12.9479 
G01 X-13.1414 Y12.9660 
G01 X-13.0713 Y12.9660 
G01 X-13.0036 Y12.9479 
G01 X-12.9430 Y12.9129 
G01 X-12.8934 Y12.8633 
G01 X-12.8584 Y12.8027 
G01 X-12.8403 Y12.7350 
G01 X-12.8403 Y10.4128 
G01 X-12.8393 Y10.4133 
G01 X-12.7384 Y10.4133 
G01 X-12.6453 Y10.3747 
G01 X-12.6428 Y10.3721 
G01 X-12.6403 Y10.3747 
G01 X-12.5472 Y10.4133 
G01 X-12.4463 Y10.4133 
G01 X-12.4453 Y10.4128 
G01 X-12.4453 Y12.7504 
G01 X-12.4067 Y12.8435 
G01 X-12.3355 Y12.9147 
G01 X-12.2424 Y12.9533 
G01 X-12.1415 Y12.9533 
G01 X-12.0484 Y12.9147 
G01 X-11.9772 Y12.8435 
G01 X-11.9386 Y12.7504 
G01 X-11.9386 Y10.4128 
G01 X-11.9376 Y10.4133 
G01 X-11.8367 Y10.4133 
G01 X-11.7436 Y10.3747 
G01 X-11.7411 Y10.3721 
G01 X-11.7386 Y10.3747 
G01 X-11.6455 Y10.4133 
G01 X-11.5446 Y10.4133 
G01 X-11.5436 Y10.4128 
G01 X-11.5436 Y12.7479 
G01 X-11.5070 Y12.8363 
G01 X-11.4393 Y12.9040 
G01 X-11.3509 Y12.9406 
G01 X-11.2550 Y12.9406 
G01 X-11.1666 Y12.9040 
G01 X-11.0989 Y12.8363 
G01 X-11.0623 Y12.7479 
G01 X-11.0623 Y10.4128 
G01 X-11.0613 Y10.4133 
G01 X-10.9604 Y10.4133 
G01 X-10.8673 Y10.3747 
G01 X-10.8648 Y10.3721 
G01 X-10.8623 Y10.3747 
G01 X-10.7692 Y10.4133 
G01 X-10.6683 Y10.4133 
G01 X-10.6673 Y10.4128 
G01 X-10.6673 Y14.0153 
G01 X-10.6326 Y14.0991 
G01 X-10.5685 Y14.1632 
G01 X-10.4847 Y14.1979 
G01 X-10.3940 Y14.1979 
G01 X-10.3102 Y14.1632 
G01 X-10.2461 Y14.0991 
G01 X-10.2114 Y14.0153 
G01 X-10.2114 Y10.4128 
G01 X-10.2104 Y10.4133 
G01 X-10.1095 Y10.4133 
G01 X-10.0164 Y10.3747 
G01 X-10.0139 Y10.3721 
G01 X-10.0114 Y10.3747 
G01 X-9.9183 Y10.4133 
G01 X-9.8174 Y10.4133 
G01 X-9.8164 Y10.4128 
G01 X-9.8164 Y12.7428 
G01 X-9.7836 Y12.8219 
G01 X-9.7231 Y12.8824 
G01 X-9.6440 Y12.9152 
G01 X-9.5583 Y12.9152 
G01 X-9.4792 Y12.8824 
G01 X-9.4187 Y12.8219 
G01 X-9.3859 Y12.7428 
G01 X-9.3859 Y10.4128 
G01 X-9.3849 Y10.4133 
G01 X-9.2840 Y10.4133 
G01 X-9.1909 Y10.3747 
G01 X-9.1884 Y10.3721 
G01 X-9.1859 Y10.3747 
G01 X-9.0928 Y10.4133 
G01 X-8.9919 Y10.4133 
G01 X-8.9909 Y10.4128 
G01 X-8.9909 Y12.7403 
G01 X-8.9601 Y12.8147 
G01 X-8.9031 Y12.8717 
G01 X-8.8287 Y12.9025 
G01 X-8.7480 Y12.9025 
G01 X-8.6736 Y12.8717 
G01 X-8.6166 Y12.8147 
G01 X-8.5858 Y12.7403 
G01 X-8.5858 Y10.4128 
G01 X-8.5848 Y10.4133 
G01 X-8.4839 Y10.4133 
G01 X-8.3908 Y10.3747 
G01 X-8.3883 Y10.3721 
G01 X-8.3858 Y10.3747 
G01 X-8.2927 Y10.4133 
G01 X-8.1918 Y10.4133 
G01 X-8.1908 Y10.4128 
G01 X-8.1908 Y12.7378 
G01 X-8.1619 Y12.8075 
G01 X-8.1085 Y12.8609 
G01 X-8.0388 Y12.8898 
G01 X-7.9631 Y12.8898 
G01 X-7.8934 Y12.8609 
G01 X-7.8400 Y12.8075 
G01 X-7.8111 Y12.7378 
G01 X-7.8111 Y10.4128 
G01 X-7.8101 Y10.4133 
G01 X-7.7092 Y10.4133 
G01 X-7.6161 Y10.3747 
G01 X-7.6136 Y10.3721 
G01 X-7.6111 Y10.3747 
G01 X-7.5180 Y10.4133 
G01 X-7.4171 Y10.4133 
G01 X-7.4161 Y10.4128 
G01 X-7.4161 Y12.7352 
G01 X-7.3891 Y12.8003 
G01 X-7.3393 Y12.8501 
G01 X-7.2742 Y12.8771 
G01 X-7.2037 Y12.8771 
G01 X-7.1386 Y12.8501 
G01 X-7.0888 Y12.8003 
G01 X-7.0618 Y12.7352 
G01 X-7.0618 Y10.4128 
G01 X-7.0608 Y10.4133 
G01 X-6.9599 Y10.4133 
G01 X-6.8668 Y10.3747 
G01 X-6.8643 Y10.3722 
G01 X-6.8618 Y10.3747 
G01 X-6.7687 Y10.4133 
G01 X-6.6678 Y10.4133 
G01 X-6.6668 Y10.4128 
G01 X-6.6668 Y14.0027 
G01 X-6.6418 Y14.0631 
G01 X-6.5955 Y14.1094 
G01 X-6.5351 Y14.1344 
G01 X-6.4696 Y14.1344 
G01 X-6.4092 Y14.1094 
G01 X-6.3629 Y14.0631 
G01 X-6.3379 Y14.0027 
G01 X-6.3379 Y10.4128 
G01 X-6.3369 Y10.4133 
G01 X-6.2360 Y10.4133 
G01 X-6.1429 Y10.3747 
G01 X-6.1404 Y10.3722 
G01 X-6.1379 Y10.3747 
G01 X-6.0448 Y10.4133 
G01 X-5.9439 Y10.4133 
G01 X-5.9429 Y10.4128 
G01 X-5.9429 Y12.7302 
G01 X-5.9198 Y12.7859 
G01 X-5.8771 Y12.8286 
G01 X-5.8214 Y12.8517 
G01 X-5.7609 Y12.8517 
G01 X-5.7052 Y12.8286 
G01 X-5.6625 Y12.7859 
G01 X-5.6394 Y12.7302 
G01 X-5.6394 Y10.4128 
G01 X-5.6384 Y10.4133 
G01 X-5.5375 Y10.4133 
G01 X-5.4444 Y10.3747 
G01 X-5.4419 Y10.3721 
G01 X-5.4394 Y10.3747 
G01 X-5.3463 Y10.4133 
G01 X-5.2454 Y10.4133 
G01 X-5.2444 Y10.4128 
G01 X-5.2444 Y12.7276 
G01 X-5.2232 Y12.7787 
G01 X-5.1841 Y12.8178 
G01 X-5.1330 Y12.8390 
G01 X-5.0777 Y12.8390 
G01 X-5.0266 Y12.8178 
G01 X-4.9875 Y12.7787 
G01 X-4.9663 Y12.7276 
G01 X-4.9663 Y10.4128 
G01 X-4.9653 Y10.4133 
G01 X-4.8644 Y10.4133 
G01 X-4.7713 Y10.3747 
G01 X-4.7688 Y10.3721 
G01 X-4.7663 Y10.3747 
G01 X-4.6732 Y10.4133 
G01 X-4.5723 Y10.4133 
G01 X-4.5713 Y10.4128 
G01 X-4.5713 Y12.7251 
G01 X-4.5521 Y12.7715 
G01 X-4.5165 Y12.8071 
G01 X-4.4701 Y12.8263 
G01 X-4.4198 Y12.8263 
G01 X-4.3734 Y12.8071 
G01 X-4.3378 Y12.7715 
G01 X-4.3186 Y12.7251 
G01 X-4.3186 Y10.4128 
G01 X-4.3176 Y10.4133 
G01 X-4.2167 Y10.4133 
G01 X-4.1236 Y10.3747 
G01 X-4.1211 Y10.3721 
G01 X-4.1186 Y10.3747 
G01 X-4.0255 Y10.4133 
G01 X-3.9246 Y10.4133 
G01 X-3.9236 Y10.4128 
G01 X-3.9236 Y12.7226 
G01 X-3.9063 Y12.7643 
G01 X-3.8743 Y12.7963 
G01 X-3.8326 Y12.8136 
G01 X-3.7873 Y12.8136 
G01 X-3.7456 Y12.7963 
G01 X-3.7136 Y12.7643 
G01 X-3.6963 Y12.7226 
G01 X-3.6963 Y10.4128 
G01 X-3.6953 Y10.4133 
G01 X-3.5944 Y10.4133 
G01 X-3.5013 Y10.3747 
G01 X-3.4806 Y10.3539 
G01 X-3.4806 Y14.3114 
G01 X-20.1212 Y14.3114 
G01 X-20.0813 Y14.3007 
G01 X-20.0004 Y14.2540 
G01 X-19.9343 Y14.1879 
G01 X-19.8876 Y14.1070 
G01 X-19.8634 Y14.0167 
G01 X-19.8634 Y10.4128 
G01 X-19.8624 Y10.4133 
G01 X-19.7615 Y10.4133 
G01 X-19.6684 Y10.3747 
G01 X-19.6659 Y10.3721 
G01 X-19.6634 Y10.3747 
G01 X-19.5703 Y10.4133 
G01 X-19.4694 Y10.4133 
G01 X-19.4684 Y10.4128 
G01 X-19.4684 Y12.7451 
G01 X-19.4451 Y12.8321 
G01 X-19.4000 Y12.9101 
G01 X-19.3363 Y12.9738 
G01 X-19.2583 Y13.0189 
G01 X-19.1713 Y13.0422 
G01 X-19.0810 Y13.0422 
G01 X-18.9940 Y13.0189 
G01 X-18.9160 Y12.9738 
G01 X-18.8523 Y12.9101 
G01 X-18.8072 Y12.8321 
G01 X-18.7839 Y12.7451 
G00 Z2.0000 
G00 X-20.5733 Y14.0167 
G01 Z-0.2000 F600.00 
G01 X-20.5491 Y14.1070 
G01 X-20.5024 Y14.1879 
G01 X-20.4363 Y14.2540 
G01 X-20.3554 Y14.3007 
G01 X-20.3155 Y14.3114 
G01 X-25.8148 Y14.3114 
G01 X-25.8034 Y14.3048 
G01 X-25.7255 Y14.2269 
G01 X-25.6704 Y14.1315 
G01 X-25.6419 Y14.0251 
G01 X-25.6419 Y10.4128 
G01 X-25.6409 Y10.4133 
G01 X-25.5400 Y10.4133 
G01 X-25.4469 Y10.3747 
G01 X-25.4444 Y10.3721 
G01 X-25.4419 Y10.3747 
G01 X-25.3488 Y10.4133 
G01 X-25.2479 Y10.4133 
G01 X-25.2469 Y10.4128 
G01 X-25.2469 Y12.7534 
G01 X-25.2193 Y12.8566 
G01 X-25.1658 Y12.9491 
G01 X-25.0903 Y13.0246 
G01 X-24.9978 Y13.0781 
G01 X-24.8946 Y13.1057 
G01 X-24.7877 Y13.1057 
G01 X-24.6845 Y13.0781 
G01 X-24.5920 Y13.0246 
G01 X-24.5165 Y12.9491 
G01 X-24.4630 Y12.8566 
G01 X-24.4354 Y12.7534 
G01 X-24.4354 Y10.4128 
G01 X-24.4344 Y10.4133 
G01 X-24.3335 Y10.4133 
G01 X-24.2404 Y10.3747 
G01 X-24.2379 Y10.3722 
G01 X-24.2354 Y10.3747 
G01 X-24.1423 Y10.4133 
G01 X-24.0414 Y10.4133 
G01 X-24.0404 Y10.4128 
G01 X-24.0404 Y12.7517 
G01 X-24.0136 Y12.8517 
G01 X-23.9619 Y12.9413 
G01 X-23.8887 Y13.0145 
G01 X-23.7991 Y13.0662 
G01 X-23.6991 Y13.0930 
G01 X-23.5956 Y13.0930 
G01 X-23.4956 Y13.0662 
G01 X-23.4060 Y13.0145 
G01 X-23.3328 Y12.9413 
G01 X-23.2811 Y12.8517 
G01 X-23.2543 Y12.7517 
G01 X-23.2543 Y10.4128 
G01 X-23.2533 Y10.4133 
G01 X-23.1524 Y10.4133 
G01 X-23.0593 Y10.3747 
G01 X-23.0568 Y10.3722 
G01 X-23.0543 Y10.3747 
G01 X-22.9612 Y10.4133 
G01 X-22.8603 Y10.4133 
G01 X-22.8593 Y10.4128 
G01 X-22.8593 Y12.7501 
G01 X-22.8334 Y12.8468 
G01 X-22.7833 Y12.9335 
G01 X-22.7125 Y13.0043 
G01 X-22.6258 Y13.0544 
G01 X-22.5291 Y13.0803 
G01 X-22.4288 Y13.0803 
G01 X-22.3321 Y13.0544 
G01 X-22.2454 Y13.0043 
G01 X-22.1746 Y12.9335 
G01 X-22.1245 Y12.8468 
G01 X-22.0986 Y12.7501 
G01 X-22.0986 Y10.4128 
G01 X-22.0976 Y10.4133 
G01 X-21.9967 Y10.4133 
G01 X-21.9036 Y10.3747 
G01 X-21.9011 Y10.3721 
G01 X-21.8986 Y10.3747 
G01 X-21.8055 Y10.4133 
G01 X-21.7046 Y10.4133 
G01 X-21.7036 Y10.4128 
G01 X-21.7036 Y12.7484 
G01 X-21.6785 Y12.8419 
G01 X-21.6302 Y12.9257 
G01 X-21.5617 Y12.9942 
G01 X-21.4779 Y13.0425 
G01 X-21.3844 Y13.0676 
G01 X-21.2875 Y13.0676 
G01 X-21.1940 Y13.0425 
G01 X-21.1102 Y12.9942 
G01 X-21.0417 Y12.9257 
G01 X-20.9934 Y12.8419 
G01 X-20.9683 Y12.7484 
G01 X-20.9683 Y10.4128 
G01 X-20.9673 Y10.4133 
G01 X-20.8664 Y10.4133 
G01 X-20.7733 Y10.3747 
G01 X-20.7708 Y10.3721 
G01 X-20.7683 Y10.3747 
G01 X-20.6752 Y10.4133 
G01 X-20.5743 Y10.4133 
G01 X-20.5733 Y10.4128 
G01 X-20.5733 Y14.0167 
G00 Z2.0000 
G00 X-26.4788 Y14.0251 
G01 Z-0.2000 F600.00 
G01 X-26.4503 Y14.1315 
G01 X-26.3952 Y14.2269 
G01 X-26.3173 Y14.3048 
G01 X-26.3059 Y14.3114 
G01 X-26.7018 Y14.3114 
G01 X-26.7018 Y10.3467 
G01 X-26.6738 Y10.3747 
G01 X-26.5807 Y10.4133 
G01 X-26.4798 Y10.4133 
G01 X-26.4788 Y10.4128 
G01 X-26.4788 Y14.0251 
G00 Z2.0000 
G00 X-25.8988 Y9.7700 
G01 Z-0.2000 F600.00 
G01 X-26.0052 Y9.7415 
G01 X-26.1155 Y9.7415 
G01 X-26.2219 Y9.7700 
G01 X-26.2769 Y9.8018 
G01 X-26.2769 Y6.2995 
G01 X-26.3155 Y6.2064 
G01 X-26.3278 Y6.1942 
G01 X-25.7929 Y6.1942 
G01 X-25.8052 Y6.2064 
G01 X-25.8438 Y6.2995 
G01 X-25.8438 Y9.8018 
G01 X-25.8988 Y9.7700 
G00 Z2.0000 
G00 X-20.8272 Y6.1942 
G01 Z-0.2000 F600.00 
G01 X-20.8395 Y6.2064 
G01 X-20.8781 Y6.2995 
G01 X-20.8781 Y7.3666 
G01 X-20.9673 Y7.3666 
G01 X-21.0604 Y7.4052 
G01 X-21.1316 Y7.4764 
G01 X-21.1702 Y7.5695 
G01 X-21.1702 Y9.8312 
G01 X-21.1940 Y9.8174 
G01 X-21.2875 Y9.7923 
G01 X-21.3844 Y9.7923 
G01 X-21.4779 Y9.8174 
G01 X-21.5017 Y9.8312 
G01 X-21.5017 Y7.5695 
G01 X-21.5403 Y7.4764 
G01 X-21.6115 Y7.4052 
G01 X-21.7046 Y7.3666 
G01 X-21.8055 Y7.3666 
G01 X-21.8986 Y7.4052 
G01 X-21.9011 Y7.4078 
G01 X-21.9036 Y7.4052 
G01 X-21.9967 Y7.3666 
G01 X-22.0976 Y7.3666 
G01 X-22.1907 Y7.4052 
G01 X-22.2619 Y7.4764 
G01 X-22.3005 Y7.5695 
G01 X-22.3005 Y9.8238 
G01 X-22.3321 Y9.8055 
G01 X-22.4288 Y9.7796 
G01 X-22.5291 Y9.7796 
G01 X-22.6258 Y9.8055 
G01 X-22.6574 Y9.8238 
G01 X-22.6574 Y7.5695 
G01 X-22.6960 Y7.4764 
G01 X-22.7672 Y7.4052 
G01 X-22.8603 Y7.3666 
G01 X-22.9612 Y7.3666 
G01 X-23.0543 Y7.4052 
G01 X-23.0568 Y7.4077 
G01 X-23.0593 Y7.4052 
G01 X-23.1524 Y7.3666 
G01 X-23.2533 Y7.3666 
G01 X-23.3464 Y7.4052 
G01 X-23.4176 Y7.4764 
G01 X-23.4562 Y7.5695 
G01 X-23.4562 Y9.8165 
G01 X-23.4956 Y9.7937 
G01 X-23.5956 Y9.7669 
G01 X-23.6991 Y9.7669 
G01 X-23.7991 Y9.7937 
G01 X-23.8385 Y9.8165 
G01 X-23.8385 Y7.5695 
G01 X-23.8771 Y7.4764 
G01 X-23.9483 Y7.4052 
G01 X-24.0414 Y7.3666 
G01 X-24.1423 Y7.3666 
G01 X-24.2354 Y7.4052 
G01 X-24.2379 Y7.4077 
G01 X-24.2404 Y7.4052 
G01 X-24.3335 Y7.3666 
G01 X-24.4344 Y7.3666 
G01 X-24.5275 Y7.4052 
G01 X-24.5987 Y7.4764 
G01 X-24.6373 Y7.5695 
G01 X-24.6373 Y9.8092 
G01 X-24.6845 Y9.7818 
G01 X-24.7877 Y9.7542 
G01 X-24.8946 Y9.7542 
G01 X-24.9978 Y9.7818 
G01 X-25.0450 Y9.8092 
G01 X-25.0450 Y7.5695 
G01 X-25.0836 Y7.4764 
G01 X-25.1548 Y7.4052 
G01 X-25.2479 Y7.3666 
G01 X-25.3371 Y7.3666 
G01 X-25.3371 Y6.2995 
G01 X-25.3757 Y6.2064 
G01 X-25.3880 Y6.1942 
G01 X-20.8272 Y6.1942 
G00 Z2.0000 
G00 X-20.0813 Y9.8292 
G01 Z-0.2000 F600.00 
G01 X-20.1716 Y9.8050 
G01 X-20.2651 Y9.8050 
G01 X-20.3554 Y9.8292 
G01 X-20.3714 Y9.8385 
G01 X-20.3714 Y6.2995 
G01 X-20.4100 Y6.2064 
G01 X-20.4223 Y6.1942 
G01 X-20.0144 Y6.1942 
G01 X-20.0267 Y6.2064 
G01 X-20.0653 Y6.2995 
G01 X-20.0653 Y9.8385 
G01 X-20.0813 Y9.8292 
G00 Z2.0000 
G00 X-15.5567 Y6.1942 
G01 Z-0.2000 F600.00 
G01 X-15.5690 Y6.2064 
G01 X-15.6076 Y6.2995 
G01 X-15.6076 Y7.3666 
G01 X-15.6968 Y7.3666 
G01 X-15.7899 Y7.4052 
G01 X-15.8611 Y7.4764 
G01 X-15.8997 Y7.5695 
G01 X-15.8997 Y9.8725 
G01 X-15.9619 Y9.8558 
G01 X-16.0420 Y9.8558 
G01 X-16.1042 Y9.8725 
G01 X-16.1042 Y7.5695 
G01 X-16.1428 Y7.4764 
G01 X-16.2140 Y7.4052 
G01 X-16.3071 Y7.3666 
G01 X-16.4080 Y7.3666 
G01 X-16.5011 Y7.4052 
G01 X-16.5036 Y7.4078 
G01 X-16.5061 Y7.4052 
G01 X-16.5992 Y7.3666 
G01 X-16.7001 Y7.3666 
G01 X-16.7932 Y7.4052 
G01 X-16.8644 Y7.4764 
G01 X-16.9030 Y7.5695 
G01 X-16.9030 Y9.8628 
G01 X-16.9762 Y9.8431 
G01 X-17.0597 Y9.8431 
G01 X-17.1329 Y9.8628 
G01 X-17.1329 Y7.5695 
G01 X-17.1715 Y7.4764 
G01 X-17.2427 Y7.4052 
G01 X-17.3358 Y7.3666 
G01 X-17.4367 Y7.3666 
G01 X-17.5298 Y7.4052 
G01 X-17.5323 Y7.4078 
G01 X-17.5348 Y7.4052 
G01 X-17.6279 Y7.3666 
G01 X-17.7288 Y7.3666 
G01 X-17.8219 Y7.4052 
G01 X-17.8931 Y7.4764 
G01 X-17.9317 Y7.5695 
G01 X-17.9317 Y9.8532 
G01 X-17.9321 Y9.8529 
G01 X-18.0159 Y9.8304 
G01 X-18.1028 Y9.8304 
G01 X-18.1866 Y9.8529 
G01 X-18.1870 Y9.8532 
G01 X-18.1870 Y7.5695 
G01 X-18.2256 Y7.4764 
G01 X-18.2968 Y7.4052 
G01 X-18.3899 Y7.3666 
G01 X-18.4908 Y7.3666 
G01 X-18.5839 Y7.4052 
G01 X-18.5864 Y7.4078 
G01 X-18.5889 Y7.4052 
G01 X-18.6820 Y7.3666 
G01 X-18.7829 Y7.3666 
G01 X-18.8760 Y7.4052 
G01 X-18.9472 Y7.4764 
G01 X-18.9858 Y7.5695 
G01 X-18.9858 Y9.8458 
G01 X-18.9940 Y9.8410 
G01 X-19.0810 Y9.8177 
G01 X-19.1713 Y9.8177 
G01 X-19.2583 Y9.8410 
G01 X-19.2665 Y9.8458 
G01 X-19.2665 Y7.5695 
G01 X-19.3051 Y7.4764 
G01 X-19.3763 Y7.4052 
G01 X-19.4694 Y7.3666 
G01 X-19.5586 Y7.3666 
G01 X-19.5586 Y6.2995 
G01 X-19.5972 Y6.2064 
G01 X-19.6095 Y6.1942 
G01 X-15.5567 Y6.1942 
G00 Z2.0000 
G00 X-14.8709 Y6.1942 
G01 Z-0.2000 F600.00 
G01 X-14.8832 Y6.2064 
G01 X-14.9218 Y6.2995 
G01 X-14.9218 Y9.8823 
G01 X-14.9729 Y9.8685 
G01 X-15.0498 Y9.8685 
G01 X-15.1009 Y9.8823 
G01 X-15.1009 Y6.2995 
G01 X-15.1395 Y6.2064 
G01 X-15.1518 Y6.1942 
G01 X-14.8709 Y6.1942 
G00 Z2.0000 
G00 X-10.9212 Y6.1942 
G01 Z-0.2000 F600.00 
G01 X-10.9335 Y6.2064 
G01 X-10.9721 Y6.2995 
G01 X-10.9721 Y7.3666 
G01 X-11.0613 Y7.3666 
G01 X-11.1544 Y7.4052 
G01 X-11.2256 Y7.4764 
G01 X-11.2642 Y7.5695 
G01 X-11.2642 Y9.9193 
G01 X-11.3417 Y9.9193 
G01 X-11.3417 Y7.5695 
G01 X-11.3803 Y7.4764 
G01 X-11.4515 Y7.4052 
G01 X-11.5446 Y7.3666 
G01 X-11.6455 Y7.3666 
G01 X-11.7386 Y7.4052 
G01 X-11.7411 Y7.4078 
G01 X-11.7436 Y7.4052 
G01 X-11.8367 Y7.3666 
G01 X-11.9376 Y7.3666 
G01 X-12.0307 Y7.4052 
G01 X-12.1019 Y7.4764 
G01 X-12.1405 Y7.5695 
G01 X-12.1405 Y9.9071 
G01 X-12.1415 Y9.9066 
G01 X-12.2424 Y9.9066 
G01 X-12.2434 Y9.9071 
G01 X-12.2434 Y7.5695 
G01 X-12.2820 Y7.4764 
G01 X-12.3532 Y7.4052 
G01 X-12.4463 Y7.3666 
G01 X-12.5472 Y7.3666 
G01 X-12.6403 Y7.4052 
G01 X-12.6428 Y7.4078 
G01 X-12.6453 Y7.4052 
G01 X-12.7384 Y7.3666 
G01 X-12.8393 Y7.3666 
G01 X-12.9324 Y7.4052 
G01 X-13.0036 Y7.4764 
G01 X-13.0422 Y7.5695 
G01 X-13.0422 Y9.9017 
G01 X-13.0713 Y9.8939 
G01 X-13.1414 Y9.8939 
G01 X-13.1705 Y9.9017 
G01 X-13.1705 Y7.5695 
G01 X-13.2091 Y7.4764 
G01 X-13.2803 Y7.4052 
G01 X-13.3734 Y7.3666 
G01 X-13.4743 Y7.3666 
G01 X-13.5674 Y7.4052 
G01 X-13.5699 Y7.4078 
G01 X-13.5724 Y7.4052 
G01 X-13.6655 Y7.3666 
G01 X-13.7664 Y7.3666 
G01 X-13.8595 Y7.4052 
G01 X-13.9307 Y7.4764 
G01 X-13.9693 Y7.5695 
G01 X-13.9693 Y9.8920 
G01 X-14.0094 Y9.8812 
G01 X-14.0829 Y9.8812 
G01 X-14.1230 Y9.8920 
G01 X-14.1230 Y7.5695 
G01 X-14.1616 Y7.4764 
G01 X-14.2328 Y7.4052 
G01 X-14.3259 Y7.3666 
G01 X-14.4151 Y7.3666 
G01 X-14.4151 Y6.2995 
G01 X-14.4537 Y6.2064 
G01 X-14.4660 Y6.1942 
G01 X-10.9212 Y6.1942 
G00 Z2.0000 
G00 X-10.3624 Y6.1942 
G01 Z-0.2000 F600.00 
G01 X-10.3747 Y6.2064 
G01 X-10.4133 Y6.2995 
G01 X-10.4133 Y9.9320 
G01 X-10.4654 Y9.9320 
G01 X-10.4654 Y6.2995 
G01 X-10.5040 Y6.2064 
G01 X-10.5163 Y6.1942 
G01 X-10.3624 Y6.1942 
G00 Z2.0000 
G00 X-6.9207 Y6.1942 
G01 Z-0.2000 F600.00 
G01 X-6.9330 Y6.2064 
G01 X-6.9716 Y6.2995 
G01 X-6.9716 Y7.3666 
G01 X-7.0608 Y7.3666 
G01 X-7.1539 Y7.4052 
G01 X-7.2251 Y7.4764 
G01 X-7.2389 Y7.5099 
G01 X-7.2528 Y7.4764 
G01 X-7.3240 Y7.4052 
G01 X-7.4171 Y7.3666 
G01 X-7.5180 Y7.3666 
G01 X-7.6111 Y7.4052 
G01 X-7.6136 Y7.4078 
G01 X-7.6161 Y7.4052 
G01 X-7.7092 Y7.3666 
G01 X-7.8101 Y7.3666 
G01 X-7.9032 Y7.4052 
G01 X-7.9744 Y7.4764 
G01 X-8.0009 Y7.5406 
G01 X-8.0275 Y7.4764 
G01 X-8.0987 Y7.4052 
G01 X-8.1918 Y7.3666 
G01 X-8.2927 Y7.3666 
G01 X-8.3858 Y7.4052 
G01 X-8.3883 Y7.4078 
G01 X-8.3908 Y7.4052 
G01 X-8.4839 Y7.3666 
G01 X-8.5848 Y7.3666 
G01 X-8.6779 Y7.4052 
G01 X-8.7491 Y7.4764 
G01 X-8.7877 Y7.5695 
G01 X-8.7877 Y9.9574 
G01 X-8.7890 Y9.9574 
G01 X-8.7890 Y7.5695 
G01 X-8.8276 Y7.4764 
G01 X-8.8988 Y7.4052 
G01 X-8.9919 Y7.3666 
G01 X-9.0928 Y7.3666 
G01 X-9.1859 Y7.4052 
G01 X-9.1884 Y7.4078 
G01 X-9.1909 Y7.4052 
G01 X-9.2840 Y7.3666 
G01 X-9.3849 Y7.3666 
G01 X-9.4780 Y7.4052 
G01 X-9.5492 Y7.4764 
G01 X-9.5878 Y7.5695 
G01 X-9.5878 Y9.9447 
G01 X-9.6145 Y9.9447 
G01 X-9.6145 Y7.5695 
G01 X-9.6531 Y7.4764 
G01 X-9.7243 Y7.4052 
G01 X-9.8174 Y7.3666 
G01 X-9.9066 Y7.3666 
G01 X-9.9066 Y6.2995 
G01 X-9.9452 Y6.2064 
G01 X-9.9575 Y6.1942 
G01 X-6.9207 Y6.1942 
G00 Z2.0000 
G00 X-6.4889 Y6.1942 
G01 Z-0.2000 F600.00 
G01 X-6.5012 Y6.2064 
G01 X-6.5023 Y6.2092 
G01 X-6.5035 Y6.2064 
G01 X-6.5158 Y6.1942 
G01 X-6.4889 Y6.1942 
(File Footer)
G00 Z2.0000 
G00 Z10.0000 
M05
M02
