( This gcode generated by /home/mattvenn/.eagle/ulp/pcb-gcode.ulp )
( Copyright 2005 by John Johnson. See readme.txt for licensing terms. )

( This file generated from the board /home/mattvenn/eagle-circuit-designs/pcb miller test/realtime breakout.brd )
( This file generated 16/01/2012 11:38 )

G21

G90
G00 Z10.0000 
G00 X0 Y0
M03
G04 P3.000000
G00 Z2.0000 
G00 X-36.5449 Y23.8339 
G01 Z-0.1000 F400.00 
G01 X-34.5750 Y23.8339 
G01 X-34.3868 Y23.7965 
G01 X-34.2096 Y23.7231 
G01 X-34.0501 Y23.6165 
G01 X-33.9144 Y23.4808 
G01 X-33.8078 Y23.3213 
G01 X-33.7344 Y23.1441 
G01 X-33.6970 Y22.9559 
G01 X-33.6970 Y22.7640 
G01 X-33.7344 Y22.5758 
G01 X-33.8078 Y22.3986 
G01 X-33.9144 Y22.2391 
G01 X-34.0501 Y22.1034 
G01 X-34.2096 Y21.9968 
G01 X-34.3868 Y21.9234 
G01 X-34.5750 Y21.8860 
G01 X-36.5449 Y21.8860 
G01 X-36.7331 Y21.9234 
G01 X-36.9103 Y21.9968 
G01 X-37.0698 Y22.1034 
G01 X-37.2055 Y22.2391 
G01 X-37.2920 Y22.3686 
G01 X-38.8786 Y22.3686 
G01 X-38.8786 Y10.6513 
G01 X-37.0122 Y10.6513 
G01 X-36.9798 Y10.6999 
G01 X-36.8619 Y10.8178 
G01 X-36.7232 Y10.9105 
G01 X-36.5690 Y10.9744 
G01 X-36.4054 Y11.0069 
G01 X-34.7145 Y11.0069 
G01 X-34.5509 Y10.9744 
G01 X-34.3967 Y10.9105 
G01 X-34.2580 Y10.8178 
G01 X-34.1401 Y10.6999 
G01 X-34.1077 Y10.6513 
G01 X-29.2747 Y10.6513 
G01 X-29.1452 Y10.6513 
G01 X-29.0203 Y10.6178 
G01 X-28.9082 Y10.5531 
G01 X-28.8168 Y10.4617 
G01 X-28.7521 Y10.3496 
G01 X-28.7186 Y10.2247 
G01 X-28.7186 Y8.1113 
G01 X-15.7313 Y8.1113 
G01 X-15.7313 Y8.8050 
G01 X-15.8012 Y8.8050 
G01 X-16.5949 Y9.5987 
G01 X-16.5949 Y10.7212 
G01 X-15.8012 Y11.5149 
G01 X-15.7313 Y11.5149 
G01 X-15.7313 Y14.0347 
G01 X-15.6978 Y14.1596 
G01 X-15.6331 Y14.2717 
G01 X-15.5417 Y14.3631 
G01 X-15.4296 Y14.4278 
G01 X-15.3047 Y14.4613 
G01 X-15.1930 Y14.4613 
G01 X-15.1055 Y14.5489 
G01 X-14.9834 Y14.6305 
G01 X-14.8478 Y14.6867 
G01 X-14.7038 Y14.7153 
G01 X-13.2361 Y14.7153 
G01 X-13.0921 Y14.6867 
G01 X-12.9565 Y14.6305 
G01 X-12.8344 Y14.5489 
G01 X-12.7306 Y14.4451 
G01 X-12.6490 Y14.3230 
G01 X-12.5928 Y14.1874 
G01 X-12.5642 Y14.0434 
G01 X-12.5642 Y13.8965 
G01 X-12.5928 Y13.7525 
G01 X-12.6490 Y13.6169 
G01 X-12.7306 Y13.4948 
G01 X-12.8344 Y13.3910 
G01 X-12.9565 Y13.3094 
G01 X-13.0921 Y13.2532 
G01 X-13.2361 Y13.2246 
G01 X-14.7038 Y13.2246 
G01 X-14.7486 Y13.2336 
G01 X-14.7486 Y11.5149 
G01 X-14.6787 Y11.5149 
G01 X-13.8850 Y10.7212 
G01 X-13.8850 Y9.5987 
G01 X-14.6787 Y8.8050 
G01 X-14.7486 Y8.8050 
G01 X-14.7486 Y7.6847 
G01 X-14.7486 Y7.5552 
G01 X-14.7821 Y7.4303 
G01 X-14.8468 Y7.3182 
G01 X-14.9382 Y7.2268 
G01 X-15.0503 Y7.1621 
G01 X-15.1752 Y7.1286 
G01 X-29.2747 Y7.1286 
G01 X-29.3996 Y7.1621 
G01 X-29.5117 Y7.2268 
G01 X-29.6031 Y7.3182 
G01 X-29.6678 Y7.4303 
G01 X-29.7013 Y7.5552 
G01 X-29.7013 Y7.6847 
G01 X-29.7013 Y9.6686 
G01 X-34.1077 Y9.6686 
G01 X-34.1401 Y9.6200 
G01 X-34.2580 Y9.5021 
G01 X-34.3967 Y9.4094 
G01 X-34.5509 Y9.3455 
G01 X-34.7145 Y9.3130 
G01 X-36.4054 Y9.3130 
G01 X-36.5690 Y9.3455 
G01 X-36.7232 Y9.4094 
G01 X-36.8619 Y9.5021 
G01 X-36.9798 Y9.6200 
G01 X-37.0122 Y9.6686 
G01 X-39.3052 Y9.6686 
G01 X-39.4347 Y9.6686 
G01 X-39.5596 Y9.7021 
G01 X-39.6717 Y9.7668 
G01 X-39.7631 Y9.8582 
G01 X-39.8278 Y9.9703 
G01 X-39.8613 Y10.0952 
G01 X-39.8613 Y22.7952 
G01 X-39.8613 Y22.9247 
G01 X-39.8278 Y23.0496 
G01 X-39.7631 Y23.1617 
G01 X-39.6717 Y23.2531 
G01 X-39.5596 Y23.3178 
G01 X-39.4347 Y23.3513 
G01 X-37.2920 Y23.3513 
G01 X-37.2055 Y23.4808 
G01 X-37.0698 Y23.6165 
G01 X-36.9103 Y23.7231 
G01 X-36.7331 Y23.7965 
G01 X-36.5449 Y23.8339 
G00 Z2.0000 
G00 X-28.0249 Y9.5987 
G01 Z-0.1000 F400.00 
G01 X-28.0249 Y10.7212 
G01 X-27.2312 Y11.5149 
G01 X-26.1087 Y11.5149 
G01 X-25.3150 Y10.7212 
G01 X-25.3150 Y10.6513 
G01 X-21.6749 Y10.6513 
G01 X-21.6749 Y10.7212 
G01 X-20.8812 Y11.5149 
G01 X-19.7587 Y11.5149 
G01 X-18.9650 Y10.7212 
G01 X-18.9650 Y10.6513 
G01 X-18.2713 Y10.6513 
G01 X-18.2713 Y21.0986 
G01 X-20.3669 Y21.0986 
G01 X-20.4544 Y21.0110 
G01 X-20.5765 Y20.9294 
G01 X-20.7121 Y20.8732 
G01 X-20.8561 Y20.8446 
G01 X-22.3238 Y20.8446 
G01 X-22.4678 Y20.8732 
G01 X-22.6034 Y20.9294 
G01 X-22.7255 Y21.0110 
G01 X-22.8131 Y21.0986 
G01 X-29.9886 Y21.0986 
G01 X-29.9886 Y20.2552 
G01 X-30.0221 Y20.1303 
G01 X-30.0868 Y20.0182 
G01 X-30.1782 Y19.9268 
G01 X-30.2903 Y19.8621 
G01 X-30.4152 Y19.8286 
G01 X-30.5447 Y19.8286 
G01 X-33.8279 Y19.8286 
G01 X-33.9144 Y19.6991 
G01 X-34.0501 Y19.5634 
G01 X-34.2096 Y19.4568 
G01 X-34.3868 Y19.3834 
G01 X-34.5750 Y19.3460 
G01 X-36.5449 Y19.3460 
G01 X-36.7331 Y19.3834 
G01 X-36.9103 Y19.4568 
G01 X-37.0698 Y19.5634 
G01 X-37.2055 Y19.6991 
G01 X-37.3121 Y19.8586 
G01 X-37.3855 Y20.0358 
G01 X-37.4229 Y20.2240 
G01 X-37.4229 Y20.4159 
G01 X-37.3855 Y20.6041 
G01 X-37.3121 Y20.7813 
G01 X-37.2055 Y20.9408 
G01 X-37.0698 Y21.0765 
G01 X-36.9103 Y21.1831 
G01 X-36.7331 Y21.2565 
G01 X-36.5449 Y21.2939 
G01 X-34.5750 Y21.2939 
G01 X-34.3868 Y21.2565 
G01 X-34.2096 Y21.1831 
G01 X-34.0501 Y21.0765 
G01 X-33.9144 Y20.9408 
G01 X-33.8279 Y20.8113 
G01 X-30.9713 Y20.8113 
G01 X-30.9713 Y21.5050 
G01 X-31.0412 Y21.5050 
G01 X-31.8349 Y22.2987 
G01 X-31.8349 Y23.4212 
G01 X-31.0412 Y24.2149 
G01 X-29.9187 Y24.2149 
G01 X-29.1250 Y23.4212 
G01 X-29.1250 Y22.2987 
G01 X-29.3425 Y22.0813 
G01 X-22.8131 Y22.0813 
G01 X-22.7255 Y22.1689 
G01 X-22.6034 Y22.2505 
G01 X-22.4678 Y22.3067 
G01 X-22.3238 Y22.3353 
G01 X-20.8561 Y22.3353 
G01 X-20.7121 Y22.3067 
G01 X-20.5765 Y22.2505 
G01 X-20.4544 Y22.1689 
G01 X-20.3669 Y22.0813 
G01 X-17.7152 Y22.0813 
G01 X-17.5903 Y22.0478 
G01 X-17.4782 Y21.9831 
G01 X-17.3868 Y21.8917 
G01 X-17.3221 Y21.7796 
G01 X-17.2886 Y21.6547 
G01 X-17.2886 Y21.5252 
G01 X-17.2886 Y10.0952 
G01 X-17.3221 Y9.9703 
G01 X-17.3868 Y9.8582 
G01 X-17.4782 Y9.7668 
G01 X-17.5903 Y9.7021 
G01 X-17.7152 Y9.6686 
G01 X-17.8447 Y9.6686 
G01 X-18.9650 Y9.6686 
G01 X-18.9650 Y9.5987 
G01 X-19.7587 Y8.8050 
G01 X-20.8812 Y8.8050 
G01 X-21.6749 Y9.5987 
G01 X-21.6749 Y9.6686 
G01 X-25.3150 Y9.6686 
G01 X-25.3150 Y9.5987 
G01 X-26.1087 Y8.8050 
G01 X-27.2312 Y8.8050 
G01 X-28.0249 Y9.5987 
G00 Z2.0000 
G00 X-31.8349 Y14.6787 
G01 Z-0.1000 F400.00 
G01 X-31.8349 Y14.7486 
G01 X-33.8279 Y14.7486 
G01 X-33.9144 Y14.6191 
G01 X-34.0501 Y14.4834 
G01 X-34.2096 Y14.3768 
G01 X-34.3868 Y14.3034 
G01 X-34.5750 Y14.2660 
G01 X-36.5449 Y14.2660 
G01 X-36.7331 Y14.3034 
G01 X-36.9103 Y14.3768 
G01 X-37.0698 Y14.4834 
G01 X-37.2055 Y14.6191 
G01 X-37.3121 Y14.7786 
G01 X-37.3855 Y14.9558 
G01 X-37.4229 Y15.1440 
G01 X-37.4229 Y15.3359 
G01 X-37.3855 Y15.5241 
G01 X-37.3121 Y15.7013 
G01 X-37.2055 Y15.8608 
G01 X-37.0698 Y15.9965 
G01 X-36.9103 Y16.1031 
G01 X-36.7331 Y16.1765 
G01 X-36.5449 Y16.2139 
G01 X-34.5750 Y16.2139 
G01 X-34.3868 Y16.1765 
G01 X-34.2096 Y16.1031 
G01 X-34.0501 Y15.9965 
G01 X-33.9144 Y15.8608 
G01 X-33.8279 Y15.7313 
G01 X-31.8349 Y15.7313 
G01 X-31.8349 Y15.8012 
G01 X-31.0412 Y16.5949 
G01 X-29.9187 Y16.5949 
G01 X-29.1250 Y15.8012 
G01 X-29.1250 Y15.7313 
G01 X-24.6213 Y15.7313 
G01 X-24.6213 Y16.5747 
G01 X-24.5878 Y16.6996 
G01 X-24.5231 Y16.8117 
G01 X-24.4317 Y16.9031 
G01 X-24.3196 Y16.9678 
G01 X-24.1947 Y17.0013 
G01 X-24.0652 Y17.0013 
G01 X-22.8130 Y17.0013 
G01 X-22.7255 Y17.0889 
G01 X-22.6034 Y17.1705 
G01 X-22.4678 Y17.2267 
G01 X-22.3238 Y17.2553 
G01 X-20.8561 Y17.2553 
G01 X-20.7121 Y17.2267 
G01 X-20.5765 Y17.1705 
G01 X-20.4544 Y17.0889 
G01 X-20.3506 Y16.9851 
G01 X-20.2690 Y16.8630 
G01 X-20.2128 Y16.7274 
G01 X-20.1842 Y16.5834 
G01 X-20.1842 Y16.4365 
G01 X-20.2128 Y16.2925 
G01 X-20.2690 Y16.1569 
G01 X-20.3506 Y16.0348 
G01 X-20.4544 Y15.9310 
G01 X-20.5765 Y15.8494 
G01 X-20.7121 Y15.7932 
G01 X-20.8561 Y15.7646 
G01 X-22.3238 Y15.7646 
G01 X-22.4678 Y15.7932 
G01 X-22.6034 Y15.8494 
G01 X-22.7255 Y15.9310 
G01 X-22.8130 Y16.0186 
G01 X-23.6386 Y16.0186 
G01 X-23.6386 Y15.3047 
G01 X-23.6386 Y15.1752 
G01 X-23.6721 Y15.0503 
G01 X-23.7368 Y14.9382 
G01 X-23.8282 Y14.8468 
G01 X-23.9403 Y14.7821 
G01 X-24.0652 Y14.7486 
G01 X-29.1250 Y14.7486 
G01 X-29.1250 Y14.6787 
G01 X-29.9187 Y13.8850 
G01 X-31.0412 Y13.8850 
G01 X-31.8349 Y14.6787 
G00 Z2.0000 
G00 X-34.7145 Y6.7730 
G01 Z-0.1000 F400.00 
G01 X-36.4054 Y6.7730 
G01 X-36.5690 Y6.8055 
G01 X-36.7232 Y6.8694 
G01 X-36.8619 Y6.9621 
G01 X-36.9798 Y7.0800 
G01 X-37.0725 Y7.2187 
G01 X-37.1364 Y7.3729 
G01 X-37.1689 Y7.5365 
G01 X-37.1689 Y7.7034 
G01 X-37.1364 Y7.8670 
G01 X-37.0725 Y8.0212 
G01 X-36.9798 Y8.1599 
G01 X-36.8619 Y8.2778 
G01 X-36.7232 Y8.3705 
G01 X-36.5690 Y8.4344 
G01 X-36.4054 Y8.4669 
G01 X-34.7145 Y8.4669 
G01 X-34.5509 Y8.4344 
G01 X-34.3967 Y8.3705 
G01 X-34.2580 Y8.2778 
G01 X-34.1401 Y8.1599 
G01 X-34.1077 Y8.1113 
G01 X-31.8147 Y8.1113 
G01 X-31.6852 Y8.1113 
G01 X-31.5603 Y8.0778 
G01 X-31.4482 Y8.0131 
G01 X-31.3568 Y7.9217 
G01 X-31.2921 Y7.8096 
G01 X-31.2586 Y7.6847 
G01 X-31.2586 Y6.8413 
G01 X-11.9213 Y6.8413 
G01 X-11.9213 Y16.0186 
G01 X-12.7469 Y16.0186 
G01 X-12.8344 Y15.9310 
G01 X-12.9565 Y15.8494 
G01 X-13.0921 Y15.7932 
G01 X-13.2361 Y15.7646 
G01 X-14.7038 Y15.7646 
G01 X-14.8478 Y15.7932 
G01 X-14.9834 Y15.8494 
G01 X-15.1055 Y15.9310 
G01 X-15.2093 Y16.0348 
G01 X-15.2909 Y16.1569 
G01 X-15.3471 Y16.2925 
G01 X-15.3757 Y16.4365 
G01 X-15.3757 Y16.5834 
G01 X-15.3471 Y16.7274 
G01 X-15.2909 Y16.8630 
G01 X-15.2093 Y16.9851 
G01 X-15.1055 Y17.0889 
G01 X-14.9834 Y17.1705 
G01 X-14.8478 Y17.2267 
G01 X-14.7038 Y17.2553 
G01 X-13.2361 Y17.2553 
G01 X-13.0921 Y17.2267 
G01 X-12.9565 Y17.1705 
G01 X-12.8344 Y17.0889 
G01 X-12.7469 Y17.0013 
G01 X-11.3652 Y17.0013 
G01 X-11.2403 Y16.9678 
G01 X-11.1282 Y16.9031 
G01 X-11.0368 Y16.8117 
G01 X-10.9721 Y16.6996 
G01 X-10.9386 Y16.5747 
G01 X-10.9386 Y16.4452 
G01 X-10.9386 Y6.2852 
G01 X-10.9721 Y6.1603 
G01 X-11.0368 Y6.0482 
G01 X-11.1282 Y5.9568 
G01 X-11.2403 Y5.8921 
G01 X-11.3652 Y5.8586 
G01 X-11.4947 Y5.8586 
G01 X-31.8147 Y5.8586 
G01 X-31.9396 Y5.8921 
G01 X-32.0517 Y5.9568 
G01 X-32.1431 Y6.0482 
G01 X-32.2078 Y6.1603 
G01 X-32.2413 Y6.2852 
G01 X-32.2413 Y6.4147 
G01 X-32.2413 Y7.1286 
G01 X-34.1077 Y7.1286 
G01 X-34.1401 Y7.0800 
G01 X-34.2580 Y6.9621 
G01 X-34.3967 Y6.8694 
G01 X-34.5509 Y6.8055 
G01 X-34.7145 Y6.7730 
G00 Z2.0000 
G00 X-8.9749 Y19.7587 
G01 Z-0.1000 F400.00 
G01 X-8.9749 Y19.8286 
G01 X-11.3652 Y19.8286 
G01 X-11.4947 Y19.8286 
G01 X-11.6196 Y19.8621 
G01 X-11.7317 Y19.9268 
G01 X-11.8231 Y20.0182 
G01 X-11.8878 Y20.1303 
G01 X-11.9213 Y20.2552 
G01 X-11.9213 Y21.0986 
G01 X-12.7469 Y21.0986 
G01 X-12.8344 Y21.0110 
G01 X-12.9565 Y20.9294 
G01 X-13.0921 Y20.8732 
G01 X-13.2361 Y20.8446 
G01 X-14.7038 Y20.8446 
G01 X-14.8478 Y20.8732 
G01 X-14.9834 Y20.9294 
G01 X-15.1055 Y21.0110 
G01 X-15.2093 Y21.1148 
G01 X-15.2909 Y21.2369 
G01 X-15.3471 Y21.3725 
G01 X-15.3757 Y21.5165 
G01 X-15.3757 Y21.6634 
G01 X-15.3471 Y21.8074 
G01 X-15.2909 Y21.9430 
G01 X-15.2093 Y22.0651 
G01 X-15.1055 Y22.1689 
G01 X-14.9834 Y22.2505 
G01 X-14.8478 Y22.3067 
G01 X-14.7038 Y22.3353 
G01 X-13.2361 Y22.3353 
G01 X-13.0921 Y22.3067 
G01 X-12.9565 Y22.2505 
G01 X-12.8344 Y22.1689 
G01 X-12.7469 Y22.0813 
G01 X-11.3652 Y22.0813 
G01 X-11.2403 Y22.0478 
G01 X-11.1282 Y21.9831 
G01 X-11.0368 Y21.8917 
G01 X-10.9721 Y21.7796 
G01 X-10.9386 Y21.6547 
G01 X-10.9386 Y21.5252 
G01 X-10.9386 Y20.8113 
G01 X-8.9749 Y20.8113 
G01 X-8.9749 Y20.8812 
G01 X-8.1812 Y21.6749 
G01 X-7.0587 Y21.6749 
G01 X-6.2650 Y20.8812 
G01 X-6.2650 Y19.7587 
G01 X-7.0587 Y18.9650 
G01 X-8.1812 Y18.9650 
G01 X-8.9749 Y19.7587 
G00 Z2.0000 
G00 X-22.3238 Y14.7153 
G01 Z-0.1000 F400.00 
G01 X-20.8561 Y14.7153 
G01 X-20.7121 Y14.6867 
G01 X-20.5765 Y14.6305 
G01 X-20.4544 Y14.5489 
G01 X-20.3506 Y14.4451 
G01 X-20.2690 Y14.3230 
G01 X-20.2128 Y14.1874 
G01 X-20.1842 Y14.0434 
G01 X-20.1842 Y13.8965 
G01 X-20.2128 Y13.7525 
G01 X-20.2690 Y13.6169 
G01 X-20.3506 Y13.4948 
G01 X-20.4544 Y13.3910 
G01 X-20.5765 Y13.3094 
G01 X-20.7121 Y13.2532 
G01 X-20.8561 Y13.2246 
G01 X-22.3238 Y13.2246 
G01 X-22.3686 Y13.2336 
G01 X-22.3686 Y12.7647 
G01 X-22.3686 Y12.6352 
G01 X-22.4021 Y12.5103 
G01 X-22.4668 Y12.3982 
G01 X-22.5582 Y12.3068 
G01 X-22.6703 Y12.2421 
G01 X-22.7952 Y12.2086 
G01 X-28.7186 Y12.2086 
G01 X-28.7186 Y11.4947 
G01 X-28.7186 Y11.3652 
G01 X-28.7521 Y11.2403 
G01 X-28.8168 Y11.1282 
G01 X-28.9082 Y11.0368 
G01 X-29.0203 Y10.9721 
G01 X-29.1452 Y10.9386 
G01 X-32.9552 Y10.9386 
G01 X-33.0847 Y10.9386 
G01 X-33.2096 Y10.9721 
G01 X-33.3217 Y11.0368 
G01 X-33.4131 Y11.1282 
G01 X-33.4778 Y11.2403 
G01 X-33.5113 Y11.3652 
G01 X-33.5113 Y12.2086 
G01 X-38.0352 Y12.2086 
G01 X-38.1647 Y12.2086 
G01 X-38.2896 Y12.2421 
G01 X-38.4017 Y12.3068 
G01 X-38.4931 Y12.3982 
G01 X-38.5578 Y12.5103 
G01 X-38.5913 Y12.6352 
G01 X-38.5913 Y17.7152 
G01 X-38.5913 Y17.8447 
G01 X-38.5578 Y17.9696 
G01 X-38.4931 Y18.0817 
G01 X-38.4017 Y18.1731 
G01 X-38.2896 Y18.2378 
G01 X-38.1647 Y18.2713 
G01 X-37.2920 Y18.2713 
G01 X-37.2055 Y18.4008 
G01 X-37.0698 Y18.5365 
G01 X-36.9103 Y18.6431 
G01 X-36.7331 Y18.7165 
G01 X-36.5449 Y18.7539 
G01 X-34.5750 Y18.7539 
G01 X-34.3868 Y18.7165 
G01 X-34.2096 Y18.6431 
G01 X-34.0501 Y18.5365 
G01 X-33.9144 Y18.4008 
G01 X-33.8279 Y18.2713 
G01 X-28.0249 Y18.2713 
G01 X-28.0249 Y18.3412 
G01 X-27.2312 Y19.1349 
G01 X-26.1087 Y19.1349 
G01 X-25.3150 Y18.3412 
G01 X-25.3150 Y17.2187 
G01 X-26.1087 Y16.4250 
G01 X-27.2312 Y16.4250 
G01 X-28.0249 Y17.2187 
G01 X-28.0249 Y17.2886 
G01 X-33.8279 Y17.2886 
G01 X-33.9144 Y17.1591 
G01 X-34.0501 Y17.0234 
G01 X-34.2096 Y16.9168 
G01 X-34.3868 Y16.8434 
G01 X-34.5750 Y16.8060 
G01 X-36.5449 Y16.8060 
G01 X-36.7331 Y16.8434 
G01 X-36.9103 Y16.9168 
G01 X-37.0698 Y17.0234 
G01 X-37.2055 Y17.1591 
G01 X-37.2920 Y17.2886 
G01 X-37.6086 Y17.2886 
G01 X-37.6086 Y13.1913 
G01 X-32.9552 Y13.1913 
G01 X-32.8303 Y13.1578 
G01 X-32.7182 Y13.0931 
G01 X-32.6268 Y13.0017 
G01 X-32.5621 Y12.8896 
G01 X-32.5286 Y12.7647 
G01 X-32.5286 Y12.6352 
G01 X-32.5286 Y11.9213 
G01 X-29.7013 Y11.9213 
G01 X-29.7013 Y12.7647 
G01 X-29.6678 Y12.8896 
G01 X-29.6031 Y13.0017 
G01 X-29.5117 Y13.0931 
G01 X-29.3996 Y13.1578 
G01 X-29.2747 Y13.1913 
G01 X-29.1452 Y13.1913 
G01 X-23.3513 Y13.1913 
G01 X-23.3513 Y14.0347 
G01 X-23.3178 Y14.1596 
G01 X-23.2531 Y14.2717 
G01 X-23.1617 Y14.3631 
G01 X-23.0496 Y14.4278 
G01 X-22.9247 Y14.4613 
G01 X-22.8131 Y14.4613 
G01 X-22.7255 Y14.5489 
G01 X-22.6034 Y14.6305 
G01 X-22.4678 Y14.6867 
G01 X-22.3238 Y14.7153 
G00 Z2.0000 
G00 X-22.3238 Y19.7953 
G01 Z-0.1000 F400.00 
G01 X-20.8561 Y19.7953 
G01 X-20.7121 Y19.7667 
G01 X-20.5765 Y19.7105 
G01 X-20.4544 Y19.6289 
G01 X-20.3506 Y19.5251 
G01 X-20.2690 Y19.4030 
G01 X-20.2128 Y19.2674 
G01 X-20.1842 Y19.1234 
G01 X-20.1842 Y18.9765 
G01 X-20.2128 Y18.8325 
G01 X-20.2690 Y18.6969 
G01 X-20.3506 Y18.5748 
G01 X-20.4544 Y18.4710 
G01 X-20.5765 Y18.3894 
G01 X-20.7121 Y18.3332 
G01 X-20.8561 Y18.3046 
G01 X-22.3238 Y18.3046 
G01 X-22.4678 Y18.3332 
G01 X-22.6034 Y18.3894 
G01 X-22.7255 Y18.4710 
G01 X-22.8293 Y18.5748 
G01 X-22.9109 Y18.6969 
G01 X-22.9671 Y18.8325 
G01 X-22.9957 Y18.9765 
G01 X-22.9957 Y19.1234 
G01 X-22.9671 Y19.2674 
G01 X-22.9109 Y19.4030 
G01 X-22.8293 Y19.5251 
G01 X-22.7255 Y19.6289 
G01 X-22.6034 Y19.7105 
G01 X-22.4678 Y19.7667 
G01 X-22.3238 Y19.7953 
G00 Z2.0000 
G00 X-14.7038 Y19.7953 
G01 Z-0.1000 F400.00 
G01 X-13.2361 Y19.7953 
G01 X-13.0921 Y19.7667 
G01 X-12.9565 Y19.7105 
G01 X-12.8344 Y19.6289 
G01 X-12.7469 Y19.5413 
G01 X-10.2247 Y19.5413 
G01 X-10.0952 Y19.5413 
G01 X-9.9703 Y19.5078 
G01 X-9.8582 Y19.4431 
G01 X-9.7668 Y19.3517 
G01 X-9.7021 Y19.2396 
G01 X-9.6686 Y19.1147 
G01 X-9.6686 Y15.7313 
G01 X-8.9749 Y15.7313 
G01 X-8.9749 Y15.8012 
G01 X-8.1812 Y16.5949 
G01 X-7.0587 Y16.5949 
G01 X-6.2650 Y15.8012 
G01 X-6.2650 Y14.6787 
G01 X-7.0587 Y13.8850 
G01 X-8.1812 Y13.8850 
G01 X-8.9749 Y14.6787 
G01 X-8.9749 Y14.7486 
G01 X-10.2247 Y14.7486 
G01 X-10.3496 Y14.7821 
G01 X-10.4617 Y14.8468 
G01 X-10.5531 Y14.9382 
G01 X-10.6178 Y15.0503 
G01 X-10.6513 Y15.1752 
G01 X-10.6513 Y15.3047 
G01 X-10.6513 Y18.5586 
G01 X-12.7469 Y18.5586 
G01 X-12.8344 Y18.4710 
G01 X-12.9565 Y18.3894 
G01 X-13.0921 Y18.3332 
G01 X-13.2361 Y18.3046 
G01 X-14.7038 Y18.3046 
G01 X-14.8478 Y18.3332 
G01 X-14.9834 Y18.3894 
G01 X-15.1055 Y18.4710 
G01 X-15.2093 Y18.5748 
G01 X-15.2909 Y18.6969 
G01 X-15.3471 Y18.8325 
G01 X-15.3757 Y18.9765 
G01 X-15.3757 Y19.1234 
G01 X-15.3471 Y19.2674 
G01 X-15.2909 Y19.4030 
G01 X-15.2093 Y19.5251 
G01 X-15.1055 Y19.6289 
G01 X-14.9834 Y19.7105 
G01 X-14.8478 Y19.7667 
G01 X-14.7038 Y19.7953 
(File Footer)
G00 Z2.0000 
G00 Z10.0000 
M05
M02
