( This gcode generated by /home/mattvenn/.eagle/ulp/pcb-gcode.ulp )
( Copyright 2005 by John Johnson. See readme.txt for licensing terms. )

( This file generated from the board /home/mattvenn/eagle-circuit-designs/pcb miller test/realtime breakout.brd )
( This file generated 07/02/2012 14:22 )

G21

G90
G00 Z10.0000 
G00 X0 Y0
M03
G04 P3.000000
G00 Z2.0000 
G00 X14.7029 Y22.3263 
G01 Z-0.2000 F600.00 
G01 X13.2370 Y22.3263 
G01 X13.0947 Y22.2980 
G01 X12.9607 Y22.2425 
G01 X12.8401 Y22.1619 
G01 X12.7376 Y22.0594 
G01 X12.6570 Y21.9388 
G01 X12.6015 Y21.8048 
G01 X12.5732 Y21.6625 
G01 X12.5732 Y21.5174 
G01 X12.6015 Y21.3751 
G01 X12.6570 Y21.2411 
G01 X12.7376 Y21.1205 
G01 X12.8401 Y21.0180 
G01 X12.9607 Y20.9374 
G01 X13.0947 Y20.8819 
G01 X13.2370 Y20.8536 
G01 X14.7029 Y20.8536 
G01 X14.8452 Y20.8819 
G01 X14.9792 Y20.9374 
G01 X15.0998 Y21.0180 
G01 X15.2023 Y21.1205 
G01 X15.2829 Y21.2411 
G01 X15.3384 Y21.3751 
G01 X15.3667 Y21.5174 
G01 X15.3667 Y21.6625 
G01 X15.3384 Y21.8048 
G01 X15.2829 Y21.9388 
G01 X15.2023 Y22.0594 
G01 X15.0998 Y22.1619 
G01 X14.9792 Y22.2425 
G01 X14.8452 Y22.2980 
G01 X14.7029 Y22.3263 
G00 Z2.0000 
G00 X14.7029 Y19.7863 
G01 Z-0.2000 F600.00 
G01 X13.2370 Y19.7863 
G01 X13.0947 Y19.7580 
G01 X12.9607 Y19.7025 
G01 X12.8401 Y19.6219 
G01 X12.7376 Y19.5194 
G01 X12.6570 Y19.3988 
G01 X12.6015 Y19.2648 
G01 X12.5732 Y19.1225 
G01 X12.5732 Y18.9774 
G01 X12.6015 Y18.8351 
G01 X12.6570 Y18.7011 
G01 X12.7376 Y18.5805 
G01 X12.8401 Y18.4780 
G01 X12.9607 Y18.3974 
G01 X13.0947 Y18.3419 
G01 X13.2370 Y18.3136 
G01 X14.7029 Y18.3136 
G01 X14.8452 Y18.3419 
G01 X14.9792 Y18.3974 
G01 X15.0998 Y18.4780 
G01 X15.2023 Y18.5805 
G01 X15.2829 Y18.7011 
G01 X15.3384 Y18.8351 
G01 X15.3667 Y18.9774 
G01 X15.3667 Y19.1225 
G01 X15.3384 Y19.2648 
G01 X15.2829 Y19.3988 
G01 X15.2023 Y19.5194 
G01 X15.0998 Y19.6219 
G01 X14.9792 Y19.7025 
G01 X14.8452 Y19.7580 
G01 X14.7029 Y19.7863 
G00 Z2.0000 
G00 X22.3229 Y19.7863 
G01 Z-0.2000 F600.00 
G01 X20.8570 Y19.7863 
G01 X20.7147 Y19.7580 
G01 X20.5807 Y19.7025 
G01 X20.4601 Y19.6219 
G01 X20.3576 Y19.5194 
G01 X20.2770 Y19.3988 
G01 X20.2215 Y19.2648 
G01 X20.1932 Y19.1225 
G01 X20.1932 Y18.9774 
G01 X20.2215 Y18.8351 
G01 X20.2770 Y18.7011 
G01 X20.3576 Y18.5805 
G01 X20.4601 Y18.4780 
G01 X20.5807 Y18.3974 
G01 X20.7147 Y18.3419 
G01 X20.8570 Y18.3136 
G01 X22.3229 Y18.3136 
G01 X22.4652 Y18.3419 
G01 X22.5992 Y18.3974 
G01 X22.7198 Y18.4780 
G01 X22.8223 Y18.5805 
G01 X22.9029 Y18.7011 
G01 X22.9584 Y18.8351 
G01 X22.9867 Y18.9774 
G01 X22.9867 Y19.1225 
G01 X22.9584 Y19.2648 
G01 X22.9029 Y19.3988 
G01 X22.8223 Y19.5194 
G01 X22.7198 Y19.6219 
G01 X22.5992 Y19.7025 
G01 X22.4652 Y19.7580 
G01 X22.3229 Y19.7863 
G00 Z2.0000 
G00 X22.3229 Y22.3263 
G01 Z-0.2000 F600.00 
G01 X20.8570 Y22.3263 
G01 X20.7147 Y22.2980 
G01 X20.5807 Y22.2425 
G01 X20.4601 Y22.1619 
G01 X20.3576 Y22.0594 
G01 X20.2770 Y21.9388 
G01 X20.2215 Y21.8048 
G01 X20.1932 Y21.6625 
G01 X20.1932 Y21.5174 
G01 X20.2215 Y21.3751 
G01 X20.2770 Y21.2411 
G01 X20.3576 Y21.1205 
G01 X20.4026 Y21.0756 
G01 X18.6691 Y19.3422 
G01 X18.6064 Y19.2337 
G01 X18.5740 Y19.1127 
G01 X18.5740 Y18.9872 
G01 X18.5740 Y11.3672 
G01 X18.6064 Y11.2462 
G01 X18.6691 Y11.1377 
G01 X18.7577 Y11.0491 
G01 X19.0318 Y10.7751 
G01 X18.9740 Y10.7174 
G01 X18.9740 Y9.6025 
G01 X19.7625 Y8.8140 
G01 X20.8774 Y8.8140 
G01 X21.6659 Y9.6025 
G01 X21.6659 Y9.6840 
G01 X25.3240 Y9.6840 
G01 X25.3240 Y9.6025 
G01 X26.1125 Y8.8140 
G01 X27.2274 Y8.8140 
G01 X28.0159 Y9.6025 
G01 X28.0159 Y10.7174 
G01 X27.2274 Y11.5059 
G01 X26.1125 Y11.5059 
G01 X25.3240 Y10.7174 
G01 X25.3240 Y10.6359 
G01 X21.6659 Y10.6359 
G01 X21.6659 Y10.7174 
G01 X20.8774 Y11.5059 
G01 X19.7625 Y11.5059 
G01 X19.7048 Y11.4481 
G01 X19.5259 Y11.6271 
G01 X19.5259 Y18.8528 
G01 X21.5267 Y20.8536 
G01 X22.3229 Y20.8536 
G01 X22.4652 Y20.8819 
G01 X22.5992 Y20.9374 
G01 X22.7198 Y21.0180 
G01 X22.8223 Y21.1205 
G01 X22.9029 Y21.2411 
G01 X22.9584 Y21.3751 
G01 X22.9867 Y21.5174 
G01 X22.9867 Y21.6625 
G01 X22.9584 Y21.8048 
G01 X22.9029 Y21.9388 
G01 X22.8223 Y22.0594 
G01 X22.7198 Y22.1619 
G01 X22.5992 Y22.2425 
G01 X22.4652 Y22.2980 
G01 X22.3229 Y22.3263 
G00 Z2.0000 
G00 X14.7029 Y17.2463 
G01 Z-0.2000 F600.00 
G01 X13.2370 Y17.2463 
G01 X13.0947 Y17.2180 
G01 X12.9607 Y17.1625 
G01 X12.8401 Y17.0819 
G01 X12.7376 Y16.9794 
G01 X12.6570 Y16.8588 
G01 X12.6015 Y16.7248 
G01 X12.5732 Y16.5825 
G01 X12.5732 Y16.4374 
G01 X12.6015 Y16.2951 
G01 X12.6570 Y16.1611 
G01 X12.7376 Y16.0405 
G01 X12.8401 Y15.9380 
G01 X12.9607 Y15.8574 
G01 X13.0947 Y15.8019 
G01 X13.2370 Y15.7736 
G01 X14.0332 Y15.7736 
G01 X17.3040 Y12.5028 
G01 X17.3040 Y8.9527 
G01 X17.3040 Y8.8272 
G01 X17.3364 Y8.7062 
G01 X17.3991 Y8.5977 
G01 X18.7577 Y7.2391 
G01 X18.8662 Y7.1764 
G01 X18.9872 Y7.1440 
G01 X19.1127 Y7.1440 
G01 X19.1128 Y7.1440 
G01 X34.1082 Y7.1440 
G01 X34.1471 Y7.0858 
G01 X34.2638 Y6.9691 
G01 X34.4010 Y6.8774 
G01 X34.5535 Y6.8142 
G01 X34.7154 Y6.7820 
G01 X36.4045 Y6.7820 
G01 X36.5664 Y6.8142 
G01 X36.7189 Y6.8774 
G01 X36.8561 Y6.9691 
G01 X36.9728 Y7.0858 
G01 X37.0645 Y7.2230 
G01 X37.1277 Y7.3755 
G01 X37.1599 Y7.5374 
G01 X37.1599 Y7.7025 
G01 X37.1277 Y7.8644 
G01 X37.0645 Y8.0169 
G01 X36.9728 Y8.1541 
G01 X36.8561 Y8.2708 
G01 X36.7189 Y8.3625 
G01 X36.5664 Y8.4257 
G01 X36.4045 Y8.4579 
G01 X34.7154 Y8.4579 
G01 X34.5535 Y8.4257 
G01 X34.4010 Y8.3625 
G01 X34.2638 Y8.2708 
G01 X34.1471 Y8.1541 
G01 X34.1082 Y8.0959 
G01 X19.2471 Y8.0959 
G01 X18.2559 Y9.0871 
G01 X18.2559 Y12.7627 
G01 X18.2235 Y12.8837 
G01 X18.1608 Y12.9922 
G01 X18.0722 Y13.0808 
G01 X15.1573 Y15.9956 
G01 X15.2023 Y16.0405 
G01 X15.2829 Y16.1611 
G01 X15.3384 Y16.2951 
G01 X15.3667 Y16.4374 
G01 X15.3667 Y16.5825 
G01 X15.3384 Y16.7248 
G01 X15.2829 Y16.8588 
G01 X15.2023 Y16.9794 
G01 X15.0998 Y17.0819 
G01 X14.9792 Y17.1625 
G01 X14.8452 Y17.2180 
G01 X14.7029 Y17.2463 
G00 Z2.0000 
G00 X13.0947 Y14.6780 
G01 Z-0.2000 F600.00 
G01 X12.9607 Y14.6225 
G01 X12.8401 Y14.5419 
G01 X12.7376 Y14.4394 
G01 X12.6570 Y14.3188 
G01 X12.6015 Y14.1848 
G01 X12.5732 Y14.0425 
G01 X12.5732 Y13.8974 
G01 X12.6015 Y13.7551 
G01 X12.6570 Y13.6211 
G01 X12.7376 Y13.5005 
G01 X12.8401 Y13.3980 
G01 X12.9607 Y13.3174 
G01 X13.0947 Y13.2619 
G01 X13.1716 Y13.2467 
G01 X14.1640 Y12.2542 
G01 X14.1640 Y10.9873 
G01 X13.8940 Y10.7174 
G01 X13.8940 Y9.6025 
G01 X14.6825 Y8.8140 
G01 X15.7974 Y8.8140 
G01 X16.5859 Y9.6025 
G01 X16.5859 Y10.7174 
G01 X16.3159 Y10.9873 
G01 X16.3159 Y12.7847 
G01 X16.2894 Y12.9519 
G01 X16.2371 Y13.1130 
G01 X16.1602 Y13.2639 
G01 X16.0607 Y13.4009 
G01 X15.9409 Y13.5207 
G01 X15.3536 Y14.1079 
G01 X15.3384 Y14.1848 
G01 X15.2829 Y14.3188 
G01 X15.2023 Y14.4394 
G01 X15.0998 Y14.5419 
G01 X14.9792 Y14.6225 
G01 X14.8452 Y14.6780 
G01 X14.7683 Y14.6932 
G01 X14.6709 Y14.7907 
G01 X14.5339 Y14.8902 
G01 X14.3830 Y14.9671 
G01 X14.2219 Y15.0194 
G01 X14.0547 Y15.0459 
G01 X13.8852 Y15.0459 
G01 X13.7180 Y15.0194 
G01 X13.5569 Y14.9671 
G01 X13.4060 Y14.8902 
G01 X13.2690 Y14.7907 
G01 X13.1716 Y14.6932 
G01 X13.0947 Y14.6780 
G00 Z2.0000 
G00 X22.3229 Y17.2463 
G01 Z-0.2000 F600.00 
G01 X20.8570 Y17.2463 
G01 X20.7147 Y17.2180 
G01 X20.5807 Y17.1625 
G01 X20.4601 Y17.0819 
G01 X20.3576 Y16.9794 
G01 X20.2770 Y16.8588 
G01 X20.2215 Y16.7248 
G01 X20.1932 Y16.5825 
G01 X20.1932 Y16.4374 
G01 X20.2215 Y16.2951 
G01 X20.2770 Y16.1611 
G01 X20.3576 Y16.0405 
G01 X20.4601 Y15.9380 
G01 X20.5807 Y15.8574 
G01 X20.7147 Y15.8019 
G01 X20.8570 Y15.7736 
G01 X22.3229 Y15.7736 
G01 X22.4652 Y15.8019 
G01 X22.5992 Y15.8574 
G01 X22.7198 Y15.9380 
G01 X22.8223 Y16.0405 
G01 X22.9029 Y16.1611 
G01 X22.9584 Y16.2951 
G01 X22.9867 Y16.4374 
G01 X22.9867 Y16.5825 
G01 X22.9584 Y16.7248 
G01 X22.9029 Y16.8588 
G01 X22.8223 Y16.9794 
G01 X22.7198 Y17.0819 
G01 X22.5992 Y17.1625 
G01 X22.4652 Y17.2180 
G01 X22.3229 Y17.2463 
G00 Z2.0000 
G00 X8.9659 Y19.7625 
G01 Z-0.2000 F600.00 
G01 X8.9659 Y20.8774 
G01 X8.1774 Y21.6659 
G01 X7.0625 Y21.6659 
G01 X6.2740 Y20.8774 
G01 X6.2740 Y19.7625 
G01 X7.0625 Y18.9740 
G01 X8.1774 Y18.9740 
G01 X8.9659 Y19.7625 
G00 Z2.0000 
G00 X8.9659 Y14.6825 
G01 Z-0.2000 F600.00 
G01 X8.9659 Y15.7974 
G01 X8.1774 Y16.5859 
G01 X7.0625 Y16.5859 
G01 X6.2740 Y15.7974 
G01 X6.2740 Y14.6825 
G01 X7.0625 Y13.8940 
G01 X8.1774 Y13.8940 
G01 X8.9659 Y14.6825 
G00 Z2.0000 
G00 X34.7154 Y9.3220 
G01 Z-0.2000 F600.00 
G01 X36.4045 Y9.3220 
G01 X36.5664 Y9.3542 
G01 X36.7189 Y9.4174 
G01 X36.8561 Y9.5091 
G01 X36.9728 Y9.6258 
G01 X37.0645 Y9.7630 
G01 X37.1277 Y9.9155 
G01 X37.1599 Y10.0774 
G01 X37.1599 Y10.2425 
G01 X37.1277 Y10.4044 
G01 X37.0645 Y10.5569 
G01 X36.9728 Y10.6941 
G01 X36.8561 Y10.8108 
G01 X36.7189 Y10.9025 
G01 X36.5664 Y10.9657 
G01 X36.4045 Y10.9979 
G01 X34.7154 Y10.9979 
G01 X34.5535 Y10.9657 
G01 X34.4010 Y10.9025 
G01 X34.2638 Y10.8108 
G01 X34.1471 Y10.6941 
G01 X34.0554 Y10.5569 
G01 X33.9922 Y10.4044 
G01 X33.9600 Y10.2425 
G01 X33.9600 Y10.0774 
G01 X33.9922 Y9.9155 
G01 X34.0554 Y9.7630 
G01 X34.1471 Y9.6258 
G01 X34.2638 Y9.5091 
G01 X34.4010 Y9.4174 
G01 X34.5535 Y9.3542 
G01 X34.7154 Y9.3220 
G00 Z2.0000 
G00 X31.8259 Y14.6825 
G01 Z-0.2000 F600.00 
G01 X31.8259 Y14.7640 
G01 X33.8284 Y14.7640 
G01 X33.9214 Y14.6248 
G01 X34.0558 Y14.4904 
G01 X34.2138 Y14.3848 
G01 X34.3894 Y14.3121 
G01 X34.5759 Y14.2750 
G01 X36.5440 Y14.2750 
G01 X36.7305 Y14.3121 
G01 X36.9061 Y14.3848 
G01 X37.0641 Y14.4904 
G01 X37.1985 Y14.6248 
G01 X37.3041 Y14.7828 
G01 X37.3768 Y14.9584 
G01 X37.4139 Y15.1449 
G01 X37.4139 Y15.3350 
G01 X37.3768 Y15.5215 
G01 X37.3041 Y15.6971 
G01 X37.1985 Y15.8551 
G01 X37.0641 Y15.9895 
G01 X36.9061 Y16.0951 
G01 X36.7305 Y16.1678 
G01 X36.5440 Y16.2049 
G01 X34.5759 Y16.2049 
G01 X34.3894 Y16.1678 
G01 X34.2138 Y16.0951 
G01 X34.0558 Y15.9895 
G01 X33.9214 Y15.8551 
G01 X33.8284 Y15.7159 
G01 X31.8259 Y15.7159 
G01 X31.8259 Y15.7974 
G01 X31.0374 Y16.5859 
G01 X29.9225 Y16.5859 
G01 X29.1340 Y15.7974 
G01 X29.1340 Y14.6825 
G01 X29.9225 Y13.8940 
G01 X31.0374 Y13.8940 
G01 X31.8259 Y14.6825 
G00 Z2.0000 
G00 X36.5440 Y18.7449 
G01 Z-0.2000 F600.00 
G01 X34.5759 Y18.7449 
G01 X34.3894 Y18.7078 
G01 X34.2138 Y18.6351 
G01 X34.0558 Y18.5295 
G01 X33.9214 Y18.3951 
G01 X33.8284 Y18.2559 
G01 X28.0159 Y18.2559 
G01 X28.0159 Y18.3374 
G01 X27.2274 Y19.1259 
G01 X26.1125 Y19.1259 
G01 X25.3240 Y18.3374 
G01 X25.3240 Y17.2225 
G01 X26.1125 Y16.4340 
G01 X26.1940 Y16.4340 
G01 X26.1940 Y14.4459 
G01 X22.8157 Y14.4459 
G01 X22.7198 Y14.5419 
G01 X22.5992 Y14.6225 
G01 X22.4652 Y14.6780 
G01 X22.3229 Y14.7063 
G01 X20.8570 Y14.7063 
G01 X20.7147 Y14.6780 
G01 X20.5807 Y14.6225 
G01 X20.4601 Y14.5419 
G01 X20.3576 Y14.4394 
G01 X20.2770 Y14.3188 
G01 X20.2215 Y14.1848 
G01 X20.1932 Y14.0425 
G01 X20.1932 Y13.8974 
G01 X20.2215 Y13.7551 
G01 X20.2770 Y13.6211 
G01 X20.3576 Y13.5005 
G01 X20.4601 Y13.3980 
G01 X20.5807 Y13.3174 
G01 X20.7147 Y13.2619 
G01 X20.8570 Y13.2336 
G01 X22.3229 Y13.2336 
G01 X22.4652 Y13.2619 
G01 X22.5992 Y13.3174 
G01 X22.7198 Y13.3980 
G01 X22.8157 Y13.4940 
G01 X26.6072 Y13.4940 
G01 X26.7327 Y13.4940 
G01 X26.8537 Y13.5264 
G01 X26.9622 Y13.5891 
G01 X27.0508 Y13.6777 
G01 X27.1135 Y13.7862 
G01 X27.1459 Y13.9072 
G01 X27.1459 Y16.4340 
G01 X27.2274 Y16.4340 
G01 X28.0159 Y17.2225 
G01 X28.0159 Y17.3040 
G01 X33.8284 Y17.3040 
G01 X33.9214 Y17.1648 
G01 X34.0558 Y17.0304 
G01 X34.2138 Y16.9248 
G01 X34.3894 Y16.8521 
G01 X34.5759 Y16.8150 
G01 X36.5440 Y16.8150 
G01 X36.7305 Y16.8521 
G01 X36.9061 Y16.9248 
G01 X37.0641 Y17.0304 
G01 X37.1985 Y17.1648 
G01 X37.3041 Y17.3228 
G01 X37.3768 Y17.4984 
G01 X37.4139 Y17.6849 
G01 X37.4139 Y17.8750 
G01 X37.3768 Y18.0615 
G01 X37.3041 Y18.2371 
G01 X37.1985 Y18.3951 
G01 X37.0641 Y18.5295 
G01 X36.9061 Y18.6351 
G01 X36.7305 Y18.7078 
G01 X36.5440 Y18.7449 
G00 Z2.0000 
G00 X36.5440 Y21.2849 
G01 Z-0.2000 F600.00 
G01 X34.5759 Y21.2849 
G01 X34.3894 Y21.2478 
G01 X34.2138 Y21.1751 
G01 X34.0558 Y21.0695 
G01 X33.9214 Y20.9351 
G01 X33.8284 Y20.7959 
G01 X30.9559 Y20.7959 
G01 X30.9559 Y21.5140 
G01 X31.0374 Y21.5140 
G01 X31.8259 Y22.3025 
G01 X31.8259 Y23.4174 
G01 X31.0374 Y24.2059 
G01 X29.9225 Y24.2059 
G01 X29.1340 Y23.4174 
G01 X29.1340 Y22.3025 
G01 X29.9225 Y21.5140 
G01 X30.0040 Y21.5140 
G01 X30.0040 Y20.2572 
G01 X30.0364 Y20.1362 
G01 X30.0991 Y20.0277 
G01 X30.1877 Y19.9391 
G01 X30.2962 Y19.8764 
G01 X30.4172 Y19.8440 
G01 X30.5427 Y19.8440 
G01 X33.8284 Y19.8440 
G01 X33.9214 Y19.7048 
G01 X34.0558 Y19.5704 
G01 X34.2138 Y19.4648 
G01 X34.3894 Y19.3921 
G01 X34.5759 Y19.3550 
G01 X36.5440 Y19.3550 
G01 X36.7305 Y19.3921 
G01 X36.9061 Y19.4648 
G01 X37.0641 Y19.5704 
G01 X37.1985 Y19.7048 
G01 X37.3041 Y19.8628 
G01 X37.3768 Y20.0384 
G01 X37.4139 Y20.2249 
G01 X37.4139 Y20.4150 
G01 X37.3768 Y20.6015 
G01 X37.3041 Y20.7771 
G01 X37.1985 Y20.9351 
G01 X37.0641 Y21.0695 
G01 X36.9061 Y21.1751 
G01 X36.7305 Y21.2478 
G01 X36.5440 Y21.2849 
G00 Z2.0000 
G00 X36.5440 Y23.8249 
G01 Z-0.2000 F600.00 
G01 X34.5759 Y23.8249 
G01 X34.3894 Y23.7878 
G01 X34.2138 Y23.7151 
G01 X34.0558 Y23.6095 
G01 X33.9214 Y23.4751 
G01 X33.8158 Y23.3171 
G01 X33.7431 Y23.1415 
G01 X33.7060 Y22.9550 
G01 X33.7060 Y22.7649 
G01 X33.7431 Y22.5784 
G01 X33.8158 Y22.4028 
G01 X33.9214 Y22.2448 
G01 X34.0558 Y22.1104 
G01 X34.2138 Y22.0048 
G01 X34.3894 Y21.9321 
G01 X34.5759 Y21.8950 
G01 X36.5440 Y21.8950 
G01 X36.7305 Y21.9321 
G01 X36.9061 Y22.0048 
G01 X37.0641 Y22.1104 
G01 X37.1985 Y22.2448 
G01 X37.3041 Y22.4028 
G01 X37.3768 Y22.5784 
G01 X37.4139 Y22.7649 
G01 X37.4139 Y22.9550 
G01 X37.3768 Y23.1415 
G01 X37.3041 Y23.3171 
G01 X37.1985 Y23.4751 
G01 X37.0641 Y23.6095 
G01 X36.9061 Y23.7151 
G01 X36.7305 Y23.7878 
G01 X36.5440 Y23.8249 
(File Footer)
G00 Z2.0000 
G00 Z10.0000 
M05
M02
