( This gcode generated by /home/mattvenn/.eagle/ulp/pcb-gcode.ulp )
( Copyright 2005 by John Johnson. See readme.txt for licensing terms. )

( This file generated from the board /home/mattvenn/eagle-circuit-designs/pcb miller test/realtime breakout.brd )
( This file generated 07/02/2012 14:22 )

( T01 0.600000 )
( T02 0.609600 )
( T03 0.812800 )
( T04 1.016000 )
G21

G90
M05
G00 X0.0000 Y0.0000 Z30.0000 
M06 T01  ; 0.6000 
G00 Z2.0000 
M03
G04 P3.000000
G82 X-8.0000 Y4.0000 Z-2.0000 F127.00 R2.0000 P0.100000
G82 X-42.0000 Y4.0000 
M05
G00 X0.0000 Y0.0000 Z30.0000 
M06 T02  ; 0.6096 
G00 Z2.0000 
M03
G04 P3.000000
G82 X-7.6200 Y15.2400 Z-2.0000 F127.00 R2.0000 P0.100000
G82 X-7.6200 Y20.3200 
M05
G00 X0.0000 Y0.0000 Z30.0000 
M06 T03  ; 0.8128 
G00 Z2.0000 
M03
G04 P3.000000
G82 X-13.9700 Y13.9700 Z-2.0000 F127.00 R2.0000 P0.100000
G82 X-13.9700 Y16.5100 
G82 X-13.9700 Y19.0500 
G82 X-13.9700 Y21.5900 
G82 X-15.2400 Y10.1600 
G82 X-20.3200 Y10.1600 
G82 X-21.5900 Y13.9700 
G82 X-21.5900 Y16.5100 
G82 X-21.5900 Y19.0500 
G82 X-21.5900 Y21.5900 
G82 X-26.6700 Y10.1600 
G82 X-26.6700 Y17.7800 
G82 X-30.4800 Y15.2400 
G82 X-30.4800 Y22.8600 
M05
G00 X0.0000 Y0.0000 Z30.0000 
M06 T04  ; 1.0160 
G00 Z2.0000 
M03
G04 P3.000000
G82 X-35.5600 Y7.6200 Z-2.0000 F127.00 R2.0000 P0.100000
G82 X-35.5600 Y10.1600 
G82 X-35.5600 Y15.2400 
G82 X-35.5600 Y17.7800 
G82 X-35.5600 Y20.3200 
G82 X-35.5600 Y22.8600 
(File Footer)
T01 
G00 Z10.0000 
M05
M02
