( This gcode generated by /home/mattvenn/.eagle/ulp/pcb-gcode.ulp )
( Copyright 2005 by John Johnson. See readme.txt for licensing terms. )

( This file generated from the board /home/mattvenn/eagle-circuit-designs/pcb miller test/realtime breakout.brd )
( This file generated 07/02/2012 14:22 )

G21

G90
G00 Z10.0000 
G00 X0 Y0
M03
G04 P3.000000
G00 Z2.0000 
G00 X-36.5440 Y21.2849 
G01 Z-0.2000 F600.00 
G01 X-34.5759 Y21.2849 
G01 X-34.3894 Y21.2478 
G01 X-34.2138 Y21.1751 
G01 X-34.0558 Y21.0695 
G01 X-33.9214 Y20.9351 
G01 X-33.8158 Y20.7771 
G01 X-33.7431 Y20.6015 
G01 X-33.7060 Y20.4150 
G01 X-33.7060 Y20.2249 
G01 X-33.7431 Y20.0384 
G01 X-33.8158 Y19.8628 
G01 X-33.9214 Y19.7048 
G01 X-34.0558 Y19.5704 
G01 X-34.2138 Y19.4648 
G01 X-34.3894 Y19.3921 
G01 X-34.5759 Y19.3550 
G01 X-36.5440 Y19.3550 
G01 X-36.7305 Y19.3921 
G01 X-36.9061 Y19.4648 
G01 X-37.0641 Y19.5704 
G01 X-37.1985 Y19.7048 
G01 X-37.3041 Y19.8628 
G01 X-37.3768 Y20.0384 
G01 X-37.4139 Y20.2249 
G01 X-37.4139 Y20.4150 
G01 X-37.3768 Y20.6015 
G01 X-37.3041 Y20.7771 
G01 X-37.1985 Y20.9351 
G01 X-37.0641 Y21.0695 
G01 X-36.9061 Y21.1751 
G01 X-36.7305 Y21.2478 
G01 X-36.5440 Y21.2849 
G00 Z2.0000 
G00 X-36.5440 Y18.7449 
G01 Z-0.2000 F600.00 
G01 X-34.5759 Y18.7449 
G01 X-34.3894 Y18.7078 
G01 X-34.2138 Y18.6351 
G01 X-34.0558 Y18.5295 
G01 X-33.9214 Y18.3951 
G01 X-33.8158 Y18.2371 
G01 X-33.7431 Y18.0615 
G01 X-33.7060 Y17.8750 
G01 X-33.7060 Y17.6849 
G01 X-33.7431 Y17.4984 
G01 X-33.8158 Y17.3228 
G01 X-33.9214 Y17.1648 
G01 X-34.0558 Y17.0304 
G01 X-34.2138 Y16.9248 
G01 X-34.3894 Y16.8521 
G01 X-34.5759 Y16.8150 
G01 X-36.5440 Y16.8150 
G01 X-36.7305 Y16.8521 
G01 X-36.9061 Y16.9248 
G01 X-37.0641 Y17.0304 
G01 X-37.1985 Y17.1648 
G01 X-37.3041 Y17.3228 
G01 X-37.3768 Y17.4984 
G01 X-37.4139 Y17.6849 
G01 X-37.4139 Y17.8750 
G01 X-37.3768 Y18.0615 
G01 X-37.3041 Y18.2371 
G01 X-37.1985 Y18.3951 
G01 X-37.0641 Y18.5295 
G01 X-36.9061 Y18.6351 
G01 X-36.7305 Y18.7078 
G01 X-36.5440 Y18.7449 
G00 Z2.0000 
G00 X-36.5440 Y16.2049 
G01 Z-0.2000 F600.00 
G01 X-34.5759 Y16.2049 
G01 X-34.3894 Y16.1678 
G01 X-34.2138 Y16.0951 
G01 X-34.0558 Y15.9895 
G01 X-33.9214 Y15.8551 
G01 X-33.8158 Y15.6971 
G01 X-33.7431 Y15.5215 
G01 X-33.7060 Y15.3350 
G01 X-33.7060 Y15.1449 
G01 X-33.7431 Y14.9584 
G01 X-33.8158 Y14.7828 
G01 X-33.9214 Y14.6248 
G01 X-34.0558 Y14.4904 
G01 X-34.2138 Y14.3848 
G01 X-34.3894 Y14.3121 
G01 X-34.5759 Y14.2750 
G01 X-36.5440 Y14.2750 
G01 X-36.7305 Y14.3121 
G01 X-36.9061 Y14.3848 
G01 X-37.0641 Y14.4904 
G01 X-37.1985 Y14.6248 
G01 X-37.3041 Y14.7828 
G01 X-37.3768 Y14.9584 
G01 X-37.4139 Y15.1449 
G01 X-37.4139 Y15.3350 
G01 X-37.3768 Y15.5215 
G01 X-37.3041 Y15.6971 
G01 X-37.1985 Y15.8551 
G01 X-37.0641 Y15.9895 
G01 X-36.9061 Y16.0951 
G01 X-36.7305 Y16.1678 
G01 X-36.5440 Y16.2049 
G00 Z2.0000 
G00 X-28.0159 Y17.2225 
G01 Z-0.2000 F600.00 
G01 X-28.0159 Y18.3374 
G01 X-27.2274 Y19.1259 
G01 X-26.1125 Y19.1259 
G01 X-25.3240 Y18.3374 
G01 X-25.3240 Y17.2225 
G01 X-26.1125 Y16.4340 
G01 X-27.2274 Y16.4340 
G01 X-28.0159 Y17.2225 
G00 Z2.0000 
G00 X-28.0159 Y9.6025 
G01 Z-0.2000 F600.00 
G01 X-28.0159 Y10.7174 
G01 X-27.2274 Y11.5059 
G01 X-26.1125 Y11.5059 
G01 X-25.3240 Y10.7174 
G01 X-25.3240 Y9.6025 
G01 X-26.1125 Y8.8140 
G01 X-27.2274 Y8.8140 
G01 X-28.0159 Y9.6025 
G00 Z2.0000 
G00 X-31.8259 Y22.3025 
G01 Z-0.2000 F600.00 
G01 X-31.8259 Y23.4174 
G01 X-31.0374 Y24.2059 
G01 X-29.9225 Y24.2059 
G01 X-29.1340 Y23.4174 
G01 X-29.1340 Y23.3359 
G01 X-22.7972 Y23.3359 
G01 X-22.6762 Y23.3035 
G01 X-22.5677 Y23.2408 
G01 X-22.4791 Y23.1522 
G01 X-21.6532 Y22.3263 
G01 X-20.8570 Y22.3263 
G01 X-20.7147 Y22.2980 
G01 X-20.5807 Y22.2425 
G01 X-20.4601 Y22.1619 
G01 X-20.3576 Y22.0594 
G01 X-20.2770 Y21.9388 
G01 X-20.2215 Y21.8048 
G01 X-20.1932 Y21.6625 
G01 X-20.1932 Y21.5174 
G01 X-20.2215 Y21.3751 
G01 X-20.2770 Y21.2411 
G01 X-20.3576 Y21.1205 
G01 X-20.4601 Y21.0180 
G01 X-20.5807 Y20.9374 
G01 X-20.7147 Y20.8819 
G01 X-20.8570 Y20.8536 
G01 X-22.3229 Y20.8536 
G01 X-22.4652 Y20.8819 
G01 X-22.5992 Y20.9374 
G01 X-22.7198 Y21.0180 
G01 X-22.8223 Y21.1205 
G01 X-22.9029 Y21.2411 
G01 X-22.9584 Y21.3751 
G01 X-22.9867 Y21.5174 
G01 X-22.9867 Y21.6625 
G01 X-22.9584 Y21.8048 
G01 X-22.9029 Y21.9388 
G01 X-22.8223 Y22.0594 
G01 X-22.7773 Y22.1043 
G01 X-23.0571 Y22.3840 
G01 X-29.1340 Y22.3840 
G01 X-29.1340 Y22.3025 
G01 X-29.9225 Y21.5140 
G01 X-31.0374 Y21.5140 
G01 X-31.8259 Y22.3025 
G00 Z2.0000 
G00 X-31.8259 Y14.6825 
G01 Z-0.2000 F600.00 
G01 X-31.8259 Y15.7974 
G01 X-31.0374 Y16.5859 
G01 X-29.9225 Y16.5859 
G01 X-29.1340 Y15.7974 
G01 X-29.1340 Y15.7159 
G01 X-23.0571 Y15.7159 
G01 X-22.7773 Y15.9956 
G01 X-22.8223 Y16.0405 
G01 X-22.9029 Y16.1611 
G01 X-22.9584 Y16.2951 
G01 X-22.9867 Y16.4374 
G01 X-22.9867 Y16.5825 
G01 X-22.9584 Y16.7248 
G01 X-22.9029 Y16.8588 
G01 X-22.8223 Y16.9794 
G01 X-22.7198 Y17.0819 
G01 X-22.5992 Y17.1625 
G01 X-22.4652 Y17.2180 
G01 X-22.3229 Y17.2463 
G01 X-20.8570 Y17.2463 
G01 X-20.7147 Y17.2180 
G01 X-20.5807 Y17.1625 
G01 X-20.4601 Y17.0819 
G01 X-20.3576 Y16.9794 
G01 X-20.2770 Y16.8588 
G01 X-20.2215 Y16.7248 
G01 X-20.1932 Y16.5825 
G01 X-20.1932 Y16.4374 
G01 X-20.2215 Y16.2951 
G01 X-20.2770 Y16.1611 
G01 X-20.3576 Y16.0405 
G01 X-20.4601 Y15.9380 
G01 X-20.5807 Y15.8574 
G01 X-20.7147 Y15.8019 
G01 X-20.8570 Y15.7736 
G01 X-21.6532 Y15.7736 
G01 X-22.4791 Y14.9477 
G01 X-22.5677 Y14.8591 
G01 X-22.6762 Y14.7964 
G01 X-22.7972 Y14.7640 
G01 X-29.1340 Y14.7640 
G01 X-29.1340 Y14.6825 
G01 X-29.9225 Y13.8940 
G01 X-31.0374 Y13.8940 
G01 X-31.8259 Y14.6825 
G00 Z2.0000 
G00 X-16.5859 Y10.7174 
G01 Z-0.2000 F600.00 
G01 X-15.7974 Y11.5059 
G01 X-14.6825 Y11.5059 
G01 X-13.8940 Y10.7174 
G01 X-13.8940 Y9.6025 
G01 X-14.6825 Y8.8140 
G01 X-15.0642 Y8.8140 
G01 X-16.9592 Y6.9190 
G01 X-17.0790 Y6.7992 
G01 X-17.2160 Y6.6997 
G01 X-17.3669 Y6.6228 
G01 X-17.5280 Y6.5705 
G01 X-17.6952 Y6.5440 
G01 X-31.6652 Y6.5440 
G01 X-31.8347 Y6.5440 
G01 X-32.0019 Y6.5705 
G01 X-32.1630 Y6.6228 
G01 X-32.3139 Y6.6997 
G01 X-32.4509 Y6.7992 
G01 X-34.7357 Y9.0840 
G01 X-35.6447 Y9.0840 
G01 X-35.8119 Y9.1105 
G01 X-35.9730 Y9.1628 
G01 X-36.1239 Y9.2397 
G01 X-36.2372 Y9.3220 
G01 X-36.4045 Y9.3220 
G01 X-36.5664 Y9.3542 
G01 X-36.7189 Y9.4174 
G01 X-36.8561 Y9.5091 
G01 X-36.9728 Y9.6258 
G01 X-37.0645 Y9.7630 
G01 X-37.1277 Y9.9155 
G01 X-37.1599 Y10.0774 
G01 X-37.1599 Y10.2382 
G01 X-40.0709 Y13.1492 
G01 X-40.1907 Y13.2690 
G01 X-40.2902 Y13.4060 
G01 X-40.3671 Y13.5569 
G01 X-40.4194 Y13.7180 
G01 X-40.4459 Y13.8852 
G01 X-40.4459 Y22.7752 
G01 X-40.4459 Y22.9447 
G01 X-40.4194 Y23.1119 
G01 X-40.3671 Y23.2730 
G01 X-40.2902 Y23.4239 
G01 X-40.1907 Y23.5609 
G01 X-40.0709 Y23.6807 
G01 X-39.9339 Y23.7802 
G01 X-39.7830 Y23.8571 
G01 X-39.6219 Y23.9094 
G01 X-39.4547 Y23.9359 
G01 X-35.4752 Y23.9359 
G01 X-35.3080 Y23.9094 
G01 X-35.1469 Y23.8571 
G01 X-35.0838 Y23.8249 
G01 X-34.5759 Y23.8249 
G01 X-34.3894 Y23.7878 
G01 X-34.2138 Y23.7151 
G01 X-34.0558 Y23.6095 
G01 X-33.9214 Y23.4751 
G01 X-33.8158 Y23.3171 
G01 X-33.7431 Y23.1415 
G01 X-33.7060 Y22.9550 
G01 X-33.7060 Y22.7649 
G01 X-33.7431 Y22.5784 
G01 X-33.8158 Y22.4028 
G01 X-33.9214 Y22.2448 
G01 X-34.0558 Y22.1104 
G01 X-34.2138 Y22.0048 
G01 X-34.3894 Y21.9321 
G01 X-34.5759 Y21.8950 
G01 X-35.0838 Y21.8950 
G01 X-35.1469 Y21.8628 
G01 X-35.3080 Y21.8105 
G01 X-35.4752 Y21.7840 
G01 X-38.2940 Y21.7840 
G01 X-38.2940 Y14.4157 
G01 X-35.1142 Y11.2359 
G01 X-34.2052 Y11.2359 
G01 X-34.0380 Y11.2094 
G01 X-33.8769 Y11.1571 
G01 X-33.7260 Y11.0802 
G01 X-33.5890 Y10.9807 
G01 X-33.4692 Y10.8609 
G01 X-31.3042 Y8.6959 
G01 X-18.2257 Y8.6959 
G01 X-16.5859 Y10.3357 
G01 X-16.5859 Y10.7174 
G00 Z2.0000 
G00 X-21.6659 Y9.6025 
G01 Z-0.2000 F600.00 
G01 X-21.6659 Y10.7174 
G01 X-20.8774 Y11.5059 
G01 X-19.7625 Y11.5059 
G01 X-18.9740 Y10.7174 
G01 X-18.9740 Y9.6025 
G01 X-19.7625 Y8.8140 
G01 X-20.8774 Y8.8140 
G01 X-21.6659 Y9.6025 
G00 Z2.0000 
G00 X-34.7154 Y6.7820 
G01 Z-0.2000 F600.00 
G01 X-36.4045 Y6.7820 
G01 X-36.5664 Y6.8142 
G01 X-36.7189 Y6.8774 
G01 X-36.8561 Y6.9691 
G01 X-36.9728 Y7.0858 
G01 X-37.0645 Y7.2230 
G01 X-37.1277 Y7.3755 
G01 X-37.1599 Y7.5374 
G01 X-37.1599 Y7.7025 
G01 X-37.1277 Y7.8644 
G01 X-37.0645 Y8.0169 
G01 X-36.9728 Y8.1541 
G01 X-36.8561 Y8.2708 
G01 X-36.7189 Y8.3625 
G01 X-36.5664 Y8.4257 
G01 X-36.4045 Y8.4579 
G01 X-34.7154 Y8.4579 
G01 X-34.5535 Y8.4257 
G01 X-34.4010 Y8.3625 
G01 X-34.2638 Y8.2708 
G01 X-34.1471 Y8.1541 
G01 X-34.0554 Y8.0169 
G01 X-33.9922 Y7.8644 
G01 X-33.9600 Y7.7025 
G01 X-33.9600 Y7.5374 
G01 X-33.9922 Y7.3755 
G01 X-34.0554 Y7.2230 
G01 X-34.1471 Y7.0858 
G01 X-34.2638 Y6.9691 
G01 X-34.4010 Y6.8774 
G01 X-34.5535 Y6.8142 
G01 X-34.7154 Y6.7820 
G00 Z2.0000 
G00 X-8.9659 Y14.6825 
G01 Z-0.2000 F600.00 
G01 X-8.9659 Y14.7640 
G01 X-10.2227 Y14.7640 
G01 X-10.3437 Y14.7964 
G01 X-10.4522 Y14.8591 
G01 X-10.5408 Y14.9477 
G01 X-13.9067 Y18.3136 
G01 X-14.7029 Y18.3136 
G01 X-14.8452 Y18.3419 
G01 X-14.9792 Y18.3974 
G01 X-15.0998 Y18.4780 
G01 X-15.2023 Y18.5805 
G01 X-15.2829 Y18.7011 
G01 X-15.3384 Y18.8351 
G01 X-15.3667 Y18.9774 
G01 X-15.3667 Y19.1225 
G01 X-15.3384 Y19.2648 
G01 X-15.2829 Y19.3988 
G01 X-15.2023 Y19.5194 
G01 X-15.0998 Y19.6219 
G01 X-14.9792 Y19.7025 
G01 X-14.8452 Y19.7580 
G01 X-14.7029 Y19.7863 
G01 X-13.2370 Y19.7863 
G01 X-13.0947 Y19.7580 
G01 X-12.9607 Y19.7025 
G01 X-12.8401 Y19.6219 
G01 X-12.7376 Y19.5194 
G01 X-12.6570 Y19.3988 
G01 X-12.6015 Y19.2648 
G01 X-12.5732 Y19.1225 
G01 X-12.5732 Y18.9774 
G01 X-12.6015 Y18.8351 
G01 X-12.6570 Y18.7011 
G01 X-12.7376 Y18.5805 
G01 X-12.7826 Y18.5356 
G01 X-9.9628 Y15.7159 
G01 X-8.9659 Y15.7159 
G01 X-8.9659 Y15.7974 
G01 X-8.1774 Y16.5859 
G01 X-7.0625 Y16.5859 
G01 X-6.2740 Y15.7974 
G01 X-6.2740 Y14.6825 
G01 X-7.0625 Y13.8940 
G01 X-8.1774 Y13.8940 
G01 X-8.9659 Y14.6825 
G00 Z2.0000 
G00 X-8.9659 Y19.7625 
G01 Z-0.2000 F600.00 
G01 X-8.9659 Y19.8440 
G01 X-12.7627 Y19.8440 
G01 X-12.8837 Y19.8764 
G01 X-12.9922 Y19.9391 
G01 X-13.0808 Y20.0277 
G01 X-13.9067 Y20.8536 
G01 X-14.7029 Y20.8536 
G01 X-14.8452 Y20.8819 
G01 X-14.9792 Y20.9374 
G01 X-15.0998 Y21.0180 
G01 X-15.2023 Y21.1205 
G01 X-15.2829 Y21.2411 
G01 X-15.3384 Y21.3751 
G01 X-15.3667 Y21.5174 
G01 X-15.3667 Y21.6625 
G01 X-15.3384 Y21.8048 
G01 X-15.2829 Y21.9388 
G01 X-15.2023 Y22.0594 
G01 X-15.0998 Y22.1619 
G01 X-14.9792 Y22.2425 
G01 X-14.8452 Y22.2980 
G01 X-14.7029 Y22.3263 
G01 X-13.2370 Y22.3263 
G01 X-13.0947 Y22.2980 
G01 X-12.9607 Y22.2425 
G01 X-12.8401 Y22.1619 
G01 X-12.7376 Y22.0594 
G01 X-12.6570 Y21.9388 
G01 X-12.6015 Y21.8048 
G01 X-12.5732 Y21.6625 
G01 X-12.5732 Y21.5174 
G01 X-12.6015 Y21.3751 
G01 X-12.6570 Y21.2411 
G01 X-12.7376 Y21.1205 
G01 X-12.7826 Y21.0756 
G01 X-12.5028 Y20.7959 
G01 X-8.9659 Y20.7959 
G01 X-8.9659 Y20.8774 
G01 X-8.1774 Y21.6659 
G01 X-7.0625 Y21.6659 
G01 X-6.2740 Y20.8774 
G01 X-6.2740 Y19.7625 
G01 X-7.0625 Y18.9740 
G01 X-8.1774 Y18.9740 
G01 X-8.9659 Y19.7625 
G00 Z2.0000 
G00 X-22.3229 Y14.7063 
G01 Z-0.2000 F600.00 
G01 X-20.8570 Y14.7063 
G01 X-20.7147 Y14.6780 
G01 X-20.5807 Y14.6225 
G01 X-20.4601 Y14.5419 
G01 X-20.3576 Y14.4394 
G01 X-20.2770 Y14.3188 
G01 X-20.2215 Y14.1848 
G01 X-20.1932 Y14.0425 
G01 X-20.1932 Y13.8974 
G01 X-20.2215 Y13.7551 
G01 X-20.2770 Y13.6211 
G01 X-20.3576 Y13.5005 
G01 X-20.4601 Y13.3980 
G01 X-20.5807 Y13.3174 
G01 X-20.7147 Y13.2619 
G01 X-20.8570 Y13.2336 
G01 X-22.3229 Y13.2336 
G01 X-22.4652 Y13.2619 
G01 X-22.5992 Y13.3174 
G01 X-22.7198 Y13.3980 
G01 X-22.8223 Y13.5005 
G01 X-22.9029 Y13.6211 
G01 X-22.9584 Y13.7551 
G01 X-22.9867 Y13.8974 
G01 X-22.9867 Y14.0425 
G01 X-22.9584 Y14.1848 
G01 X-22.9029 Y14.3188 
G01 X-22.8223 Y14.4394 
G01 X-22.7198 Y14.5419 
G01 X-22.5992 Y14.6225 
G01 X-22.4652 Y14.6780 
G01 X-22.3229 Y14.7063 
G00 Z2.0000 
G00 X-14.7029 Y14.7063 
G01 Z-0.2000 F600.00 
G01 X-13.2370 Y14.7063 
G01 X-13.0947 Y14.6780 
G01 X-12.9607 Y14.6225 
G01 X-12.8401 Y14.5419 
G01 X-12.7376 Y14.4394 
G01 X-12.6570 Y14.3188 
G01 X-12.6015 Y14.1848 
G01 X-12.5732 Y14.0425 
G01 X-12.5732 Y13.8974 
G01 X-12.6015 Y13.7551 
G01 X-12.6570 Y13.6211 
G01 X-12.7376 Y13.5005 
G01 X-12.8401 Y13.3980 
G01 X-12.9607 Y13.3174 
G01 X-13.0947 Y13.2619 
G01 X-13.2370 Y13.2336 
G01 X-14.7029 Y13.2336 
G01 X-14.8452 Y13.2619 
G01 X-14.9792 Y13.3174 
G01 X-15.0998 Y13.3980 
G01 X-15.2023 Y13.5005 
G01 X-15.2829 Y13.6211 
G01 X-15.3384 Y13.7551 
G01 X-15.3667 Y13.8974 
G01 X-15.3667 Y14.0425 
G01 X-15.3384 Y14.1848 
G01 X-15.2829 Y14.3188 
G01 X-15.2023 Y14.4394 
G01 X-15.0998 Y14.5419 
G01 X-14.9792 Y14.6225 
G01 X-14.8452 Y14.6780 
G01 X-14.7029 Y14.7063 
G00 Z2.0000 
G00 X-14.7029 Y17.2463 
G01 Z-0.2000 F600.00 
G01 X-13.2370 Y17.2463 
G01 X-13.0947 Y17.2180 
G01 X-12.9607 Y17.1625 
G01 X-12.8401 Y17.0819 
G01 X-12.7376 Y16.9794 
G01 X-12.6570 Y16.8588 
G01 X-12.6015 Y16.7248 
G01 X-12.5732 Y16.5825 
G01 X-12.5732 Y16.4374 
G01 X-12.6015 Y16.2951 
G01 X-12.6570 Y16.1611 
G01 X-12.7376 Y16.0405 
G01 X-12.8401 Y15.9380 
G01 X-12.9607 Y15.8574 
G01 X-13.0947 Y15.8019 
G01 X-13.2370 Y15.7736 
G01 X-14.7029 Y15.7736 
G01 X-14.8452 Y15.8019 
G01 X-14.9792 Y15.8574 
G01 X-15.0998 Y15.9380 
G01 X-15.2023 Y16.0405 
G01 X-15.2829 Y16.1611 
G01 X-15.3384 Y16.2951 
G01 X-15.3667 Y16.4374 
G01 X-15.3667 Y16.5825 
G01 X-15.3384 Y16.7248 
G01 X-15.2829 Y16.8588 
G01 X-15.2023 Y16.9794 
G01 X-15.0998 Y17.0819 
G01 X-14.9792 Y17.1625 
G01 X-14.8452 Y17.2180 
G01 X-14.7029 Y17.2463 
G00 Z2.0000 
G00 X-22.3229 Y19.7863 
G01 Z-0.2000 F600.00 
G01 X-20.8570 Y19.7863 
G01 X-20.7147 Y19.7580 
G01 X-20.5807 Y19.7025 
G01 X-20.4601 Y19.6219 
G01 X-20.3576 Y19.5194 
G01 X-20.2770 Y19.3988 
G01 X-20.2215 Y19.2648 
G01 X-20.1932 Y19.1225 
G01 X-20.1932 Y18.9774 
G01 X-20.2215 Y18.8351 
G01 X-20.2770 Y18.7011 
G01 X-20.3576 Y18.5805 
G01 X-20.4601 Y18.4780 
G01 X-20.5807 Y18.3974 
G01 X-20.7147 Y18.3419 
G01 X-20.8570 Y18.3136 
G01 X-22.3229 Y18.3136 
G01 X-22.4652 Y18.3419 
G01 X-22.5992 Y18.3974 
G01 X-22.7198 Y18.4780 
G01 X-22.8223 Y18.5805 
G01 X-22.9029 Y18.7011 
G01 X-22.9584 Y18.8351 
G01 X-22.9867 Y18.9774 
G01 X-22.9867 Y19.1225 
G01 X-22.9584 Y19.2648 
G01 X-22.9029 Y19.3988 
G01 X-22.8223 Y19.5194 
G01 X-22.7198 Y19.6219 
G01 X-22.5992 Y19.7025 
G01 X-22.4652 Y19.7580 
G01 X-22.3229 Y19.7863 
(File Footer)
G00 Z2.0000 
G00 Z10.0000 
M05
M02
