( This gcode generated by /home/mattvenn/.eagle/ulp/pcb-gcode.ulp )
( Copyright 2005 by John Johnson. See readme.txt for licensing terms. )

( This file generated from the board /home/mattvenn/eagle-circuit-designs/pcb miller test/realtime breakout.brd )
( This file generated 16/01/2012 11:38 )

G21

G90
G00 Z10.0000 
G00 X0 Y0
M03
G04 P3.000000
G00 Z2.0000 
G00 X14.7038 Y22.3353 
G01 Z-0.1000 F400.00 
G01 X13.2361 Y22.3353 
G01 X13.0921 Y22.3067 
G01 X12.9565 Y22.2505 
G01 X12.8344 Y22.1689 
G01 X12.7306 Y22.0651 
G01 X12.6490 Y21.9430 
G01 X12.5928 Y21.8074 
G01 X12.5642 Y21.6634 
G01 X12.5642 Y21.5165 
G01 X12.5928 Y21.3725 
G01 X12.6490 Y21.2369 
G01 X12.7306 Y21.1148 
G01 X12.8344 Y21.0110 
G01 X12.9565 Y20.9294 
G01 X13.0921 Y20.8732 
G01 X13.2361 Y20.8446 
G01 X14.7038 Y20.8446 
G01 X14.8478 Y20.8732 
G01 X14.9834 Y20.9294 
G01 X15.1055 Y21.0110 
G01 X15.2093 Y21.1148 
G01 X15.2909 Y21.2369 
G01 X15.3471 Y21.3725 
G01 X15.3757 Y21.5165 
G01 X15.3757 Y21.6634 
G01 X15.3471 Y21.8074 
G01 X15.2909 Y21.9430 
G01 X15.2093 Y22.0651 
G01 X15.1055 Y22.1689 
G01 X14.9834 Y22.2505 
G01 X14.8478 Y22.3067 
G01 X14.7038 Y22.3353 
G00 Z2.0000 
G00 X14.7038 Y19.7953 
G01 Z-0.1000 F400.00 
G01 X13.2361 Y19.7953 
G01 X13.0921 Y19.7667 
G01 X12.9565 Y19.7105 
G01 X12.8344 Y19.6289 
G01 X12.7306 Y19.5251 
G01 X12.6490 Y19.4030 
G01 X12.5928 Y19.2674 
G01 X12.5642 Y19.1234 
G01 X12.5642 Y18.9765 
G01 X12.5928 Y18.8325 
G01 X12.6490 Y18.6969 
G01 X12.7306 Y18.5748 
G01 X12.8344 Y18.4710 
G01 X12.9565 Y18.3894 
G01 X13.0921 Y18.3332 
G01 X13.2361 Y18.3046 
G01 X14.7038 Y18.3046 
G01 X14.8478 Y18.3332 
G01 X14.9834 Y18.3894 
G01 X15.1055 Y18.4710 
G01 X15.2093 Y18.5748 
G01 X15.2909 Y18.6969 
G01 X15.3471 Y18.8325 
G01 X15.3757 Y18.9765 
G01 X15.3757 Y19.1234 
G01 X15.3471 Y19.2674 
G01 X15.2909 Y19.4030 
G01 X15.2093 Y19.5251 
G01 X15.1055 Y19.6289 
G01 X14.9834 Y19.7105 
G01 X14.8478 Y19.7667 
G01 X14.7038 Y19.7953 
G00 Z2.0000 
G00 X22.3238 Y19.7953 
G01 Z-0.1000 F400.00 
G01 X20.8561 Y19.7953 
G01 X20.7121 Y19.7667 
G01 X20.5765 Y19.7105 
G01 X20.4544 Y19.6289 
G01 X20.3506 Y19.5251 
G01 X20.2690 Y19.4030 
G01 X20.2128 Y19.2674 
G01 X20.1842 Y19.1234 
G01 X20.1842 Y18.9765 
G01 X20.2128 Y18.8325 
G01 X20.2690 Y18.6969 
G01 X20.3506 Y18.5748 
G01 X20.4544 Y18.4710 
G01 X20.5765 Y18.3894 
G01 X20.7121 Y18.3332 
G01 X20.8561 Y18.3046 
G01 X22.3238 Y18.3046 
G01 X22.4678 Y18.3332 
G01 X22.6034 Y18.3894 
G01 X22.7255 Y18.4710 
G01 X22.8293 Y18.5748 
G01 X22.9109 Y18.6969 
G01 X22.9671 Y18.8325 
G01 X22.9957 Y18.9765 
G01 X22.9957 Y19.1234 
G01 X22.9671 Y19.2674 
G01 X22.9109 Y19.4030 
G01 X22.8293 Y19.5251 
G01 X22.7255 Y19.6289 
G01 X22.6034 Y19.7105 
G01 X22.4678 Y19.7667 
G01 X22.3238 Y19.7953 
G00 Z2.0000 
G00 X22.3238 Y22.3353 
G01 Z-0.1000 F400.00 
G01 X20.8561 Y22.3353 
G01 X20.7121 Y22.3067 
G01 X20.5765 Y22.2505 
G01 X20.4544 Y22.1689 
G01 X20.3506 Y22.0651 
G01 X20.2690 Y21.9430 
G01 X20.2128 Y21.8074 
G01 X20.1842 Y21.6634 
G01 X20.1842 Y21.5165 
G01 X20.2128 Y21.3725 
G01 X20.2690 Y21.2369 
G01 X20.3506 Y21.1148 
G01 X20.4544 Y21.0110 
G01 X20.5765 Y20.9294 
G01 X20.7121 Y20.8732 
G01 X20.8561 Y20.8446 
G01 X22.3238 Y20.8446 
G01 X22.4678 Y20.8732 
G01 X22.6034 Y20.9294 
G01 X22.7255 Y21.0110 
G01 X22.8293 Y21.1148 
G01 X22.9109 Y21.2369 
G01 X22.9671 Y21.3725 
G01 X22.9957 Y21.5165 
G01 X22.9957 Y21.6634 
G01 X22.9671 Y21.8074 
G01 X22.9109 Y21.9430 
G01 X22.8293 Y22.0651 
G01 X22.7255 Y22.1689 
G01 X22.6034 Y22.2505 
G01 X22.4678 Y22.3067 
G01 X22.3238 Y22.3353 
G00 Z2.0000 
G00 X14.7038 Y17.2553 
G01 Z-0.1000 F400.00 
G01 X13.2361 Y17.2553 
G01 X13.0921 Y17.2267 
G01 X12.9565 Y17.1705 
G01 X12.8344 Y17.0889 
G01 X12.7306 Y16.9851 
G01 X12.6490 Y16.8630 
G01 X12.5928 Y16.7274 
G01 X12.5642 Y16.5834 
G01 X12.5642 Y16.4365 
G01 X12.5928 Y16.2925 
G01 X12.6490 Y16.1569 
G01 X12.7306 Y16.0348 
G01 X12.8344 Y15.9310 
G01 X12.9565 Y15.8494 
G01 X13.0921 Y15.7932 
G01 X13.2361 Y15.7646 
G01 X14.7038 Y15.7646 
G01 X14.8478 Y15.7932 
G01 X14.9834 Y15.8494 
G01 X15.1055 Y15.9310 
G01 X15.2093 Y16.0348 
G01 X15.2909 Y16.1569 
G01 X15.3471 Y16.2925 
G01 X15.3757 Y16.4365 
G01 X15.3757 Y16.5834 
G01 X15.3471 Y16.7274 
G01 X15.2909 Y16.8630 
G01 X15.2093 Y16.9851 
G01 X15.1055 Y17.0889 
G01 X14.9834 Y17.1705 
G01 X14.8478 Y17.2267 
G01 X14.7038 Y17.2553 
G00 Z2.0000 
G00 X14.7038 Y14.7153 
G01 Z-0.1000 F400.00 
G01 X13.2361 Y14.7153 
G01 X13.0921 Y14.6867 
G01 X12.9565 Y14.6305 
G01 X12.8344 Y14.5489 
G01 X12.7306 Y14.4451 
G01 X12.6490 Y14.3230 
G01 X12.5928 Y14.1874 
G01 X12.5642 Y14.0434 
G01 X12.5642 Y13.8965 
G01 X12.5928 Y13.7525 
G01 X12.6490 Y13.6169 
G01 X12.7306 Y13.4948 
G01 X12.8344 Y13.3910 
G01 X12.9565 Y13.3094 
G01 X13.0921 Y13.2532 
G01 X13.2361 Y13.2246 
G01 X14.7038 Y13.2246 
G01 X14.8478 Y13.2532 
G01 X14.9834 Y13.3094 
G01 X15.1055 Y13.3910 
G01 X15.2093 Y13.4948 
G01 X15.2909 Y13.6169 
G01 X15.3471 Y13.7525 
G01 X15.3757 Y13.8965 
G01 X15.3757 Y14.0434 
G01 X15.3471 Y14.1874 
G01 X15.2909 Y14.3230 
G01 X15.2093 Y14.4451 
G01 X15.1055 Y14.5489 
G01 X14.9834 Y14.6305 
G01 X14.8478 Y14.6867 
G01 X14.7038 Y14.7153 
G00 Z2.0000 
G00 X22.3238 Y17.2553 
G01 Z-0.1000 F400.00 
G01 X20.8561 Y17.2553 
G01 X20.7121 Y17.2267 
G01 X20.5765 Y17.1705 
G01 X20.4544 Y17.0889 
G01 X20.3506 Y16.9851 
G01 X20.2690 Y16.8630 
G01 X20.2128 Y16.7274 
G01 X20.1842 Y16.5834 
G01 X20.1842 Y16.4365 
G01 X20.2128 Y16.2925 
G01 X20.2690 Y16.1569 
G01 X20.3506 Y16.0348 
G01 X20.4544 Y15.9310 
G01 X20.5765 Y15.8494 
G01 X20.7121 Y15.7932 
G01 X20.8561 Y15.7646 
G01 X22.3238 Y15.7646 
G01 X22.4678 Y15.7932 
G01 X22.6034 Y15.8494 
G01 X22.7255 Y15.9310 
G01 X22.8293 Y16.0348 
G01 X22.9109 Y16.1569 
G01 X22.9671 Y16.2925 
G01 X22.9957 Y16.4365 
G01 X22.9957 Y16.5834 
G01 X22.9671 Y16.7274 
G01 X22.9109 Y16.8630 
G01 X22.8293 Y16.9851 
G01 X22.7255 Y17.0889 
G01 X22.6034 Y17.1705 
G01 X22.4678 Y17.2267 
G01 X22.3238 Y17.2553 
G00 Z2.0000 
G00 X22.3238 Y14.7153 
G01 Z-0.1000 F400.00 
G01 X20.8561 Y14.7153 
G01 X20.7121 Y14.6867 
G01 X20.5765 Y14.6305 
G01 X20.4544 Y14.5489 
G01 X20.3506 Y14.4451 
G01 X20.2690 Y14.3230 
G01 X20.2128 Y14.1874 
G01 X20.1842 Y14.0434 
G01 X20.1842 Y13.8965 
G01 X20.2128 Y13.7525 
G01 X20.2690 Y13.6169 
G01 X20.3506 Y13.4948 
G01 X20.4544 Y13.3910 
G01 X20.5765 Y13.3094 
G01 X20.7121 Y13.2532 
G01 X20.8561 Y13.2246 
G01 X22.3238 Y13.2246 
G01 X22.4678 Y13.2532 
G01 X22.6034 Y13.3094 
G01 X22.7255 Y13.3910 
G01 X22.8293 Y13.4948 
G01 X22.9109 Y13.6169 
G01 X22.9671 Y13.7525 
G01 X22.9957 Y13.8965 
G01 X22.9957 Y14.0434 
G01 X22.9671 Y14.1874 
G01 X22.9109 Y14.3230 
G01 X22.8293 Y14.4451 
G01 X22.7255 Y14.5489 
G01 X22.6034 Y14.6305 
G01 X22.4678 Y14.6867 
G01 X22.3238 Y14.7153 
G00 Z2.0000 
G00 X8.9749 Y19.7587 
G01 Z-0.1000 F400.00 
G01 X8.9749 Y20.8812 
G01 X8.1812 Y21.6749 
G01 X7.0587 Y21.6749 
G01 X6.2650 Y20.8812 
G01 X6.2650 Y19.7587 
G01 X7.0587 Y18.9650 
G01 X8.1812 Y18.9650 
G01 X8.9749 Y19.7587 
G00 Z2.0000 
G00 X8.9749 Y14.6787 
G01 Z-0.1000 F400.00 
G01 X8.9749 Y15.8012 
G01 X8.1812 Y16.5949 
G01 X7.0587 Y16.5949 
G01 X6.2650 Y15.8012 
G01 X6.2650 Y14.6787 
G01 X7.0587 Y13.8850 
G01 X8.1812 Y13.8850 
G01 X8.9749 Y14.6787 
G00 Z2.0000 
G00 X34.7145 Y6.7730 
G01 Z-0.1000 F400.00 
G01 X36.4054 Y6.7730 
G01 X36.5690 Y6.8055 
G01 X36.7232 Y6.8694 
G01 X36.8619 Y6.9621 
G01 X36.9798 Y7.0800 
G01 X37.0725 Y7.2187 
G01 X37.1364 Y7.3729 
G01 X37.1689 Y7.5365 
G01 X37.1689 Y7.7034 
G01 X37.1364 Y7.8670 
G01 X37.0725 Y8.0212 
G01 X36.9798 Y8.1599 
G01 X36.8619 Y8.2778 
G01 X36.7232 Y8.3705 
G01 X36.5690 Y8.4344 
G01 X36.4054 Y8.4669 
G01 X34.7145 Y8.4669 
G01 X34.5509 Y8.4344 
G01 X34.3967 Y8.3705 
G01 X34.2580 Y8.2778 
G01 X34.1401 Y8.1599 
G01 X34.0474 Y8.0212 
G01 X33.9835 Y7.8670 
G01 X33.9510 Y7.7034 
G01 X33.9510 Y7.5365 
G01 X33.9835 Y7.3729 
G01 X34.0474 Y7.2187 
G01 X34.1401 Y7.0800 
G01 X34.2580 Y6.9621 
G01 X34.3967 Y6.8694 
G01 X34.5509 Y6.8055 
G01 X34.7145 Y6.7730 
G00 Z2.0000 
G00 X34.7145 Y9.3130 
G01 Z-0.1000 F400.00 
G01 X36.4054 Y9.3130 
G01 X36.5690 Y9.3455 
G01 X36.7232 Y9.4094 
G01 X36.8619 Y9.5021 
G01 X36.9798 Y9.6200 
G01 X37.0725 Y9.7587 
G01 X37.1364 Y9.9129 
G01 X37.1689 Y10.0765 
G01 X37.1689 Y10.2434 
G01 X37.1364 Y10.4070 
G01 X37.0725 Y10.5612 
G01 X36.9798 Y10.6999 
G01 X36.8619 Y10.8178 
G01 X36.7232 Y10.9105 
G01 X36.5690 Y10.9744 
G01 X36.4054 Y11.0069 
G01 X34.7145 Y11.0069 
G01 X34.5509 Y10.9744 
G01 X34.3967 Y10.9105 
G01 X34.2580 Y10.8178 
G01 X34.1401 Y10.6999 
G01 X34.0474 Y10.5612 
G01 X33.9835 Y10.4070 
G01 X33.9510 Y10.2434 
G01 X33.9510 Y10.0765 
G01 X33.9835 Y9.9129 
G01 X34.0474 Y9.7587 
G01 X34.1401 Y9.6200 
G01 X34.2580 Y9.5021 
G01 X34.3967 Y9.4094 
G01 X34.5509 Y9.3455 
G01 X34.7145 Y9.3130 
G00 Z2.0000 
G00 X21.6749 Y9.5987 
G01 Z-0.1000 F400.00 
G01 X21.6749 Y10.7212 
G01 X20.8812 Y11.5149 
G01 X19.7587 Y11.5149 
G01 X18.9650 Y10.7212 
G01 X18.9650 Y9.5987 
G01 X19.7587 Y8.8050 
G01 X20.8812 Y8.8050 
G01 X21.6749 Y9.5987 
G00 Z2.0000 
G00 X16.5949 Y9.5987 
G01 Z-0.1000 F400.00 
G01 X16.5949 Y10.7212 
G01 X15.8012 Y11.5149 
G01 X14.6787 Y11.5149 
G01 X13.8850 Y10.7212 
G01 X13.8850 Y9.5987 
G01 X14.6787 Y8.8050 
G01 X15.8012 Y8.8050 
G01 X16.5949 Y9.5987 
G00 Z2.0000 
G00 X31.8349 Y14.6787 
G01 Z-0.1000 F400.00 
G01 X31.8349 Y15.8012 
G01 X31.0412 Y16.5949 
G01 X29.9187 Y16.5949 
G01 X29.1250 Y15.8012 
G01 X29.1250 Y14.6787 
G01 X29.9187 Y13.8850 
G01 X31.0412 Y13.8850 
G01 X31.8349 Y14.6787 
G00 Z2.0000 
G00 X31.8349 Y22.2987 
G01 Z-0.1000 F400.00 
G01 X31.8349 Y23.4212 
G01 X31.0412 Y24.2149 
G01 X29.9187 Y24.2149 
G01 X29.1250 Y23.4212 
G01 X29.1250 Y22.2987 
G01 X29.9187 Y21.5050 
G01 X31.0412 Y21.5050 
G01 X31.8349 Y22.2987 
G00 Z2.0000 
G00 X28.0249 Y9.5987 
G01 Z-0.1000 F400.00 
G01 X28.0249 Y10.7212 
G01 X27.2312 Y11.5149 
G01 X26.1087 Y11.5149 
G01 X25.3150 Y10.7212 
G01 X25.3150 Y9.5987 
G01 X26.1087 Y8.8050 
G01 X27.2312 Y8.8050 
G01 X28.0249 Y9.5987 
G00 Z2.0000 
G00 X28.0249 Y17.2187 
G01 Z-0.1000 F400.00 
G01 X28.0249 Y18.3412 
G01 X27.2312 Y19.1349 
G01 X26.1087 Y19.1349 
G01 X25.3150 Y18.3412 
G01 X25.3150 Y17.2187 
G01 X26.1087 Y16.4250 
G01 X27.2312 Y16.4250 
G01 X28.0249 Y17.2187 
G00 Z2.0000 
G00 X36.5449 Y16.2139 
G01 Z-0.1000 F400.00 
G01 X34.5750 Y16.2139 
G01 X34.3868 Y16.1765 
G01 X34.2096 Y16.1031 
G01 X34.0501 Y15.9965 
G01 X33.9144 Y15.8608 
G01 X33.8078 Y15.7013 
G01 X33.7344 Y15.5241 
G01 X33.6970 Y15.3359 
G01 X33.6970 Y15.1440 
G01 X33.7344 Y14.9558 
G01 X33.8078 Y14.7786 
G01 X33.9144 Y14.6191 
G01 X34.0501 Y14.4834 
G01 X34.2096 Y14.3768 
G01 X34.3868 Y14.3034 
G01 X34.5750 Y14.2660 
G01 X36.5449 Y14.2660 
G01 X36.7331 Y14.3034 
G01 X36.9103 Y14.3768 
G01 X37.0698 Y14.4834 
G01 X37.2055 Y14.6191 
G01 X37.3121 Y14.7786 
G01 X37.3855 Y14.9558 
G01 X37.4229 Y15.1440 
G01 X37.4229 Y15.3359 
G01 X37.3855 Y15.5241 
G01 X37.3121 Y15.7013 
G01 X37.2055 Y15.8608 
G01 X37.0698 Y15.9965 
G01 X36.9103 Y16.1031 
G01 X36.7331 Y16.1765 
G01 X36.5449 Y16.2139 
G00 Z2.0000 
G00 X36.5449 Y18.7539 
G01 Z-0.1000 F400.00 
G01 X34.5750 Y18.7539 
G01 X34.3868 Y18.7165 
G01 X34.2096 Y18.6431 
G01 X34.0501 Y18.5365 
G01 X33.9144 Y18.4008 
G01 X33.8078 Y18.2413 
G01 X33.7344 Y18.0641 
G01 X33.6970 Y17.8759 
G01 X33.6970 Y17.6840 
G01 X33.7344 Y17.4958 
G01 X33.8078 Y17.3186 
G01 X33.9144 Y17.1591 
G01 X34.0501 Y17.0234 
G01 X34.2096 Y16.9168 
G01 X34.3868 Y16.8434 
G01 X34.5750 Y16.8060 
G01 X36.5449 Y16.8060 
G01 X36.7331 Y16.8434 
G01 X36.9103 Y16.9168 
G01 X37.0698 Y17.0234 
G01 X37.2055 Y17.1591 
G01 X37.3121 Y17.3186 
G01 X37.3855 Y17.4958 
G01 X37.4229 Y17.6840 
G01 X37.4229 Y17.8759 
G01 X37.3855 Y18.0641 
G01 X37.3121 Y18.2413 
G01 X37.2055 Y18.4008 
G01 X37.0698 Y18.5365 
G01 X36.9103 Y18.6431 
G01 X36.7331 Y18.7165 
G01 X36.5449 Y18.7539 
G00 Z2.0000 
G00 X36.5449 Y21.2939 
G01 Z-0.1000 F400.00 
G01 X34.5750 Y21.2939 
G01 X34.3868 Y21.2565 
G01 X34.2096 Y21.1831 
G01 X34.0501 Y21.0765 
G01 X33.9144 Y20.9408 
G01 X33.8078 Y20.7813 
G01 X33.7344 Y20.6041 
G01 X33.6970 Y20.4159 
G01 X33.6970 Y20.2240 
G01 X33.7344 Y20.0358 
G01 X33.8078 Y19.8586 
G01 X33.9144 Y19.6991 
G01 X34.0501 Y19.5634 
G01 X34.2096 Y19.4568 
G01 X34.3868 Y19.3834 
G01 X34.5750 Y19.3460 
G01 X36.5449 Y19.3460 
G01 X36.7331 Y19.3834 
G01 X36.9103 Y19.4568 
G01 X37.0698 Y19.5634 
G01 X37.2055 Y19.6991 
G01 X37.3121 Y19.8586 
G01 X37.3855 Y20.0358 
G01 X37.4229 Y20.2240 
G01 X37.4229 Y20.4159 
G01 X37.3855 Y20.6041 
G01 X37.3121 Y20.7813 
G01 X37.2055 Y20.9408 
G01 X37.0698 Y21.0765 
G01 X36.9103 Y21.1831 
G01 X36.7331 Y21.2565 
G01 X36.5449 Y21.2939 
G00 Z2.0000 
G00 X36.5449 Y23.8339 
G01 Z-0.1000 F400.00 
G01 X34.5750 Y23.8339 
G01 X34.3868 Y23.7965 
G01 X34.2096 Y23.7231 
G01 X34.0501 Y23.6165 
G01 X33.9144 Y23.4808 
G01 X33.8078 Y23.3213 
G01 X33.7344 Y23.1441 
G01 X33.6970 Y22.9559 
G01 X33.6970 Y22.7640 
G01 X33.7344 Y22.5758 
G01 X33.8078 Y22.3986 
G01 X33.9144 Y22.2391 
G01 X34.0501 Y22.1034 
G01 X34.2096 Y21.9968 
G01 X34.3868 Y21.9234 
G01 X34.5750 Y21.8860 
G01 X36.5449 Y21.8860 
G01 X36.7331 Y21.9234 
G01 X36.9103 Y21.9968 
G01 X37.0698 Y22.1034 
G01 X37.2055 Y22.2391 
G01 X37.3121 Y22.3986 
G01 X37.3855 Y22.5758 
G01 X37.4229 Y22.7640 
G01 X37.4229 Y22.9559 
G01 X37.3855 Y23.1441 
G01 X37.3121 Y23.3213 
G01 X37.2055 Y23.4808 
G01 X37.0698 Y23.6165 
G01 X36.9103 Y23.7231 
G01 X36.7331 Y23.7965 
G01 X36.5449 Y23.8339 
(File Footer)
G00 Z2.0000 
G00 Z10.0000 
M05
M02
