( This gcode generated by /home/mattvenn/.eagle/ulp/pcb-gcode.ulp )
( Copyright 2005 by John Johnson. See readme.txt for licensing terms. )

( This file generated from the board /home/mattvenn/eagle-circuit-designs/bike phone charger/797 test.brd )
( This file generated 20/02/2012 11:36 )

( T01 0.600000 )
( T02 0.812800 )
( T03 1.000000 )
( T04 1.016000 )
( T05 1.320800 )
G21

G90
M05
G00 X0.0000 Y0.0000 Z30.0000 
M06 T01  ; 0.6000 
G00 Z2.0000 
M03
G04 P3.000000
G82 X-35.5000 Y19.5000 Z-2.0000 F127.00 R2.0000 P0.100000
G82 X-35.5000 Y24.2500 
G82 X-36.0000 Y32.0000 
G82 X-43.0000 Y20.0000 
G82 X-43.0000 Y25.0000 
G82 X-52.0000 Y26.0000 
G82 X-60.0000 Y19.0000 
G82 X-63.5000 Y22.5000 
M05
G00 X0.0000 Y0.0000 Z30.0000 
M06 T02  ; 0.8128 
G00 Z2.0000 
M03
G04 P3.000000
G82 X-16.6000 Y14.6000 Z-2.0000 F127.00 R2.0000 P0.100000
G82 X-16.6000 Y19.6800 
G82 X-22.0000 Y14.4600 
G82 X-22.0000 Y19.5400 
G82 X-26.1000 Y29.4200 
G82 X-27.0000 Y14.4600 
G82 X-27.0000 Y19.5400 
G82 X-31.1800 Y29.4200 
G82 X-34.4600 Y29.0000 
G82 X-39.5400 Y29.0000 
G82 X-54.7000 Y26.4000 
G82 X-59.7800 Y26.4000 
G82 X-76.6000 Y24.2500 
G82 X-76.6000 Y29.3300 
G82 X-77.2500 Y14.2500 
G82 X-77.2500 Y19.3300 
M05
G00 X0.0000 Y0.0000 Z30.0000 
M06 T03  ; 1.0000 
G00 Z2.0000 
M03
G04 P3.000000
G82 X0.0000 Y0.0000 Z-2.0000 F127.00 R2.0000 P0.100000
G82 X-90.0000 Y0.0000 
M05
G00 X0.0000 Y0.0000 Z30.0000 
M06 T04  ; 1.0160 
G00 Z2.0000 
M03
G04 P3.000000
G82 X-47.0000 Y9.6500 Z-2.0000 F127.00 R2.0000 P0.100000
G82 X-47.0000 Y22.3500 
G82 X-81.0000 Y25.6500 
G82 X-81.0000 Y38.3500 
M05
G00 X0.0000 Y0.0000 Z30.0000 
M06 T05  ; 1.3208 
G00 Z2.0000 
M03
G04 P3.000000
G82 X-9.1400 Y19.3700 Z-2.0000 F127.00 R2.0000 P0.100000
G82 X-9.4900 Y9.3700 
G82 X-83.7900 Y14.1200 
G82 X-84.0000 Y19.5000 
G82 X-84.0000 Y33.0000 
(File Footer)
T01 
G00 Z10.0000 
M05
M02
