( This gcode generated by /home/mattvenn/.eagle/ulp/pcb-gcode.ulp )
( Copyright 2005 by John Johnson. See readme.txt for licensing terms. )

( This file generated from the board /home/mattvenn/eagle-circuit-designs/bike phone charger/797 test.brd )
( This file generated 20/02/2012 11:36 )

G21

G90
G00 Z10.0000 
G00 X0 Y0
M03
G04 P3.000000
G00 Z2.0000 
G00 X73.2801 Y23.2840 
G01 Z-0.2000 F600.00 
G01 X73.3172 Y23.2994 
G01 X73.3455 Y23.3277 
G01 X73.3609 Y23.3648 
G01 X73.3609 Y24.0051 
G01 X73.3455 Y24.0422 
G01 X73.3172 Y24.0705 
G01 X73.2801 Y24.0859 
G01 X72.6203 Y24.0859 
G01 X72.5482 Y24.1580 
G01 X72.4484 Y24.2246 
G01 X72.3376 Y24.2705 
G01 X72.2200 Y24.2939 
G01 X70.8589 Y24.2939 
G01 X70.8589 Y29.9399 
G01 X70.8589 Y30.0600 
G01 X70.8355 Y30.1776 
G01 X70.7896 Y30.2884 
G01 X70.7230 Y30.3882 
G01 X70.6382 Y30.4730 
G01 X70.5384 Y30.5396 
G01 X70.4276 Y30.5855 
G01 X70.3100 Y30.6089 
G01 X50.0600 Y30.6089 
G01 X49.9399 Y30.6089 
G01 X49.8223 Y30.5855 
G01 X49.7115 Y30.5396 
G01 X49.6117 Y30.4730 
G01 X49.5269 Y30.3882 
G01 X49.4603 Y30.2884 
G01 X49.4144 Y30.1776 
G01 X49.3910 Y30.0600 
G01 X49.3910 Y25.6089 
G01 X42.9399 Y25.6089 
G01 X42.9158 Y25.6041 
G01 X42.4766 Y25.6041 
G01 X42.4395 Y25.5887 
G01 X42.4112 Y25.5604 
G01 X42.3958 Y25.5233 
G01 X42.3958 Y25.0841 
G01 X42.3910 Y25.0600 
G01 X42.3910 Y24.9399 
G01 X42.3958 Y24.9158 
G01 X42.3958 Y24.4766 
G01 X42.4112 Y24.4395 
G01 X42.4395 Y24.4112 
G01 X42.4766 Y24.3958 
G01 X42.9158 Y24.3958 
G01 X42.9399 Y24.3910 
G01 X50.0600 Y24.3910 
G01 X50.1776 Y24.4144 
G01 X50.2884 Y24.4603 
G01 X50.3882 Y24.5269 
G01 X50.4730 Y24.6117 
G01 X50.5396 Y24.7115 
G01 X50.5855 Y24.8223 
G01 X50.6089 Y24.9399 
G01 X50.6089 Y25.0600 
G01 X50.6089 Y29.3910 
G01 X69.6410 Y29.3910 
G01 X69.6410 Y23.6249 
G01 X69.6644 Y23.5073 
G01 X69.7103 Y23.3965 
G01 X69.7769 Y23.2967 
G01 X69.8617 Y23.2119 
G01 X69.9615 Y23.1453 
G01 X70.0723 Y23.0994 
G01 X70.1899 Y23.0760 
G01 X70.3100 Y23.0760 
G01 X72.2200 Y23.0760 
G01 X72.3376 Y23.0994 
G01 X72.4484 Y23.1453 
G01 X72.5482 Y23.2119 
G01 X72.6203 Y23.2840 
G01 X73.2801 Y23.2840 
G00 Z2.0000 
G00 X68.0801 Y24.5540 
G01 Z-0.2000 F600.00 
G01 X68.1172 Y24.5694 
G01 X68.1455 Y24.5977 
G01 X68.1609 Y24.6348 
G01 X68.1609 Y25.2751 
G01 X68.1455 Y25.3122 
G01 X68.1172 Y25.3405 
G01 X68.0801 Y25.3559 
G01 X67.4203 Y25.3559 
G01 X67.3482 Y25.4280 
G01 X67.2484 Y25.4946 
G01 X67.1376 Y25.5405 
G01 X67.0200 Y25.5639 
G01 X61.8100 Y25.5639 
G01 X61.6899 Y25.5639 
G01 X61.5723 Y25.5405 
G01 X61.4615 Y25.4946 
G01 X61.3617 Y25.4280 
G01 X61.2769 Y25.3432 
G01 X61.2103 Y25.2434 
G01 X61.1644 Y25.1326 
G01 X61.1410 Y25.0150 
G01 X61.1410 Y23.6089 
G01 X52.6089 Y23.6089 
G01 X52.6089 Y26.0600 
G01 X52.6041 Y26.0841 
G01 X52.6041 Y26.5233 
G01 X52.5887 Y26.5604 
G01 X52.5604 Y26.5887 
G01 X52.5233 Y26.6041 
G01 X52.0841 Y26.6041 
G01 X52.0600 Y26.6089 
G01 X51.9399 Y26.6089 
G01 X51.9158 Y26.6041 
G01 X51.4766 Y26.6041 
G01 X51.4395 Y26.5887 
G01 X51.4112 Y26.5604 
G01 X51.3958 Y26.5233 
G01 X51.3958 Y26.0841 
G01 X51.3910 Y26.0600 
G01 X51.3910 Y22.9399 
G01 X51.4144 Y22.8223 
G01 X51.4603 Y22.7115 
G01 X51.5269 Y22.6117 
G01 X51.6117 Y22.5269 
G01 X51.7115 Y22.4603 
G01 X51.8223 Y22.4144 
G01 X51.9399 Y22.3910 
G01 X52.0600 Y22.3910 
G01 X61.8100 Y22.3910 
G01 X61.9276 Y22.4144 
G01 X62.0384 Y22.4603 
G01 X62.1382 Y22.5269 
G01 X62.2230 Y22.6117 
G01 X62.2896 Y22.7115 
G01 X62.3355 Y22.8223 
G01 X62.3589 Y22.9399 
G01 X62.3589 Y23.0600 
G01 X62.3589 Y24.3460 
G01 X67.0200 Y24.3460 
G01 X67.1376 Y24.3694 
G01 X67.2484 Y24.4153 
G01 X67.3482 Y24.4819 
G01 X67.4203 Y24.5540 
G01 X68.0801 Y24.5540 
G00 Z2.0000 
G00 X71.0398 Y22.0140 
G01 Z-0.2000 F600.00 
G01 X71.6996 Y22.0140 
G01 X71.7717 Y21.9419 
G01 X71.8715 Y21.8753 
G01 X71.9823 Y21.8294 
G01 X72.0999 Y21.8060 
G01 X76.6410 Y21.8060 
G01 X76.6410 Y19.7977 
G01 X76.4886 Y19.6453 
G01 X76.4886 Y19.0146 
G01 X76.9346 Y18.5686 
G01 X77.5653 Y18.5686 
G01 X78.0113 Y19.0146 
G01 X78.0113 Y19.6453 
G01 X77.8589 Y19.7977 
G01 X77.8589 Y22.4750 
G01 X77.8355 Y22.5926 
G01 X77.7896 Y22.7034 
G01 X77.7230 Y22.8032 
G01 X77.6382 Y22.8880 
G01 X77.5384 Y22.9546 
G01 X77.4276 Y23.0005 
G01 X77.3100 Y23.0239 
G01 X77.1899 Y23.0239 
G01 X72.0999 Y23.0239 
G01 X71.9823 Y23.0005 
G01 X71.8715 Y22.9546 
G01 X71.7717 Y22.8880 
G01 X71.6996 Y22.8159 
G01 X71.0398 Y22.8159 
G01 X71.0027 Y22.8005 
G01 X70.9744 Y22.7722 
G01 X70.9590 Y22.7351 
G01 X70.9590 Y22.0948 
G01 X70.9744 Y22.0577 
G01 X71.0027 Y22.0294 
G01 X71.0398 Y22.0140 
G00 Z2.0000 
G00 X65.8398 Y20.7440 
G01 Z-0.2000 F600.00 
G01 X66.4996 Y20.7440 
G01 X66.5717 Y20.6719 
G01 X66.6715 Y20.6053 
G01 X66.7823 Y20.5594 
G01 X66.8999 Y20.5360 
G01 X68.3910 Y20.5360 
G01 X68.3910 Y19.8149 
G01 X68.3910 Y6.6089 
G01 X33.6089 Y6.6089 
G01 X33.6089 Y7.2990 
G01 X35.7201 Y7.2990 
G01 X35.7572 Y7.3144 
G01 X35.7855 Y7.3427 
G01 X35.8009 Y7.3798 
G01 X35.8009 Y13.6201 
G01 X35.7855 Y13.6572 
G01 X35.7572 Y13.6855 
G01 X35.7201 Y13.7009 
G01 X30.2798 Y13.7009 
G01 X30.2427 Y13.6855 
G01 X30.2144 Y13.6572 
G01 X30.1990 Y13.6201 
G01 X30.1990 Y12.1931 
G01 X28.1931 Y12.1931 
G01 X28.1931 Y14.5539 
G01 X28.1637 Y14.7394 
G01 X28.1057 Y14.9180 
G01 X28.0204 Y15.0853 
G01 X27.9100 Y15.2373 
G01 X27.7773 Y15.3700 
G01 X27.6253 Y15.4804 
G01 X27.4580 Y15.5657 
G01 X27.2794 Y15.6237 
G01 X27.0939 Y15.6531 
G01 X26.9060 Y15.6531 
G01 X22.9012 Y15.6531 
G01 X22.8701 Y15.6917 
G01 X22.7308 Y15.8177 
G01 X22.5736 Y15.9204 
G01 X22.4022 Y15.9972 
G01 X22.2209 Y16.0462 
G01 X22.0342 Y16.0663 
G01 X16.5706 Y15.7931 
G01 X16.5060 Y15.7931 
G01 X16.4763 Y15.7884 
G01 X16.4465 Y15.7869 
G01 X16.3841 Y15.7737 
G01 X16.3205 Y15.7637 
G01 X16.2919 Y15.7544 
G01 X16.2628 Y15.7483 
G01 X16.2038 Y15.7258 
G01 X16.1419 Y15.7057 
G01 X16.1148 Y15.6918 
G01 X16.0873 Y15.6814 
G01 X16.0322 Y15.6497 
G01 X15.9746 Y15.6204 
G01 X15.9504 Y15.6028 
G01 X15.9244 Y15.5879 
G01 X15.8746 Y15.5477 
G01 X15.8226 Y15.5100 
G01 X15.8014 Y15.4887 
G01 X15.7782 Y15.4701 
G01 X15.7356 Y15.4230 
G01 X15.6899 Y15.3773 
G01 X15.6721 Y15.3528 
G01 X15.6522 Y15.3308 
G01 X15.6171 Y15.2770 
G01 X15.5795 Y15.2253 
G01 X15.5661 Y15.1989 
G01 X15.5495 Y15.1736 
G01 X15.5232 Y15.1147 
G01 X15.4942 Y15.0580 
G01 X15.4850 Y15.0295 
G01 X15.4727 Y15.0022 
G01 X15.4560 Y14.9402 
G01 X15.4362 Y14.8794 
G01 X15.4315 Y14.8497 
G01 X15.4237 Y14.8209 
G01 X15.4169 Y14.7574 
G01 X15.4068 Y14.6939 
G01 X15.4068 Y14.6638 
G01 X15.4036 Y14.6342 
G01 X15.4068 Y14.5704 
G01 X15.4068 Y11.3759 
G01 X9.3584 Y11.3759 
G01 X9.0977 Y11.3416 
G01 X8.8437 Y11.2735 
G01 X8.6008 Y11.1729 
G01 X8.3731 Y11.0414 
G01 X8.1645 Y10.8814 
G01 X7.9785 Y10.6954 
G01 X7.8185 Y10.4868 
G01 X7.6870 Y10.2591 
G01 X7.5864 Y10.0162 
G01 X7.5183 Y9.7622 
G01 X7.4840 Y9.5015 
G01 X7.4840 Y9.2384 
G01 X7.5183 Y8.9777 
G01 X7.5864 Y8.7237 
G01 X7.6870 Y8.4808 
G01 X7.8185 Y8.2531 
G01 X7.9785 Y8.0445 
G01 X8.1645 Y7.8585 
G01 X8.3731 Y7.6985 
G01 X8.6008 Y7.5670 
G01 X8.8437 Y7.4664 
G01 X9.0977 Y7.3983 
G01 X9.3584 Y7.3640 
G01 X16.7315 Y7.3640 
G01 X16.9922 Y7.3983 
G01 X17.2462 Y7.4664 
G01 X17.4891 Y7.5670 
G01 X17.7168 Y7.6985 
G01 X17.9254 Y7.8585 
G01 X18.1114 Y8.0445 
G01 X18.2714 Y8.2531 
G01 X18.4029 Y8.4808 
G01 X18.5035 Y8.7237 
G01 X18.5716 Y8.9777 
G01 X18.6059 Y9.2384 
G01 X18.6059 Y9.5015 
G01 X18.5716 Y9.7622 
G01 X18.5035 Y10.0162 
G01 X18.4029 Y10.2591 
G01 X18.2714 Y10.4868 
G01 X18.1114 Y10.6954 
G01 X17.9254 Y10.8814 
G01 X17.7931 Y10.9828 
G01 X17.7931 Y13.4650 
G01 X21.1402 Y13.6324 
G01 X21.2226 Y13.5499 
G01 X21.3746 Y13.4395 
G01 X21.5419 Y13.3542 
G01 X21.7205 Y13.2962 
G01 X21.9060 Y13.2668 
G01 X25.8068 Y13.2668 
G01 X25.8068 Y11.0939 
G01 X25.8068 Y10.9060 
G01 X25.8362 Y10.7205 
G01 X25.8942 Y10.5419 
G01 X25.9795 Y10.3746 
G01 X26.0899 Y10.2226 
G01 X26.2226 Y10.0899 
G01 X26.3746 Y9.9795 
G01 X26.5419 Y9.8942 
G01 X26.7205 Y9.8362 
G01 X26.9060 Y9.8068 
G01 X30.1990 Y9.8068 
G01 X30.1990 Y7.3798 
G01 X30.2144 Y7.3427 
G01 X30.2427 Y7.3144 
G01 X30.2798 Y7.2990 
G01 X32.3910 Y7.2990 
G01 X32.3910 Y6.0600 
G01 X32.3910 Y5.9399 
G01 X32.4144 Y5.8223 
G01 X32.4603 Y5.7115 
G01 X32.5269 Y5.6117 
G01 X32.6117 Y5.5269 
G01 X32.7115 Y5.4603 
G01 X32.8223 Y5.4144 
G01 X32.9399 Y5.3910 
G01 X68.9399 Y5.3910 
G01 X69.0600 Y5.3910 
G01 X69.1776 Y5.4144 
G01 X69.2884 Y5.4603 
G01 X69.3882 Y5.5269 
G01 X69.4730 Y5.6117 
G01 X69.5396 Y5.7115 
G01 X69.5855 Y5.8223 
G01 X69.6089 Y5.9399 
G01 X69.6089 Y19.2660 
G01 X72.2200 Y19.2660 
G01 X72.3376 Y19.2894 
G01 X72.4484 Y19.3353 
G01 X72.5482 Y19.4019 
G01 X72.6203 Y19.4740 
G01 X73.2801 Y19.4740 
G01 X73.3172 Y19.4894 
G01 X73.3455 Y19.5177 
G01 X73.3609 Y19.5548 
G01 X73.3609 Y20.1951 
G01 X73.3455 Y20.2322 
G01 X73.3172 Y20.2605 
G01 X73.2801 Y20.2759 
G01 X72.6203 Y20.2759 
G01 X72.5482 Y20.3480 
G01 X72.4484 Y20.4146 
G01 X72.3376 Y20.4605 
G01 X72.2200 Y20.4839 
G01 X69.6089 Y20.4839 
G01 X69.6089 Y21.2050 
G01 X69.5855 Y21.3226 
G01 X69.5396 Y21.4334 
G01 X69.4730 Y21.5332 
G01 X69.3882 Y21.6180 
G01 X69.2884 Y21.6846 
G01 X69.1776 Y21.7305 
G01 X69.0600 Y21.7539 
G01 X68.9399 Y21.7539 
G01 X66.8999 Y21.7539 
G01 X66.7823 Y21.7305 
G01 X66.6715 Y21.6846 
G01 X66.5717 Y21.6180 
G01 X66.4996 Y21.5459 
G01 X65.8398 Y21.5459 
G01 X65.8027 Y21.5305 
G01 X65.7744 Y21.5022 
G01 X65.7590 Y21.4651 
G01 X65.7590 Y20.8248 
G01 X65.7744 Y20.7877 
G01 X65.8027 Y20.7594 
G01 X65.8398 Y20.7440 
G00 Z2.0000 
G00 X71.0398 Y18.2040 
G01 Z-0.2000 F600.00 
G01 X71.3610 Y18.2040 
G01 X71.3610 Y15.4509 
G01 X71.0498 Y15.4509 
G01 X71.0127 Y15.4355 
G01 X70.9844 Y15.4072 
G01 X70.9690 Y15.3701 
G01 X70.9690 Y14.4021 
G01 X70.9495 Y14.3753 
G01 X70.8642 Y14.2080 
G01 X70.8062 Y14.0294 
G01 X70.7768 Y13.8439 
G01 X70.7768 Y13.6560 
G01 X70.8062 Y13.4705 
G01 X70.8642 Y13.2919 
G01 X70.9495 Y13.1246 
G01 X70.9690 Y13.0978 
G01 X70.9690 Y12.1298 
G01 X70.9844 Y12.0927 
G01 X71.0127 Y12.0644 
G01 X71.0498 Y12.0490 
G01 X72.8901 Y12.0490 
G01 X72.9272 Y12.0644 
G01 X72.9555 Y12.0927 
G01 X72.9709 Y12.1298 
G01 X72.9709 Y12.5568 
G01 X77.8439 Y12.5568 
G01 X78.0294 Y12.5862 
G01 X78.2080 Y12.6442 
G01 X78.3753 Y12.7295 
G01 X78.5273 Y12.8399 
G01 X78.6600 Y12.9726 
G01 X78.7178 Y13.0523 
G01 X82.4813 Y13.0408 
G01 X83.0906 Y12.4315 
G01 X84.4893 Y12.4315 
G01 X85.4784 Y13.4206 
G01 X85.4784 Y14.8193 
G01 X84.4893 Y15.8084 
G01 X83.0906 Y15.8084 
G01 X82.7086 Y15.4264 
G01 X77.1597 Y15.4434 
G01 X76.9741 Y15.4146 
G01 X76.7953 Y15.3571 
G01 X76.6277 Y15.2723 
G01 X76.4754 Y15.1624 
G01 X76.3422 Y15.0300 
G01 X76.2787 Y14.9431 
G01 X72.9709 Y14.9431 
G01 X72.9709 Y15.3701 
G01 X72.9555 Y15.4072 
G01 X72.9272 Y15.4355 
G01 X72.8901 Y15.4509 
G01 X72.5789 Y15.4509 
G01 X72.5789 Y18.2040 
G01 X73.2801 Y18.2040 
G01 X73.3172 Y18.2194 
G01 X73.3455 Y18.2477 
G01 X73.3609 Y18.2848 
G01 X73.3609 Y18.9251 
G01 X73.3455 Y18.9622 
G01 X73.3172 Y18.9905 
G01 X73.2801 Y19.0059 
G01 X72.4303 Y19.0059 
G01 X72.3582 Y19.0780 
G01 X72.2584 Y19.1446 
G01 X72.1476 Y19.1905 
G01 X72.0300 Y19.2139 
G01 X71.9099 Y19.2139 
G01 X71.7923 Y19.1905 
G01 X71.6815 Y19.1446 
G01 X71.5817 Y19.0780 
G01 X71.5096 Y19.0059 
G01 X71.0398 Y19.0059 
G01 X71.0027 Y18.9905 
G01 X70.9744 Y18.9622 
G01 X70.9590 Y18.9251 
G01 X70.9590 Y18.2848 
G01 X70.9744 Y18.2477 
G01 X71.0027 Y18.2194 
G01 X71.0398 Y18.2040 
G00 Z2.0000 
G00 X71.0398 Y25.8240 
G01 Z-0.2000 F600.00 
G01 X71.6997 Y25.8240 
G01 X71.7717 Y25.7519 
G01 X71.8715 Y25.6853 
G01 X71.9823 Y25.6394 
G01 X72.0999 Y25.6160 
G01 X74.9399 Y25.6160 
G01 X75.0600 Y25.6160 
G01 X75.1776 Y25.6394 
G01 X75.2884 Y25.6853 
G01 X75.3882 Y25.7519 
G01 X75.4730 Y25.8367 
G01 X75.5396 Y25.9365 
G01 X75.5855 Y26.0473 
G01 X75.6089 Y26.1649 
G01 X75.6089 Y27.3910 
G01 X76.5399 Y27.3910 
G01 X76.6600 Y27.3910 
G01 X76.7776 Y27.4144 
G01 X76.8884 Y27.4603 
G01 X76.9882 Y27.5269 
G01 X77.0730 Y27.6117 
G01 X77.1396 Y27.7115 
G01 X77.1855 Y27.8223 
G01 X77.2089 Y27.9399 
G01 X77.2089 Y28.8622 
G01 X77.3613 Y29.0146 
G01 X77.3613 Y29.6453 
G01 X76.9153 Y30.0913 
G01 X76.2846 Y30.0913 
G01 X75.8386 Y29.6453 
G01 X75.8386 Y29.0146 
G01 X75.9910 Y28.8622 
G01 X75.9910 Y28.6089 
G01 X74.9399 Y28.6089 
G01 X74.8223 Y28.5855 
G01 X74.7115 Y28.5396 
G01 X74.6117 Y28.4730 
G01 X74.5269 Y28.3882 
G01 X74.4603 Y28.2884 
G01 X74.4144 Y28.1776 
G01 X74.3910 Y28.0600 
G01 X74.3910 Y27.9399 
G01 X74.3910 Y26.8339 
G01 X72.0999 Y26.8339 
G01 X71.9823 Y26.8105 
G01 X71.8715 Y26.7646 
G01 X71.7717 Y26.6980 
G01 X71.6997 Y26.6259 
G01 X71.0398 Y26.6259 
G01 X71.0027 Y26.6105 
G01 X70.9744 Y26.5822 
G01 X70.9590 Y26.5451 
G01 X70.9590 Y25.9048 
G01 X70.9744 Y25.8677 
G01 X71.0027 Y25.8394 
G01 X71.0398 Y25.8240 
G00 Z2.0000 
G00 X71.0398 Y27.0940 
G01 Z-0.2000 F600.00 
G01 X71.6997 Y27.0940 
G01 X71.7717 Y27.0219 
G01 X71.8715 Y26.9553 
G01 X71.9823 Y26.9094 
G01 X72.0999 Y26.8860 
G01 X72.2200 Y26.8860 
G01 X72.3376 Y26.9094 
G01 X72.4484 Y26.9553 
G01 X72.5482 Y27.0219 
G01 X72.6202 Y27.0940 
G01 X73.2801 Y27.0940 
G01 X73.3172 Y27.1094 
G01 X73.3455 Y27.1377 
G01 X73.3609 Y27.1748 
G01 X73.3609 Y27.8151 
G01 X73.3455 Y27.8522 
G01 X73.3172 Y27.8805 
G01 X73.2801 Y27.8959 
G01 X72.7689 Y27.8959 
G01 X72.7689 Y31.5600 
G01 X72.7455 Y31.6776 
G01 X72.6996 Y31.7884 
G01 X72.6330 Y31.8882 
G01 X72.5482 Y31.9730 
G01 X72.4484 Y32.0396 
G01 X72.3376 Y32.0855 
G01 X72.2200 Y32.1089 
G01 X72.0999 Y32.1089 
G01 X48.0601 Y32.1089 
G01 X48.0600 Y32.1089 
G01 X47.9399 Y32.1089 
G01 X47.8223 Y32.0855 
G01 X47.7115 Y32.0396 
G01 X47.6117 Y31.9730 
G01 X47.5269 Y31.8882 
G01 X47.4603 Y31.7884 
G01 X47.4144 Y31.6776 
G01 X47.3910 Y31.5600 
G01 X47.3910 Y27.1089 
G01 X35.5600 Y27.1089 
G01 X35.4399 Y27.1089 
G01 X35.3223 Y27.0855 
G01 X35.2115 Y27.0396 
G01 X35.1117 Y26.9730 
G01 X35.0269 Y26.8882 
G01 X34.9603 Y26.7884 
G01 X34.9144 Y26.6776 
G01 X34.8910 Y26.5600 
G01 X34.8910 Y24.1899 
G01 X34.8958 Y24.1658 
G01 X34.8958 Y23.7266 
G01 X34.9112 Y23.6895 
G01 X34.9395 Y23.6612 
G01 X34.9766 Y23.6458 
G01 X35.4158 Y23.6458 
G01 X35.4399 Y23.6410 
G01 X35.5600 Y23.6410 
G01 X35.5841 Y23.6458 
G01 X36.0233 Y23.6458 
G01 X36.0604 Y23.6612 
G01 X36.0887 Y23.6895 
G01 X36.1041 Y23.7266 
G01 X36.1041 Y24.1658 
G01 X36.1089 Y24.1899 
G01 X36.1089 Y25.8910 
G01 X47.9398 Y25.8910 
G01 X47.9399 Y25.8910 
G01 X48.0600 Y25.8910 
G01 X48.1776 Y25.9144 
G01 X48.2884 Y25.9603 
G01 X48.3882 Y26.0269 
G01 X48.4730 Y26.1117 
G01 X48.5396 Y26.2115 
G01 X48.5855 Y26.3223 
G01 X48.6089 Y26.4399 
G01 X48.6089 Y30.8910 
G01 X71.5510 Y30.8910 
G01 X71.5510 Y27.8959 
G01 X71.0398 Y27.8959 
G01 X71.0027 Y27.8805 
G01 X70.9744 Y27.8522 
G01 X70.9590 Y27.8151 
G01 X70.9590 Y27.1748 
G01 X70.9744 Y27.1377 
G01 X71.0027 Y27.1094 
G01 X71.0398 Y27.0940 
G00 Z2.0000 
G00 X67.3709 Y12.1298 
G01 Z-0.2000 F600.00 
G01 X67.3709 Y13.0978 
G01 X67.3904 Y13.1246 
G01 X67.4757 Y13.2919 
G01 X67.5337 Y13.4705 
G01 X67.5631 Y13.6560 
G01 X67.5631 Y13.8439 
G01 X67.5337 Y14.0294 
G01 X67.4757 Y14.2080 
G01 X67.3904 Y14.3753 
G01 X67.3709 Y14.4021 
G01 X67.3709 Y15.3701 
G01 X67.3555 Y15.4072 
G01 X67.3272 Y15.4355 
G01 X67.2901 Y15.4509 
G01 X66.9789 Y15.4509 
G01 X66.9789 Y18.2040 
G01 X68.0801 Y18.2040 
G01 X68.1172 Y18.2194 
G01 X68.1455 Y18.2477 
G01 X68.1609 Y18.2848 
G01 X68.1609 Y18.9251 
G01 X68.1455 Y18.9622 
G01 X68.1172 Y18.9905 
G01 X68.0801 Y19.0059 
G01 X66.8303 Y19.0059 
G01 X66.7582 Y19.0780 
G01 X66.6584 Y19.1446 
G01 X66.5476 Y19.1905 
G01 X66.4300 Y19.2139 
G01 X66.3099 Y19.2139 
G01 X66.1923 Y19.1905 
G01 X66.0815 Y19.1446 
G01 X65.9817 Y19.0780 
G01 X65.9096 Y19.0059 
G01 X65.8398 Y19.0059 
G01 X65.8027 Y18.9905 
G01 X65.7744 Y18.9622 
G01 X65.7590 Y18.9251 
G01 X65.7590 Y18.2848 
G01 X65.7610 Y18.2800 
G01 X65.7610 Y15.4509 
G01 X65.4498 Y15.4509 
G01 X65.4127 Y15.4355 
G01 X65.3844 Y15.4072 
G01 X65.3690 Y15.3701 
G01 X65.3690 Y14.9431 
G01 X64.0009 Y14.9431 
G01 X64.0009 Y16.7701 
G01 X63.9855 Y16.8072 
G01 X63.9572 Y16.8355 
G01 X63.9201 Y16.8509 
G01 X60.0298 Y16.8509 
G01 X59.9927 Y16.8355 
G01 X59.9644 Y16.8072 
G01 X59.9490 Y16.7701 
G01 X59.9490 Y11.2298 
G01 X59.9644 Y11.1927 
G01 X59.9927 Y11.1644 
G01 X60.0298 Y11.1490 
G01 X63.9201 Y11.1490 
G01 X63.9572 Y11.1644 
G01 X63.9855 Y11.1927 
G01 X64.0009 Y11.2298 
G01 X64.0009 Y12.5568 
G01 X65.3690 Y12.5568 
G01 X65.3690 Y12.1298 
G01 X65.3844 Y12.0927 
G01 X65.4127 Y12.0644 
G01 X65.4498 Y12.0490 
G01 X67.2901 Y12.0490 
G01 X67.3272 Y12.0644 
G01 X67.3555 Y12.0927 
G01 X67.3709 Y12.1298 
G00 Z2.0000 
G00 X31.9413 Y29.1046 
G01 Z-0.2000 F600.00 
G01 X31.9413 Y29.7353 
G01 X31.4953 Y30.1813 
G01 X30.8646 Y30.1813 
G01 X30.4186 Y29.7353 
G01 X30.4186 Y29.1046 
G01 X30.8646 Y28.6586 
G01 X31.4953 Y28.6586 
G01 X31.9413 Y29.1046 
G00 Z2.0000 
G00 X26.8613 Y29.1046 
G01 Z-0.2000 F600.00 
G01 X26.8613 Y29.7353 
G01 X26.4153 Y30.1813 
G01 X25.7846 Y30.1813 
G01 X25.3386 Y29.7353 
G01 X25.3386 Y29.1046 
G01 X25.7846 Y28.6586 
G01 X26.4153 Y28.6586 
G01 X26.8613 Y29.1046 
G00 Z2.0000 
G00 X10.8284 Y18.6706 
G01 Z-0.2000 F600.00 
G01 X10.8284 Y20.0693 
G01 X9.8393 Y21.0584 
G01 X8.4406 Y21.0584 
G01 X7.4515 Y20.0693 
G01 X7.4515 Y18.6706 
G01 X8.4406 Y17.6815 
G01 X9.8393 Y17.6815 
G01 X10.8284 Y18.6706 
G00 Z2.0000 
G00 X55.4613 Y26.0846 
G01 Z-0.2000 F600.00 
G01 X55.4613 Y26.7153 
G01 X55.3133 Y26.8633 
G01 X55.3231 Y27.8910 
G01 X62.3910 Y27.8910 
G01 X62.3910 Y27.5551 
G01 X62.3910 Y27.5550 
G01 X62.3910 Y27.4349 
G01 X62.4144 Y27.3173 
G01 X62.4603 Y27.2065 
G01 X62.5269 Y27.1067 
G01 X62.6117 Y27.0219 
G01 X62.7115 Y26.9553 
G01 X62.8223 Y26.9094 
G01 X62.9399 Y26.8860 
G01 X67.0200 Y26.8860 
G01 X67.1376 Y26.9094 
G01 X67.2484 Y26.9553 
G01 X67.3482 Y27.0219 
G01 X67.4203 Y27.0940 
G01 X68.0801 Y27.0940 
G01 X68.1172 Y27.1094 
G01 X68.1455 Y27.1377 
G01 X68.1609 Y27.1748 
G01 X68.1609 Y27.8151 
G01 X68.1455 Y27.8522 
G01 X68.1172 Y27.8805 
G01 X68.0801 Y27.8959 
G01 X67.4203 Y27.8959 
G01 X67.3482 Y27.9680 
G01 X67.2484 Y28.0346 
G01 X67.1376 Y28.0805 
G01 X67.0200 Y28.1039 
G01 X63.6089 Y28.1039 
G01 X63.6089 Y28.4399 
G01 X63.6089 Y28.5600 
G01 X63.5855 Y28.6776 
G01 X63.5396 Y28.7884 
G01 X63.4730 Y28.8882 
G01 X63.3882 Y28.9730 
G01 X63.2884 Y29.0396 
G01 X63.1776 Y29.0855 
G01 X63.0600 Y29.1089 
G01 X54.7204 Y29.1089 
G01 X54.6657 Y29.1094 
G01 X54.6631 Y29.1089 
G01 X54.6599 Y29.1089 
G01 X54.6037 Y29.0977 
G01 X54.5479 Y29.0872 
G01 X54.5451 Y29.0860 
G01 X54.5423 Y29.0855 
G01 X54.4909 Y29.0641 
G01 X54.4366 Y29.0423 
G01 X54.4342 Y29.0407 
G01 X54.4315 Y29.0396 
G01 X54.3796 Y29.0049 
G01 X54.3363 Y28.9766 
G01 X54.3347 Y28.9749 
G01 X54.3317 Y28.9730 
G01 X54.2829 Y28.9241 
G01 X54.2507 Y28.8926 
G01 X54.2495 Y28.8907 
G01 X54.2469 Y28.8882 
G01 X54.2110 Y28.8343 
G01 X54.1831 Y28.7935 
G01 X54.1821 Y28.7909 
G01 X54.1803 Y28.7884 
G01 X54.1585 Y28.7356 
G01 X54.1361 Y28.6832 
G01 X54.1355 Y28.6801 
G01 X54.1344 Y28.6776 
G01 X54.1236 Y28.6229 
G01 X54.1116 Y28.5658 
G01 X54.1116 Y28.5628 
G01 X54.1110 Y28.5600 
G01 X54.1110 Y28.5027 
G01 X54.0956 Y26.8722 
G01 X53.9386 Y26.7153 
G01 X53.9386 Y26.0846 
G01 X54.3846 Y25.6386 
G01 X55.0153 Y25.6386 
G01 X55.4613 Y26.0846 
G00 Z2.0000 
G00 X60.0953 Y27.1613 
G01 Z-0.2000 F600.00 
G01 X59.4646 Y27.1613 
G01 X59.0186 Y26.7153 
G01 X59.0186 Y26.0846 
G01 X59.4646 Y25.6386 
G01 X60.0953 Y25.6386 
G01 X60.2477 Y25.7910 
G01 X61.5976 Y25.7910 
G01 X61.6117 Y25.7769 
G01 X61.7115 Y25.7103 
G01 X61.8223 Y25.6644 
G01 X61.9399 Y25.6410 
G01 X66.7785 Y25.6410 
G01 X66.7823 Y25.6394 
G01 X66.8999 Y25.6160 
G01 X68.3910 Y25.6160 
G01 X68.3910 Y23.0239 
G01 X67.2719 Y23.0239 
G01 X67.2484 Y23.0396 
G01 X67.1376 Y23.0855 
G01 X67.1025 Y23.0924 
G01 X67.1376 Y23.0994 
G01 X67.2484 Y23.1453 
G01 X67.3482 Y23.2119 
G01 X67.4203 Y23.2840 
G01 X68.0801 Y23.2840 
G01 X68.1172 Y23.2994 
G01 X68.1455 Y23.3277 
G01 X68.1609 Y23.3648 
G01 X68.1609 Y24.0051 
G01 X68.1455 Y24.0422 
G01 X68.1172 Y24.0705 
G01 X68.0801 Y24.0859 
G01 X67.4203 Y24.0859 
G01 X67.3482 Y24.1580 
G01 X67.2484 Y24.2246 
G01 X67.1376 Y24.2705 
G01 X67.0200 Y24.2939 
G01 X65.0600 Y24.2939 
G01 X64.9399 Y24.2939 
G01 X64.8223 Y24.2705 
G01 X64.7115 Y24.2246 
G01 X64.6117 Y24.1580 
G01 X64.5269 Y24.0732 
G01 X64.4603 Y23.9734 
G01 X64.4144 Y23.8626 
G01 X64.3910 Y23.7450 
G01 X64.3910 Y23.1089 
G01 X63.4399 Y23.1089 
G01 X63.4158 Y23.1041 
G01 X62.9766 Y23.1041 
G01 X62.9395 Y23.0887 
G01 X62.9112 Y23.0604 
G01 X62.8958 Y23.0233 
G01 X62.8958 Y22.5841 
G01 X62.8910 Y22.5600 
G01 X62.8910 Y22.4399 
G01 X62.8958 Y22.4158 
G01 X62.8958 Y21.9766 
G01 X62.9112 Y21.9395 
G01 X62.9395 Y21.9112 
G01 X62.9766 Y21.8958 
G01 X63.4158 Y21.8958 
G01 X63.4399 Y21.8910 
G01 X64.3910 Y21.8910 
G01 X64.3910 Y19.8149 
G01 X64.4144 Y19.6973 
G01 X64.4603 Y19.5865 
G01 X64.5269 Y19.4867 
G01 X64.6117 Y19.4019 
G01 X64.7115 Y19.3353 
G01 X64.8223 Y19.2894 
G01 X64.9399 Y19.2660 
G01 X65.0600 Y19.2660 
G01 X67.0200 Y19.2660 
G01 X67.1376 Y19.2894 
G01 X67.2484 Y19.3353 
G01 X67.3482 Y19.4019 
G01 X67.4202 Y19.4740 
G01 X68.0801 Y19.4740 
G01 X68.1172 Y19.4894 
G01 X68.1455 Y19.5177 
G01 X68.1609 Y19.5548 
G01 X68.1609 Y20.1951 
G01 X68.1455 Y20.2322 
G01 X68.1172 Y20.2605 
G01 X68.0801 Y20.2759 
G01 X67.4202 Y20.2759 
G01 X67.3482 Y20.3480 
G01 X67.2484 Y20.4146 
G01 X67.1376 Y20.4605 
G01 X67.0200 Y20.4839 
G01 X65.6089 Y20.4839 
G01 X65.6089 Y21.8910 
G01 X66.6480 Y21.8910 
G01 X66.6715 Y21.8753 
G01 X66.7823 Y21.8294 
G01 X66.8999 Y21.8060 
G01 X68.9399 Y21.8060 
G01 X69.0600 Y21.8060 
G01 X69.1776 Y21.8294 
G01 X69.2884 Y21.8753 
G01 X69.3882 Y21.9419 
G01 X69.4730 Y22.0267 
G01 X69.5396 Y22.1265 
G01 X69.5855 Y22.2373 
G01 X69.6089 Y22.3549 
G01 X69.6089 Y26.2850 
G01 X69.5855 Y26.4026 
G01 X69.5396 Y26.5134 
G01 X69.4730 Y26.6132 
G01 X69.3882 Y26.6980 
G01 X69.2884 Y26.7646 
G01 X69.1776 Y26.8105 
G01 X69.0600 Y26.8339 
G01 X68.9399 Y26.8339 
G01 X67.1415 Y26.8339 
G01 X67.1376 Y26.8355 
G01 X67.0200 Y26.8589 
G01 X62.4023 Y26.8589 
G01 X62.3882 Y26.8730 
G01 X62.2884 Y26.9396 
G01 X62.1776 Y26.9855 
G01 X62.0600 Y27.0089 
G01 X61.9399 Y27.0089 
G01 X60.2477 Y27.0089 
G01 X60.0953 Y27.1613 
G00 Z2.0000 
G00 X34.6790 Y16.9798 
G01 Z-0.2000 F600.00 
G01 X34.6944 Y16.9427 
G01 X34.7227 Y16.9144 
G01 X34.7598 Y16.8990 
G01 X35.8001 Y16.8990 
G01 X35.8372 Y16.9144 
G01 X35.8655 Y16.9427 
G01 X35.8809 Y16.9798 
G01 X35.8809 Y17.6999 
G01 X35.8889 Y17.7399 
G01 X35.8889 Y18.8958 
G01 X36.0233 Y18.8958 
G01 X36.0604 Y18.9112 
G01 X36.0887 Y18.9395 
G01 X36.1041 Y18.9766 
G01 X36.1041 Y19.4060 
G01 X36.1115 Y19.5211 
G01 X36.1041 Y19.5764 
G01 X36.1041 Y20.0233 
G01 X36.0887 Y20.0604 
G01 X36.0604 Y20.0887 
G01 X36.0233 Y20.1041 
G01 X35.7794 Y20.1041 
G01 X35.7640 Y20.1216 
G01 X35.7530 Y20.1382 
G01 X35.7238 Y20.1673 
G01 X35.6975 Y20.1973 
G01 X35.6822 Y20.2089 
G01 X35.6682 Y20.2230 
G01 X35.6338 Y20.2459 
G01 X35.6022 Y20.2701 
G01 X35.5848 Y20.2786 
G01 X35.5684 Y20.2896 
G01 X35.5307 Y20.3052 
G01 X35.4945 Y20.3230 
G01 X35.4757 Y20.3279 
G01 X35.4576 Y20.3355 
G01 X35.4172 Y20.3435 
G01 X35.3786 Y20.3538 
G01 X35.3594 Y20.3550 
G01 X35.3400 Y20.3589 
G01 X35.2993 Y20.3589 
G01 X35.2588 Y20.3615 
G01 X35.2394 Y20.3589 
G01 X35.2199 Y20.3589 
G01 X35.1801 Y20.3509 
G01 X35.1399 Y20.3456 
G01 X35.1215 Y20.3393 
G01 X35.1023 Y20.3355 
G01 X35.0652 Y20.3201 
G01 X35.0264 Y20.3069 
G01 X35.0094 Y20.2969 
G01 X34.9915 Y20.2896 
G01 X34.9574 Y20.2668 
G01 X34.9227 Y20.2467 
G01 X34.9085 Y20.2342 
G01 X34.8917 Y20.2230 
G01 X34.8624 Y20.1936 
G01 X34.8326 Y20.1675 
G01 X34.8210 Y20.1522 
G01 X34.8069 Y20.1382 
G01 X34.7840 Y20.1038 
G01 X34.7598 Y20.0722 
G01 X34.7513 Y20.0548 
G01 X34.7403 Y20.0384 
G01 X34.7247 Y20.0007 
G01 X34.7069 Y19.9645 
G01 X34.7020 Y19.9457 
G01 X34.6944 Y19.9276 
G01 X34.6864 Y19.8872 
G01 X34.6761 Y19.8486 
G01 X34.6749 Y19.8294 
G01 X34.6710 Y19.8100 
G01 X34.6710 Y19.7693 
G01 X34.6684 Y19.7288 
G01 X34.6710 Y19.7094 
G01 X34.6710 Y17.7399 
G01 X34.6790 Y17.6999 
G01 X34.6790 Y16.9798 
G00 Z2.0000 
G00 X42.6790 Y16.9798 
G01 Z-0.2000 F600.00 
G01 X42.6944 Y16.9427 
G01 X42.7227 Y16.9144 
G01 X42.7598 Y16.8990 
G01 X43.8001 Y16.8990 
G01 X43.8372 Y16.9144 
G01 X43.8655 Y16.9427 
G01 X43.8809 Y16.9798 
G01 X43.8809 Y17.6998 
G01 X43.8889 Y17.7399 
G01 X43.8889 Y20.0600 
G01 X43.8655 Y20.1776 
G01 X43.8196 Y20.2884 
G01 X43.7530 Y20.3882 
G01 X43.6682 Y20.4730 
G01 X43.6041 Y20.5157 
G01 X43.6041 Y20.5233 
G01 X43.5887 Y20.5604 
G01 X43.5604 Y20.5887 
G01 X43.5233 Y20.6041 
G01 X43.3641 Y20.6041 
G01 X43.3400 Y20.6089 
G01 X43.2199 Y20.6089 
G01 X42.9399 Y20.6089 
G01 X42.9158 Y20.6041 
G01 X42.4766 Y20.6041 
G01 X42.4395 Y20.5887 
G01 X42.4112 Y20.5604 
G01 X42.3958 Y20.5233 
G01 X42.3958 Y20.0841 
G01 X42.3910 Y20.0600 
G01 X42.3910 Y19.9399 
G01 X42.3958 Y19.9158 
G01 X42.3958 Y19.4766 
G01 X42.4112 Y19.4395 
G01 X42.4395 Y19.4112 
G01 X42.4766 Y19.3958 
G01 X42.6710 Y19.3958 
G01 X42.6710 Y17.7399 
G01 X42.6790 Y17.6998 
G01 X42.6790 Y16.9798 
G00 Z2.0000 
G00 X54.0509 Y11.2298 
G01 Z-0.2000 F600.00 
G01 X54.0509 Y16.7701 
G01 X54.0355 Y16.8072 
G01 X54.0072 Y16.8355 
G01 X53.9701 Y16.8509 
G01 X50.0798 Y16.8509 
G01 X50.0427 Y16.8355 
G01 X50.0144 Y16.8072 
G01 X49.9990 Y16.7701 
G01 X49.9990 Y11.2298 
G01 X50.0144 Y11.1927 
G01 X50.0427 Y11.1644 
G01 X50.0798 Y11.1490 
G01 X50.8318 Y11.1490 
G01 X50.8318 Y10.8431 
G01 X47.7497 Y10.8431 
G01 X47.6703 Y10.9621 
G01 X47.5501 Y11.0823 
G01 X47.4087 Y11.1767 
G01 X47.2517 Y11.2417 
G01 X47.0850 Y11.2749 
G01 X46.9149 Y11.2749 
G01 X46.7482 Y11.2417 
G01 X46.5912 Y11.1767 
G01 X46.4498 Y11.0823 
G01 X46.3296 Y10.9621 
G01 X46.2502 Y10.8431 
G01 X43.8009 Y10.8431 
G01 X43.8009 Y13.6201 
G01 X43.7855 Y13.6572 
G01 X43.7572 Y13.6855 
G01 X43.7201 Y13.7009 
G01 X42.1931 Y13.7009 
G01 X42.1931 Y15.0939 
G01 X42.1637 Y15.2794 
G01 X42.1057 Y15.4580 
G01 X42.0204 Y15.6253 
G01 X41.9100 Y15.7773 
G01 X41.7773 Y15.9100 
G01 X41.6253 Y16.0204 
G01 X41.4580 Y16.1057 
G01 X41.2794 Y16.1637 
G01 X41.0939 Y16.1931 
G01 X40.9060 Y16.1931 
G01 X34.1931 Y16.1931 
G01 X34.1931 Y17.8939 
G01 X34.1637 Y18.0794 
G01 X34.1057 Y18.2580 
G01 X34.0204 Y18.4253 
G01 X33.9100 Y18.5773 
G01 X33.7773 Y18.7100 
G01 X33.6253 Y18.8204 
G01 X33.4580 Y18.9057 
G01 X33.2794 Y18.9637 
G01 X33.0939 Y18.9931 
G01 X32.9060 Y18.9931 
G01 X30.6260 Y18.9931 
G01 X30.4405 Y18.9637 
G01 X30.2619 Y18.9057 
G01 X30.0946 Y18.8204 
G01 X29.9426 Y18.7100 
G01 X29.8099 Y18.5773 
G01 X29.6995 Y18.4253 
G01 X29.6142 Y18.2580 
G01 X29.5562 Y18.0794 
G01 X29.5268 Y17.8939 
G01 X29.5268 Y17.7060 
G01 X29.5562 Y17.5205 
G01 X29.6142 Y17.3419 
G01 X29.6995 Y17.1746 
G01 X29.8099 Y17.0226 
G01 X29.9426 Y16.8899 
G01 X30.0946 Y16.7795 
G01 X30.2619 Y16.6942 
G01 X30.4405 Y16.6362 
G01 X30.6260 Y16.6068 
G01 X31.8068 Y16.6068 
G01 X31.8068 Y15.0939 
G01 X31.8068 Y14.9060 
G01 X31.8362 Y14.7205 
G01 X31.8942 Y14.5419 
G01 X31.9795 Y14.3746 
G01 X32.0899 Y14.2226 
G01 X32.2226 Y14.0899 
G01 X32.3746 Y13.9795 
G01 X32.5419 Y13.8942 
G01 X32.7205 Y13.8362 
G01 X32.9060 Y13.8068 
G01 X39.8068 Y13.8068 
G01 X39.8068 Y13.7009 
G01 X38.2798 Y13.7009 
G01 X38.2427 Y13.6855 
G01 X38.2144 Y13.6572 
G01 X38.1990 Y13.6201 
G01 X38.1990 Y7.3798 
G01 X38.2144 Y7.3427 
G01 X38.2427 Y7.3144 
G01 X38.2798 Y7.2990 
G01 X43.7201 Y7.2990 
G01 X43.7572 Y7.3144 
G01 X43.7855 Y7.3427 
G01 X43.8009 Y7.3798 
G01 X43.8009 Y8.4568 
G01 X46.2502 Y8.4568 
G01 X46.3296 Y8.3378 
G01 X46.4498 Y8.2176 
G01 X46.5912 Y8.1232 
G01 X46.7482 Y8.0582 
G01 X46.9149 Y8.0250 
G01 X47.0850 Y8.0250 
G01 X47.2517 Y8.0582 
G01 X47.4087 Y8.1232 
G01 X47.5501 Y8.2176 
G01 X47.6703 Y8.3378 
G01 X47.7497 Y8.4568 
G01 X51.9310 Y8.4568 
G01 X52.1189 Y8.4568 
G01 X52.3044 Y8.4862 
G01 X52.4830 Y8.5442 
G01 X52.6503 Y8.6295 
G01 X52.8023 Y8.7399 
G01 X52.9350 Y8.8726 
G01 X53.0454 Y9.0246 
G01 X53.1307 Y9.1919 
G01 X53.1887 Y9.3705 
G01 X53.2181 Y9.5560 
G01 X53.2181 Y11.1490 
G01 X53.9701 Y11.1490 
G01 X54.0072 Y11.1644 
G01 X54.0355 Y11.1927 
G01 X54.0509 Y11.2298 
G00 Z2.0000 
G00 X46.3296 Y21.0378 
G01 Z-0.2000 F600.00 
G01 X46.4498 Y20.9176 
G01 X46.5912 Y20.8232 
G01 X46.7482 Y20.7582 
G01 X46.9149 Y20.7250 
G01 X47.0850 Y20.7250 
G01 X47.2517 Y20.7582 
G01 X47.4087 Y20.8232 
G01 X47.5501 Y20.9176 
G01 X47.6703 Y21.0378 
G01 X47.7497 Y21.1568 
G01 X47.8068 Y21.1568 
G01 X47.8068 Y19.0939 
G01 X47.8068 Y18.9060 
G01 X47.8362 Y18.7205 
G01 X47.8942 Y18.5419 
G01 X47.9795 Y18.3746 
G01 X48.0899 Y18.2226 
G01 X48.2226 Y18.0899 
G01 X48.3746 Y17.9795 
G01 X48.5419 Y17.8942 
G01 X48.7205 Y17.8362 
G01 X48.9060 Y17.8068 
G01 X60.0939 Y17.8068 
G01 X60.2794 Y17.8362 
G01 X60.4580 Y17.8942 
G01 X60.6253 Y17.9795 
G01 X60.7773 Y18.0899 
G01 X60.9100 Y18.2226 
G01 X61.0204 Y18.3746 
G01 X61.1057 Y18.5419 
G01 X61.1637 Y18.7205 
G01 X61.1931 Y18.9060 
G01 X61.1931 Y19.0939 
G01 X61.1637 Y19.2794 
G01 X61.1057 Y19.4580 
G01 X61.0204 Y19.6253 
G01 X60.9100 Y19.7773 
G01 X60.7773 Y19.9100 
G01 X60.6253 Y20.0204 
G01 X60.4580 Y20.1057 
G01 X60.2794 Y20.1637 
G01 X60.0939 Y20.1931 
G01 X50.1931 Y20.1931 
G01 X50.1931 Y22.4439 
G01 X50.1637 Y22.6294 
G01 X50.1057 Y22.8080 
G01 X50.0204 Y22.9753 
G01 X49.9100 Y23.1273 
G01 X49.7773 Y23.2600 
G01 X49.6253 Y23.3704 
G01 X49.4580 Y23.4557 
G01 X49.2794 Y23.5137 
G01 X49.0939 Y23.5431 
G01 X48.9060 Y23.5431 
G01 X47.7497 Y23.5431 
G01 X47.6703 Y23.6621 
G01 X47.5501 Y23.7823 
G01 X47.4087 Y23.8767 
G01 X47.2517 Y23.9417 
G01 X47.0850 Y23.9749 
G01 X46.9149 Y23.9749 
G01 X46.7482 Y23.9417 
G01 X46.5912 Y23.8767 
G01 X46.4498 Y23.7823 
G01 X46.3296 Y23.6621 
G01 X46.2352 Y23.5207 
G01 X46.2261 Y23.4985 
G01 X38.6830 Y23.0431 
G01 X38.6260 Y23.0431 
G01 X38.6233 Y23.0426 
G01 X27.2752 Y22.9834 
G01 X27.2427 Y22.9866 
G01 X27.1811 Y22.9829 
G01 X27.1198 Y22.9826 
G01 X27.0878 Y22.9773 
G01 X27.0551 Y22.9754 
G01 X26.9947 Y22.9621 
G01 X26.9344 Y22.9522 
G01 X26.9036 Y22.9420 
G01 X26.8717 Y22.9350 
G01 X26.8150 Y22.9127 
G01 X26.7561 Y22.8933 
G01 X26.7267 Y22.8781 
G01 X26.6968 Y22.8664 
G01 X26.6443 Y22.8356 
G01 X26.5893 Y22.8072 
G01 X26.5631 Y22.7879 
G01 X26.5349 Y22.7714 
G01 X26.4876 Y22.7324 
G01 X26.4379 Y22.6960 
G01 X26.4148 Y22.6726 
G01 X26.3898 Y22.6521 
G01 X26.3493 Y22.6064 
G01 X26.3058 Y22.5625 
G01 X26.2867 Y22.5359 
G01 X26.2652 Y22.5117 
G01 X26.2323 Y22.4602 
G01 X26.1962 Y22.4100 
G01 X26.1815 Y22.3807 
G01 X26.1640 Y22.3534 
G01 X26.1396 Y22.2974 
G01 X26.1118 Y22.2422 
G01 X26.1018 Y22.2108 
G01 X26.0889 Y22.1813 
G01 X26.0736 Y22.1225 
G01 X26.0547 Y22.0633 
G01 X26.0497 Y22.0308 
G01 X26.0416 Y21.9996 
G01 X26.0357 Y21.9389 
G01 X26.0263 Y21.8777 
G01 X26.0265 Y21.8449 
G01 X25.9178 Y20.7331 
G01 X21.9060 Y20.7331 
G01 X16.5060 Y20.7331 
G01 X16.3205 Y20.7037 
G01 X16.1419 Y20.6457 
G01 X15.9746 Y20.5604 
G01 X15.8226 Y20.4500 
G01 X15.6899 Y20.3173 
G01 X15.5795 Y20.1653 
G01 X15.4942 Y19.9980 
G01 X15.4362 Y19.8194 
G01 X15.4068 Y19.6339 
G01 X15.4068 Y19.4460 
G01 X15.4362 Y19.2605 
G01 X15.4942 Y19.0819 
G01 X15.5795 Y18.9146 
G01 X15.6899 Y18.7626 
G01 X15.8226 Y18.6299 
G01 X15.9746 Y18.5195 
G01 X16.1419 Y18.4342 
G01 X16.3205 Y18.3762 
G01 X16.5060 Y18.3468 
G01 X21.9060 Y18.3468 
G01 X26.9415 Y18.3468 
G01 X26.9772 Y18.3433 
G01 X27.0359 Y18.3468 
G01 X27.0939 Y18.3468 
G01 X27.1289 Y18.3524 
G01 X27.1648 Y18.3545 
G01 X27.2220 Y18.3671 
G01 X27.2794 Y18.3762 
G01 X27.3133 Y18.3872 
G01 X27.3482 Y18.3949 
G01 X27.4022 Y18.4161 
G01 X27.4580 Y18.4342 
G01 X27.4900 Y18.4505 
G01 X27.5231 Y18.4635 
G01 X27.5737 Y18.4932 
G01 X27.6253 Y18.5195 
G01 X27.6537 Y18.5402 
G01 X27.6850 Y18.5585 
G01 X27.7305 Y18.5959 
G01 X27.7773 Y18.6299 
G01 X27.8025 Y18.6552 
G01 X27.8301 Y18.6778 
G01 X27.8687 Y18.7214 
G01 X27.9100 Y18.7626 
G01 X27.9309 Y18.7914 
G01 X27.9547 Y18.8182 
G01 X27.9864 Y18.8679 
G01 X28.0204 Y18.9146 
G01 X28.0364 Y18.9461 
G01 X28.0559 Y18.9765 
G01 X28.0793 Y19.0302 
G01 X28.1057 Y19.0819 
G01 X28.1167 Y19.1160 
G01 X28.1310 Y19.1486 
G01 X28.1457 Y19.2051 
G01 X28.1637 Y19.2605 
G01 X28.1692 Y19.2956 
G01 X28.1783 Y19.3303 
G01 X28.1840 Y19.3886 
G01 X28.1931 Y19.4460 
G01 X28.1931 Y19.4817 
G01 X28.3027 Y20.6024 
G01 X37.5268 Y20.6506 
G01 X37.5268 Y17.7060 
G01 X37.5562 Y17.5205 
G01 X37.6142 Y17.3419 
G01 X37.6995 Y17.1746 
G01 X37.8099 Y17.0226 
G01 X37.9426 Y16.8899 
G01 X38.0946 Y16.7795 
G01 X38.2619 Y16.6942 
G01 X38.4405 Y16.6362 
G01 X38.6260 Y16.6068 
G01 X38.8139 Y16.6068 
G01 X38.9994 Y16.6362 
G01 X39.1780 Y16.6942 
G01 X39.3453 Y16.7795 
G01 X39.4973 Y16.8899 
G01 X39.6300 Y17.0226 
G01 X39.7404 Y17.1746 
G01 X39.8257 Y17.3419 
G01 X39.8837 Y17.5205 
G01 X39.9131 Y17.7060 
G01 X39.9131 Y20.7267 
G01 X46.2807 Y21.1112 
G01 X46.3296 Y21.0378 
G00 Z2.0000 
G00 X80.1370 Y26.4970 
G01 Z-0.2000 F600.00 
G01 X80.1370 Y25.0770 
G01 X77.2089 Y24.8974 
G01 X77.2089 Y25.0150 
G01 X77.1855 Y25.1326 
G01 X77.1396 Y25.2434 
G01 X77.0730 Y25.3432 
G01 X76.9882 Y25.4280 
G01 X76.8884 Y25.4946 
G01 X76.7776 Y25.5405 
G01 X76.6600 Y25.5639 
G01 X72.0999 Y25.5639 
G01 X71.9823 Y25.5405 
G01 X71.8715 Y25.4946 
G01 X71.7717 Y25.4280 
G01 X71.6996 Y25.3559 
G01 X71.0398 Y25.3559 
G01 X71.0027 Y25.3405 
G01 X70.9744 Y25.3122 
G01 X70.9590 Y25.2751 
G01 X70.9590 Y24.6348 
G01 X70.9744 Y24.5977 
G01 X71.0027 Y24.5694 
G01 X71.0398 Y24.5540 
G01 X71.6996 Y24.5540 
G01 X71.7717 Y24.4819 
G01 X71.8715 Y24.4153 
G01 X71.9823 Y24.3694 
G01 X72.0999 Y24.3460 
G01 X75.8386 Y24.3460 
G01 X75.8386 Y23.9346 
G01 X76.2846 Y23.4886 
G01 X76.9153 Y23.4886 
G01 X77.0971 Y23.6704 
G01 X81.0972 Y23.9158 
G01 X81.2131 Y23.9464 
G01 X81.3209 Y23.9990 
G01 X81.4164 Y24.0716 
G01 X81.4958 Y24.1614 
G01 X81.5148 Y24.1941 
G01 X81.5501 Y24.2176 
G01 X81.6703 Y24.3378 
G01 X81.7647 Y24.4792 
G01 X81.8297 Y24.6362 
G01 X81.8629 Y24.8029 
G01 X81.8629 Y26.4970 
G01 X81.8297 Y26.6637 
G01 X81.7647 Y26.8207 
G01 X81.6703 Y26.9621 
G01 X81.5501 Y27.0823 
G01 X81.4087 Y27.1767 
G01 X81.2517 Y27.2417 
G01 X81.0850 Y27.2749 
G01 X80.9149 Y27.2749 
G01 X80.7482 Y27.2417 
G01 X80.5912 Y27.1767 
G01 X80.4498 Y27.0823 
G01 X80.3296 Y26.9621 
G01 X80.2352 Y26.8207 
G01 X80.1702 Y26.6637 
G01 X80.1370 Y26.4970 
G00 Z2.0000 
G00 X80.1370 Y39.1970 
G01 Z-0.2000 F600.00 
G01 X80.1370 Y37.5029 
G01 X80.1702 Y37.3362 
G01 X80.2352 Y37.1792 
G01 X80.3296 Y37.0378 
G01 X80.4498 Y36.9176 
G01 X80.5912 Y36.8232 
G01 X80.7482 Y36.7582 
G01 X80.9149 Y36.7250 
G01 X81.0850 Y36.7250 
G01 X81.2517 Y36.7582 
G01 X81.4087 Y36.8232 
G01 X81.5501 Y36.9176 
G01 X81.6703 Y37.0378 
G01 X81.7647 Y37.1792 
G01 X81.8297 Y37.3362 
G01 X81.8629 Y37.5029 
G01 X81.8629 Y37.7129 
G01 X83.4797 Y37.6608 
G01 X83.4231 Y34.6884 
G01 X83.3006 Y34.6884 
G01 X82.3115 Y33.6993 
G01 X82.3115 Y33.6089 
G01 X44.9399 Y33.6089 
G01 X44.8223 Y33.5855 
G01 X44.7115 Y33.5396 
G01 X44.6117 Y33.4730 
G01 X44.5269 Y33.3882 
G01 X44.4603 Y33.2884 
G01 X44.4144 Y33.1776 
G01 X44.3910 Y33.0600 
G01 X44.3910 Y32.9399 
G01 X44.3910 Y32.6089 
G01 X35.9399 Y32.6089 
G01 X35.9158 Y32.6041 
G01 X35.4766 Y32.6041 
G01 X35.4395 Y32.5887 
G01 X35.4112 Y32.5604 
G01 X35.3958 Y32.5233 
G01 X35.3958 Y32.0841 
G01 X35.3910 Y32.0600 
G01 X35.3910 Y31.9399 
G01 X35.3958 Y31.9158 
G01 X35.3958 Y31.4766 
G01 X35.4112 Y31.4395 
G01 X35.4395 Y31.4112 
G01 X35.4766 Y31.3958 
G01 X35.9158 Y31.3958 
G01 X35.9399 Y31.3910 
G01 X44.9399 Y31.3910 
G01 X45.0600 Y31.3910 
G01 X45.1776 Y31.4144 
G01 X45.2884 Y31.4603 
G01 X45.3882 Y31.5269 
G01 X45.4730 Y31.6117 
G01 X45.5396 Y31.7115 
G01 X45.5855 Y31.8223 
G01 X45.6089 Y31.9399 
G01 X45.6089 Y32.3910 
G01 X82.3115 Y32.3910 
G01 X82.3115 Y32.3006 
G01 X83.3006 Y31.3115 
G01 X83.3910 Y31.3115 
G01 X83.3910 Y23.3589 
G01 X81.0600 Y23.3589 
G01 X80.9399 Y23.3589 
G01 X80.8223 Y23.3355 
G01 X80.7115 Y23.2896 
G01 X80.6117 Y23.2230 
G01 X80.5269 Y23.1382 
G01 X80.4603 Y23.0384 
G01 X80.4144 Y22.9276 
G01 X80.3910 Y22.8100 
G01 X80.3910 Y17.6089 
G01 X75.6089 Y17.6089 
G01 X75.6089 Y21.2050 
G01 X75.5855 Y21.3226 
G01 X75.5396 Y21.4334 
G01 X75.4730 Y21.5332 
G01 X75.3882 Y21.6180 
G01 X75.2884 Y21.6846 
G01 X75.1776 Y21.7305 
G01 X75.0600 Y21.7539 
G01 X74.9399 Y21.7539 
G01 X72.0999 Y21.7539 
G01 X71.9823 Y21.7305 
G01 X71.8715 Y21.6846 
G01 X71.7717 Y21.6180 
G01 X71.6996 Y21.5459 
G01 X71.0398 Y21.5459 
G01 X71.0027 Y21.5305 
G01 X70.9744 Y21.5022 
G01 X70.9590 Y21.4651 
G01 X70.9590 Y20.8248 
G01 X70.9744 Y20.7877 
G01 X71.0027 Y20.7594 
G01 X71.0398 Y20.7440 
G01 X71.6996 Y20.7440 
G01 X71.7717 Y20.6719 
G01 X71.8715 Y20.6053 
G01 X71.9823 Y20.5594 
G01 X72.0999 Y20.5360 
G01 X74.3910 Y20.5360 
G01 X74.3910 Y17.0600 
G01 X74.3910 Y16.9399 
G01 X74.4144 Y16.8223 
G01 X74.4603 Y16.7115 
G01 X74.5269 Y16.6117 
G01 X74.6117 Y16.5269 
G01 X74.7115 Y16.4603 
G01 X74.8223 Y16.4144 
G01 X74.9399 Y16.3910 
G01 X80.9399 Y16.3910 
G01 X81.0600 Y16.3910 
G01 X81.1776 Y16.4144 
G01 X81.2884 Y16.4603 
G01 X81.3882 Y16.5269 
G01 X81.4730 Y16.6117 
G01 X81.5396 Y16.7115 
G01 X81.5855 Y16.8223 
G01 X81.6089 Y16.9399 
G01 X81.6089 Y22.1410 
G01 X84.0600 Y22.1410 
G01 X84.1776 Y22.1644 
G01 X84.2884 Y22.2103 
G01 X84.3882 Y22.2769 
G01 X84.4730 Y22.3617 
G01 X84.5396 Y22.4615 
G01 X84.5855 Y22.5723 
G01 X84.6089 Y22.6899 
G01 X84.6089 Y22.8100 
G01 X84.6089 Y31.3115 
G01 X84.6993 Y31.3115 
G01 X85.6884 Y32.3006 
G01 X85.6884 Y33.6993 
G01 X84.6993 Y34.6884 
G01 X84.6411 Y34.6884 
G01 X84.7087 Y38.2352 
G01 X84.7105 Y38.2903 
G01 X84.7098 Y38.2943 
G01 X84.7099 Y38.2984 
G01 X84.6996 Y38.3558 
G01 X84.6909 Y38.4086 
G01 X84.6895 Y38.4121 
G01 X84.6888 Y38.4164 
G01 X84.6672 Y38.4714 
G01 X84.6486 Y38.5209 
G01 X84.6465 Y38.5242 
G01 X84.6450 Y38.5281 
G01 X84.6126 Y38.5785 
G01 X84.5852 Y38.6227 
G01 X84.5827 Y38.6253 
G01 X84.5803 Y38.6291 
G01 X84.5387 Y38.6722 
G01 X84.5032 Y38.7102 
G01 X84.5000 Y38.7124 
G01 X84.4971 Y38.7155 
G01 X84.4507 Y38.7477 
G01 X84.4057 Y38.7800 
G01 X84.4019 Y38.7817 
G01 X84.3986 Y38.7840 
G01 X84.3491 Y38.8056 
G01 X84.2964 Y38.8295 
G01 X84.2922 Y38.8304 
G01 X84.2887 Y38.8320 
G01 X84.2345 Y38.8438 
G01 X84.1796 Y38.8566 
G01 X84.1756 Y38.8567 
G01 X84.1716 Y38.8576 
G01 X84.1140 Y38.8587 
G01 X81.8629 Y38.9313 
G01 X81.8629 Y39.1970 
G01 X81.8297 Y39.3637 
G01 X81.7647 Y39.5207 
G01 X81.6703 Y39.6621 
G01 X81.5501 Y39.7823 
G01 X81.4087 Y39.8767 
G01 X81.2517 Y39.9417 
G01 X81.0850 Y39.9749 
G01 X80.9149 Y39.9749 
G01 X80.7482 Y39.9417 
G01 X80.5912 Y39.8767 
G01 X80.4498 Y39.7823 
G01 X80.3296 Y39.6621 
G01 X80.2352 Y39.5207 
G01 X80.1702 Y39.3637 
G01 X80.1370 Y39.1970 
G00 Z2.0000 
G00 X35.2213 Y28.6846 
G01 Z-0.2000 F600.00 
G01 X35.2213 Y29.3153 
G01 X34.7753 Y29.7613 
G01 X34.1446 Y29.7613 
G01 X33.6986 Y29.3153 
G01 X33.6986 Y28.6846 
G01 X34.1446 Y28.2386 
G01 X34.7753 Y28.2386 
G01 X35.2213 Y28.6846 
G00 Z2.0000 
G00 X40.3013 Y28.6846 
G01 Z-0.2000 F600.00 
G01 X40.3013 Y29.3153 
G01 X39.8553 Y29.7613 
G01 X39.2246 Y29.7613 
G01 X38.7786 Y29.3153 
G01 X38.7786 Y28.6846 
G01 X39.2246 Y28.2386 
G01 X39.8553 Y28.2386 
G01 X40.3013 Y28.6846 
G00 Z2.0000 
G00 X85.6884 Y18.8006 
G01 Z-0.2000 F600.00 
G01 X85.6884 Y20.1993 
G01 X84.6993 Y21.1884 
G01 X83.3006 Y21.1884 
G01 X82.3115 Y20.1993 
G01 X82.3115 Y18.8006 
G01 X83.3006 Y17.8115 
G01 X84.6993 Y17.8115 
G01 X85.6884 Y18.8006 
(File Footer)
G00 Z2.0000 
G00 Z10.0000 
M05
M02
