( This gcode generated by /home/mattvenn/.eagle/ulp/pcb-gcode.ulp )
( Copyright 2005 by John Johnson. See readme.txt for licensing terms. )

( This file generated from the board /home/mattvenn/eagle-circuit-designs/bike phone charger/797 test.brd )
( This file generated 20/02/2012 11:36 )

G21

G90
G00 Z10.0000 
G00 X0 Y0
M03
G04 P3.000000
G00 Z2.0000 
G00 X-26.6842 Y13.6973 
G01 Z-0.2000 F600.00 
G01 X-26.2373 Y14.1442 
G01 X-26.2373 Y14.7756 
G01 X-26.6842 Y15.2225 
G01 X-27.3156 Y15.2225 
G01 X-27.7625 Y14.7756 
G01 X-27.7625 Y14.1442 
G01 X-27.3156 Y13.6973 
G01 X-26.6842 Y13.6973 
G00 Z2.0000 
G00 X-27.7613 Y14.1446 
G01 Z-0.2000 F600.00 
G01 X-27.7613 Y14.7753 
G01 X-27.3153 Y15.2213 
G01 X-26.6846 Y15.2213 
G01 X-26.2386 Y14.7753 
G01 X-26.2386 Y14.1446 
G01 X-26.6846 Y13.6986 
G01 X-27.3153 Y13.6986 
G01 X-27.7613 Y14.1446 
G00 Z2.0000 
G00 X-16.2842 Y13.8373 
G01 Z-0.2000 F600.00 
G01 X-15.8373 Y14.2842 
G01 X-15.8373 Y14.9156 
G01 X-16.2842 Y15.3625 
G01 X-16.9156 Y15.3625 
G01 X-17.3625 Y14.9156 
G01 X-17.3625 Y14.2842 
G01 X-16.9156 Y13.8373 
G01 X-16.2842 Y13.8373 
G00 Z2.0000 
G00 X-17.3613 Y14.2846 
G01 Z-0.2000 F600.00 
G01 X-17.3613 Y14.9153 
G01 X-16.9153 Y15.3613 
G01 X-16.2846 Y15.3613 
G01 X-15.8386 Y14.9153 
G01 X-15.8386 Y14.2846 
G01 X-16.2846 Y13.8386 
G01 X-16.9153 Y13.8386 
G01 X-17.3613 Y14.2846 
G00 Z2.0000 
G00 X-76.4873 Y13.9342 
G01 Z-0.2000 F600.00 
G01 X-76.4873 Y14.5656 
G01 X-76.9342 Y15.0125 
G01 X-77.5656 Y15.0125 
G01 X-78.0125 Y14.5656 
G01 X-78.0125 Y13.9342 
G01 X-77.5656 Y13.4873 
G01 X-76.9342 Y13.4873 
G01 X-76.4873 Y13.9342 
G00 Z2.0000 
G00 X-78.0113 Y13.9346 
G01 Z-0.2000 F600.00 
G01 X-78.0113 Y14.5653 
G01 X-77.5653 Y15.0113 
G01 X-76.9346 Y15.0113 
G01 X-76.4886 Y14.5653 
G01 X-76.4886 Y13.9346 
G01 X-76.9346 Y13.4886 
G01 X-77.5653 Y13.4886 
G01 X-78.0113 Y13.9346 
G00 Z2.0000 
G00 X-8.4190 Y17.6294 
G01 Z-0.2000 F600.00 
G01 X-7.3994 Y18.6490 
G01 X-7.3994 Y18.7604 
G01 X-7.4515 Y18.7604 
G01 X-7.4515 Y18.6706 
G01 X-8.4406 Y17.6815 
G01 X-8.5304 Y17.6815 
G01 X-8.5304 Y17.6294 
G01 X-8.4190 Y17.6294 
G00 Z2.0000 
G00 X-10.2277 Y20.6699 
G01 Z-0.2000 F600.00 
G01 X-9.8393 Y21.0584 
G01 X-9.7493 Y21.0584 
G01 X-9.7493 Y21.1104 
G01 X-9.8607 Y21.1104 
G01 X-10.3013 Y20.6699 
G01 X-10.2277 Y20.6699 
G00 Z2.0000 
G00 X-42.7622 Y26.1943 
G01 Z-0.2000 F600.00 
G01 X-43.2376 Y26.1943 
G01 X-43.4287 Y26.1151 
G01 X-43.2794 Y26.1637 
G01 X-43.0939 Y26.1931 
G01 X-42.9060 Y26.1931 
G01 X-42.7205 Y26.1637 
G01 X-42.5707 Y26.1150 
G01 X-42.7622 Y26.1943 
G00 Z2.0000 
G00 X-43.6764 Y26.0126 
G01 Z-0.2000 F600.00 
G01 X-44.0126 Y25.6764 
G01 X-44.0917 Y25.4852 
G01 X-44.0204 Y25.6253 
G01 X-43.9100 Y25.7773 
G01 X-43.7773 Y25.9100 
G01 X-43.6253 Y26.0204 
G01 X-43.4853 Y26.0917 
G01 X-43.6764 Y26.0126 
G00 Z2.0000 
G00 X-44.1943 Y25.2376 
G01 Z-0.2000 F600.00 
G01 X-44.1943 Y19.7622 
G01 X-44.1150 Y19.5707 
G01 X-44.1637 Y19.7205 
G01 X-44.1931 Y19.9060 
G01 X-44.1931 Y25.0939 
G01 X-44.1637 Y25.2794 
G01 X-44.1151 Y25.4288 
G01 X-44.1943 Y25.2376 
G00 Z2.0000 
G00 X-44.0126 Y19.3234 
G01 Z-0.2000 F600.00 
G01 X-43.6764 Y18.9872 
G01 X-43.4841 Y18.9076 
G01 X-43.6253 Y18.9795 
G01 X-43.7773 Y19.0899 
G01 X-43.9100 Y19.2226 
G01 X-44.0204 Y19.3746 
G01 X-44.0920 Y19.5151 
G01 X-44.0126 Y19.3234 
G00 Z2.0000 
G00 X-43.2376 Y18.8055 
G01 Z-0.2000 F600.00 
G01 X-42.7622 Y18.8055 
G01 X-42.5695 Y18.8853 
G01 X-42.7205 Y18.8362 
G01 X-42.9060 Y18.8068 
G01 X-43.0939 Y18.8068 
G01 X-43.2794 Y18.8362 
G01 X-43.4299 Y18.8851 
G01 X-43.2376 Y18.8055 
G00 Z2.0000 
G00 X-42.3234 Y18.9872 
G01 Z-0.2000 F600.00 
G01 X-41.9872 Y19.3234 
G01 X-41.9074 Y19.5162 
G01 X-41.9795 Y19.3746 
G01 X-42.0899 Y19.2226 
G01 X-42.2226 Y19.0899 
G01 X-42.3746 Y18.9795 
G01 X-42.5162 Y18.9074 
G01 X-42.3234 Y18.9872 
G00 Z2.0000 
G00 X-41.8055 Y19.7622 
G01 Z-0.2000 F600.00 
G01 X-41.8055 Y25.2375 
G01 X-41.8851 Y25.4298 
G01 X-41.8362 Y25.2794 
G01 X-41.8068 Y25.0939 
G01 X-41.8068 Y19.9060 
G01 X-41.8362 Y19.7205 
G01 X-41.8853 Y19.5695 
G01 X-41.8055 Y19.7622 
G00 Z2.0000 
G00 X-41.9872 Y25.6764 
G01 Z-0.2000 F600.00 
G01 X-42.3234 Y26.0126 
G01 X-42.5150 Y26.0919 
G01 X-42.3746 Y26.0204 
G01 X-42.2226 Y25.9100 
G01 X-42.0899 Y25.7773 
G01 X-41.9795 Y25.6253 
G01 X-41.9077 Y25.4843 
G01 X-41.9872 Y25.6764 
G00 Z2.0000 
G00 X-9.7493 Y17.6294 
G01 Z-0.2000 F600.00 
G01 X-9.7493 Y17.6815 
G01 X-9.8393 Y17.6815 
G01 X-10.8284 Y18.6706 
G01 X-10.8284 Y18.6900 
G01 X-10.8804 Y18.6900 
G01 X-10.8804 Y18.6490 
G01 X-9.8607 Y17.6294 
G01 X-9.7493 Y17.6294 
G00 Z2.0000 
G00 X-7.3994 Y20.0907 
G01 Z-0.2000 F600.00 
G01 X-8.4191 Y21.1104 
G01 X-8.5304 Y21.1104 
G01 X-8.5304 Y21.0584 
G01 X-8.4406 Y21.0584 
G01 X-7.4515 Y20.0693 
G01 X-7.4515 Y19.9793 
G01 X-7.3994 Y19.9793 
G01 X-7.3994 Y20.0907 
G00 Z2.0000 
G00 X-52.6764 Y36.0126 
G01 Z-0.2000 F600.00 
G01 X-53.0126 Y35.6764 
G01 X-53.0915 Y35.4857 
G01 X-53.0204 Y35.6253 
G01 X-52.9100 Y35.7773 
G01 X-52.7773 Y35.9100 
G01 X-52.6253 Y36.0204 
G01 X-52.4858 Y36.0915 
G01 X-52.6764 Y36.0126 
G00 Z2.0000 
G00 X-29.9863 Y29.1780 
G01 Z-0.2000 F600.00 
G01 X-29.9670 Y34.5843 
G01 X-29.9677 Y34.5880 
G01 X-29.9668 Y34.6413 
G01 X-29.9666 Y34.7004 
G01 X-29.9657 Y34.7045 
G01 X-29.9657 Y34.7080 
G01 X-29.9655 Y34.7089 
G01 X-29.9655 Y34.9307 
G01 X-29.9657 Y34.9317 
G01 X-29.9655 Y34.9882 
G01 X-29.9655 Y35.0496 
G01 X-29.9653 Y35.0507 
G01 X-29.9646 Y35.2354 
G01 X-30.0348 Y35.4049 
G01 X-30.0354 Y35.4057 
G01 X-30.0437 Y35.4261 
G01 X-30.0266 Y35.3727 
G01 X-29.9962 Y35.2794 
G01 X-29.9959 Y35.2772 
G01 X-29.9952 Y35.2752 
G01 X-29.9818 Y35.1882 
G01 X-29.9668 Y35.0939 
G01 X-29.9668 Y35.0915 
G01 X-29.9665 Y35.0896 
G01 X-29.9668 Y35.0052 
G01 X-29.9668 Y34.9060 
G01 X-29.9672 Y34.9038 
G01 X-29.9871 Y29.3217 
G01 X-30.0172 Y29.1363 
G01 X-30.0669 Y28.9855 
G01 X-29.9863 Y29.1780 
G00 Z2.0000 
G00 X-30.5070 Y28.4049 
G01 Z-0.2000 F600.00 
G01 X-30.1698 Y28.7396 
G01 X-30.0892 Y28.9321 
G01 X-30.1617 Y28.7909 
G01 X-30.2726 Y28.6394 
G01 X-30.4059 Y28.5071 
G01 X-30.5582 Y28.3972 
G01 X-30.7004 Y28.3255 
G01 X-30.5070 Y28.4049 
G00 Z2.0000 
G00 X-31.4218 Y28.2263 
G01 Z-0.2000 F600.00 
G01 X-30.9465 Y28.2246 
G01 X-30.7530 Y28.3040 
G01 X-30.9047 Y28.2552 
G01 X-31.0903 Y28.2265 
G01 X-31.2782 Y28.2271 
G01 X-31.4636 Y28.2572 
G01 X-31.6138 Y28.3067 
G01 X-31.4218 Y28.2263 
G00 Z2.0000 
G00 X-32.1948 Y28.7468 
G01 Z-0.2000 F600.00 
G01 X-31.8602 Y28.4098 
G01 X-31.6683 Y28.3295 
G01 X-31.8090 Y28.4017 
G01 X-31.9605 Y28.5126 
G01 X-32.0928 Y28.6459 
G01 X-32.2027 Y28.7982 
G01 X-32.2731 Y28.9378 
G01 X-32.1948 Y28.7468 
G00 Z2.0000 
G00 X-50.8055 Y25.7622 
G01 Z-0.2000 F600.00 
G01 X-50.8055 Y33.2566 
G01 X-50.7821 Y33.3742 
G01 X-50.7362 Y33.4850 
G01 X-50.6696 Y33.5848 
G01 X-50.5848 Y33.6696 
G01 X-50.4850 Y33.7362 
G01 X-50.3742 Y33.7821 
G01 X-50.2566 Y33.8055 
G01 X-50.1365 Y33.8055 
G01 X-37.0061 Y33.8055 
G01 X-37.0060 Y33.8055 
G01 X-36.8884 Y33.7821 
G01 X-36.7776 Y33.7362 
G01 X-36.7385 Y33.7100 
G01 X-36.6779 Y33.6696 
G01 X-36.5931 Y33.5848 
G01 X-36.5265 Y33.4850 
G01 X-36.4806 Y33.3742 
G01 X-36.4572 Y33.2566 
G01 X-36.4572 Y33.1365 
G01 X-36.4572 Y33.1364 
G01 X-36.4806 Y33.0188 
G01 X-36.5265 Y32.9080 
G01 X-36.5527 Y32.8689 
G01 X-36.5931 Y32.8083 
G01 X-36.6779 Y32.7235 
G01 X-36.6783 Y32.7233 
G01 X-36.8403 Y32.5614 
G01 X-36.9911 Y32.1971 
G01 X-36.9911 Y28.8026 
G01 X-36.8403 Y28.4385 
G01 X-36.5613 Y28.1595 
G01 X-36.1972 Y28.0087 
G01 X-35.6215 Y28.0087 
G01 X-34.2627 Y28.0087 
G01 X-33.8985 Y28.1595 
G01 X-33.6195 Y28.4385 
G01 X-33.4687 Y28.8027 
G01 X-33.4687 Y28.8236 
G01 X-33.4685 Y28.8245 
G01 X-33.4685 Y28.8259 
G01 X-33.4567 Y28.8838 
G01 X-33.4453 Y28.9412 
G01 X-33.4448 Y28.9424 
G01 X-33.4446 Y28.9434 
G01 X-33.4225 Y28.9961 
G01 X-33.3994 Y29.0520 
G01 X-33.3988 Y29.0529 
G01 X-33.3983 Y29.0541 
G01 X-33.3681 Y29.0988 
G01 X-33.3328 Y29.1518 
G01 X-33.3317 Y29.1529 
G01 X-33.3313 Y29.1535 
G01 X-33.3031 Y29.1814 
G01 X-33.2480 Y29.2366 
G01 X-33.2468 Y29.2374 
G01 X-33.2462 Y29.2380 
G01 X-33.2006 Y29.2682 
G01 X-33.1482 Y29.3032 
G01 X-33.1473 Y29.3036 
G01 X-33.1462 Y29.3043 
G01 X-33.0840 Y29.3297 
G01 X-33.0374 Y29.3491 
G01 X-33.0364 Y29.3493 
G01 X-33.0352 Y29.3498 
G01 X-32.9760 Y29.3613 
G01 X-32.9198 Y29.3725 
G01 X-32.9185 Y29.3725 
G01 X-32.9175 Y29.3727 
G01 X-32.8578 Y29.3725 
G01 X-32.7997 Y29.3725 
G01 X-32.7988 Y29.3723 
G01 X-32.7974 Y29.3723 
G01 X-32.7395 Y29.3605 
G01 X-32.6821 Y29.3491 
G01 X-32.6809 Y29.3486 
G01 X-32.6799 Y29.3484 
G01 X-32.6272 Y29.3263 
G01 X-32.5713 Y29.3032 
G01 X-32.5704 Y29.3026 
G01 X-32.5692 Y29.3021 
G01 X-32.5245 Y29.2719 
G01 X-32.4715 Y29.2366 
G01 X-32.4704 Y29.2355 
G01 X-32.4698 Y29.2351 
G01 X-32.4419 Y29.2069 
G01 X-32.3867 Y29.1518 
G01 X-32.3859 Y29.1506 
G01 X-32.3853 Y29.1500 
G01 X-32.3551 Y29.1044 
G01 X-32.3201 Y29.0520 
G01 X-32.3197 Y29.0511 
G01 X-32.3190 Y29.0500 
G01 X-32.2969 Y28.9959 
G01 X-32.3447 Y29.1447 
G01 X-32.3734 Y29.3303 
G01 X-32.3574 Y33.8068 
G01 X-50.8068 Y33.8068 
G01 X-50.8068 Y25.9060 
G01 X-50.8362 Y25.7205 
G01 X-50.8852 Y25.5697 
G01 X-50.8055 Y25.7622 
G00 Z2.0000 
G00 X-34.3624 Y29.9899 
G01 Z-0.2000 F600.00 
G01 X-34.1712 Y29.9519 
G01 X-33.9910 Y29.8772 
G01 X-33.8289 Y29.7689 
G01 X-33.6910 Y29.6310 
G01 X-33.5827 Y29.4689 
G01 X-33.5080 Y29.2887 
G01 X-33.4700 Y29.0975 
G01 X-33.4700 Y28.9024 
G01 X-33.5080 Y28.7112 
G01 X-33.5827 Y28.5310 
G01 X-33.6910 Y28.3689 
G01 X-33.8289 Y28.2310 
G01 X-33.9910 Y28.1227 
G01 X-34.1712 Y28.0480 
G01 X-34.3624 Y28.0100 
G01 X-35.9024 Y28.0100 
G01 X-36.0975 Y28.0100 
G01 X-36.2887 Y28.0480 
G01 X-36.4689 Y28.1227 
G01 X-36.6310 Y28.2310 
G01 X-36.7689 Y28.3689 
G01 X-36.8772 Y28.5310 
G01 X-36.9519 Y28.7112 
G01 X-36.9899 Y28.9024 
G01 X-36.9899 Y32.0975 
G01 X-36.9519 Y32.2887 
G01 X-36.8772 Y32.4689 
G01 X-36.7689 Y32.6310 
G01 X-36.6310 Y32.7689 
G01 X-36.4689 Y32.8772 
G01 X-36.2887 Y32.9519 
G01 X-36.0975 Y32.9899 
G01 X-35.9024 Y32.9899 
G01 X-35.7112 Y32.9519 
G01 X-35.5310 Y32.8772 
G01 X-35.3689 Y32.7689 
G01 X-35.2310 Y32.6310 
G01 X-35.1227 Y32.4689 
G01 X-35.0480 Y32.2887 
G01 X-35.0100 Y32.0975 
G01 X-35.0100 Y29.9899 
G01 X-34.3624 Y29.9899 
G00 Z2.0000 
G00 X-30.0803 Y35.5146 
G01 Z-0.2000 F600.00 
G01 X-30.0805 Y35.5159 
G01 X-30.1457 Y35.6750 
G01 X-30.2756 Y35.8048 
G01 X-30.2769 Y35.8056 
G01 X-30.3287 Y35.8579 
G01 X-30.3598 Y35.8889 
G01 X-30.3603 Y35.8897 
G01 X-30.4814 Y36.0118 
G01 X-30.6457 Y36.0798 
G01 X-30.6468 Y36.0800 
G01 X-30.6719 Y36.0905 
G01 X-30.6108 Y36.0592 
G01 X-30.5346 Y36.0204 
G01 X-30.5332 Y36.0193 
G01 X-30.5309 Y36.0182 
G01 X-30.4452 Y35.9554 
G01 X-30.3826 Y35.9100 
G01 X-30.3813 Y35.9086 
G01 X-30.3794 Y35.9073 
G01 X-30.3131 Y35.8404 
G01 X-30.2499 Y35.7773 
G01 X-30.2487 Y35.7755 
G01 X-30.2471 Y35.7740 
G01 X-30.1852 Y35.6881 
G01 X-30.1395 Y35.6253 
G01 X-30.1388 Y35.6239 
G01 X-30.1372 Y35.6217 
G01 X-30.0937 Y35.5352 
G01 X-30.0678 Y35.4844 
G01 X-30.0803 Y35.5146 
G00 Z2.0000 
G00 X-30.7554 Y36.1252 
G01 Z-0.2000 F600.00 
G01 X-30.7563 Y36.1259 
G01 X-30.9199 Y36.1943 
G01 X-31.0942 Y36.1943 
G01 X-31.0952 Y36.1941 
G01 X-31.1513 Y36.1943 
G01 X-31.2131 Y36.1943 
G01 X-31.2142 Y36.1946 
G01 X-31.4489 Y36.1954 
G01 X-31.4526 Y36.1946 
G01 X-31.4538 Y36.1946 
G01 X-31.4552 Y36.1943 
G01 X-31.5124 Y36.1943 
G01 X-31.5726 Y36.1940 
G01 X-31.5741 Y36.1943 
G01 X-51.7012 Y36.1943 
G01 X-52.2375 Y36.1943 
G01 X-52.4282 Y36.1153 
G01 X-52.2794 Y36.1637 
G01 X-52.0939 Y36.1931 
G01 X-51.9060 Y36.1931 
G01 X-51.9058 Y36.1931 
G01 X-31.2515 Y36.1931 
G01 X-31.2496 Y36.1934 
G01 X-31.1553 Y36.1931 
G01 X-31.0660 Y36.1931 
G01 X-31.0642 Y36.1928 
G01 X-31.0617 Y36.1928 
G01 X-30.9627 Y36.1767 
G01 X-30.8805 Y36.1637 
G01 X-30.8786 Y36.1630 
G01 X-30.8763 Y36.1627 
G01 X-30.7912 Y36.1346 
G01 X-30.7302 Y36.1148 
G01 X-30.7554 Y36.1252 
G00 Z2.0000 
G00 X-51.3234 Y24.9872 
G01 Z-0.2000 F600.00 
G01 X-50.9872 Y25.3234 
G01 X-50.9075 Y25.5160 
G01 X-50.9795 Y25.3746 
G01 X-51.0899 Y25.2226 
G01 X-51.2226 Y25.0899 
G01 X-51.3746 Y24.9795 
G01 X-51.5159 Y24.9075 
G01 X-51.3234 Y24.9872 
G00 Z2.0000 
G00 X-52.2376 Y24.8055 
G01 Z-0.2000 F600.00 
G01 X-51.7622 Y24.8055 
G01 X-51.5698 Y24.8852 
G01 X-51.7205 Y24.8362 
G01 X-51.9060 Y24.8068 
G01 X-52.0939 Y24.8068 
G01 X-52.2794 Y24.8362 
G01 X-52.4297 Y24.8850 
G01 X-52.2376 Y24.8055 
G00 Z2.0000 
G00 X-53.0126 Y25.3234 
G01 Z-0.2000 F600.00 
G01 X-52.6764 Y24.9872 
G01 X-52.4844 Y24.9077 
G01 X-52.6253 Y24.9795 
G01 X-52.7773 Y25.0899 
G01 X-52.9100 Y25.2226 
G01 X-53.0204 Y25.3746 
G01 X-53.0919 Y25.5149 
G01 X-53.0126 Y25.3234 
G00 Z2.0000 
G00 X-54.3841 Y25.6373 
G01 Z-0.2000 F600.00 
G01 X-54.1930 Y25.8284 
G01 X-54.1930 Y25.8285 
G01 X-54.1160 Y25.9054 
G01 X-54.1083 Y25.9132 
G01 X-54.1082 Y25.9133 
G01 X-54.0765 Y25.9344 
G01 X-54.0086 Y25.9799 
G01 X-53.8978 Y26.0258 
G01 X-53.7801 Y26.0492 
G01 X-53.6601 Y26.0492 
G01 X-53.6600 Y26.0492 
G01 X-53.5424 Y26.0258 
G01 X-53.4348 Y25.9812 
G01 X-53.4316 Y25.9799 
G01 X-53.3319 Y25.9133 
G01 X-53.2471 Y25.8285 
G01 X-53.2470 Y25.8284 
G01 X-53.2259 Y25.7967 
G01 X-53.1804 Y25.7288 
G01 X-53.1345 Y25.6180 
G01 X-53.1345 Y25.6177 
G01 X-53.1151 Y25.5709 
G01 X-53.1637 Y25.7205 
G01 X-53.1931 Y25.9060 
G01 X-53.1931 Y35.0939 
G01 X-53.1637 Y35.2794 
G01 X-53.1153 Y35.4283 
G01 X-53.1943 Y35.2376 
G01 X-53.1943 Y27.3827 
G01 X-53.1943 Y27.3826 
G01 X-53.2177 Y27.2650 
G01 X-53.2636 Y27.1542 
G01 X-53.2898 Y27.1151 
G01 X-53.3302 Y27.0545 
G01 X-53.4150 Y26.9697 
G01 X-53.5148 Y26.9031 
G01 X-53.6256 Y26.8572 
G01 X-53.7432 Y26.8338 
G01 X-53.8633 Y26.8338 
G01 X-53.8634 Y26.8338 
G01 X-53.9810 Y26.8572 
G01 X-54.0918 Y26.9031 
G01 X-54.1309 Y26.9293 
G01 X-54.1915 Y26.9697 
G01 X-54.2763 Y27.0545 
G01 X-54.2765 Y27.0549 
G01 X-54.3841 Y27.1625 
G01 X-55.0156 Y27.1625 
G01 X-55.4625 Y26.7156 
G01 X-55.4625 Y26.0841 
G01 X-55.0156 Y25.6373 
G01 X-54.3841 Y25.6373 
G00 Z2.0000 
G00 X-55.4613 Y26.0846 
G01 Z-0.2000 F600.00 
G01 X-55.4613 Y26.7153 
G01 X-55.0153 Y27.1613 
G01 X-54.3846 Y27.1613 
G01 X-53.9386 Y26.7153 
G01 X-53.9386 Y26.0846 
G01 X-54.3846 Y25.6386 
G01 X-55.0153 Y25.6386 
G01 X-55.4613 Y26.0846 
G00 Z2.0000 
G00 X-76.2842 Y28.5673 
G01 Z-0.2000 F600.00 
G01 X-75.8373 Y29.0142 
G01 X-75.8373 Y29.6456 
G01 X-76.2842 Y30.0925 
G01 X-76.9156 Y30.0925 
G01 X-77.3625 Y29.6456 
G01 X-77.3625 Y29.0142 
G01 X-76.9156 Y28.5673 
G01 X-76.2842 Y28.5673 
G00 Z2.0000 
G00 X-77.3613 Y29.0146 
G01 Z-0.2000 F600.00 
G01 X-77.3613 Y29.6453 
G01 X-76.9153 Y30.0913 
G01 X-76.2846 Y30.0913 
G01 X-75.8386 Y29.6453 
G01 X-75.8386 Y29.0146 
G01 X-76.2846 Y28.5686 
G01 X-76.9153 Y28.5686 
G01 X-77.3613 Y29.0146 
G00 Z2.0000 
G00 X-46.0849 Y23.1841 
G01 Z-0.2000 F600.00 
G01 X-46.1074 Y23.3262 
G01 X-46.1520 Y23.4634 
G01 X-46.2171 Y23.5913 
G01 X-46.3017 Y23.7077 
G01 X-46.3904 Y23.7965 
G01 X-46.3904 Y23.7229 
G01 X-46.3296 Y23.6621 
G01 X-46.2352 Y23.5207 
G01 X-46.1702 Y23.3637 
G01 X-46.1370 Y23.1970 
G01 X-46.1370 Y22.9593 
G01 X-46.0849 Y22.9593 
G01 X-46.0849 Y23.1841 
G00 Z2.0000 
G00 X-46.3017 Y20.9920 
G01 Z-0.2000 F600.00 
G01 X-46.2171 Y21.1085 
G01 X-46.1519 Y21.2364 
G01 X-46.1074 Y21.3734 
G01 X-46.0849 Y21.5157 
G01 X-46.0849 Y21.7404 
G01 X-46.1370 Y21.7404 
G01 X-46.1370 Y21.5029 
G01 X-46.1702 Y21.3362 
G01 X-46.2352 Y21.1792 
G01 X-46.3296 Y21.0378 
G01 X-46.3904 Y20.9770 
G01 X-46.3904 Y20.9033 
G01 X-46.3017 Y20.9920 
G00 Z2.0000 
G00 X-21.6842 Y13.6973 
G01 Z-0.2000 F600.00 
G01 X-21.2373 Y14.1442 
G01 X-21.2373 Y14.7756 
G01 X-21.6842 Y15.2225 
G01 X-22.3156 Y15.2225 
G01 X-22.7625 Y14.7756 
G01 X-22.7625 Y14.1442 
G01 X-22.3156 Y13.6973 
G01 X-21.6842 Y13.6973 
G00 Z2.0000 
G00 X-22.7613 Y14.1446 
G01 Z-0.2000 F600.00 
G01 X-22.7613 Y14.7753 
G01 X-22.3153 Y15.2213 
G01 X-21.6846 Y15.2213 
G01 X-21.2386 Y14.7753 
G01 X-21.2386 Y14.1446 
G01 X-21.6846 Y13.6986 
G01 X-22.3153 Y13.6986 
G01 X-22.7613 Y14.1446 
G00 Z2.0000 
G00 X-47.9149 Y21.5157 
G01 Z-0.2000 F600.00 
G01 X-47.8924 Y21.3736 
G01 X-47.8478 Y21.2364 
G01 X-47.7827 Y21.1085 
G01 X-47.6981 Y20.9920 
G01 X-47.6093 Y20.9032 
G01 X-47.6093 Y20.9768 
G01 X-47.6703 Y21.0378 
G01 X-47.7647 Y21.1792 
G01 X-47.8297 Y21.3362 
G01 X-47.8629 Y21.5029 
G01 X-47.8629 Y21.7404 
G01 X-47.9149 Y21.7404 
G01 X-47.9149 Y21.5157 
G00 Z2.0000 
G00 X-47.8478 Y23.4634 
G01 Z-0.2000 F600.00 
G01 X-47.8924 Y23.3262 
G01 X-47.9149 Y23.1841 
G01 X-47.9149 Y22.9593 
G01 X-47.8629 Y22.9593 
G01 X-47.8629 Y23.1970 
G01 X-47.8297 Y23.3637 
G01 X-47.7647 Y23.5207 
G01 X-47.6703 Y23.6621 
G01 X-47.6093 Y23.7231 
G01 X-47.6093 Y23.7966 
G01 X-47.6981 Y23.7077 
G01 X-47.7827 Y23.5913 
G01 X-47.8478 Y23.4634 
G00 Z2.0000 
G00 X-83.3001 Y31.3102 
G01 Z-0.2000 F600.00 
G01 X-82.3102 Y32.3001 
G01 X-82.3102 Y33.6997 
G01 X-83.3001 Y34.6896 
G01 X-84.6997 Y34.6896 
G01 X-85.6896 Y33.6997 
G01 X-85.6896 Y32.3001 
G01 X-84.6997 Y31.3102 
G01 X-83.3001 Y31.3102 
G00 Z2.0000 
G00 X-85.6884 Y32.3006 
G01 Z-0.2000 F600.00 
G01 X-85.6884 Y33.6993 
G01 X-84.6993 Y34.6884 
G01 X-83.3006 Y34.6884 
G01 X-82.3115 Y33.6993 
G01 X-82.3115 Y32.3006 
G01 X-83.3006 Y31.3115 
G01 X-84.6993 Y31.3115 
G01 X-85.6884 Y32.3006 
G00 Z2.0000 
G00 X-36.1055 Y19.3075 
G01 Z-0.2000 F600.00 
G01 X-36.1055 Y19.3068 
G01 X-36.1053 Y19.3059 
G01 X-36.1053 Y19.2478 
G01 X-36.1051 Y19.1875 
G01 X-36.1053 Y19.1865 
G01 X-36.1053 Y18.9765 
G01 X-36.0897 Y18.9389 
G01 X-36.0609 Y18.9101 
G01 X-36.0233 Y18.8945 
G01 X-35.8133 Y18.8945 
G01 X-35.8123 Y18.8947 
G01 X-35.7526 Y18.8945 
G01 X-35.6939 Y18.8945 
G01 X-35.6929 Y18.8943 
G01 X-35.6923 Y18.8943 
G01 X-35.6695 Y18.8897 
G01 X-35.3303 Y18.8897 
G01 X-35.3075 Y18.8943 
G01 X-35.3068 Y18.8943 
G01 X-35.3059 Y18.8945 
G01 X-35.2478 Y18.8945 
G01 X-35.1875 Y18.8947 
G01 X-35.1865 Y18.8945 
G01 X-34.9765 Y18.8945 
G01 X-34.9389 Y18.9100 
G01 X-34.9100 Y18.9389 
G01 X-34.8945 Y18.9765 
G01 X-34.8945 Y19.1865 
G01 X-34.8947 Y19.1875 
G01 X-34.8945 Y19.2472 
G01 X-34.8945 Y19.3059 
G01 X-34.8943 Y19.3069 
G01 X-34.8943 Y19.3075 
G01 X-34.8897 Y19.3303 
G01 X-34.8897 Y24.4195 
G01 X-34.8943 Y24.4423 
G01 X-34.8943 Y24.4430 
G01 X-34.8945 Y24.4439 
G01 X-34.8945 Y24.5020 
G01 X-34.8947 Y24.5623 
G01 X-34.8945 Y24.5633 
G01 X-34.8945 Y24.7733 
G01 X-34.9100 Y24.8109 
G01 X-34.9389 Y24.8398 
G01 X-34.9765 Y24.8553 
G01 X-35.1865 Y24.8553 
G01 X-35.1875 Y24.8551 
G01 X-35.2472 Y24.8553 
G01 X-35.3059 Y24.8553 
G01 X-35.3069 Y24.8555 
G01 X-35.3075 Y24.8555 
G01 X-35.3303 Y24.8601 
G01 X-35.6695 Y24.8601 
G01 X-35.6923 Y24.8555 
G01 X-35.6930 Y24.8555 
G01 X-35.6939 Y24.8553 
G01 X-35.7520 Y24.8553 
G01 X-35.8123 Y24.8551 
G01 X-35.8133 Y24.8553 
G01 X-36.0233 Y24.8553 
G01 X-36.0609 Y24.8398 
G01 X-36.0898 Y24.8109 
G01 X-36.1053 Y24.7734 
G01 X-36.1053 Y24.5633 
G01 X-36.1051 Y24.5623 
G01 X-36.1053 Y24.5026 
G01 X-36.1053 Y24.4439 
G01 X-36.1055 Y24.4429 
G01 X-36.1055 Y24.4423 
G01 X-36.1101 Y24.4195 
G01 X-36.1101 Y19.3303 
G01 X-36.1055 Y19.3075 
G00 Z2.0000 
G00 X-36.1041 Y24.7733 
G01 Z-0.2000 F600.00 
G01 X-36.0887 Y24.8104 
G01 X-36.0604 Y24.8387 
G01 X-36.0233 Y24.8541 
G01 X-35.5841 Y24.8541 
G01 X-35.5600 Y24.8589 
G01 X-35.4399 Y24.8589 
G01 X-35.4158 Y24.8541 
G01 X-34.9766 Y24.8541 
G01 X-34.9395 Y24.8387 
G01 X-34.9112 Y24.8104 
G01 X-34.8958 Y24.7733 
G01 X-34.8958 Y24.3341 
G01 X-34.8910 Y24.3100 
G01 X-34.8910 Y19.4399 
G01 X-34.8958 Y19.4158 
G01 X-34.8958 Y18.9766 
G01 X-34.9112 Y18.9395 
G01 X-34.9395 Y18.9112 
G01 X-34.9766 Y18.8958 
G01 X-35.4158 Y18.8958 
G01 X-35.4399 Y18.8910 
G01 X-35.5600 Y18.8910 
G01 X-35.5841 Y18.8958 
G01 X-36.0233 Y18.8958 
G01 X-36.0604 Y18.9112 
G01 X-36.0887 Y18.9395 
G01 X-36.1041 Y18.9766 
G01 X-36.1041 Y19.4158 
G01 X-36.1089 Y19.4399 
G01 X-36.1089 Y24.3100 
G01 X-36.1041 Y24.3341 
G01 X-36.1041 Y24.7733 
G00 Z2.0000 
G00 X-46.5105 Y11.1446 
G01 Z-0.2000 F600.00 
G01 X-46.8281 Y11.2761 
G01 X-47.1717 Y11.2761 
G01 X-47.4893 Y11.1446 
G01 X-47.7326 Y10.9013 
G01 X-47.8641 Y10.5837 
G01 X-47.8641 Y8.7161 
G01 X-47.7326 Y8.3985 
G01 X-47.4893 Y8.1552 
G01 X-47.1717 Y8.0237 
G01 X-46.8281 Y8.0237 
G01 X-46.5105 Y8.1552 
G01 X-46.2672 Y8.3985 
G01 X-46.1357 Y8.7161 
G01 X-46.1357 Y10.5837 
G01 X-46.2672 Y10.9013 
G01 X-46.5105 Y11.1446 
G00 Z2.0000 
G00 X-46.1370 Y10.4970 
G01 Z-0.2000 F600.00 
G01 X-46.1370 Y8.8029 
G01 X-46.1702 Y8.6362 
G01 X-46.2352 Y8.4792 
G01 X-46.3296 Y8.3378 
G01 X-46.4498 Y8.2176 
G01 X-46.5912 Y8.1232 
G01 X-46.7482 Y8.0582 
G01 X-46.9149 Y8.0250 
G01 X-47.0850 Y8.0250 
G01 X-47.2517 Y8.0582 
G01 X-47.4087 Y8.1232 
G01 X-47.5501 Y8.2176 
G01 X-47.6703 Y8.3378 
G01 X-47.7647 Y8.4792 
G01 X-47.8297 Y8.6362 
G01 X-47.8629 Y8.8029 
G01 X-47.8629 Y10.4970 
G01 X-47.8297 Y10.6637 
G01 X-47.7647 Y10.8207 
G01 X-47.6703 Y10.9621 
G01 X-47.5501 Y11.0823 
G01 X-47.4087 Y11.1767 
G01 X-47.2517 Y11.2417 
G01 X-47.0850 Y11.2749 
G01 X-46.9149 Y11.2749 
G01 X-46.7482 Y11.2417 
G01 X-46.5912 Y11.1767 
G01 X-46.4498 Y11.0823 
G01 X-46.3296 Y10.9621 
G01 X-46.2352 Y10.8207 
G01 X-46.1702 Y10.6637 
G01 X-46.1370 Y10.4970 
G00 Z2.0000 
G00 X-76.2841 Y23.4873 
G01 Z-0.2000 F600.00 
G01 X-75.8373 Y23.9342 
G01 X-75.8373 Y24.5656 
G01 X-76.2842 Y25.0125 
G01 X-76.9156 Y25.0125 
G01 X-77.3625 Y24.5656 
G01 X-77.3625 Y23.9341 
G01 X-76.9156 Y23.4873 
G01 X-76.2841 Y23.4873 
G00 Z2.0000 
G00 X-77.3613 Y23.9346 
G01 Z-0.2000 F600.00 
G01 X-77.3613 Y24.5653 
G01 X-76.9153 Y25.0113 
G01 X-76.2846 Y25.0113 
G01 X-75.8386 Y24.5653 
G01 X-75.8386 Y23.9346 
G01 X-76.2846 Y23.4886 
G01 X-76.9153 Y23.4886 
G01 X-77.3613 Y23.9346 
G00 Z2.0000 
G00 X-8.7901 Y7.6802 
G01 Z-0.2000 F600.00 
G01 X-7.8002 Y8.6701 
G01 X-7.8002 Y10.0697 
G01 X-8.7901 Y11.0596 
G01 X-10.1897 Y11.0596 
G01 X-11.1796 Y10.0697 
G01 X-11.1796 Y8.6701 
G01 X-10.1897 Y7.6802 
G01 X-8.7901 Y7.6802 
G00 Z2.0000 
G00 X-11.1784 Y8.6706 
G01 Z-0.2000 F600.00 
G01 X-11.1784 Y10.0693 
G01 X-10.1893 Y11.0584 
G01 X-8.7906 Y11.0584 
G01 X-7.8015 Y10.0693 
G01 X-7.8015 Y8.6706 
G01 X-8.7906 Y7.6815 
G01 X-10.1893 Y7.6815 
G01 X-11.1784 Y8.6706 
G00 Z2.0000 
G00 X-80.5105 Y27.1446 
G01 Z-0.2000 F600.00 
G01 X-80.8281 Y27.2761 
G01 X-81.1717 Y27.2761 
G01 X-81.4893 Y27.1446 
G01 X-81.7326 Y26.9013 
G01 X-81.8641 Y26.5837 
G01 X-81.8641 Y24.7161 
G01 X-81.7326 Y24.3985 
G01 X-81.4893 Y24.1552 
G01 X-81.1717 Y24.0237 
G01 X-80.8281 Y24.0237 
G01 X-80.5105 Y24.1552 
G01 X-80.2672 Y24.3985 
G01 X-80.1357 Y24.7161 
G01 X-80.1357 Y26.5837 
G01 X-80.2673 Y26.9013 
G01 X-80.5105 Y27.1446 
G00 Z2.0000 
G00 X-80.1370 Y26.4970 
G01 Z-0.2000 F600.00 
G01 X-80.1370 Y24.8029 
G01 X-80.1702 Y24.6362 
G01 X-80.2352 Y24.4792 
G01 X-80.3296 Y24.3378 
G01 X-80.4498 Y24.2176 
G01 X-80.5912 Y24.1232 
G01 X-80.7482 Y24.0582 
G01 X-80.9149 Y24.0250 
G01 X-81.0850 Y24.0250 
G01 X-81.2517 Y24.0582 
G01 X-81.4087 Y24.1232 
G01 X-81.5501 Y24.2176 
G01 X-81.6703 Y24.3378 
G01 X-81.7647 Y24.4792 
G01 X-81.8297 Y24.6362 
G01 X-81.8629 Y24.8029 
G01 X-81.8629 Y26.4970 
G01 X-81.8297 Y26.6637 
G01 X-81.7647 Y26.8207 
G01 X-81.6703 Y26.9621 
G01 X-81.5501 Y27.0823 
G01 X-81.4087 Y27.1767 
G01 X-81.2517 Y27.2417 
G01 X-81.0850 Y27.2749 
G01 X-80.9149 Y27.2749 
G01 X-80.7482 Y27.2417 
G01 X-80.5912 Y27.1767 
G01 X-80.4498 Y27.0823 
G01 X-80.3296 Y26.9621 
G01 X-80.2352 Y26.8207 
G01 X-80.1702 Y26.6637 
G01 X-80.1370 Y26.4970 
G00 Z2.0000 
G00 X-59.9060 Y20.1931 
G01 Z-0.2000 F600.00 
G01 X-59.7205 Y20.1637 
G01 X-59.5419 Y20.1057 
G01 X-59.3746 Y20.0204 
G01 X-59.2226 Y19.9100 
G01 X-59.0899 Y19.7773 
G01 X-58.9795 Y19.6253 
G01 X-58.8942 Y19.4580 
G01 X-58.8362 Y19.2794 
G01 X-58.8068 Y19.0939 
G01 X-58.8068 Y18.9060 
G01 X-58.8362 Y18.7205 
G01 X-58.8942 Y18.5419 
G01 X-58.9795 Y18.3746 
G01 X-59.0899 Y18.2226 
G01 X-59.2226 Y18.0899 
G01 X-59.3746 Y17.9795 
G01 X-59.5419 Y17.8942 
G01 X-59.7205 Y17.8362 
G01 X-59.9060 Y17.8068 
G01 X-77.3439 Y17.8068 
G01 X-77.5294 Y17.8362 
G01 X-77.7080 Y17.8942 
G01 X-77.8753 Y17.9795 
G01 X-78.0273 Y18.0899 
G01 X-78.1600 Y18.2226 
G01 X-78.2211 Y18.3068 
G01 X-82.8053 Y18.3068 
G01 X-83.3006 Y17.8115 
G01 X-84.6993 Y17.8115 
G01 X-85.6884 Y18.8006 
G01 X-85.6884 Y20.1993 
G01 X-84.6993 Y21.1884 
G01 X-83.3006 Y21.1884 
G01 X-82.8053 Y20.6931 
G01 X-77.1560 Y20.6931 
G01 X-76.9705 Y20.6637 
G01 X-76.7919 Y20.6057 
G01 X-76.6246 Y20.5204 
G01 X-76.4726 Y20.4100 
G01 X-76.3399 Y20.2773 
G01 X-76.2788 Y20.1931 
G01 X-59.9060 Y20.1931 
G00 Z2.0000 
G00 X-85.4784 Y13.4206 
G01 Z-0.2000 F600.00 
G01 X-85.4784 Y14.8193 
G01 X-84.4893 Y15.8084 
G01 X-83.0906 Y15.8084 
G01 X-82.1015 Y14.8193 
G01 X-82.1015 Y13.4206 
G01 X-83.0906 Y12.4315 
G01 X-84.4893 Y12.4315 
G01 X-85.4784 Y13.4206 
G00 Z2.0000 
G00 X-80.1370 Y39.1970 
G01 Z-0.2000 F600.00 
G01 X-80.1370 Y37.5029 
G01 X-80.1702 Y37.3362 
G01 X-80.2352 Y37.1792 
G01 X-80.3296 Y37.0378 
G01 X-80.4498 Y36.9176 
G01 X-80.5912 Y36.8232 
G01 X-80.7482 Y36.7582 
G01 X-80.9149 Y36.7250 
G01 X-81.0850 Y36.7250 
G01 X-81.2517 Y36.7582 
G01 X-81.4087 Y36.8232 
G01 X-81.5501 Y36.9176 
G01 X-81.6703 Y37.0378 
G01 X-81.7647 Y37.1792 
G01 X-81.8297 Y37.3362 
G01 X-81.8629 Y37.5029 
G01 X-81.8629 Y39.1970 
G01 X-81.8297 Y39.3637 
G01 X-81.7647 Y39.5207 
G01 X-81.6703 Y39.6621 
G01 X-81.5501 Y39.7823 
G01 X-81.4087 Y39.8767 
G01 X-81.2517 Y39.9417 
G01 X-81.0850 Y39.9749 
G01 X-80.9149 Y39.9749 
G01 X-80.7482 Y39.9417 
G01 X-80.5912 Y39.8767 
G01 X-80.4498 Y39.7823 
G01 X-80.3296 Y39.6621 
G01 X-80.2352 Y39.5207 
G01 X-80.1702 Y39.3637 
G01 X-80.1370 Y39.1970 
G00 Z2.0000 
G00 X-87.0849 Y39.5360 
G01 Z-0.2000 F600.00 
G01 X-87.0615 Y39.6536 
G01 X-87.0156 Y39.7644 
G01 X-86.9490 Y39.8642 
G01 X-86.8642 Y39.9490 
G01 X-86.7644 Y40.0156 
G01 X-86.6536 Y40.0615 
G01 X-86.5360 Y40.0849 
G01 X-86.4159 Y40.0849 
G01 X-82.5034 Y40.0849 
G01 X-82.5029 Y40.0850 
G01 X-82.4436 Y40.0849 
G01 X-82.3835 Y40.0849 
G01 X-82.3830 Y40.0848 
G01 X-82.3829 Y40.0848 
G01 X-82.3615 Y40.0805 
G01 X-82.2659 Y40.0615 
G01 X-82.2656 Y40.0613 
G01 X-82.2653 Y40.0613 
G01 X-82.2129 Y40.0395 
G01 X-82.1551 Y40.0156 
G01 X-82.1549 Y40.0154 
G01 X-82.1545 Y40.0153 
G01 X-82.1175 Y39.9905 
G01 X-82.0553 Y39.9490 
G01 X-81.9705 Y39.8642 
G01 X-81.9039 Y39.7644 
G01 X-81.9038 Y39.7640 
G01 X-81.9036 Y39.7638 
G01 X-81.8806 Y39.7081 
G01 X-81.8580 Y39.6536 
G01 X-81.8580 Y39.6533 
G01 X-81.8578 Y39.6530 
G01 X-81.8424 Y39.5749 
G01 X-81.8346 Y39.5360 
G01 X-81.8346 Y39.5358 
G01 X-81.8345 Y39.5353 
G01 X-81.8346 Y39.4760 
G01 X-81.8346 Y39.4159 
G01 X-81.8347 Y39.4154 
G01 X-81.8347 Y39.4153 
G01 X-81.8390 Y39.3939 
G01 X-81.8580 Y39.2983 
G01 X-81.8582 Y39.2980 
G01 X-81.8582 Y39.2977 
G01 X-81.8641 Y39.2835 
G01 X-81.8641 Y37.4161 
G01 X-81.7325 Y37.0985 
G01 X-81.4893 Y36.8553 
G01 X-81.1717 Y36.7237 
G01 X-80.8281 Y36.7237 
G01 X-80.5105 Y36.8553 
G01 X-80.2673 Y37.0985 
G01 X-80.1357 Y37.4161 
G01 X-80.1357 Y39.2835 
G01 X-80.1416 Y39.2977 
G01 X-80.1416 Y39.2980 
G01 X-80.1418 Y39.2983 
G01 X-80.1603 Y39.3912 
G01 X-80.1651 Y39.4153 
G01 X-80.1651 Y39.4155 
G01 X-80.1652 Y39.4159 
G01 X-80.1652 Y39.4746 
G01 X-80.1653 Y39.5353 
G01 X-80.1652 Y39.5358 
G01 X-80.1652 Y39.5360 
G01 X-80.1579 Y39.5727 
G01 X-80.1420 Y39.6530 
G01 X-80.1418 Y39.6533 
G01 X-80.1418 Y39.6536 
G01 X-80.1203 Y39.7054 
G01 X-80.0962 Y39.7638 
G01 X-80.0960 Y39.7640 
G01 X-80.0959 Y39.7644 
G01 X-80.0303 Y39.8626 
G01 X-80.0297 Y39.8636 
G01 X-80.0293 Y39.8642 
G01 X-79.9456 Y39.9478 
G01 X-79.9450 Y39.9485 
G01 X-79.9445 Y39.9490 
G01 X-79.8833 Y39.9898 
G01 X-79.8453 Y40.0153 
G01 X-79.8449 Y40.0154 
G01 X-79.8447 Y40.0156 
G01 X-79.7896 Y40.0384 
G01 X-79.7345 Y40.0613 
G01 X-79.7342 Y40.0613 
G01 X-79.7339 Y40.0615 
G01 X-79.6410 Y40.0800 
G01 X-79.6169 Y40.0848 
G01 X-79.6167 Y40.0848 
G01 X-79.6163 Y40.0849 
G01 X-79.5576 Y40.0849 
G01 X-79.4969 Y40.0850 
G01 X-79.4964 Y40.0849 
G01 X-4.9399 Y40.0849 
G01 X-4.8223 Y40.0615 
G01 X-4.7115 Y40.0156 
G01 X-4.6117 Y39.9490 
G01 X-4.5269 Y39.8642 
G01 X-4.4603 Y39.7644 
G01 X-4.4144 Y39.6536 
G01 X-4.3910 Y39.5360 
G01 X-4.3910 Y39.4159 
G01 X-4.3910 Y4.9399 
G01 X-4.4144 Y4.8223 
G01 X-4.4603 Y4.7115 
G01 X-4.5269 Y4.6117 
G01 X-4.6117 Y4.5269 
G01 X-4.7115 Y4.4603 
G01 X-4.8223 Y4.4144 
G01 X-4.9399 Y4.3910 
G01 X-5.0600 Y4.3910 
G01 X-86.5360 Y4.3910 
G01 X-86.6536 Y4.4144 
G01 X-86.7644 Y4.4603 
G01 X-86.8642 Y4.5269 
G01 X-86.9490 Y4.6117 
G01 X-87.0156 Y4.7115 
G01 X-87.0615 Y4.8223 
G01 X-87.0849 Y4.9399 
G01 X-87.0849 Y5.0600 
G01 X-87.0849 Y16.0600 
G01 X-87.0615 Y16.1776 
G01 X-87.0156 Y16.2884 
G01 X-86.9490 Y16.3882 
G01 X-86.8642 Y16.4730 
G01 X-86.7644 Y16.5396 
G01 X-86.6536 Y16.5855 
G01 X-86.5360 Y16.6089 
G01 X-86.4159 Y16.6089 
G01 X-85.1006 Y16.6089 
G01 X-84.9830 Y16.5855 
G01 X-84.8722 Y16.5396 
G01 X-84.7724 Y16.4730 
G01 X-84.6876 Y16.3882 
G01 X-84.6210 Y16.2884 
G01 X-84.5751 Y16.1776 
G01 X-84.5517 Y16.0600 
G01 X-84.5517 Y15.9399 
G01 X-84.5751 Y15.8223 
G01 X-84.6210 Y15.7115 
G01 X-84.6876 Y15.6117 
G01 X-84.7724 Y15.5269 
G01 X-85.4796 Y14.8197 
G01 X-85.4796 Y13.4201 
G01 X-84.4897 Y12.4302 
G01 X-83.0901 Y12.4302 
G01 X-82.1002 Y13.4201 
G01 X-82.1002 Y14.8197 
G01 X-82.8922 Y15.6117 
G01 X-82.9588 Y15.7115 
G01 X-83.0047 Y15.8223 
G01 X-83.0281 Y15.9399 
G01 X-83.0281 Y16.0600 
G01 X-83.0047 Y16.1776 
G01 X-82.9588 Y16.2884 
G01 X-82.8922 Y16.3882 
G01 X-82.8074 Y16.4730 
G01 X-82.7076 Y16.5396 
G01 X-82.5968 Y16.5855 
G01 X-82.4792 Y16.6089 
G01 X-82.3591 Y16.6089 
G01 X-57.6089 Y16.6089 
G01 X-57.6089 Y21.3910 
G01 X-86.5360 Y21.3910 
G01 X-86.6536 Y21.4144 
G01 X-86.7644 Y21.4603 
G01 X-86.8642 Y21.5269 
G01 X-86.9490 Y21.6117 
G01 X-87.0156 Y21.7115 
G01 X-87.0615 Y21.8223 
G01 X-87.0849 Y21.9399 
G01 X-87.0849 Y22.0600 
G01 X-87.0849 Y39.5360 
(File Footer)
G00 Z2.0000 
G00 Z10.0000 
M05
M02
