( This gcode generated by /home/mattvenn/.eagle/ulp/pcb-gcode.ulp )
( Copyright 2005 by John Johnson. See readme.txt for licensing terms. )

( This file generated from the board /home/mattvenn/eagle-circuit-designs/3w developer kit/3w developer dcdc test.brd )
( This file generated 13/03/2012 09:53 )

G21

G90
G00 Z10.0000 
G00 X0 Y0
M03
G04 P3.000000
G00 Z2.0000 
G00 X42.3389 Y47.5894 
G01 Z-0.2000 F600.00 
G01 X42.3760 Y47.6048 
G01 X42.4043 Y47.6331 
G01 X42.4197 Y47.6702 
G01 X42.4197 Y48.9297 
G01 X42.4043 Y48.9668 
G01 X42.3760 Y48.9951 
G01 X42.3389 Y49.0105 
G01 X41.8905 Y49.0105 
G01 X41.8322 Y49.0689 
G01 X41.6701 Y49.1772 
G01 X41.4899 Y49.2519 
G01 X41.2987 Y49.2899 
G01 X34.9349 Y49.2899 
G01 X34.9349 Y51.5290 
G01 X35.8901 Y51.5290 
G01 X35.9272 Y51.5444 
G01 X35.9555 Y51.5727 
G01 X35.9709 Y51.6098 
G01 X35.9709 Y53.3900 
G01 X40.2717 Y53.3900 
G01 X40.3513 Y53.3871 
G01 X40.3693 Y53.3900 
G01 X40.3875 Y53.3900 
G01 X40.4649 Y53.4054 
G01 X40.5439 Y53.4181 
G01 X40.5610 Y53.4245 
G01 X40.5787 Y53.4280 
G01 X40.6521 Y53.4585 
G01 X40.7266 Y53.4862 
G01 X40.7420 Y53.4957 
G01 X40.7589 Y53.5027 
G01 X40.8251 Y53.5470 
G01 X40.8284 Y53.5490 
G01 X41.8101 Y53.5490 
G01 X41.8472 Y53.5644 
G01 X41.8755 Y53.5927 
G01 X41.8909 Y53.6298 
G01 X41.8909 Y55.8701 
G01 X41.8755 Y55.9072 
G01 X41.8472 Y55.9355 
G01 X41.8101 Y55.9509 
G01 X39.9698 Y55.9509 
G01 X39.9327 Y55.9355 
G01 X39.9044 Y55.9072 
G01 X39.8890 Y55.8701 
G01 X39.8890 Y55.3699 
G01 X35.9709 Y55.3699 
G01 X35.9709 Y57.1501 
G01 X35.9555 Y57.1872 
G01 X35.9272 Y57.2155 
G01 X35.8901 Y57.2309 
G01 X31.9998 Y57.2309 
G01 X31.9627 Y57.2155 
G01 X31.9344 Y57.1872 
G01 X31.9190 Y57.1501 
G01 X31.9190 Y51.6098 
G01 X31.9344 Y51.5727 
G01 X31.9627 Y51.5444 
G01 X31.9998 Y51.5290 
G01 X32.9550 Y51.5290 
G01 X32.9550 Y48.2024 
G01 X32.9930 Y48.0112 
G01 X33.0677 Y47.8310 
G01 X33.1760 Y47.6689 
G01 X33.3139 Y47.5310 
G01 X33.4760 Y47.4227 
G01 X33.6562 Y47.3480 
G01 X33.8474 Y47.3100 
G01 X34.0425 Y47.3100 
G01 X41.2987 Y47.3100 
G01 X41.4899 Y47.3480 
G01 X41.6701 Y47.4227 
G01 X41.8322 Y47.5310 
G01 X41.8905 Y47.5894 
G01 X42.3389 Y47.5894 
G00 Z2.0000 
G00 X46.2788 Y46.3990 
G01 Z-0.2000 F600.00 
G01 X48.5191 Y46.3990 
G01 X48.5562 Y46.4144 
G01 X48.5845 Y46.4427 
G01 X48.5999 Y46.4798 
G01 X48.5999 Y50.1201 
G01 X48.5845 Y50.1572 
G01 X48.5562 Y50.1855 
G01 X48.5191 Y50.2009 
G01 X46.2788 Y50.2009 
G01 X46.2417 Y50.1855 
G01 X46.2134 Y50.1572 
G01 X46.1980 Y50.1201 
G01 X46.1980 Y46.4798 
G01 X46.2134 Y46.4427 
G01 X46.2417 Y46.4144 
G01 X46.2788 Y46.3990 
G00 Z2.0000 
G00 X39.8886 Y60.3354 
G01 Z-0.2000 F600.00 
G01 X39.8886 Y58.8645 
G01 X39.9179 Y58.7174 
G01 X39.9752 Y58.5789 
G01 X40.0586 Y58.4542 
G01 X40.1646 Y58.3482 
G01 X40.2893 Y58.2648 
G01 X40.4278 Y58.2075 
G01 X40.5749 Y58.1782 
G01 X40.7250 Y58.1782 
G01 X40.8721 Y58.2075 
G01 X41.0106 Y58.2648 
G01 X41.1353 Y58.3482 
G01 X41.2413 Y58.4542 
G01 X41.3247 Y58.5789 
G01 X41.3820 Y58.7174 
G01 X41.4113 Y58.8645 
G01 X41.4113 Y60.3354 
G01 X41.3820 Y60.4825 
G01 X41.3247 Y60.6210 
G01 X41.2413 Y60.7457 
G01 X41.1353 Y60.8517 
G01 X41.0106 Y60.9351 
G01 X40.8721 Y60.9924 
G01 X40.7250 Y61.0217 
G01 X40.5749 Y61.0217 
G01 X40.4278 Y60.9924 
G01 X40.2893 Y60.9351 
G01 X40.1646 Y60.8517 
G01 X40.0586 Y60.7457 
G01 X39.9752 Y60.6210 
G01 X39.9179 Y60.4825 
G01 X39.8886 Y60.3354 
G00 Z2.0000 
G00 X42.4286 Y60.3354 
G01 Z-0.2000 F600.00 
G01 X42.4286 Y60.2385 
G01 X42.4210 Y60.2310 
G01 X42.3127 Y60.0689 
G01 X42.2380 Y59.8887 
G01 X42.2000 Y59.6975 
G01 X42.2000 Y51.6013 
G01 X41.1036 Y51.6013 
G01 X40.9124 Y51.5633 
G01 X40.7322 Y51.4886 
G01 X40.5701 Y51.3803 
G01 X40.5117 Y51.3219 
G01 X40.0634 Y51.3219 
G01 X40.0263 Y51.3065 
G01 X39.9980 Y51.2782 
G01 X39.9826 Y51.2411 
G01 X39.9826 Y49.9816 
G01 X39.9980 Y49.9445 
G01 X40.0263 Y49.9162 
G01 X40.0634 Y49.9008 
G01 X40.5117 Y49.9008 
G01 X40.5701 Y49.8424 
G01 X40.7322 Y49.7341 
G01 X40.9124 Y49.6594 
G01 X41.1036 Y49.6214 
G01 X43.0924 Y49.6214 
G01 X43.2875 Y49.6214 
G01 X43.4787 Y49.6594 
G01 X43.6589 Y49.7341 
G01 X43.8210 Y49.8424 
G01 X43.9589 Y49.9803 
G01 X44.0672 Y50.1424 
G01 X44.1419 Y50.3226 
G01 X44.1799 Y50.5138 
G01 X44.1799 Y59.6975 
G01 X44.1419 Y59.8887 
G01 X44.0672 Y60.0689 
G01 X43.9589 Y60.2310 
G01 X43.9513 Y60.2385 
G01 X43.9513 Y60.3354 
G01 X43.9220 Y60.4825 
G01 X43.8647 Y60.6210 
G01 X43.7813 Y60.7457 
G01 X43.6753 Y60.8517 
G01 X43.5506 Y60.9351 
G01 X43.4121 Y60.9924 
G01 X43.2650 Y61.0217 
G01 X43.1149 Y61.0217 
G01 X42.9678 Y60.9924 
G01 X42.8293 Y60.9351 
G01 X42.7046 Y60.8517 
G01 X42.5986 Y60.7457 
G01 X42.5152 Y60.6210 
G01 X42.4579 Y60.4825 
G01 X42.4286 Y60.3354 
G00 Z2.0000 
G00 X50.0486 Y60.3354 
G01 Z-0.2000 F600.00 
G01 X50.0486 Y58.8645 
G01 X50.0779 Y58.7174 
G01 X50.1352 Y58.5789 
G01 X50.2186 Y58.4542 
G01 X50.3246 Y58.3482 
G01 X50.4493 Y58.2648 
G01 X50.5878 Y58.2075 
G01 X50.7349 Y58.1782 
G01 X50.8850 Y58.1782 
G01 X51.0321 Y58.2075 
G01 X51.1706 Y58.2648 
G01 X51.2953 Y58.3482 
G01 X51.4013 Y58.4542 
G01 X51.4847 Y58.5789 
G01 X51.5420 Y58.7174 
G01 X51.5713 Y58.8645 
G01 X51.5713 Y60.3354 
G01 X51.5420 Y60.4825 
G01 X51.4847 Y60.6210 
G01 X51.4013 Y60.7457 
G01 X51.2953 Y60.8517 
G01 X51.1706 Y60.9351 
G01 X51.0321 Y60.9924 
G01 X50.8850 Y61.0217 
G01 X50.7349 Y61.0217 
G01 X50.5878 Y60.9924 
G01 X50.4493 Y60.9351 
G01 X50.3246 Y60.8517 
G01 X50.2186 Y60.7457 
G01 X50.1352 Y60.6210 
G01 X50.0779 Y60.4825 
G01 X50.0486 Y60.3354 
G00 Z2.0000 
G00 X52.5886 Y60.3354 
G01 Z-0.2000 F600.00 
G01 X52.5886 Y58.8645 
G01 X52.6179 Y58.7174 
G01 X52.6752 Y58.5789 
G01 X52.7586 Y58.4542 
G01 X52.8646 Y58.3482 
G01 X52.9893 Y58.2648 
G01 X53.1278 Y58.2075 
G01 X53.2749 Y58.1782 
G01 X53.4250 Y58.1782 
G01 X53.5721 Y58.2075 
G01 X53.7106 Y58.2648 
G01 X53.8353 Y58.3482 
G01 X53.9413 Y58.4542 
G01 X54.0247 Y58.5789 
G01 X54.0820 Y58.7174 
G01 X54.1113 Y58.8645 
G01 X54.1113 Y60.3354 
G01 X54.0820 Y60.4825 
G01 X54.0247 Y60.6210 
G01 X53.9413 Y60.7457 
G01 X53.8353 Y60.8517 
G01 X53.7106 Y60.9351 
G01 X53.5721 Y60.9924 
G01 X53.4250 Y61.0217 
G01 X53.2749 Y61.0217 
G01 X53.1278 Y60.9924 
G01 X52.9893 Y60.9351 
G01 X52.8646 Y60.8517 
G01 X52.7586 Y60.7457 
G01 X52.6752 Y60.6210 
G01 X52.6179 Y60.4825 
G01 X52.5886 Y60.3354 
G00 Z2.0000 
G00 X55.1286 Y60.3354 
G01 Z-0.2000 F600.00 
G01 X55.1286 Y58.8645 
G01 X55.1579 Y58.7174 
G01 X55.2152 Y58.5789 
G01 X55.2986 Y58.4542 
G01 X55.4046 Y58.3482 
G01 X55.5293 Y58.2648 
G01 X55.6678 Y58.2075 
G01 X55.8149 Y58.1782 
G01 X55.9650 Y58.1782 
G01 X56.1121 Y58.2075 
G01 X56.2506 Y58.2648 
G01 X56.3753 Y58.3482 
G01 X56.4813 Y58.4542 
G01 X56.5647 Y58.5789 
G01 X56.6220 Y58.7174 
G01 X56.6513 Y58.8645 
G01 X56.6513 Y60.3354 
G01 X56.6220 Y60.4825 
G01 X56.5647 Y60.6210 
G01 X56.4813 Y60.7457 
G01 X56.3753 Y60.8517 
G01 X56.2506 Y60.9351 
G01 X56.1121 Y60.9924 
G01 X55.9650 Y61.0217 
G01 X55.8149 Y61.0217 
G01 X55.6678 Y60.9924 
G01 X55.5293 Y60.9351 
G01 X55.4046 Y60.8517 
G01 X55.2986 Y60.7457 
G01 X55.2152 Y60.6210 
G01 X55.1579 Y60.4825 
G01 X55.1286 Y60.3354 
G00 Z2.0000 
G00 X65.9709 Y61.0321 
G01 Z-0.2000 F600.00 
G01 X65.9709 Y62.1678 
G01 X65.9391 Y62.1996 
G01 X65.9391 Y64.9074 
G01 X65.9391 Y65.0925 
G01 X65.9030 Y65.2739 
G01 X65.8322 Y65.4448 
G01 X65.7294 Y65.5986 
G01 X65.5986 Y65.7294 
G01 X65.4448 Y65.8322 
G01 X65.2739 Y65.9030 
G01 X65.0925 Y65.9391 
G01 X48.5895 Y65.9391 
G01 X48.5587 Y65.9519 
G01 X48.3675 Y65.9899 
G01 X48.1724 Y65.9899 
G01 X47.9812 Y65.9519 
G01 X47.8010 Y65.8772 
G01 X47.6389 Y65.7689 
G01 X47.5010 Y65.6310 
G01 X47.3927 Y65.4689 
G01 X47.3180 Y65.2887 
G01 X47.2800 Y65.0975 
G01 X47.2800 Y64.9391 
G01 X44.3391 Y64.9391 
G01 X44.3391 Y68.4925 
G01 X44.3030 Y68.6739 
G01 X44.2322 Y68.8448 
G01 X44.1294 Y68.9986 
G01 X43.9986 Y69.1294 
G01 X43.8448 Y69.2322 
G01 X43.6739 Y69.3030 
G01 X43.4925 Y69.3391 
G01 X43.3074 Y69.3391 
G01 X33.5391 Y69.3391 
G01 X33.5391 Y70.6425 
G01 X33.5030 Y70.8239 
G01 X33.4322 Y70.9948 
G01 X33.3294 Y71.1486 
G01 X33.1986 Y71.2794 
G01 X33.0448 Y71.3822 
G01 X32.8739 Y71.4530 
G01 X32.6925 Y71.4891 
G01 X32.5074 Y71.4891 
G01 X29.3009 Y71.4891 
G01 X29.3009 Y71.7701 
G01 X29.2855 Y71.8072 
G01 X29.2572 Y71.8355 
G01 X29.2201 Y71.8509 
G01 X28.3963 Y71.8509 
G01 X28.2448 Y71.9522 
G01 X28.0739 Y72.0230 
G01 X27.8925 Y72.0591 
G01 X22.9391 Y72.0591 
G01 X22.9391 Y72.9074 
G01 X22.9391 Y73.0925 
G01 X22.9030 Y73.2739 
G01 X22.8322 Y73.4448 
G01 X22.7294 Y73.5986 
G01 X22.5986 Y73.7294 
G01 X22.4448 Y73.8322 
G01 X22.2739 Y73.9030 
G01 X22.0925 Y73.9391 
G01 X14.7074 Y73.9391 
G01 X14.5260 Y73.9030 
G01 X14.3551 Y73.8322 
G01 X14.2013 Y73.7294 
G01 X14.0705 Y73.5986 
G01 X13.9677 Y73.4448 
G01 X13.8969 Y73.2739 
G01 X13.8608 Y73.0925 
G01 X13.8608 Y72.9074 
G01 X13.8969 Y72.7260 
G01 X13.9677 Y72.5551 
G01 X14.0705 Y72.4013 
G01 X14.2013 Y72.2705 
G01 X14.3551 Y72.1677 
G01 X14.4958 Y72.1094 
G01 X14.4958 Y70.7194 
G01 X14.1703 Y70.7194 
G01 X14.1332 Y70.7040 
G01 X14.1049 Y70.6757 
G01 X14.0895 Y70.6386 
G01 X14.0895 Y68.3633 
G01 X14.1049 Y68.3262 
G01 X14.1332 Y68.2979 
G01 X14.1703 Y68.2825 
G01 X15.4296 Y68.2825 
G01 X15.4667 Y68.2979 
G01 X15.4950 Y68.3262 
G01 X15.5104 Y68.3633 
G01 X15.5104 Y70.6386 
G01 X15.4950 Y70.6757 
G01 X15.4667 Y70.7040 
G01 X15.4296 Y70.7194 
G01 X15.1041 Y70.7194 
G01 X15.1041 Y72.0608 
G01 X21.0608 Y72.0608 
G01 X21.0608 Y71.8044 
G01 X21.0590 Y71.8001 
G01 X21.0590 Y70.4398 
G01 X21.0744 Y70.4027 
G01 X21.1027 Y70.3744 
G01 X21.1398 Y70.3590 
G01 X21.4485 Y70.3590 
G01 X21.5551 Y70.2877 
G01 X21.7260 Y70.2169 
G01 X21.9074 Y70.1808 
G01 X22.0925 Y70.1808 
G01 X26.2990 Y70.1808 
G01 X26.2990 Y69.3298 
G01 X26.3144 Y69.2927 
G01 X26.3427 Y69.2644 
G01 X26.3798 Y69.2490 
G01 X29.2201 Y69.2490 
G01 X29.2572 Y69.2644 
G01 X29.2855 Y69.2927 
G01 X29.3009 Y69.3298 
G01 X29.3009 Y69.6108 
G01 X31.6608 Y69.6108 
G01 X31.6608 Y69.2930 
G01 X31.6427 Y69.2855 
G01 X31.6144 Y69.2572 
G01 X31.5990 Y69.2201 
G01 X31.5990 Y67.5798 
G01 X31.6144 Y67.5427 
G01 X31.6427 Y67.5144 
G01 X31.6798 Y67.4990 
G01 X32.3210 Y67.4990 
G01 X32.3260 Y67.4969 
G01 X32.5074 Y67.4608 
G01 X42.4608 Y67.4608 
G01 X42.4608 Y64.0925 
G01 X42.4608 Y63.9074 
G01 X42.4969 Y63.7260 
G01 X42.4990 Y63.7209 
G01 X42.4990 Y63.0798 
G01 X42.5144 Y63.0427 
G01 X42.5427 Y63.0144 
G01 X42.5798 Y62.9990 
G01 X44.2201 Y62.9990 
G01 X44.2572 Y63.0144 
G01 X44.2855 Y63.0427 
G01 X44.2930 Y63.0608 
G01 X47.2800 Y63.0608 
G01 X47.2800 Y59.5024 
G01 X47.3180 Y59.3112 
G01 X47.3927 Y59.1310 
G01 X47.5010 Y58.9689 
G01 X47.5086 Y58.9614 
G01 X47.5086 Y58.8645 
G01 X47.5379 Y58.7174 
G01 X47.5952 Y58.5789 
G01 X47.6786 Y58.4542 
G01 X47.7846 Y58.3482 
G01 X47.9093 Y58.2648 
G01 X48.0478 Y58.2075 
G01 X48.1949 Y58.1782 
G01 X48.3450 Y58.1782 
G01 X48.4921 Y58.2075 
G01 X48.6306 Y58.2648 
G01 X48.7553 Y58.3482 
G01 X48.8613 Y58.4542 
G01 X48.9447 Y58.5789 
G01 X49.0020 Y58.7174 
G01 X49.0313 Y58.8645 
G01 X49.0313 Y58.9614 
G01 X49.0389 Y58.9689 
G01 X49.1472 Y59.1310 
G01 X49.2219 Y59.3112 
G01 X49.2599 Y59.5024 
G01 X49.2599 Y63.9024 
G01 X49.2599 Y64.0608 
G01 X64.0608 Y64.0608 
G01 X64.0608 Y62.9709 
G01 X64.0321 Y62.9709 
G01 X63.2290 Y62.1678 
G01 X63.2290 Y61.0321 
G01 X64.0321 Y60.2290 
G01 X65.1678 Y60.2290 
G01 X65.9709 Y61.0321 
G00 Z2.0000 
G00 X21.1398 Y66.1040 
G01 Z-0.2000 F600.00 
G01 X22.8601 Y66.1040 
G01 X22.8972 Y66.1194 
G01 X22.9255 Y66.1477 
G01 X22.9409 Y66.1848 
G01 X22.9409 Y68.0751 
G01 X22.9255 Y68.1122 
G01 X22.8972 Y68.1405 
G01 X22.8601 Y68.1559 
G01 X21.1398 Y68.1559 
G01 X21.1027 Y68.1405 
G01 X21.0744 Y68.1122 
G01 X21.0590 Y68.0751 
G01 X21.0590 Y68.0691 
G01 X17.7391 Y68.0691 
G01 X17.7391 Y68.2825 
G01 X17.7406 Y68.2825 
G01 X17.7777 Y68.2979 
G01 X17.8060 Y68.3262 
G01 X17.8214 Y68.3633 
G01 X17.8214 Y70.6386 
G01 X17.8060 Y70.6757 
G01 X17.7777 Y70.7040 
G01 X17.7406 Y70.7194 
G01 X17.7375 Y70.7194 
G01 X17.7030 Y70.8929 
G01 X17.6322 Y71.0638 
G01 X17.5294 Y71.2176 
G01 X17.3986 Y71.3484 
G01 X17.2448 Y71.4512 
G01 X17.0739 Y71.5220 
G01 X16.8925 Y71.5581 
G01 X16.7074 Y71.5581 
G01 X16.5260 Y71.5220 
G01 X16.3551 Y71.4512 
G01 X16.2013 Y71.3484 
G01 X16.0705 Y71.2176 
G01 X15.9677 Y71.0638 
G01 X15.8969 Y70.8929 
G01 X15.8608 Y70.7115 
G01 X15.8608 Y67.4009 
G01 X14.7798 Y67.4009 
G01 X14.7427 Y67.3855 
G01 X14.7144 Y67.3572 
G01 X14.6990 Y67.3201 
G01 X14.6990 Y65.4798 
G01 X14.7144 Y65.4427 
G01 X14.7427 Y65.4144 
G01 X14.7798 Y65.3990 
G01 X18.8201 Y65.3990 
G01 X18.8572 Y65.4144 
G01 X18.8855 Y65.4427 
G01 X18.9009 Y65.4798 
G01 X18.9009 Y66.1908 
G01 X21.0590 Y66.1908 
G01 X21.0590 Y66.1848 
G01 X21.0744 Y66.1477 
G01 X21.1027 Y66.1194 
G01 X21.1398 Y66.1040 
G00 Z2.0000 
G00 X16.7009 Y74.5788 
G01 Z-0.2000 F600.00 
G01 X16.7009 Y76.8191 
G01 X16.6855 Y76.8562 
G01 X16.6572 Y76.8845 
G01 X16.6201 Y76.8999 
G01 X12.9798 Y76.8999 
G01 X12.9427 Y76.8845 
G01 X12.9144 Y76.8562 
G01 X12.8990 Y76.8191 
G01 X12.8990 Y74.5788 
G01 X12.9144 Y74.5417 
G01 X12.9427 Y74.5134 
G01 X12.9798 Y74.4980 
G01 X16.6201 Y74.4980 
G01 X16.6572 Y74.5134 
G01 X16.6855 Y74.5417 
G01 X16.7009 Y74.5788 
G00 Z2.0000 
G00 X55.6009 Y22.3798 
G01 Z-0.2000 F600.00 
G01 X55.6009 Y23.8201 
G01 X55.5855 Y23.8572 
G01 X55.5572 Y23.8855 
G01 X55.5201 Y23.9009 
G01 X55.5073 Y23.9009 
G01 X55.5073 Y25.3910 
G01 X56.3910 Y25.3910 
G01 X56.3910 Y22.5399 
G01 X56.4144 Y22.4223 
G01 X56.4603 Y22.3115 
G01 X56.5269 Y22.2117 
G01 X56.6117 Y22.1269 
G01 X56.7115 Y22.0603 
G01 X56.8223 Y22.0144 
G01 X56.9399 Y21.9910 
G01 X57.0600 Y21.9910 
G01 X58.8990 Y21.9910 
G01 X58.8990 Y21.7798 
G01 X58.9144 Y21.7427 
G01 X58.9427 Y21.7144 
G01 X58.9798 Y21.6990 
G01 X61.0201 Y21.6990 
G01 X61.0572 Y21.7144 
G01 X61.0855 Y21.7427 
G01 X61.1009 Y21.7798 
G01 X61.1009 Y23.4201 
G01 X61.0855 Y23.4572 
G01 X61.0572 Y23.4855 
G01 X61.0201 Y23.5009 
G01 X58.9798 Y23.5009 
G01 X58.9427 Y23.4855 
G01 X58.9144 Y23.4572 
G01 X58.8990 Y23.4201 
G01 X58.8990 Y23.2089 
G01 X57.6089 Y23.2089 
G01 X57.6089 Y25.9399 
G01 X57.6089 Y26.0600 
G01 X57.5855 Y26.1776 
G01 X57.5396 Y26.2884 
G01 X57.4730 Y26.3882 
G01 X57.3882 Y26.4730 
G01 X57.2884 Y26.5396 
G01 X57.1776 Y26.5855 
G01 X57.0600 Y26.6089 
G01 X55.6089 Y26.6089 
G01 X55.6089 Y30.9612 
G01 X55.5855 Y31.0788 
G01 X55.5396 Y31.1896 
G01 X55.4730 Y31.2894 
G01 X55.3991 Y31.3632 
G01 X55.3991 Y32.0389 
G01 X55.3837 Y32.0760 
G01 X55.3554 Y32.1043 
G01 X55.3183 Y32.1197 
G01 X54.0588 Y32.1197 
G01 X54.0217 Y32.1043 
G01 X53.9934 Y32.0760 
G01 X53.9780 Y32.0389 
G01 X53.9780 Y29.7634 
G01 X53.9934 Y29.7263 
G01 X54.0217 Y29.6980 
G01 X54.0588 Y29.6826 
G01 X54.3910 Y29.6826 
G01 X54.3910 Y26.0600 
G01 X54.3910 Y25.9399 
G01 X54.4144 Y25.8223 
G01 X54.4603 Y25.7115 
G01 X54.4926 Y25.6631 
G01 X54.4926 Y23.9009 
G01 X54.4798 Y23.9009 
G01 X54.4427 Y23.8855 
G01 X54.4144 Y23.8572 
G01 X54.3990 Y23.8201 
G01 X54.3990 Y22.3798 
G01 X54.4144 Y22.3427 
G01 X54.4427 Y22.3144 
G01 X54.4798 Y22.2990 
G01 X55.5201 Y22.2990 
G01 X55.5572 Y22.3144 
G01 X55.5855 Y22.3427 
G01 X55.6009 Y22.3798 
G00 Z2.0000 
G00 X52.5009 Y13.9798 
G01 Z-0.2000 F600.00 
G01 X52.5009 Y16.0201 
G01 X52.4855 Y16.0572 
G01 X52.4572 Y16.0855 
G01 X52.4201 Y16.1009 
G01 X51.6089 Y16.1009 
G01 X51.6089 Y17.3910 
G01 X54.1100 Y17.3910 
G01 X54.2276 Y17.4144 
G01 X54.3384 Y17.4603 
G01 X54.4382 Y17.5269 
G01 X54.5230 Y17.6117 
G01 X54.5896 Y17.7115 
G01 X54.6355 Y17.8223 
G01 X54.6589 Y17.9399 
G01 X54.6589 Y18.0600 
G01 X54.6355 Y18.1776 
G01 X54.5896 Y18.2884 
G01 X54.5573 Y18.3368 
G01 X54.5573 Y20.0990 
G01 X54.5701 Y20.0990 
G01 X54.6072 Y20.1144 
G01 X54.6355 Y20.1427 
G01 X54.6509 Y20.1798 
G01 X54.6509 Y21.6201 
G01 X54.6355 Y21.6572 
G01 X54.6072 Y21.6855 
G01 X54.5701 Y21.7009 
G01 X53.5298 Y21.7009 
G01 X53.4927 Y21.6855 
G01 X53.4644 Y21.6572 
G01 X53.4490 Y21.6201 
G01 X53.4490 Y20.1798 
G01 X53.4644 Y20.1427 
G01 X53.4927 Y20.1144 
G01 X53.5298 Y20.0990 
G01 X53.5426 Y20.0990 
G01 X53.5426 Y18.6089 
G01 X50.9399 Y18.6089 
G01 X50.8223 Y18.5855 
G01 X50.7115 Y18.5396 
G01 X50.6117 Y18.4730 
G01 X50.5269 Y18.3882 
G01 X50.4603 Y18.2884 
G01 X50.4144 Y18.1776 
G01 X50.3910 Y18.0600 
G01 X50.3910 Y17.9399 
G01 X50.3910 Y14.9399 
G01 X50.4144 Y14.8223 
G01 X50.4603 Y14.7115 
G01 X50.5269 Y14.6117 
G01 X50.6117 Y14.5269 
G01 X50.6990 Y14.4687 
G01 X50.6990 Y13.9798 
G01 X50.7144 Y13.9427 
G01 X50.7427 Y13.9144 
G01 X50.7798 Y13.8990 
G01 X52.4201 Y13.8990 
G01 X52.4572 Y13.9144 
G01 X52.4855 Y13.9427 
G01 X52.5009 Y13.9798 
G00 Z2.0000 
G00 X40.8309 Y32.4321 
G01 Z-0.2000 F600.00 
G01 X40.8309 Y33.5678 
G01 X40.0278 Y34.3709 
G01 X38.8921 Y34.3709 
G01 X38.0890 Y33.5678 
G01 X38.0890 Y32.4321 
G01 X38.5208 Y32.0003 
G01 X38.5208 Y27.9074 
G01 X38.5569 Y27.7260 
G01 X38.6277 Y27.5551 
G01 X38.7305 Y27.4013 
G01 X38.8613 Y27.2705 
G01 X39.0151 Y27.1677 
G01 X39.1860 Y27.0969 
G01 X39.3674 Y27.0608 
G01 X39.5525 Y27.0608 
G01 X45.0608 Y27.0608 
G01 X45.0608 Y20.2857 
G01 X45.0137 Y20.2705 
G01 X44.8214 Y20.1725 
G01 X44.6468 Y20.0457 
G01 X44.4942 Y19.8931 
G01 X44.3674 Y19.7185 
G01 X44.2694 Y19.5262 
G01 X44.2028 Y19.3210 
G01 X44.1690 Y19.1079 
G01 X44.1690 Y18.8920 
G01 X44.2028 Y18.6789 
G01 X44.2694 Y18.4737 
G01 X44.3674 Y18.2814 
G01 X44.4942 Y18.1068 
G01 X44.6468 Y17.9542 
G01 X44.8214 Y17.8274 
G01 X45.0137 Y17.7294 
G01 X45.2189 Y17.6628 
G01 X45.4320 Y17.6290 
G01 X45.6479 Y17.6290 
G01 X45.8610 Y17.6628 
G01 X46.0662 Y17.7294 
G01 X46.2585 Y17.8274 
G01 X46.4331 Y17.9542 
G01 X46.5857 Y18.1068 
G01 X46.7125 Y18.2814 
G01 X46.8105 Y18.4737 
G01 X46.8540 Y18.6077 
G01 X46.9030 Y18.7260 
G01 X46.9391 Y18.9074 
G01 X46.9391 Y27.9074 
G01 X46.9391 Y28.0925 
G01 X46.9030 Y28.2739 
G01 X46.8322 Y28.4448 
G01 X46.7294 Y28.5986 
G01 X46.5986 Y28.7294 
G01 X46.4448 Y28.8322 
G01 X46.2739 Y28.9030 
G01 X46.0925 Y28.9391 
G01 X40.3991 Y28.9391 
G01 X40.3991 Y32.0003 
G01 X40.8309 Y32.4321 
G00 Z2.0000 
G00 X41.8309 Y19.5678 
G01 Z-0.2000 F600.00 
G01 X41.0278 Y20.3709 
G01 X39.8921 Y20.3709 
G01 X39.0890 Y19.5678 
G01 X39.0890 Y18.9391 
G01 X34.9391 Y18.9391 
G01 X34.9391 Y27.0925 
G01 X34.9391 Y34.9937 
G01 X34.9391 Y44.9986 
G01 X40.2112 Y44.9986 
G01 X40.2112 Y44.1024 
G01 X40.2492 Y43.9112 
G01 X40.3239 Y43.7310 
G01 X40.4322 Y43.5689 
G01 X40.5701 Y43.4310 
G01 X40.7322 Y43.3227 
G01 X40.9124 Y43.2480 
G01 X41.1036 Y43.2100 
G01 X41.2987 Y43.2100 
G01 X52.0975 Y43.2100 
G01 X52.2887 Y43.2480 
G01 X52.4689 Y43.3227 
G01 X52.6310 Y43.4310 
G01 X52.7689 Y43.5689 
G01 X52.8772 Y43.7310 
G01 X52.9519 Y43.9112 
G01 X52.9899 Y44.1024 
G01 X52.9899 Y44.2975 
G01 X52.9899 Y46.8890 
G01 X54.4301 Y46.8890 
G01 X54.4672 Y46.9044 
G01 X54.4955 Y46.9327 
G01 X54.5109 Y46.9698 
G01 X54.5109 Y47.2000 
G01 X55.7024 Y47.2000 
G01 X55.8975 Y47.2000 
G01 X56.0887 Y47.2380 
G01 X56.2689 Y47.3127 
G01 X56.4310 Y47.4210 
G01 X56.5689 Y47.5589 
G01 X56.6772 Y47.7210 
G01 X56.7193 Y47.8226 
G01 X57.3890 Y47.8319 
G01 X57.3890 Y47.6198 
G01 X57.4044 Y47.5827 
G01 X57.4327 Y47.5544 
G01 X57.4698 Y47.5390 
G01 X59.9101 Y47.5390 
G01 X59.9472 Y47.5544 
G01 X59.9755 Y47.5827 
G01 X59.9909 Y47.6198 
G01 X59.9909 Y50.0601 
G01 X59.9755 Y50.0972 
G01 X59.9472 Y50.1255 
G01 X59.9101 Y50.1409 
G01 X57.4698 Y50.1409 
G01 X57.4327 Y50.1255 
G01 X57.4044 Y50.0972 
G01 X57.3890 Y50.0601 
G01 X57.3890 Y49.8120 
G01 X55.7898 Y49.7899 
G01 X55.7024 Y49.7899 
G01 X55.6959 Y49.7886 
G01 X55.6887 Y49.7885 
G01 X55.5986 Y49.7692 
G01 X55.5112 Y49.7519 
G01 X55.5049 Y49.7492 
G01 X55.4980 Y49.7478 
G01 X55.4119 Y49.7107 
G01 X55.3310 Y49.6772 
G01 X55.3256 Y49.6735 
G01 X55.3189 Y49.6707 
G01 X55.2418 Y49.6176 
G01 X55.1689 Y49.5689 
G01 X55.1641 Y49.5641 
G01 X55.1583 Y49.5601 
G01 X55.0939 Y49.4938 
G01 X55.0310 Y49.4310 
G01 X55.0273 Y49.4254 
G01 X55.0223 Y49.4203 
G01 X54.9725 Y49.3433 
G01 X54.9227 Y49.2689 
G01 X54.9201 Y49.2624 
G01 X54.9163 Y49.2567 
G01 X54.8857 Y49.1799 
G01 X54.5109 Y49.1799 
G01 X54.5109 Y49.4101 
G01 X54.4955 Y49.4472 
G01 X54.4672 Y49.4755 
G01 X54.4301 Y49.4909 
G01 X51.5898 Y49.4909 
G01 X51.5527 Y49.4755 
G01 X51.5244 Y49.4472 
G01 X51.5090 Y49.4101 
G01 X51.5090 Y49.0525 
G01 X51.3689 Y48.9589 
G01 X51.2310 Y48.8210 
G01 X51.1227 Y48.6589 
G01 X51.0480 Y48.4787 
G01 X51.0100 Y48.2875 
G01 X51.0100 Y45.1899 
G01 X42.1911 Y45.1899 
G01 X42.1911 Y45.2780 
G01 X42.3389 Y45.2780 
G01 X42.3760 Y45.2934 
G01 X42.4043 Y45.3217 
G01 X42.4197 Y45.3588 
G01 X42.4197 Y46.6183 
G01 X42.4043 Y46.6554 
G01 X42.3760 Y46.6837 
G01 X42.3389 Y46.6991 
G01 X41.8906 Y46.6991 
G01 X41.8322 Y46.7575 
G01 X41.6701 Y46.8658 
G01 X41.4899 Y46.9405 
G01 X41.2987 Y46.9785 
G01 X41.1036 Y46.9785 
G01 X41.1035 Y46.9785 
G01 X33.9024 Y46.9785 
G01 X19.0299 Y46.9785 
G01 X19.0299 Y48.0090 
G01 X19.2601 Y48.0090 
G01 X19.2972 Y48.0244 
G01 X19.3255 Y48.0527 
G01 X19.3409 Y48.0898 
G01 X19.3409 Y50.5301 
G01 X19.3255 Y50.5672 
G01 X19.2972 Y50.5955 
G01 X19.2601 Y50.6109 
G01 X16.8198 Y50.6109 
G01 X16.7827 Y50.5955 
G01 X16.7544 Y50.5672 
G01 X16.7390 Y50.5301 
G01 X16.7390 Y50.2999 
G01 X10.8975 Y50.2999 
G01 X10.7024 Y50.2999 
G01 X10.5112 Y50.2619 
G01 X10.3310 Y50.1872 
G01 X10.1689 Y50.0789 
G01 X10.0310 Y49.9410 
G01 X9.9227 Y49.7789 
G01 X9.8480 Y49.5987 
G01 X9.8463 Y49.5899 
G01 X9.3899 Y49.5899 
G01 X9.3899 Y62.2100 
G01 X10.9024 Y62.2100 
G01 X27.9024 Y62.2100 
G01 X32.9024 Y62.2100 
G01 X36.6100 Y62.2100 
G01 X36.6100 Y59.6975 
G01 X36.6100 Y59.5024 
G01 X36.6480 Y59.3112 
G01 X36.7227 Y59.1310 
G01 X36.8310 Y58.9689 
G01 X36.9689 Y58.8310 
G01 X37.1310 Y58.7227 
G01 X37.3112 Y58.6480 
G01 X37.4152 Y58.6273 
G01 X37.4352 Y58.5789 
G01 X37.5186 Y58.4542 
G01 X37.6246 Y58.3482 
G01 X37.7493 Y58.2648 
G01 X37.8878 Y58.2075 
G01 X38.0349 Y58.1782 
G01 X38.1850 Y58.1782 
G01 X38.3321 Y58.2075 
G01 X38.4706 Y58.2648 
G01 X38.5953 Y58.3482 
G01 X38.7013 Y58.4542 
G01 X38.7847 Y58.5789 
G01 X38.8420 Y58.7174 
G01 X38.8713 Y58.8645 
G01 X38.8713 Y58.9613 
G01 X38.8789 Y58.9689 
G01 X38.9872 Y59.1310 
G01 X39.0619 Y59.3112 
G01 X39.0999 Y59.5024 
G01 X39.0999 Y59.6975 
G01 X39.0619 Y59.8887 
G01 X38.9872 Y60.0689 
G01 X38.8789 Y60.2310 
G01 X38.8713 Y60.2386 
G01 X38.8713 Y60.3354 
G01 X38.8420 Y60.4825 
G01 X38.7847 Y60.6210 
G01 X38.7013 Y60.7457 
G01 X38.5953 Y60.8517 
G01 X38.5899 Y60.8553 
G01 X38.5899 Y63.0608 
G01 X39.7069 Y63.0608 
G01 X39.7144 Y63.0427 
G01 X39.7427 Y63.0144 
G01 X39.7798 Y62.9990 
G01 X41.4201 Y62.9990 
G01 X41.4572 Y63.0144 
G01 X41.4855 Y63.0427 
G01 X41.5009 Y63.0798 
G01 X41.5009 Y63.7210 
G01 X41.5030 Y63.7260 
G01 X41.5391 Y63.9074 
G01 X41.5391 Y64.0925 
G01 X41.5030 Y64.2739 
G01 X41.5009 Y64.2789 
G01 X41.5009 Y64.9201 
G01 X41.4855 Y64.9572 
G01 X41.4572 Y64.9855 
G01 X41.4201 Y65.0009 
G01 X39.7798 Y65.0009 
G01 X39.7427 Y64.9855 
G01 X39.7144 Y64.9572 
G01 X39.7069 Y64.9391 
G01 X37.5074 Y64.9391 
G01 X37.3260 Y64.9030 
G01 X37.1551 Y64.8322 
G01 X37.0013 Y64.7294 
G01 X36.8705 Y64.5986 
G01 X36.7677 Y64.4448 
G01 X36.6969 Y64.2739 
G01 X36.6802 Y64.1899 
G01 X33.9391 Y64.1899 
G01 X33.9391 Y65.6925 
G01 X33.9030 Y65.8739 
G01 X33.8322 Y66.0448 
G01 X33.7294 Y66.1986 
G01 X33.6009 Y66.3270 
G01 X33.6009 Y66.4201 
G01 X33.5855 Y66.4572 
G01 X33.5572 Y66.4855 
G01 X33.5201 Y66.5009 
G01 X33.2789 Y66.5009 
G01 X33.2739 Y66.5030 
G01 X33.0925 Y66.5391 
G01 X32.9074 Y66.5391 
G01 X32.5074 Y66.5391 
G01 X32.3260 Y66.5030 
G01 X32.3210 Y66.5009 
G01 X31.6798 Y66.5009 
G01 X31.6427 Y66.4855 
G01 X31.6144 Y66.4572 
G01 X31.5990 Y66.4201 
G01 X31.5990 Y64.7798 
G01 X31.6144 Y64.7427 
G01 X31.6427 Y64.7144 
G01 X31.6798 Y64.6990 
G01 X32.0608 Y64.6990 
G01 X32.0608 Y64.1899 
G01 X29.3009 Y64.1899 
G01 X29.3009 Y65.4701 
G01 X29.2855 Y65.5072 
G01 X29.2572 Y65.5355 
G01 X29.2201 Y65.5509 
G01 X26.3798 Y65.5509 
G01 X26.3427 Y65.5355 
G01 X26.3144 Y65.5072 
G01 X26.2990 Y65.4701 
G01 X26.2990 Y64.1899 
G01 X11.9391 Y64.1899 
G01 X11.9391 Y68.2825 
G01 X13.1186 Y68.2825 
G01 X13.1557 Y68.2979 
G01 X13.1840 Y68.3262 
G01 X13.1994 Y68.3633 
G01 X13.1994 Y68.8831 
G01 X13.2955 Y69.0110 
G01 X13.3756 Y69.1778 
G01 X13.4216 Y69.3569 
G01 X13.4318 Y69.5417 
G01 X13.4057 Y69.7249 
G01 X13.3444 Y69.8994 
G01 X13.2502 Y70.0586 
G01 X13.1994 Y70.1153 
G01 X13.1994 Y70.6386 
G01 X13.1840 Y70.6757 
G01 X13.1557 Y70.7040 
G01 X13.1186 Y70.7194 
G01 X12.4302 Y70.7194 
G01 X11.6167 Y71.3302 
G01 X11.5986 Y71.3484 
G01 X11.5437 Y71.3850 
G01 X11.4899 Y71.4255 
G01 X11.4662 Y71.4368 
G01 X11.4448 Y71.4512 
G01 X11.3834 Y71.4766 
G01 X11.3231 Y71.5056 
G01 X11.2978 Y71.5121 
G01 X11.2739 Y71.5220 
G01 X11.2088 Y71.5349 
G01 X11.1440 Y71.5516 
G01 X11.1179 Y71.5530 
G01 X11.0925 Y71.5581 
G01 X11.0262 Y71.5581 
G01 X10.9592 Y71.5618 
G01 X10.9333 Y71.5581 
G01 X10.9074 Y71.5581 
G01 X10.8423 Y71.5451 
G01 X10.7760 Y71.5357 
G01 X10.7514 Y71.5270 
G01 X10.7260 Y71.5220 
G01 X10.6647 Y71.4965 
G01 X10.6015 Y71.4744 
G01 X10.5791 Y71.4611 
G01 X10.5551 Y71.4512 
G01 X10.4996 Y71.4141 
G01 X10.4423 Y71.3802 
G01 X10.4230 Y71.3628 
G01 X10.4013 Y71.3484 
G01 X10.3543 Y71.3013 
G01 X10.3045 Y71.2568 
G01 X10.2888 Y71.2359 
G01 X10.2705 Y71.2176 
G01 X10.2338 Y71.1625 
G01 X10.1934 Y71.1089 
G01 X10.1821 Y71.0852 
G01 X10.1677 Y71.0638 
G01 X10.1423 Y71.0024 
G01 X10.1133 Y70.9421 
G01 X10.1068 Y70.9168 
G01 X10.0969 Y70.8929 
G01 X10.0840 Y70.8278 
G01 X10.0673 Y70.7630 
G01 X10.0659 Y70.7369 
G01 X10.0608 Y70.7115 
G01 X10.0608 Y70.6452 
G01 X10.0571 Y70.5782 
G01 X10.0608 Y70.5523 
G01 X10.0608 Y64.1899 
G01 X8.4975 Y64.1899 
G01 X8.3024 Y64.1899 
G01 X8.1112 Y64.1519 
G01 X7.9310 Y64.0772 
G01 X7.7689 Y63.9689 
G01 X7.6310 Y63.8310 
G01 X7.5227 Y63.6689 
G01 X7.4480 Y63.4887 
G01 X7.4100 Y63.2975 
G01 X7.4100 Y48.5024 
G01 X7.4480 Y48.3112 
G01 X7.5227 Y48.1310 
G01 X7.6310 Y47.9689 
G01 X7.7689 Y47.8310 
G01 X7.9310 Y47.7227 
G01 X8.1112 Y47.6480 
G01 X8.3024 Y47.6100 
G01 X8.4975 Y47.6100 
G01 X8.4976 Y47.6100 
G01 X10.6511 Y47.6100 
G01 X10.7321 Y47.5290 
G01 X10.9958 Y47.5290 
G01 X10.9958 Y44.3709 
G01 X10.4321 Y44.3709 
G01 X9.6290 Y43.5678 
G01 X9.6290 Y42.4321 
G01 X10.4321 Y41.6290 
G01 X11.5678 Y41.6290 
G01 X12.3709 Y42.4321 
G01 X12.3709 Y43.5678 
G01 X11.6041 Y44.3345 
G01 X11.6041 Y47.5290 
G01 X11.8678 Y47.5290 
G01 X12.6588 Y48.3200 
G01 X16.7390 Y48.3200 
G01 X16.7390 Y48.0898 
G01 X16.7544 Y48.0527 
G01 X16.7827 Y48.0244 
G01 X16.8198 Y48.0090 
G01 X17.0500 Y48.0090 
G01 X17.0500 Y45.8910 
G01 X17.0880 Y45.6998 
G01 X17.1627 Y45.5196 
G01 X17.2710 Y45.3575 
G01 X17.4089 Y45.2196 
G01 X17.5710 Y45.1113 
G01 X17.7512 Y45.0366 
G01 X17.9424 Y44.9986 
G01 X18.1375 Y44.9986 
G01 X33.0608 Y44.9986 
G01 X33.0608 Y35.8403 
G01 X30.0219 Y35.8403 
G01 X30.0219 Y36.0389 
G01 X30.0065 Y36.0760 
G01 X29.9782 Y36.1043 
G01 X29.9411 Y36.1197 
G01 X28.6816 Y36.1197 
G01 X28.6445 Y36.1043 
G01 X28.6162 Y36.0760 
G01 X28.6008 Y36.0389 
G01 X28.6008 Y35.5186 
G01 X28.5819 Y35.4998 
G01 X28.4791 Y35.3460 
G01 X28.4083 Y35.1751 
G01 X28.3722 Y34.9937 
G01 X28.3722 Y34.8086 
G01 X28.4083 Y34.6272 
G01 X28.4791 Y34.4563 
G01 X28.5819 Y34.3025 
G01 X28.6008 Y34.2837 
G01 X28.6008 Y33.7634 
G01 X28.6162 Y33.7263 
G01 X28.6445 Y33.6980 
G01 X28.6816 Y33.6826 
G01 X29.9411 Y33.6826 
G01 X29.9782 Y33.6980 
G01 X30.0065 Y33.7263 
G01 X30.0219 Y33.7634 
G01 X30.0219 Y33.9620 
G01 X33.0608 Y33.9620 
G01 X33.0608 Y27.9391 
G01 X18.9391 Y27.9391 
G01 X18.9391 Y30.0925 
G01 X18.9030 Y30.2739 
G01 X18.8322 Y30.4448 
G01 X18.7294 Y30.5986 
G01 X18.5986 Y30.7294 
G01 X18.5009 Y30.7947 
G01 X18.5009 Y31.0201 
G01 X18.4855 Y31.0572 
G01 X18.4572 Y31.0855 
G01 X18.4201 Y31.1009 
G01 X16.7798 Y31.1009 
G01 X16.7427 Y31.0855 
G01 X16.7144 Y31.0572 
G01 X16.6990 Y31.0201 
G01 X16.6990 Y28.9798 
G01 X16.7144 Y28.9427 
G01 X16.7427 Y28.9144 
G01 X16.7798 Y28.8990 
G01 X17.0608 Y28.8990 
G01 X17.0608 Y27.9391 
G01 X6.9074 Y27.9391 
G01 X6.7260 Y27.9030 
G01 X6.5551 Y27.8322 
G01 X6.4013 Y27.7294 
G01 X6.2705 Y27.5986 
G01 X6.1677 Y27.4448 
G01 X6.0969 Y27.2739 
G01 X6.0608 Y27.0925 
G01 X6.0608 Y26.9074 
G01 X6.0608 Y15.9074 
G01 X6.0969 Y15.7260 
G01 X6.1677 Y15.5551 
G01 X6.2705 Y15.4013 
G01 X6.4013 Y15.2705 
G01 X6.5551 Y15.1677 
G01 X6.7260 Y15.0969 
G01 X6.9074 Y15.0608 
G01 X7.0925 Y15.0608 
G01 X16.6990 Y15.0608 
G01 X16.6990 Y14.9798 
G01 X16.7144 Y14.9427 
G01 X16.7427 Y14.9144 
G01 X16.7798 Y14.8990 
G01 X18.4201 Y14.8990 
G01 X18.4572 Y14.9144 
G01 X18.4855 Y14.9427 
G01 X18.5009 Y14.9798 
G01 X18.5009 Y15.7210 
G01 X18.5030 Y15.7260 
G01 X18.5391 Y15.9074 
G01 X18.5391 Y16.0925 
G01 X18.5030 Y16.2739 
G01 X18.5009 Y16.2789 
G01 X18.5009 Y17.0201 
G01 X18.4855 Y17.0572 
G01 X18.4572 Y17.0855 
G01 X18.4201 Y17.1009 
G01 X16.7798 Y17.1009 
G01 X16.7427 Y17.0855 
G01 X16.7144 Y17.0572 
G01 X16.6990 Y17.0201 
G01 X16.6990 Y16.9391 
G01 X7.9391 Y16.9391 
G01 X7.9391 Y26.0608 
G01 X18.0925 Y26.0608 
G01 X33.0608 Y26.0608 
G01 X33.0608 Y18.9391 
G01 X30.0219 Y18.9391 
G01 X30.0219 Y19.0389 
G01 X30.0065 Y19.0760 
G01 X29.9782 Y19.1043 
G01 X29.9411 Y19.1197 
G01 X28.6816 Y19.1197 
G01 X28.6445 Y19.1043 
G01 X28.6162 Y19.0760 
G01 X28.6008 Y19.0389 
G01 X28.6008 Y18.6175 
G01 X28.5819 Y18.5986 
G01 X28.4791 Y18.4448 
G01 X28.4083 Y18.2739 
G01 X28.3722 Y18.0925 
G01 X28.3722 Y17.9074 
G01 X28.4083 Y17.7260 
G01 X28.4791 Y17.5551 
G01 X28.5819 Y17.4013 
G01 X28.6008 Y17.3824 
G01 X28.6008 Y16.7634 
G01 X28.6162 Y16.7263 
G01 X28.6445 Y16.6980 
G01 X28.6816 Y16.6826 
G01 X29.9411 Y16.6826 
G01 X29.9782 Y16.6980 
G01 X30.0065 Y16.7263 
G01 X30.0219 Y16.7634 
G01 X30.0219 Y17.0608 
G01 X33.9074 Y17.0608 
G01 X40.0608 Y17.0608 
G01 X40.0608 Y10.9074 
G01 X40.0969 Y10.7260 
G01 X40.1677 Y10.5551 
G01 X40.2705 Y10.4013 
G01 X40.4013 Y10.2705 
G01 X40.5551 Y10.1677 
G01 X40.7260 Y10.0969 
G01 X40.9074 Y10.0608 
G01 X41.0925 Y10.0608 
G01 X41.2739 Y10.0969 
G01 X41.4448 Y10.1677 
G01 X41.5986 Y10.2705 
G01 X41.7191 Y10.3910 
G01 X51.3910 Y10.3910 
G01 X51.3910 Y7.9399 
G01 X51.4144 Y7.8223 
G01 X51.4603 Y7.7115 
G01 X51.5269 Y7.6117 
G01 X51.6117 Y7.5269 
G01 X51.7115 Y7.4603 
G01 X51.8223 Y7.4144 
G01 X51.9399 Y7.3910 
G01 X52.0600 Y7.3910 
G01 X52.0601 Y7.3910 
G01 X58.9399 Y7.3910 
G01 X59.0600 Y7.3910 
G01 X59.1776 Y7.4144 
G01 X59.2884 Y7.4603 
G01 X59.3882 Y7.5269 
G01 X59.4730 Y7.6117 
G01 X59.5396 Y7.7115 
G01 X59.5855 Y7.8223 
G01 X59.6089 Y7.9399 
G01 X59.6089 Y17.9399 
G01 X59.6089 Y18.0600 
G01 X59.5855 Y18.1776 
G01 X59.5396 Y18.2884 
G01 X59.4730 Y18.3882 
G01 X59.3882 Y18.4730 
G01 X59.2884 Y18.5396 
G01 X59.1776 Y18.5855 
G01 X59.0600 Y18.6089 
G01 X56.4573 Y18.6089 
G01 X56.4573 Y20.0990 
G01 X56.4701 Y20.0990 
G01 X56.5072 Y20.1144 
G01 X56.5355 Y20.1427 
G01 X56.5509 Y20.1798 
G01 X56.5509 Y21.6201 
G01 X56.5355 Y21.6572 
G01 X56.5072 Y21.6855 
G01 X56.4701 Y21.7009 
G01 X55.4298 Y21.7009 
G01 X55.3927 Y21.6855 
G01 X55.3644 Y21.6572 
G01 X55.3490 Y21.6201 
G01 X55.3490 Y20.1798 
G01 X55.3644 Y20.1427 
G01 X55.3927 Y20.1144 
G01 X55.4298 Y20.0990 
G01 X55.4426 Y20.0990 
G01 X55.4426 Y18.3368 
G01 X55.4103 Y18.2884 
G01 X55.3644 Y18.1776 
G01 X55.3410 Y18.0600 
G01 X55.3410 Y17.9399 
G01 X55.3644 Y17.8223 
G01 X55.4103 Y17.7115 
G01 X55.4769 Y17.6117 
G01 X55.5617 Y17.5269 
G01 X55.6615 Y17.4603 
G01 X55.7723 Y17.4144 
G01 X55.8899 Y17.3910 
G01 X58.3910 Y17.3910 
G01 X58.3910 Y8.6089 
G01 X52.6089 Y8.6089 
G01 X52.6089 Y11.0600 
G01 X52.5855 Y11.1776 
G01 X52.5396 Y11.2884 
G01 X52.4730 Y11.3882 
G01 X52.3882 Y11.4730 
G01 X52.2884 Y11.5396 
G01 X52.1776 Y11.5855 
G01 X52.0600 Y11.6089 
G01 X51.9399 Y11.6089 
G01 X41.9391 Y11.6089 
G01 X41.9391 Y19.0925 
G01 X41.9030 Y19.2739 
G01 X41.8322 Y19.4448 
G01 X41.8309 Y19.4467 
G01 X41.8309 Y19.5678 
G00 Z2.0000 
G00 X56.3709 Y10.4321 
G01 Z-0.2000 F600.00 
G01 X56.3709 Y11.5678 
G01 X55.5678 Y12.3709 
G01 X55.0089 Y12.3709 
G01 X55.0089 Y13.8990 
G01 X55.2201 Y13.8990 
G01 X55.2572 Y13.9144 
G01 X55.2855 Y13.9427 
G01 X55.3009 Y13.9798 
G01 X55.3009 Y16.0201 
G01 X55.2855 Y16.0572 
G01 X55.2572 Y16.0855 
G01 X55.2201 Y16.1009 
G01 X53.5798 Y16.1009 
G01 X53.5427 Y16.0855 
G01 X53.5144 Y16.0572 
G01 X53.4990 Y16.0201 
G01 X53.4990 Y13.9798 
G01 X53.5144 Y13.9427 
G01 X53.5427 Y13.9144 
G01 X53.5798 Y13.8990 
G01 X53.7910 Y13.8990 
G01 X53.7910 Y11.7298 
G01 X53.6290 Y11.5678 
G01 X53.6290 Y10.4321 
G01 X54.4321 Y9.6290 
G01 X55.5678 Y9.6290 
G01 X56.3709 Y10.4321 
G00 Z2.0000 
G00 X51.3709 Y37.4321 
G01 Z-0.2000 F600.00 
G01 X51.3709 Y38.5678 
G01 X50.5678 Y39.3709 
G01 X49.4321 Y39.3709 
G01 X48.6290 Y38.5678 
G01 X48.6290 Y37.4321 
G01 X49.0608 Y37.0004 
G01 X49.0608 Y33.9391 
G01 X45.5396 Y33.9391 
G01 X45.4331 Y34.0457 
G01 X45.2585 Y34.1725 
G01 X45.0662 Y34.2705 
G01 X44.8610 Y34.3371 
G01 X44.6479 Y34.3709 
G01 X44.4320 Y34.3709 
G01 X44.2189 Y34.3371 
G01 X44.0137 Y34.2705 
G01 X43.8214 Y34.1725 
G01 X43.6468 Y34.0457 
G01 X43.4942 Y33.8931 
G01 X43.3674 Y33.7185 
G01 X43.2694 Y33.5262 
G01 X43.2028 Y33.3210 
G01 X43.1690 Y33.1079 
G01 X43.1690 Y32.8920 
G01 X43.2028 Y32.6789 
G01 X43.2694 Y32.4737 
G01 X43.3674 Y32.2814 
G01 X43.4942 Y32.1068 
G01 X43.6468 Y31.9542 
G01 X43.8214 Y31.8274 
G01 X44.0137 Y31.7294 
G01 X44.2189 Y31.6628 
G01 X44.4320 Y31.6290 
G01 X44.6479 Y31.6290 
G01 X44.8610 Y31.6628 
G01 X45.0662 Y31.7294 
G01 X45.2585 Y31.8274 
G01 X45.4331 Y31.9542 
G01 X45.5396 Y32.0608 
G01 X49.9074 Y32.0608 
G01 X50.0925 Y32.0608 
G01 X51.9074 Y32.0608 
G01 X52.0925 Y32.0608 
G01 X52.2739 Y32.0969 
G01 X52.4448 Y32.1677 
G01 X52.5986 Y32.2705 
G01 X52.7294 Y32.4013 
G01 X52.8322 Y32.5551 
G01 X52.9030 Y32.7260 
G01 X52.9391 Y32.9074 
G01 X52.9391 Y33.0608 
G01 X56.2640 Y33.0608 
G01 X56.2640 Y30.8286 
G01 X56.2894 Y30.7010 
G01 X56.2894 Y29.7634 
G01 X56.3048 Y29.7263 
G01 X56.3331 Y29.6980 
G01 X56.3702 Y29.6826 
G01 X57.6297 Y29.6826 
G01 X57.6668 Y29.6980 
G01 X57.6951 Y29.7263 
G01 X57.7105 Y29.7634 
G01 X57.7105 Y30.7010 
G01 X57.7359 Y30.8286 
G01 X57.7359 Y33.4111 
G01 X57.8322 Y33.5551 
G01 X57.9030 Y33.7260 
G01 X57.9391 Y33.9074 
G01 X57.9391 Y34.0925 
G01 X57.9030 Y34.2739 
G01 X57.8322 Y34.4448 
G01 X57.7294 Y34.5986 
G01 X57.5986 Y34.7294 
G01 X57.4448 Y34.8322 
G01 X57.2739 Y34.9030 
G01 X57.0925 Y34.9391 
G01 X51.9074 Y34.9391 
G01 X51.7260 Y34.9030 
G01 X51.5551 Y34.8322 
G01 X51.4013 Y34.7294 
G01 X51.2705 Y34.5986 
G01 X51.1677 Y34.4448 
G01 X51.0969 Y34.2739 
G01 X51.0608 Y34.0925 
G01 X51.0608 Y33.9391 
G01 X50.9391 Y33.9391 
G01 X50.9391 Y37.0004 
G01 X51.3709 Y37.4321 
G00 Z2.0000 
G00 X36.5678 Y10.3709 
G01 Z-0.2000 F600.00 
G01 X35.4321 Y10.3709 
G01 X34.6702 Y9.6089 
G01 X29.8809 Y9.6089 
G01 X29.8809 Y9.8601 
G01 X29.8655 Y9.8972 
G01 X29.8372 Y9.9255 
G01 X29.8001 Y9.9409 
G01 X28.4398 Y9.9409 
G01 X28.4027 Y9.9255 
G01 X28.3744 Y9.8972 
G01 X28.3590 Y9.8601 
G01 X28.3590 Y8.1398 
G01 X28.3744 Y8.1027 
G01 X28.4027 Y8.0744 
G01 X28.4398 Y8.0590 
G01 X29.8001 Y8.0590 
G01 X29.8372 Y8.0744 
G01 X29.8655 Y8.1027 
G01 X29.8809 Y8.1398 
G01 X29.8809 Y8.3910 
G01 X34.6702 Y8.3910 
G01 X35.4321 Y7.6290 
G01 X36.5678 Y7.6290 
G01 X37.3297 Y8.3910 
G01 X48.3910 Y8.3910 
G01 X48.3910 Y6.0600 
G01 X48.3910 Y5.9399 
G01 X48.4144 Y5.8223 
G01 X48.4603 Y5.7115 
G01 X48.5269 Y5.6117 
G01 X48.6117 Y5.5269 
G01 X48.7115 Y5.4603 
G01 X48.8223 Y5.4144 
G01 X48.9399 Y5.3910 
G01 X63.2808 Y5.3910 
G01 X63.4013 Y5.2705 
G01 X63.5551 Y5.1677 
G01 X63.7260 Y5.0969 
G01 X63.9074 Y5.0608 
G01 X64.0925 Y5.0608 
G01 X64.2739 Y5.0969 
G01 X64.4448 Y5.1677 
G01 X64.5986 Y5.2705 
G01 X64.7294 Y5.4013 
G01 X64.8322 Y5.5551 
G01 X64.9030 Y5.7260 
G01 X64.9391 Y5.9074 
G01 X64.9391 Y24.9074 
G01 X64.9391 Y25.0925 
G01 X64.9030 Y25.2739 
G01 X64.8322 Y25.4448 
G01 X64.7294 Y25.5986 
G01 X64.5986 Y25.7294 
G01 X64.4448 Y25.8322 
G01 X64.2739 Y25.9030 
G01 X64.0925 Y25.9391 
G01 X61.1009 Y25.9391 
G01 X61.1009 Y26.2201 
G01 X61.0855 Y26.2572 
G01 X61.0572 Y26.2855 
G01 X61.0201 Y26.3009 
G01 X60.2790 Y26.3009 
G01 X60.2739 Y26.3030 
G01 X60.2505 Y26.3076 
G01 X60.2505 Y30.8086 
G01 X60.2505 Y33.0608 
G01 X62.0925 Y33.0608 
G01 X62.2739 Y33.0969 
G01 X62.4448 Y33.1677 
G01 X62.5986 Y33.2705 
G01 X62.7294 Y33.4013 
G01 X62.8322 Y33.5551 
G01 X62.9030 Y33.7260 
G01 X62.9391 Y33.9074 
G01 X62.9391 Y34.0925 
G01 X62.9391 Y53.6925 
G01 X62.9030 Y53.8739 
G01 X62.8322 Y54.0448 
G01 X62.7294 Y54.1986 
G01 X62.5986 Y54.3294 
G01 X62.4448 Y54.4322 
G01 X62.2739 Y54.5030 
G01 X62.0925 Y54.5391 
G01 X61.9074 Y54.5391 
G01 X60.1912 Y54.5391 
G01 X60.1899 Y54.5498 
G01 X60.1899 Y54.5875 
G01 X60.1783 Y54.6459 
G01 X60.1711 Y54.7054 
G01 X60.1593 Y54.7413 
G01 X60.1519 Y54.7787 
G01 X60.1289 Y54.8340 
G01 X60.1104 Y54.8907 
G01 X60.0917 Y54.9238 
G01 X60.0772 Y54.9589 
G01 X60.0439 Y55.0086 
G01 X60.0147 Y55.0606 
G01 X59.9900 Y55.0893 
G01 X59.9689 Y55.1210 
G01 X59.9268 Y55.1630 
G01 X59.8878 Y55.2086 
G01 X59.8576 Y55.2322 
G01 X59.8310 Y55.2589 
G01 X59.7815 Y55.2919 
G01 X59.7343 Y55.3290 
G01 X59.7002 Y55.3462 
G01 X59.6689 Y55.3672 
G01 X59.6138 Y55.3900 
G01 X59.5604 Y55.4171 
G01 X59.5239 Y55.4273 
G01 X59.4887 Y55.4419 
G01 X59.4298 Y55.4536 
G01 X59.3726 Y55.4696 
G01 X59.3347 Y55.4725 
G01 X59.2975 Y55.4799 
G01 X59.2382 Y55.4799 
G01 X59.1781 Y55.4845 
G01 X59.1401 Y55.4799 
G01 X59.1024 Y55.4799 
G01 X59.0440 Y55.4683 
G01 X58.9845 Y55.4611 
G01 X58.9486 Y55.4493 
G01 X58.9112 Y55.4419 
G01 X58.8559 Y55.4189 
G01 X58.7992 Y55.4004 
G01 X58.7661 Y55.3817 
G01 X58.7310 Y55.3672 
G01 X58.6813 Y55.3339 
G01 X58.6293 Y55.3047 
G01 X58.6006 Y55.2800 
G01 X58.5883 Y55.2718 
G01 X58.4975 Y55.2899 
G01 X58.3024 Y55.2899 
G01 X58.1112 Y55.2519 
G01 X57.9617 Y55.1899 
G01 X54.5109 Y55.1899 
G01 X54.5109 Y55.7101 
G01 X54.4955 Y55.7472 
G01 X54.4672 Y55.7755 
G01 X54.4301 Y55.7909 
G01 X51.5898 Y55.7909 
G01 X51.5527 Y55.7755 
G01 X51.5244 Y55.7472 
G01 X51.5214 Y55.7399 
G01 X46.9909 Y55.7399 
G01 X46.9909 Y55.8701 
G01 X46.9799 Y55.8965 
G01 X46.9799 Y59.6975 
G01 X46.9419 Y59.8887 
G01 X46.8672 Y60.0689 
G01 X46.7589 Y60.2310 
G01 X46.6210 Y60.3689 
G01 X46.4637 Y60.4740 
G01 X46.4620 Y60.4825 
G01 X46.4047 Y60.6210 
G01 X46.3213 Y60.7457 
G01 X46.2153 Y60.8517 
G01 X46.0906 Y60.9351 
G01 X45.9521 Y60.9924 
G01 X45.8050 Y61.0217 
G01 X45.6549 Y61.0217 
G01 X45.5078 Y60.9924 
G01 X45.3693 Y60.9351 
G01 X45.2446 Y60.8517 
G01 X45.1386 Y60.7457 
G01 X45.0552 Y60.6210 
G01 X44.9979 Y60.4825 
G01 X44.9686 Y60.3354 
G01 X44.9686 Y60.2386 
G01 X44.9610 Y60.2310 
G01 X44.8527 Y60.0689 
G01 X44.7780 Y59.8887 
G01 X44.7400 Y59.6975 
G01 X44.7400 Y59.5024 
G01 X44.7780 Y59.3112 
G01 X44.8527 Y59.1310 
G01 X44.9610 Y58.9689 
G01 X44.9686 Y58.9613 
G01 X44.9686 Y58.8645 
G01 X44.9979 Y58.7174 
G01 X45.0000 Y58.7124 
G01 X45.0000 Y55.8965 
G01 X44.9890 Y55.8701 
G01 X44.9890 Y53.6298 
G01 X45.0044 Y53.5927 
G01 X45.0327 Y53.5644 
G01 X45.0698 Y53.5490 
G01 X46.9101 Y53.5490 
G01 X46.9472 Y53.5644 
G01 X46.9755 Y53.5927 
G01 X46.9909 Y53.6298 
G01 X46.9909 Y53.7600 
G01 X51.5090 Y53.7600 
G01 X51.5090 Y53.2698 
G01 X51.5244 Y53.2327 
G01 X51.5527 Y53.2044 
G01 X51.5898 Y53.1890 
G01 X52.2276 Y53.1890 
G01 X52.2410 Y53.1689 
G01 X52.3789 Y53.0310 
G01 X52.5410 Y52.9227 
G01 X52.7212 Y52.8480 
G01 X52.9124 Y52.8100 
G01 X53.1075 Y52.8100 
G01 X53.6975 Y52.8100 
G01 X53.8887 Y52.8480 
G01 X54.0689 Y52.9227 
G01 X54.2310 Y53.0310 
G01 X54.3689 Y53.1689 
G01 X54.3823 Y53.1890 
G01 X54.4301 Y53.1890 
G01 X54.4672 Y53.2044 
G01 X54.4727 Y53.2100 
G01 X57.3890 Y53.2100 
G01 X57.3890 Y52.6198 
G01 X57.4044 Y52.5827 
G01 X57.4327 Y52.5544 
G01 X57.4698 Y52.5390 
G01 X59.9101 Y52.5390 
G01 X59.9472 Y52.5544 
G01 X59.9755 Y52.5827 
G01 X59.9909 Y52.6198 
G01 X59.9909 Y52.6608 
G01 X61.0608 Y52.6608 
G01 X61.0608 Y34.9391 
G01 X59.4039 Y34.9391 
G01 X59.2188 Y34.9391 
G01 X59.0374 Y34.9030 
G01 X58.8665 Y34.8322 
G01 X58.7127 Y34.7294 
G01 X58.5819 Y34.5986 
G01 X58.4791 Y34.4448 
G01 X58.4083 Y34.2739 
G01 X58.3722 Y34.0925 
G01 X58.3722 Y30.8086 
G01 X58.3722 Y25.3074 
G01 X58.4083 Y25.1260 
G01 X58.4791 Y24.9551 
G01 X58.5819 Y24.8013 
G01 X58.7127 Y24.6705 
G01 X58.8665 Y24.5677 
G01 X58.9119 Y24.5489 
G01 X58.9144 Y24.5427 
G01 X58.9427 Y24.5144 
G01 X58.9798 Y24.4990 
G01 X59.0323 Y24.4990 
G01 X59.0374 Y24.4969 
G01 X59.2188 Y24.4608 
G01 X59.2308 Y24.4608 
G01 X59.2705 Y24.4013 
G01 X59.4013 Y24.2705 
G01 X59.5551 Y24.1677 
G01 X59.7260 Y24.0969 
G01 X59.9074 Y24.0608 
G01 X60.0925 Y24.0608 
G01 X63.0608 Y24.0608 
G01 X63.0608 Y6.6089 
G01 X49.6089 Y6.6089 
G01 X49.6089 Y9.0600 
G01 X49.5855 Y9.1776 
G01 X49.5396 Y9.2884 
G01 X49.4730 Y9.3882 
G01 X49.3882 Y9.4730 
G01 X49.2884 Y9.5396 
G01 X49.1776 Y9.5855 
G01 X49.0600 Y9.6089 
G01 X48.9399 Y9.6089 
G01 X37.3297 Y9.6089 
G01 X36.5678 Y10.3709 
G00 Z2.0000 
G00 X24.1848 Y8.0590 
G01 Z-0.2000 F600.00 
G01 X26.0751 Y8.0590 
G01 X26.1122 Y8.0744 
G01 X26.1405 Y8.1027 
G01 X26.1559 Y8.1398 
G01 X26.1559 Y9.8601 
G01 X26.1405 Y9.8972 
G01 X26.1122 Y9.9255 
G01 X26.0751 Y9.9409 
G01 X26.0691 Y9.9409 
G01 X26.0691 Y11.0608 
G01 X27.0925 Y11.0608 
G01 X27.2739 Y11.0969 
G01 X27.4448 Y11.1677 
G01 X27.5986 Y11.2705 
G01 X27.7294 Y11.4013 
G01 X27.8322 Y11.5551 
G01 X27.9030 Y11.7260 
G01 X27.9391 Y11.9074 
G01 X27.9391 Y12.0925 
G01 X27.9391 Y17.9937 
G01 X27.9030 Y18.1751 
G01 X27.8322 Y18.3460 
G01 X27.7294 Y18.4998 
G01 X27.7105 Y18.5187 
G01 X27.7105 Y19.0389 
G01 X27.6951 Y19.0760 
G01 X27.6668 Y19.1043 
G01 X27.6297 Y19.1197 
G01 X26.3702 Y19.1197 
G01 X26.3331 Y19.1043 
G01 X26.3048 Y19.0760 
G01 X26.2894 Y19.0389 
G01 X26.2894 Y18.5187 
G01 X26.2705 Y18.4998 
G01 X26.1677 Y18.3460 
G01 X26.0969 Y18.1751 
G01 X26.0608 Y17.9937 
G01 X26.0608 Y12.9391 
G01 X25.2225 Y12.9391 
G01 X25.0374 Y12.9391 
G01 X24.8560 Y12.9030 
G01 X24.6851 Y12.8322 
G01 X24.5313 Y12.7294 
G01 X24.4005 Y12.5986 
G01 X24.2977 Y12.4448 
G01 X24.2269 Y12.2739 
G01 X24.1908 Y12.0925 
G01 X24.1908 Y9.9409 
G01 X24.1848 Y9.9409 
G01 X24.1805 Y9.9391 
G01 X20.9995 Y9.9391 
G01 X20.5678 Y10.3709 
G01 X19.4321 Y10.3709 
G01 X18.6290 Y9.5678 
G01 X18.6290 Y8.4321 
G01 X19.4321 Y7.6290 
G01 X20.5678 Y7.6290 
G01 X20.9995 Y8.0608 
G01 X24.1805 Y8.0608 
G01 X24.1848 Y8.0590 
G00 Z2.0000 
G00 X58.9009 Y35.9788 
G01 Z-0.2000 F600.00 
G01 X58.9009 Y38.2191 
G01 X58.8855 Y38.2562 
G01 X58.8572 Y38.2845 
G01 X58.8201 Y38.2999 
G01 X55.1798 Y38.2999 
G01 X55.1427 Y38.2845 
G01 X55.1144 Y38.2562 
G01 X55.0990 Y38.2191 
G01 X55.0990 Y35.9788 
G01 X55.1144 Y35.9417 
G01 X55.1427 Y35.9134 
G01 X55.1798 Y35.8980 
G01 X58.8201 Y35.8980 
G01 X58.8572 Y35.9134 
G01 X58.8855 Y35.9417 
G01 X58.9009 Y35.9788 
G00 Z2.0000 
G00 X25.3991 Y16.7634 
G01 Z-0.2000 F600.00 
G01 X25.3991 Y17.2836 
G01 X25.4180 Y17.3025 
G01 X25.5208 Y17.4563 
G01 X25.5916 Y17.6272 
G01 X25.6277 Y17.8086 
G01 X25.6277 Y17.9937 
G01 X25.5916 Y18.1751 
G01 X25.5208 Y18.3460 
G01 X25.4180 Y18.4998 
G01 X25.3991 Y18.5187 
G01 X25.3991 Y19.0389 
G01 X25.3837 Y19.0760 
G01 X25.3554 Y19.1043 
G01 X25.3183 Y19.1197 
G01 X24.0588 Y19.1197 
G01 X24.0217 Y19.1043 
G01 X23.9934 Y19.0760 
G01 X23.9780 Y19.0389 
G01 X23.9780 Y18.8403 
G01 X21.3391 Y18.8403 
G01 X21.3391 Y21.0925 
G01 X21.3030 Y21.2739 
G01 X21.3009 Y21.2789 
G01 X21.3009 Y22.0201 
G01 X21.2855 Y22.0572 
G01 X21.2572 Y22.0855 
G01 X21.2201 Y22.1009 
G01 X19.5798 Y22.1009 
G01 X19.5427 Y22.0855 
G01 X19.5144 Y22.0572 
G01 X19.4990 Y22.0201 
G01 X19.4990 Y21.2789 
G01 X19.4969 Y21.2739 
G01 X19.4608 Y21.0925 
G01 X19.4608 Y17.9937 
G01 X19.4608 Y17.8086 
G01 X19.4608 Y15.9074 
G01 X19.4969 Y15.7260 
G01 X19.4990 Y15.7210 
G01 X19.4990 Y14.9798 
G01 X19.5144 Y14.9427 
G01 X19.5427 Y14.9144 
G01 X19.5798 Y14.8990 
G01 X21.2201 Y14.8990 
G01 X21.2572 Y14.9144 
G01 X21.2855 Y14.9427 
G01 X21.3009 Y14.9798 
G01 X21.3009 Y15.7210 
G01 X21.3030 Y15.7260 
G01 X21.3391 Y15.9074 
G01 X21.3391 Y16.9620 
G01 X23.9780 Y16.9620 
G01 X23.9780 Y16.7634 
G01 X23.9934 Y16.7263 
G01 X24.0217 Y16.6980 
G01 X24.0588 Y16.6826 
G01 X25.3183 Y16.6826 
G01 X25.3554 Y16.6980 
G01 X25.3837 Y16.7263 
G01 X25.3991 Y16.7634 
G00 Z2.0000 
G00 X28.9009 Y22.9788 
G01 Z-0.2000 F600.00 
G01 X28.9009 Y25.2191 
G01 X28.8855 Y25.2562 
G01 X28.8572 Y25.2845 
G01 X28.8201 Y25.2999 
G01 X25.1798 Y25.2999 
G01 X25.1427 Y25.2845 
G01 X25.1144 Y25.2562 
G01 X25.0990 Y25.2191 
G01 X25.0990 Y22.9788 
G01 X25.1144 Y22.9417 
G01 X25.1427 Y22.9134 
G01 X25.1798 Y22.8980 
G01 X28.8201 Y22.8980 
G01 X28.8572 Y22.9134 
G01 X28.8855 Y22.9417 
G01 X28.9009 Y22.9788 
G00 Z2.0000 
G00 X11.5678 Y22.3709 
G01 Z-0.2000 F600.00 
G01 X10.4321 Y22.3709 
G01 X9.6290 Y21.5678 
G01 X9.6290 Y20.4321 
G01 X10.4321 Y19.6290 
G01 X11.5678 Y19.6290 
G01 X11.9996 Y20.0608 
G01 X16.6990 Y20.0608 
G01 X16.6990 Y19.9798 
G01 X16.7144 Y19.9427 
G01 X16.7427 Y19.9144 
G01 X16.7798 Y19.8990 
G01 X18.4201 Y19.8990 
G01 X18.4572 Y19.9144 
G01 X18.4855 Y19.9427 
G01 X18.5009 Y19.9798 
G01 X18.5009 Y20.7210 
G01 X18.5030 Y20.7260 
G01 X18.5391 Y20.9074 
G01 X18.5391 Y21.0925 
G01 X18.5030 Y21.2739 
G01 X18.5009 Y21.2789 
G01 X18.5009 Y22.0201 
G01 X18.4855 Y22.0572 
G01 X18.4572 Y22.0855 
G01 X18.4201 Y22.1009 
G01 X16.7798 Y22.1009 
G01 X16.7427 Y22.0855 
G01 X16.7144 Y22.0572 
G01 X16.6990 Y22.0201 
G01 X16.6990 Y21.9391 
G01 X11.9996 Y21.9391 
G01 X11.5678 Y22.3709 
G00 Z2.0000 
G00 X27.7105 Y33.7634 
G01 Z-0.2000 F600.00 
G01 X27.7105 Y34.2836 
G01 X27.7294 Y34.3025 
G01 X27.8322 Y34.4563 
G01 X27.9030 Y34.6272 
G01 X27.9391 Y34.8086 
G01 X27.9391 Y37.9074 
G01 X27.9391 Y38.0925 
G01 X27.9030 Y38.2739 
G01 X27.8322 Y38.4448 
G01 X27.7294 Y38.5986 
G01 X27.5986 Y38.7294 
G01 X27.4448 Y38.8322 
G01 X27.2739 Y38.9030 
G01 X27.0925 Y38.9391 
G01 X21.9391 Y38.9391 
G01 X21.9391 Y39.8068 
G01 X22.1123 Y39.8068 
G01 X22.1494 Y39.8222 
G01 X22.1777 Y39.8505 
G01 X22.1931 Y39.8876 
G01 X22.1931 Y42.1123 
G01 X22.1777 Y42.1494 
G01 X22.1494 Y42.1777 
G01 X22.1123 Y42.1931 
G01 X19.8876 Y42.1931 
G01 X19.8505 Y42.1777 
G01 X19.8222 Y42.1494 
G01 X19.8068 Y42.1123 
G01 X19.8068 Y39.8876 
G01 X19.8222 Y39.8505 
G01 X19.8505 Y39.8222 
G01 X19.8876 Y39.8068 
G01 X20.0608 Y39.8068 
G01 X20.0608 Y37.9074 
G01 X20.0969 Y37.7260 
G01 X20.1677 Y37.5551 
G01 X20.2705 Y37.4013 
G01 X20.4013 Y37.2705 
G01 X20.5551 Y37.1677 
G01 X20.7260 Y37.0969 
G01 X20.9074 Y37.0608 
G01 X21.0925 Y37.0608 
G01 X26.0608 Y37.0608 
G01 X26.0608 Y34.8086 
G01 X26.0969 Y34.6272 
G01 X26.1677 Y34.4563 
G01 X26.2705 Y34.3025 
G01 X26.2894 Y34.2836 
G01 X26.2894 Y33.7634 
G01 X26.3048 Y33.7263 
G01 X26.3331 Y33.6980 
G01 X26.3702 Y33.6826 
G01 X27.6297 Y33.6826 
G01 X27.6668 Y33.6980 
G01 X27.6951 Y33.7263 
G01 X27.7105 Y33.7634 
G00 Z2.0000 
G00 X28.9009 Y39.9788 
G01 Z-0.2000 F600.00 
G01 X28.9009 Y42.2191 
G01 X28.8855 Y42.2562 
G01 X28.8572 Y42.2845 
G01 X28.8201 Y42.2999 
G01 X25.1798 Y42.2999 
G01 X25.1427 Y42.2845 
G01 X25.1144 Y42.2562 
G01 X25.0990 Y42.2191 
G01 X25.0990 Y39.9788 
G01 X25.1144 Y39.9417 
G01 X25.1427 Y39.9134 
G01 X25.1798 Y39.8980 
G01 X28.8201 Y39.8980 
G01 X28.8572 Y39.9134 
G01 X28.8855 Y39.9417 
G01 X28.9009 Y39.9788 
G00 Z2.0000 
G00 X18.5009 Y33.9798 
G01 Z-0.2000 F600.00 
G01 X18.5009 Y34.7209 
G01 X18.5030 Y34.7260 
G01 X18.5391 Y34.9074 
G01 X18.5391 Y35.0925 
G01 X18.5030 Y35.2739 
G01 X18.5009 Y35.2790 
G01 X18.5009 Y36.0201 
G01 X18.4855 Y36.0572 
G01 X18.4572 Y36.0855 
G01 X18.4201 Y36.1009 
G01 X16.7798 Y36.1009 
G01 X16.7427 Y36.0855 
G01 X16.7144 Y36.0572 
G01 X16.6990 Y36.0201 
G01 X16.6990 Y35.9391 
G01 X10.9995 Y35.9391 
G01 X10.5678 Y36.3709 
G01 X9.4321 Y36.3709 
G01 X8.6290 Y35.5678 
G01 X8.6290 Y34.4321 
G01 X9.4321 Y33.6290 
G01 X10.5678 Y33.6290 
G01 X10.9995 Y34.0608 
G01 X16.6990 Y34.0608 
G01 X16.6990 Y33.9798 
G01 X16.7144 Y33.9427 
G01 X16.7427 Y33.9144 
G01 X16.7798 Y33.8990 
G01 X18.4201 Y33.8990 
G01 X18.4572 Y33.9144 
G01 X18.4855 Y33.9427 
G01 X18.5009 Y33.9798 
G00 Z2.0000 
G00 X21.3009 Y36.0201 
G01 Z-0.2000 F600.00 
G01 X21.2855 Y36.0572 
G01 X21.2572 Y36.0855 
G01 X21.2201 Y36.1009 
G01 X19.5798 Y36.1009 
G01 X19.5427 Y36.0855 
G01 X19.5144 Y36.0572 
G01 X19.4990 Y36.0201 
G01 X19.4990 Y35.2790 
G01 X19.4969 Y35.2739 
G01 X19.4608 Y35.0925 
G01 X19.4608 Y34.9937 
G01 X19.4608 Y34.8086 
G01 X19.4608 Y29.9074 
G01 X19.4969 Y29.7260 
G01 X19.4990 Y29.7209 
G01 X19.4990 Y28.9798 
G01 X19.5144 Y28.9427 
G01 X19.5427 Y28.9144 
G01 X19.5798 Y28.8990 
G01 X21.2201 Y28.8990 
G01 X21.2572 Y28.9144 
G01 X21.2855 Y28.9427 
G01 X21.3009 Y28.9798 
G01 X21.3009 Y29.7209 
G01 X21.3030 Y29.7260 
G01 X21.3391 Y29.9074 
G01 X21.3391 Y33.9620 
G01 X23.9780 Y33.9620 
G01 X23.9780 Y33.7634 
G01 X23.9934 Y33.7263 
G01 X24.0217 Y33.6980 
G01 X24.0588 Y33.6826 
G01 X25.3183 Y33.6826 
G01 X25.3554 Y33.6980 
G01 X25.3837 Y33.7263 
G01 X25.3991 Y33.7634 
G01 X25.3991 Y34.2836 
G01 X25.4180 Y34.3025 
G01 X25.5208 Y34.4563 
G01 X25.5916 Y34.6272 
G01 X25.6277 Y34.8086 
G01 X25.6277 Y34.9937 
G01 X25.5916 Y35.1751 
G01 X25.5208 Y35.3460 
G01 X25.4180 Y35.4998 
G01 X25.3991 Y35.5187 
G01 X25.3991 Y36.0389 
G01 X25.3837 Y36.0760 
G01 X25.3554 Y36.1043 
G01 X25.3183 Y36.1197 
G01 X24.0588 Y36.1197 
G01 X24.0217 Y36.1043 
G01 X23.9934 Y36.0760 
G01 X23.9780 Y36.0389 
G01 X23.9780 Y35.8403 
G01 X21.3009 Y35.8403 
G01 X21.3009 Y36.0201 
G00 Z2.0000 
G00 X13.1931 Y56.8876 
G01 Z-0.2000 F600.00 
G01 X13.1931 Y59.1123 
G01 X13.1777 Y59.1494 
G01 X13.1494 Y59.1777 
G01 X13.1123 Y59.1931 
G01 X11.9939 Y59.1931 
G01 X11.8060 Y59.1931 
G01 X10.8876 Y59.1931 
G01 X10.8505 Y59.1777 
G01 X10.8222 Y59.1494 
G01 X10.8068 Y59.1123 
G01 X10.8068 Y58.4827 
G01 X10.7942 Y58.4580 
G01 X10.7362 Y58.2794 
G01 X10.7068 Y58.0939 
G01 X10.7068 Y54.8455 
G01 X10.5290 Y54.6678 
G01 X10.5290 Y53.5321 
G01 X11.3321 Y52.7290 
G01 X12.4678 Y52.7290 
G01 X12.8488 Y53.1100 
G01 X15.9024 Y53.1100 
G01 X16.7390 Y53.1100 
G01 X16.7390 Y53.0898 
G01 X16.7544 Y53.0527 
G01 X16.7827 Y53.0244 
G01 X16.8198 Y53.0090 
G01 X17.0500 Y53.0090 
G01 X17.0500 Y52.7024 
G01 X17.0880 Y52.5112 
G01 X17.1627 Y52.3310 
G01 X17.2710 Y52.1689 
G01 X17.4089 Y52.0310 
G01 X17.5710 Y51.9227 
G01 X17.7512 Y51.8480 
G01 X17.9424 Y51.8100 
G01 X18.1375 Y51.8100 
G01 X21.9690 Y51.8100 
G01 X21.9690 Y51.6098 
G01 X21.9844 Y51.5727 
G01 X22.0127 Y51.5444 
G01 X22.0498 Y51.5290 
G01 X25.9401 Y51.5290 
G01 X25.9772 Y51.5444 
G01 X26.0055 Y51.5727 
G01 X26.0209 Y51.6098 
G01 X26.0209 Y57.1501 
G01 X26.0055 Y57.1872 
G01 X25.9772 Y57.2155 
G01 X25.9401 Y57.2309 
G01 X22.0498 Y57.2309 
G01 X22.0127 Y57.2155 
G01 X21.9844 Y57.1872 
G01 X21.9690 Y57.1501 
G01 X21.9690 Y53.7899 
G01 X19.3409 Y53.7899 
G01 X19.3409 Y55.5301 
G01 X19.3255 Y55.5672 
G01 X19.2972 Y55.5955 
G01 X19.2601 Y55.6109 
G01 X16.9391 Y55.6109 
G01 X16.9391 Y58.8990 
G01 X18.8201 Y58.8990 
G01 X18.8572 Y58.9144 
G01 X18.8855 Y58.9427 
G01 X18.9009 Y58.9798 
G01 X18.9009 Y60.8201 
G01 X18.8855 Y60.8572 
G01 X18.8572 Y60.8855 
G01 X18.8201 Y60.9009 
G01 X14.7798 Y60.9009 
G01 X14.7427 Y60.8855 
G01 X14.7144 Y60.8572 
G01 X14.6990 Y60.8201 
G01 X14.6990 Y58.9798 
G01 X14.7144 Y58.9427 
G01 X14.7427 Y58.9144 
G01 X14.7798 Y58.8990 
G01 X15.0608 Y58.8990 
G01 X15.0608 Y55.0899 
G01 X13.0931 Y55.0899 
G01 X13.0931 Y56.8068 
G01 X13.1123 Y56.8068 
G01 X13.1494 Y56.8222 
G01 X13.1777 Y56.8505 
G01 X13.1931 Y56.8876 
G00 Z2.0000 
G00 X42.3409 Y47.5794 
G01 Z-0.2000 F600.00 
G01 X42.3816 Y47.5963 
G01 X42.4128 Y47.6275 
G01 X42.4297 Y47.6682 
G01 X42.4297 Y48.9317 
G01 X42.4128 Y48.9724 
G01 X42.3816 Y49.0036 
G01 X42.3409 Y49.0205 
G01 X41.8947 Y49.0205 
G01 X41.8386 Y49.0767 
G01 X41.6748 Y49.1861 
G01 X41.4929 Y49.2615 
G01 X41.2997 Y49.2999 
G01 X34.9449 Y49.2999 
G01 X34.9449 Y51.5190 
G01 X35.8921 Y51.5190 
G01 X35.9328 Y51.5359 
G01 X35.9640 Y51.5671 
G01 X35.9809 Y51.6078 
G01 X35.9809 Y53.3800 
G01 X40.2726 Y53.3800 
G01 X40.3520 Y53.3771 
G01 X40.3700 Y53.3800 
G01 X40.3885 Y53.3800 
G01 X40.4673 Y53.3957 
G01 X40.5464 Y53.4084 
G01 X40.5636 Y53.4149 
G01 X40.5817 Y53.4184 
G01 X40.6557 Y53.4491 
G01 X40.7310 Y53.4771 
G01 X40.7467 Y53.4869 
G01 X40.7636 Y53.4938 
G01 X40.8299 Y53.5382 
G01 X40.8313 Y53.5390 
G01 X41.8121 Y53.5390 
G01 X41.8528 Y53.5559 
G01 X41.8840 Y53.5871 
G01 X41.9009 Y53.6278 
G01 X41.9009 Y55.8721 
G01 X41.8840 Y55.9128 
G01 X41.8528 Y55.9440 
G01 X41.8121 Y55.9609 
G01 X39.9678 Y55.9609 
G01 X39.9271 Y55.9440 
G01 X39.8959 Y55.9128 
G01 X39.8790 Y55.8721 
G01 X39.8790 Y55.3799 
G01 X35.9809 Y55.3799 
G01 X35.9809 Y57.1521 
G01 X35.9640 Y57.1928 
G01 X35.9328 Y57.2240 
G01 X35.8921 Y57.2409 
G01 X31.9978 Y57.2409 
G01 X31.9571 Y57.2240 
G01 X31.9259 Y57.1928 
G01 X31.9090 Y57.1521 
G01 X31.9090 Y51.6078 
G01 X31.9259 Y51.5671 
G01 X31.9571 Y51.5359 
G01 X31.9978 Y51.5190 
G01 X32.9450 Y51.5190 
G01 X32.9450 Y48.2014 
G01 X32.9834 Y48.0082 
G01 X33.0588 Y47.8263 
G01 X33.1682 Y47.6625 
G01 X33.3075 Y47.5232 
G01 X33.4713 Y47.4138 
G01 X33.6532 Y47.3384 
G01 X33.8464 Y47.3000 
G01 X34.0435 Y47.3000 
G01 X41.2997 Y47.3000 
G01 X41.4929 Y47.3384 
G01 X41.6748 Y47.4138 
G01 X41.8386 Y47.5232 
G01 X41.8947 Y47.5794 
G01 X42.3409 Y47.5794 
G00 Z2.0000 
G00 X46.2768 Y46.3890 
G01 Z-0.2000 F600.00 
G01 X48.5211 Y46.3890 
G01 X48.5618 Y46.4059 
G01 X48.5930 Y46.4371 
G01 X48.6099 Y46.4778 
G01 X48.6099 Y50.1221 
G01 X48.5930 Y50.1628 
G01 X48.5618 Y50.1940 
G01 X48.5211 Y50.2109 
G01 X46.2768 Y50.2109 
G01 X46.2361 Y50.1940 
G01 X46.2049 Y50.1628 
G01 X46.1880 Y50.1221 
G01 X46.1880 Y46.4778 
G01 X46.2049 Y46.4371 
G01 X46.2361 Y46.4059 
G01 X46.2768 Y46.3890 
G00 Z2.0000 
G00 X39.8786 Y60.3364 
G01 Z-0.2000 F600.00 
G01 X39.8786 Y58.8635 
G01 X39.9082 Y58.7145 
G01 X39.9664 Y58.5742 
G01 X40.0508 Y58.4478 
G01 X40.1582 Y58.3404 
G01 X40.2846 Y58.2560 
G01 X40.4249 Y58.1978 
G01 X40.5739 Y58.1682 
G01 X40.7260 Y58.1682 
G01 X40.8750 Y58.1978 
G01 X41.0153 Y58.2560 
G01 X41.1417 Y58.3404 
G01 X41.2491 Y58.4478 
G01 X41.3335 Y58.5742 
G01 X41.3917 Y58.7145 
G01 X41.4213 Y58.8635 
G01 X41.4213 Y60.3364 
G01 X41.3917 Y60.4854 
G01 X41.3335 Y60.6257 
G01 X41.2491 Y60.7521 
G01 X41.1417 Y60.8595 
G01 X41.0153 Y60.9439 
G01 X40.8750 Y61.0021 
G01 X40.7260 Y61.0317 
G01 X40.5739 Y61.0317 
G01 X40.4249 Y61.0021 
G01 X40.2846 Y60.9439 
G01 X40.1582 Y60.8595 
G01 X40.0508 Y60.7521 
G01 X39.9664 Y60.6257 
G01 X39.9082 Y60.4854 
G01 X39.8786 Y60.3364 
G00 Z2.0000 
G00 X42.4186 Y60.3364 
G01 Z-0.2000 F600.00 
G01 X42.4186 Y60.2427 
G01 X42.4132 Y60.2374 
G01 X42.3038 Y60.0736 
G01 X42.2284 Y59.8917 
G01 X42.1900 Y59.6985 
G01 X42.1900 Y51.6113 
G01 X41.1026 Y51.6113 
G01 X40.9094 Y51.5729 
G01 X40.7275 Y51.4975 
G01 X40.5637 Y51.3881 
G01 X40.5075 Y51.3319 
G01 X40.0614 Y51.3319 
G01 X40.0207 Y51.3150 
G01 X39.9895 Y51.2838 
G01 X39.9726 Y51.2431 
G01 X39.9726 Y49.9796 
G01 X39.9895 Y49.9389 
G01 X40.0207 Y49.9077 
G01 X40.0614 Y49.8908 
G01 X40.5075 Y49.8908 
G01 X40.5637 Y49.8346 
G01 X40.7275 Y49.7252 
G01 X40.9094 Y49.6498 
G01 X41.1026 Y49.6114 
G01 X43.0914 Y49.6114 
G01 X43.2885 Y49.6114 
G01 X43.4817 Y49.6498 
G01 X43.6636 Y49.7252 
G01 X43.8274 Y49.8346 
G01 X43.9667 Y49.9739 
G01 X44.0761 Y50.1377 
G01 X44.1515 Y50.3196 
G01 X44.1899 Y50.5128 
G01 X44.1899 Y59.6985 
G01 X44.1515 Y59.8917 
G01 X44.0761 Y60.0736 
G01 X43.9667 Y60.2374 
G01 X43.9613 Y60.2427 
G01 X43.9613 Y60.3364 
G01 X43.9317 Y60.4854 
G01 X43.8735 Y60.6257 
G01 X43.7891 Y60.7521 
G01 X43.6817 Y60.8595 
G01 X43.5553 Y60.9439 
G01 X43.4150 Y61.0021 
G01 X43.2660 Y61.0317 
G01 X43.1139 Y61.0317 
G01 X42.9649 Y61.0021 
G01 X42.8246 Y60.9439 
G01 X42.6982 Y60.8595 
G01 X42.5908 Y60.7521 
G01 X42.5064 Y60.6257 
G01 X42.4482 Y60.4854 
G01 X42.4186 Y60.3364 
G00 Z2.0000 
G00 X50.0386 Y60.3364 
G01 Z-0.2000 F600.00 
G01 X50.0386 Y58.8635 
G01 X50.0682 Y58.7145 
G01 X50.1264 Y58.5742 
G01 X50.2108 Y58.4478 
G01 X50.3182 Y58.3404 
G01 X50.4446 Y58.2560 
G01 X50.5849 Y58.1978 
G01 X50.7339 Y58.1682 
G01 X50.8860 Y58.1682 
G01 X51.0350 Y58.1978 
G01 X51.1753 Y58.2560 
G01 X51.3017 Y58.3404 
G01 X51.4091 Y58.4478 
G01 X51.4935 Y58.5742 
G01 X51.5517 Y58.7145 
G01 X51.5813 Y58.8635 
G01 X51.5813 Y60.3364 
G01 X51.5517 Y60.4854 
G01 X51.4935 Y60.6257 
G01 X51.4091 Y60.7521 
G01 X51.3017 Y60.8595 
G01 X51.1753 Y60.9439 
G01 X51.0350 Y61.0021 
G01 X50.8860 Y61.0317 
G01 X50.7339 Y61.0317 
G01 X50.5849 Y61.0021 
G01 X50.4446 Y60.9439 
G01 X50.3182 Y60.8595 
G01 X50.2108 Y60.7521 
G01 X50.1264 Y60.6257 
G01 X50.0682 Y60.4854 
G01 X50.0386 Y60.3364 
G00 Z2.0000 
G00 X52.5786 Y60.3364 
G01 Z-0.2000 F600.00 
G01 X52.5786 Y58.8635 
G01 X52.6082 Y58.7145 
G01 X52.6664 Y58.5742 
G01 X52.7508 Y58.4478 
G01 X52.8582 Y58.3404 
G01 X52.9846 Y58.2560 
G01 X53.1249 Y58.1978 
G01 X53.2739 Y58.1682 
G01 X53.4260 Y58.1682 
G01 X53.5750 Y58.1978 
G01 X53.7153 Y58.2560 
G01 X53.8417 Y58.3404 
G01 X53.9491 Y58.4478 
G01 X54.0335 Y58.5742 
G01 X54.0917 Y58.7145 
G01 X54.1213 Y58.8635 
G01 X54.1213 Y60.3364 
G01 X54.0917 Y60.4854 
G01 X54.0335 Y60.6257 
G01 X53.9491 Y60.7521 
G01 X53.8417 Y60.8595 
G01 X53.7153 Y60.9439 
G01 X53.5750 Y61.0021 
G01 X53.4260 Y61.0317 
G01 X53.2739 Y61.0317 
G01 X53.1249 Y61.0021 
G01 X52.9846 Y60.9439 
G01 X52.8582 Y60.8595 
G01 X52.7508 Y60.7521 
G01 X52.6664 Y60.6257 
G01 X52.6082 Y60.4854 
G01 X52.5786 Y60.3364 
G00 Z2.0000 
G00 X55.1186 Y60.3364 
G01 Z-0.2000 F600.00 
G01 X55.1186 Y58.8635 
G01 X55.1482 Y58.7145 
G01 X55.2064 Y58.5742 
G01 X55.2908 Y58.4478 
G01 X55.3982 Y58.3404 
G01 X55.5246 Y58.2560 
G01 X55.6649 Y58.1978 
G01 X55.8139 Y58.1682 
G01 X55.9660 Y58.1682 
G01 X56.1150 Y58.1978 
G01 X56.2553 Y58.2560 
G01 X56.3817 Y58.3404 
G01 X56.4891 Y58.4478 
G01 X56.5735 Y58.5742 
G01 X56.6317 Y58.7145 
G01 X56.6613 Y58.8635 
G01 X56.6613 Y60.3364 
G01 X56.6317 Y60.4854 
G01 X56.5735 Y60.6257 
G01 X56.4891 Y60.7521 
G01 X56.3817 Y60.8595 
G01 X56.2553 Y60.9439 
G01 X56.1150 Y61.0021 
G01 X55.9660 Y61.0317 
G01 X55.8139 Y61.0317 
G01 X55.6649 Y61.0021 
G01 X55.5246 Y60.9439 
G01 X55.3982 Y60.8595 
G01 X55.2908 Y60.7521 
G01 X55.2064 Y60.6257 
G01 X55.1482 Y60.4854 
G01 X55.1186 Y60.3364 
G00 Z2.0000 
G00 X65.9809 Y61.0280 
G01 Z-0.2000 F600.00 
G01 X65.9809 Y62.1719 
G01 X65.9491 Y62.2037 
G01 X65.9491 Y64.9064 
G01 X65.9491 Y65.0935 
G01 X65.9126 Y65.2768 
G01 X65.8411 Y65.4496 
G01 X65.7372 Y65.6050 
G01 X65.6050 Y65.7372 
G01 X65.4496 Y65.8411 
G01 X65.2768 Y65.9126 
G01 X65.0935 Y65.9491 
G01 X48.5915 Y65.9491 
G01 X48.5617 Y65.9615 
G01 X48.3685 Y65.9999 
G01 X48.1714 Y65.9999 
G01 X47.9782 Y65.9615 
G01 X47.7963 Y65.8861 
G01 X47.6325 Y65.7767 
G01 X47.4932 Y65.6374 
G01 X47.3838 Y65.4736 
G01 X47.3084 Y65.2917 
G01 X47.2700 Y65.0985 
G01 X47.2700 Y64.9491 
G01 X44.3491 Y64.9491 
G01 X44.3491 Y68.4935 
G01 X44.3126 Y68.6768 
G01 X44.2411 Y68.8496 
G01 X44.1372 Y69.0050 
G01 X44.0050 Y69.1372 
G01 X43.8496 Y69.2411 
G01 X43.6768 Y69.3126 
G01 X43.4935 Y69.3491 
G01 X43.3064 Y69.3491 
G01 X33.5491 Y69.3491 
G01 X33.5491 Y70.6435 
G01 X33.5126 Y70.8268 
G01 X33.4411 Y70.9996 
G01 X33.3372 Y71.1550 
G01 X33.2050 Y71.2872 
G01 X33.0496 Y71.3911 
G01 X32.8768 Y71.4626 
G01 X32.6935 Y71.4991 
G01 X32.5064 Y71.4991 
G01 X29.3109 Y71.4991 
G01 X29.3109 Y71.7721 
G01 X29.2940 Y71.8128 
G01 X29.2628 Y71.8440 
G01 X29.2221 Y71.8609 
G01 X28.3994 Y71.8609 
G01 X28.2496 Y71.9611 
G01 X28.0768 Y72.0326 
G01 X27.8935 Y72.0691 
G01 X22.9491 Y72.0691 
G01 X22.9491 Y72.9064 
G01 X22.9491 Y73.0935 
G01 X22.9126 Y73.2768 
G01 X22.8411 Y73.4496 
G01 X22.7372 Y73.6050 
G01 X22.6050 Y73.7372 
G01 X22.4496 Y73.8411 
G01 X22.2768 Y73.9126 
G01 X22.0935 Y73.9491 
G01 X14.7064 Y73.9491 
G01 X14.5231 Y73.9126 
G01 X14.3503 Y73.8411 
G01 X14.1949 Y73.7372 
G01 X14.0627 Y73.6050 
G01 X13.9588 Y73.4496 
G01 X13.8873 Y73.2768 
G01 X13.8508 Y73.0935 
G01 X13.8508 Y72.9064 
G01 X13.8873 Y72.7231 
G01 X13.9588 Y72.5503 
G01 X14.0627 Y72.3949 
G01 X14.1949 Y72.2627 
G01 X14.3503 Y72.1588 
G01 X14.4858 Y72.1028 
G01 X14.4858 Y70.7294 
G01 X14.1683 Y70.7294 
G01 X14.1276 Y70.7125 
G01 X14.0964 Y70.6813 
G01 X14.0795 Y70.6406 
G01 X14.0795 Y68.3613 
G01 X14.0964 Y68.3206 
G01 X14.1276 Y68.2894 
G01 X14.1683 Y68.2725 
G01 X15.4316 Y68.2725 
G01 X15.4723 Y68.2894 
G01 X15.5035 Y68.3206 
G01 X15.5204 Y68.3613 
G01 X15.5204 Y70.6406 
G01 X15.5035 Y70.6813 
G01 X15.4723 Y70.7125 
G01 X15.4316 Y70.7294 
G01 X15.1141 Y70.7294 
G01 X15.1141 Y72.0508 
G01 X21.0508 Y72.0508 
G01 X21.0508 Y71.8064 
G01 X21.0490 Y71.8021 
G01 X21.0490 Y70.4378 
G01 X21.0659 Y70.3971 
G01 X21.0971 Y70.3659 
G01 X21.1378 Y70.3490 
G01 X21.4454 Y70.3490 
G01 X21.5503 Y70.2788 
G01 X21.7231 Y70.2073 
G01 X21.9064 Y70.1708 
G01 X22.0935 Y70.1708 
G01 X26.2890 Y70.1708 
G01 X26.2890 Y69.3278 
G01 X26.3059 Y69.2871 
G01 X26.3371 Y69.2559 
G01 X26.3778 Y69.2390 
G01 X29.2221 Y69.2390 
G01 X29.2628 Y69.2559 
G01 X29.2940 Y69.2871 
G01 X29.3109 Y69.3278 
G01 X29.3109 Y69.6008 
G01 X31.6508 Y69.6008 
G01 X31.6508 Y69.2997 
G01 X31.6371 Y69.2940 
G01 X31.6059 Y69.2628 
G01 X31.5890 Y69.2221 
G01 X31.5890 Y67.5778 
G01 X31.6059 Y67.5371 
G01 X31.6371 Y67.5059 
G01 X31.6778 Y67.4890 
G01 X32.3191 Y67.4890 
G01 X32.3231 Y67.4873 
G01 X32.5064 Y67.4508 
G01 X42.4508 Y67.4508 
G01 X42.4508 Y64.0935 
G01 X42.4508 Y63.9064 
G01 X42.4873 Y63.7231 
G01 X42.4890 Y63.7190 
G01 X42.4890 Y63.0778 
G01 X42.5059 Y63.0371 
G01 X42.5371 Y63.0059 
G01 X42.5778 Y62.9890 
G01 X44.2221 Y62.9890 
G01 X44.2628 Y63.0059 
G01 X44.2940 Y63.0371 
G01 X44.2996 Y63.0508 
G01 X47.2700 Y63.0508 
G01 X47.2700 Y59.5014 
G01 X47.3084 Y59.3082 
G01 X47.3838 Y59.1263 
G01 X47.4932 Y58.9625 
G01 X47.4986 Y58.9572 
G01 X47.4986 Y58.8635 
G01 X47.5282 Y58.7145 
G01 X47.5864 Y58.5742 
G01 X47.6708 Y58.4478 
G01 X47.7782 Y58.3404 
G01 X47.9046 Y58.2560 
G01 X48.0449 Y58.1978 
G01 X48.1939 Y58.1682 
G01 X48.3460 Y58.1682 
G01 X48.4950 Y58.1978 
G01 X48.6353 Y58.2560 
G01 X48.7617 Y58.3404 
G01 X48.8691 Y58.4478 
G01 X48.9535 Y58.5742 
G01 X49.0117 Y58.7145 
G01 X49.0413 Y58.8635 
G01 X49.0413 Y58.9572 
G01 X49.0467 Y58.9625 
G01 X49.1561 Y59.1263 
G01 X49.2315 Y59.3082 
G01 X49.2699 Y59.5014 
G01 X49.2699 Y63.9014 
G01 X49.2699 Y64.0508 
G01 X64.0508 Y64.0508 
G01 X64.0508 Y62.9809 
G01 X64.0280 Y62.9809 
G01 X63.2190 Y62.1719 
G01 X63.2190 Y61.0280 
G01 X64.0280 Y60.2190 
G01 X65.1719 Y60.2190 
G01 X65.9809 Y61.0280 
G00 Z2.0000 
G00 X21.1378 Y66.0940 
G01 Z-0.2000 F600.00 
G01 X22.8621 Y66.0940 
G01 X22.9028 Y66.1109 
G01 X22.9340 Y66.1421 
G01 X22.9509 Y66.1828 
G01 X22.9509 Y68.0771 
G01 X22.9340 Y68.1178 
G01 X22.9028 Y68.1490 
G01 X22.8621 Y68.1659 
G01 X21.1378 Y68.1659 
G01 X21.0971 Y68.1490 
G01 X21.0659 Y68.1178 
G01 X21.0499 Y68.0791 
G01 X17.7491 Y68.0791 
G01 X17.7491 Y68.2752 
G01 X17.7833 Y68.2894 
G01 X17.8145 Y68.3206 
G01 X17.8314 Y68.3613 
G01 X17.8314 Y70.6406 
G01 X17.8145 Y70.6813 
G01 X17.7833 Y70.7125 
G01 X17.7460 Y70.7280 
G01 X17.7126 Y70.8958 
G01 X17.6411 Y71.0686 
G01 X17.5372 Y71.2240 
G01 X17.4050 Y71.3562 
G01 X17.2496 Y71.4601 
G01 X17.0768 Y71.5316 
G01 X16.8935 Y71.5681 
G01 X16.7064 Y71.5681 
G01 X16.5231 Y71.5316 
G01 X16.3503 Y71.4601 
G01 X16.1949 Y71.3562 
G01 X16.0627 Y71.2240 
G01 X15.9588 Y71.0686 
G01 X15.8873 Y70.8958 
G01 X15.8508 Y70.7125 
G01 X15.8508 Y67.4109 
G01 X14.7778 Y67.4109 
G01 X14.7371 Y67.3940 
G01 X14.7059 Y67.3628 
G01 X14.6890 Y67.3221 
G01 X14.6890 Y65.4778 
G01 X14.7059 Y65.4371 
G01 X14.7371 Y65.4059 
G01 X14.7778 Y65.3890 
G01 X18.8221 Y65.3890 
G01 X18.8628 Y65.4059 
G01 X18.8940 Y65.4371 
G01 X18.9109 Y65.4778 
G01 X18.9109 Y66.1808 
G01 X21.0499 Y66.1808 
G01 X21.0659 Y66.1421 
G01 X21.0971 Y66.1109 
G01 X21.1378 Y66.0940 
G00 Z2.0000 
G00 X16.7109 Y74.5768 
G01 Z-0.2000 F600.00 
G01 X16.7109 Y76.8211 
G01 X16.6940 Y76.8618 
G01 X16.6628 Y76.8930 
G01 X16.6221 Y76.9099 
G01 X12.9778 Y76.9099 
G01 X12.9371 Y76.8930 
G01 X12.9059 Y76.8618 
G01 X12.8890 Y76.8211 
G01 X12.8890 Y74.5768 
G01 X12.9059 Y74.5361 
G01 X12.9371 Y74.5049 
G01 X12.9778 Y74.4880 
G01 X16.6221 Y74.4880 
G01 X16.6628 Y74.5049 
G01 X16.6940 Y74.5361 
G01 X16.7109 Y74.5768 
G00 Z2.0000 
G00 X55.6109 Y22.3778 
G01 Z-0.2000 F600.00 
G01 X55.6109 Y23.8221 
G01 X55.5940 Y23.8628 
G01 X55.5628 Y23.8940 
G01 X55.5221 Y23.9109 
G01 X55.5173 Y23.9109 
G01 X55.5173 Y25.3810 
G01 X56.3810 Y25.3810 
G01 X56.3810 Y22.5389 
G01 X56.4048 Y22.4194 
G01 X56.4514 Y22.3067 
G01 X56.5192 Y22.2054 
G01 X56.6054 Y22.1192 
G01 X56.7067 Y22.0514 
G01 X56.8194 Y22.0048 
G01 X56.9389 Y21.9810 
G01 X57.0610 Y21.9810 
G01 X58.8890 Y21.9810 
G01 X58.8890 Y21.7778 
G01 X58.9059 Y21.7371 
G01 X58.9371 Y21.7059 
G01 X58.9778 Y21.6890 
G01 X61.0221 Y21.6890 
G01 X61.0628 Y21.7059 
G01 X61.0940 Y21.7371 
G01 X61.1109 Y21.7778 
G01 X61.1109 Y23.4221 
G01 X61.0940 Y23.4628 
G01 X61.0628 Y23.4940 
G01 X61.0221 Y23.5109 
G01 X58.9778 Y23.5109 
G01 X58.9371 Y23.4940 
G01 X58.9059 Y23.4628 
G01 X58.8890 Y23.4221 
G01 X58.8890 Y23.2189 
G01 X57.6189 Y23.2189 
G01 X57.6189 Y25.9389 
G01 X57.6189 Y26.0610 
G01 X57.5951 Y26.1805 
G01 X57.5485 Y26.2932 
G01 X57.4807 Y26.3945 
G01 X57.3945 Y26.4807 
G01 X57.2932 Y26.5485 
G01 X57.1805 Y26.5951 
G01 X57.0610 Y26.6189 
G01 X55.6189 Y26.6189 
G01 X55.6189 Y30.9622 
G01 X55.5951 Y31.0817 
G01 X55.5485 Y31.1944 
G01 X55.4807 Y31.2957 
G01 X55.4091 Y31.3672 
G01 X55.4091 Y32.0409 
G01 X55.3922 Y32.0816 
G01 X55.3610 Y32.1128 
G01 X55.3203 Y32.1297 
G01 X54.0568 Y32.1297 
G01 X54.0161 Y32.1128 
G01 X53.9849 Y32.0816 
G01 X53.9680 Y32.0409 
G01 X53.9680 Y29.7614 
G01 X53.9849 Y29.7207 
G01 X54.0161 Y29.6895 
G01 X54.0568 Y29.6726 
G01 X54.3810 Y29.6726 
G01 X54.3810 Y26.0610 
G01 X54.3810 Y25.9389 
G01 X54.4048 Y25.8194 
G01 X54.4514 Y25.7067 
G01 X54.4826 Y25.6601 
G01 X54.4826 Y23.9109 
G01 X54.4778 Y23.9109 
G01 X54.4371 Y23.8940 
G01 X54.4059 Y23.8628 
G01 X54.3890 Y23.8221 
G01 X54.3890 Y22.3778 
G01 X54.4059 Y22.3371 
G01 X54.4371 Y22.3059 
G01 X54.4778 Y22.2890 
G01 X55.5221 Y22.2890 
G01 X55.5628 Y22.3059 
G01 X55.5940 Y22.3371 
G01 X55.6109 Y22.3778 
G00 Z2.0000 
G00 X52.5109 Y13.9778 
G01 Z-0.2000 F600.00 
G01 X52.5109 Y16.0221 
G01 X52.4940 Y16.0628 
G01 X52.4628 Y16.0940 
G01 X52.4221 Y16.1109 
G01 X51.6189 Y16.1109 
G01 X51.6189 Y17.3810 
G01 X54.1110 Y17.3810 
G01 X54.2305 Y17.4048 
G01 X54.3432 Y17.4514 
G01 X54.4445 Y17.5192 
G01 X54.5307 Y17.6054 
G01 X54.5985 Y17.7067 
G01 X54.6451 Y17.8194 
G01 X54.6689 Y17.9389 
G01 X54.6689 Y18.0610 
G01 X54.6451 Y18.1805 
G01 X54.5985 Y18.2932 
G01 X54.5673 Y18.3398 
G01 X54.5673 Y20.0890 
G01 X54.5721 Y20.0890 
G01 X54.6128 Y20.1059 
G01 X54.6440 Y20.1371 
G01 X54.6609 Y20.1778 
G01 X54.6609 Y21.6221 
G01 X54.6440 Y21.6628 
G01 X54.6128 Y21.6940 
G01 X54.5721 Y21.7109 
G01 X53.5278 Y21.7109 
G01 X53.4871 Y21.6940 
G01 X53.4559 Y21.6628 
G01 X53.4390 Y21.6221 
G01 X53.4390 Y20.1778 
G01 X53.4559 Y20.1371 
G01 X53.4871 Y20.1059 
G01 X53.5278 Y20.0890 
G01 X53.5326 Y20.0890 
G01 X53.5326 Y18.6189 
G01 X50.9389 Y18.6189 
G01 X50.8194 Y18.5951 
G01 X50.7067 Y18.5485 
G01 X50.6054 Y18.4807 
G01 X50.5192 Y18.3945 
G01 X50.4514 Y18.2932 
G01 X50.4048 Y18.1805 
G01 X50.3810 Y18.0610 
G01 X50.3810 Y17.9389 
G01 X50.3810 Y14.9389 
G01 X50.4048 Y14.8194 
G01 X50.4514 Y14.7067 
G01 X50.5192 Y14.6054 
G01 X50.6054 Y14.5192 
G01 X50.6890 Y14.4633 
G01 X50.6890 Y13.9778 
G01 X50.7059 Y13.9371 
G01 X50.7371 Y13.9059 
G01 X50.7778 Y13.8890 
G01 X52.4221 Y13.8890 
G01 X52.4628 Y13.9059 
G01 X52.4940 Y13.9371 
G01 X52.5109 Y13.9778 
G00 Z2.0000 
G00 X40.8409 Y32.4280 
G01 Z-0.2000 F600.00 
G01 X40.8409 Y33.5719 
G01 X40.0319 Y34.3809 
G01 X38.8880 Y34.3809 
G01 X38.0790 Y33.5719 
G01 X38.0790 Y32.4280 
G01 X38.5108 Y31.9962 
G01 X38.5108 Y27.9064 
G01 X38.5473 Y27.7231 
G01 X38.6188 Y27.5503 
G01 X38.7227 Y27.3949 
G01 X38.8549 Y27.2627 
G01 X39.0103 Y27.1588 
G01 X39.1831 Y27.0873 
G01 X39.3664 Y27.0508 
G01 X39.5535 Y27.0508 
G01 X45.0508 Y27.0508 
G01 X45.0508 Y20.2930 
G01 X45.0098 Y20.2797 
G01 X44.8162 Y20.1811 
G01 X44.6403 Y20.0533 
G01 X44.4866 Y19.8996 
G01 X44.3588 Y19.7237 
G01 X44.2602 Y19.5301 
G01 X44.1930 Y19.3234 
G01 X44.1590 Y19.1087 
G01 X44.1590 Y18.8912 
G01 X44.1930 Y18.6765 
G01 X44.2602 Y18.4698 
G01 X44.3588 Y18.2762 
G01 X44.4866 Y18.1003 
G01 X44.6403 Y17.9466 
G01 X44.8162 Y17.8188 
G01 X45.0098 Y17.7202 
G01 X45.2165 Y17.6530 
G01 X45.4312 Y17.6190 
G01 X45.6487 Y17.6190 
G01 X45.8634 Y17.6530 
G01 X46.0701 Y17.7202 
G01 X46.2637 Y17.8188 
G01 X46.4396 Y17.9466 
G01 X46.5933 Y18.1003 
G01 X46.7211 Y18.2762 
G01 X46.8197 Y18.4698 
G01 X46.8633 Y18.6042 
G01 X46.9126 Y18.7231 
G01 X46.9491 Y18.9064 
G01 X46.9491 Y27.9064 
G01 X46.9491 Y28.0935 
G01 X46.9126 Y28.2768 
G01 X46.8411 Y28.4496 
G01 X46.7372 Y28.6050 
G01 X46.6050 Y28.7372 
G01 X46.4496 Y28.8411 
G01 X46.2768 Y28.9126 
G01 X46.0935 Y28.9491 
G01 X40.4091 Y28.9491 
G01 X40.4091 Y31.9962 
G01 X40.8409 Y32.4280 
G00 Z2.0000 
G00 X41.8409 Y19.5719 
G01 Z-0.2000 F600.00 
G01 X41.0319 Y20.3809 
G01 X39.8880 Y20.3809 
G01 X39.0790 Y19.5719 
G01 X39.0790 Y18.9491 
G01 X34.9491 Y18.9491 
G01 X34.9491 Y27.0935 
G01 X34.9491 Y34.9947 
G01 X34.9491 Y44.9886 
G01 X40.2012 Y44.9886 
G01 X40.2012 Y44.1014 
G01 X40.2396 Y43.9082 
G01 X40.3150 Y43.7263 
G01 X40.4244 Y43.5625 
G01 X40.5637 Y43.4232 
G01 X40.7275 Y43.3138 
G01 X40.9094 Y43.2384 
G01 X41.1026 Y43.2000 
G01 X41.2997 Y43.2000 
G01 X52.0985 Y43.2000 
G01 X52.2917 Y43.2384 
G01 X52.4736 Y43.3138 
G01 X52.6374 Y43.4232 
G01 X52.7767 Y43.5625 
G01 X52.8861 Y43.7263 
G01 X52.9615 Y43.9082 
G01 X52.9999 Y44.1014 
G01 X52.9999 Y44.2985 
G01 X52.9999 Y46.8790 
G01 X54.4321 Y46.8790 
G01 X54.4728 Y46.8959 
G01 X54.5040 Y46.9271 
G01 X54.5209 Y46.9678 
G01 X54.5209 Y47.1900 
G01 X55.7014 Y47.1900 
G01 X55.8985 Y47.1900 
G01 X56.0917 Y47.2284 
G01 X56.2736 Y47.3038 
G01 X56.4374 Y47.4132 
G01 X56.5767 Y47.5525 
G01 X56.6861 Y47.7163 
G01 X56.7260 Y47.8127 
G01 X57.3790 Y47.8218 
G01 X57.3790 Y47.6178 
G01 X57.3959 Y47.5771 
G01 X57.4271 Y47.5459 
G01 X57.4678 Y47.5290 
G01 X59.9121 Y47.5290 
G01 X59.9528 Y47.5459 
G01 X59.9840 Y47.5771 
G01 X60.0009 Y47.6178 
G01 X60.0009 Y50.0621 
G01 X59.9840 Y50.1028 
G01 X59.9528 Y50.1340 
G01 X59.9121 Y50.1509 
G01 X57.4678 Y50.1509 
G01 X57.4271 Y50.1340 
G01 X57.3959 Y50.1028 
G01 X57.3790 Y50.0621 
G01 X57.3790 Y49.8218 
G01 X55.7958 Y49.7999 
G01 X55.7014 Y49.7999 
G01 X55.6944 Y49.7985 
G01 X55.6876 Y49.7984 
G01 X55.6027 Y49.7802 
G01 X55.5082 Y49.7615 
G01 X55.5014 Y49.7586 
G01 X55.4950 Y49.7573 
G01 X55.4132 Y49.7221 
G01 X55.3263 Y49.6861 
G01 X55.3207 Y49.6823 
G01 X55.3141 Y49.6795 
G01 X55.2380 Y49.6271 
G01 X55.1625 Y49.5767 
G01 X55.1576 Y49.5717 
G01 X55.1518 Y49.5678 
G01 X55.0884 Y49.5025 
G01 X55.0232 Y49.4374 
G01 X55.0193 Y49.4315 
G01 X55.0145 Y49.4266 
G01 X54.9647 Y49.3497 
G01 X54.9138 Y49.2736 
G01 X54.9112 Y49.2673 
G01 X54.9073 Y49.2613 
G01 X54.8789 Y49.1899 
G01 X54.5209 Y49.1899 
G01 X54.5209 Y49.4121 
G01 X54.5040 Y49.4528 
G01 X54.4728 Y49.4840 
G01 X54.4321 Y49.5009 
G01 X51.5878 Y49.5009 
G01 X51.5471 Y49.4840 
G01 X51.5159 Y49.4528 
G01 X51.4990 Y49.4121 
G01 X51.4990 Y49.0578 
G01 X51.3625 Y48.9667 
G01 X51.2232 Y48.8274 
G01 X51.1138 Y48.6636 
G01 X51.0384 Y48.4817 
G01 X51.0000 Y48.2885 
G01 X51.0000 Y45.1999 
G01 X42.2011 Y45.1999 
G01 X42.2011 Y45.2680 
G01 X42.3409 Y45.2680 
G01 X42.3816 Y45.2849 
G01 X42.4128 Y45.3161 
G01 X42.4297 Y45.3568 
G01 X42.4297 Y46.6203 
G01 X42.4128 Y46.6610 
G01 X42.3816 Y46.6922 
G01 X42.3409 Y46.7091 
G01 X41.8948 Y46.7091 
G01 X41.8386 Y46.7653 
G01 X41.6748 Y46.8747 
G01 X41.4929 Y46.9501 
G01 X41.2997 Y46.9885 
G01 X41.1026 Y46.9885 
G01 X41.1025 Y46.9885 
G01 X33.9014 Y46.9885 
G01 X19.0399 Y46.9885 
G01 X19.0399 Y47.9990 
G01 X19.2621 Y47.9990 
G01 X19.3028 Y48.0159 
G01 X19.3340 Y48.0471 
G01 X19.3509 Y48.0878 
G01 X19.3509 Y50.5321 
G01 X19.3340 Y50.5728 
G01 X19.3028 Y50.6040 
G01 X19.2621 Y50.6209 
G01 X16.8178 Y50.6209 
G01 X16.7771 Y50.6040 
G01 X16.7459 Y50.5728 
G01 X16.7290 Y50.5321 
G01 X16.7290 Y50.3099 
G01 X10.8985 Y50.3099 
G01 X10.7014 Y50.3099 
G01 X10.5082 Y50.2715 
G01 X10.3263 Y50.1961 
G01 X10.1625 Y50.0867 
G01 X10.0232 Y49.9474 
G01 X9.9138 Y49.7836 
G01 X9.8384 Y49.6017 
G01 X9.8381 Y49.5999 
G01 X9.3999 Y49.5999 
G01 X9.3999 Y62.2000 
G01 X10.9014 Y62.2000 
G01 X27.9014 Y62.2000 
G01 X32.9014 Y62.2000 
G01 X36.6000 Y62.2000 
G01 X36.6000 Y59.6985 
G01 X36.6000 Y59.5014 
G01 X36.6384 Y59.3082 
G01 X36.7138 Y59.1263 
G01 X36.8232 Y58.9625 
G01 X36.9625 Y58.8232 
G01 X37.1263 Y58.7138 
G01 X37.3082 Y58.6384 
G01 X37.4080 Y58.6186 
G01 X37.4264 Y58.5742 
G01 X37.5108 Y58.4478 
G01 X37.6182 Y58.3404 
G01 X37.7446 Y58.2560 
G01 X37.8849 Y58.1978 
G01 X38.0339 Y58.1682 
G01 X38.1860 Y58.1682 
G01 X38.3350 Y58.1978 
G01 X38.4753 Y58.2560 
G01 X38.6017 Y58.3404 
G01 X38.7091 Y58.4478 
G01 X38.7935 Y58.5742 
G01 X38.8517 Y58.7145 
G01 X38.8813 Y58.8635 
G01 X38.8813 Y58.9571 
G01 X38.8867 Y58.9625 
G01 X38.9961 Y59.1263 
G01 X39.0715 Y59.3082 
G01 X39.1099 Y59.5014 
G01 X39.1099 Y59.6985 
G01 X39.0715 Y59.8917 
G01 X38.9961 Y60.0736 
G01 X38.8867 Y60.2374 
G01 X38.8813 Y60.2428 
G01 X38.8813 Y60.3364 
G01 X38.8517 Y60.4854 
G01 X38.7935 Y60.6257 
G01 X38.7091 Y60.7521 
G01 X38.6017 Y60.8595 
G01 X38.5999 Y60.8606 
G01 X38.5999 Y63.0508 
G01 X39.7003 Y63.0508 
G01 X39.7059 Y63.0371 
G01 X39.7371 Y63.0059 
G01 X39.7778 Y62.9890 
G01 X41.4221 Y62.9890 
G01 X41.4628 Y63.0059 
G01 X41.4940 Y63.0371 
G01 X41.5109 Y63.0778 
G01 X41.5109 Y63.7190 
G01 X41.5126 Y63.7231 
G01 X41.5491 Y63.9064 
G01 X41.5491 Y64.0935 
G01 X41.5126 Y64.2768 
G01 X41.5109 Y64.2809 
G01 X41.5109 Y64.9221 
G01 X41.4940 Y64.9628 
G01 X41.4628 Y64.9940 
G01 X41.4221 Y65.0109 
G01 X39.7778 Y65.0109 
G01 X39.7371 Y64.9940 
G01 X39.7059 Y64.9628 
G01 X39.7003 Y64.9491 
G01 X37.5064 Y64.9491 
G01 X37.3231 Y64.9126 
G01 X37.1503 Y64.8411 
G01 X36.9949 Y64.7372 
G01 X36.8627 Y64.6050 
G01 X36.7588 Y64.4496 
G01 X36.6873 Y64.2768 
G01 X36.6720 Y64.1999 
G01 X33.9491 Y64.1999 
G01 X33.9491 Y65.6935 
G01 X33.9126 Y65.8768 
G01 X33.8411 Y66.0496 
G01 X33.7372 Y66.2050 
G01 X33.6109 Y66.3312 
G01 X33.6109 Y66.4221 
G01 X33.5940 Y66.4628 
G01 X33.5628 Y66.4940 
G01 X33.5221 Y66.5109 
G01 X33.2808 Y66.5109 
G01 X33.2768 Y66.5126 
G01 X33.0935 Y66.5491 
G01 X32.9064 Y66.5491 
G01 X32.5064 Y66.5491 
G01 X32.3231 Y66.5126 
G01 X32.3191 Y66.5109 
G01 X31.6778 Y66.5109 
G01 X31.6371 Y66.4940 
G01 X31.6059 Y66.4628 
G01 X31.5890 Y66.4221 
G01 X31.5890 Y64.7778 
G01 X31.6059 Y64.7371 
G01 X31.6371 Y64.7059 
G01 X31.6778 Y64.6890 
G01 X32.0508 Y64.6890 
G01 X32.0508 Y64.1999 
G01 X29.3109 Y64.1999 
G01 X29.3109 Y65.4721 
G01 X29.2940 Y65.5128 
G01 X29.2628 Y65.5440 
G01 X29.2221 Y65.5609 
G01 X26.3778 Y65.5609 
G01 X26.3371 Y65.5440 
G01 X26.3059 Y65.5128 
G01 X26.2890 Y65.4721 
G01 X26.2890 Y64.1999 
G01 X11.9491 Y64.1999 
G01 X11.9491 Y68.2725 
G01 X13.1206 Y68.2725 
G01 X13.1613 Y68.2894 
G01 X13.1925 Y68.3206 
G01 X13.2094 Y68.3613 
G01 X13.2094 Y68.8798 
G01 X13.3041 Y69.0058 
G01 X13.3850 Y69.1743 
G01 X13.4315 Y69.3554 
G01 X13.4418 Y69.5422 
G01 X13.4155 Y69.7273 
G01 X13.3535 Y69.9037 
G01 X13.2584 Y70.0646 
G01 X13.2094 Y70.1192 
G01 X13.2094 Y70.6406 
G01 X13.1925 Y70.6813 
G01 X13.1613 Y70.7125 
G01 X13.1206 Y70.7294 
G01 X12.4335 Y70.7294 
G01 X11.6235 Y71.3376 
G01 X11.6050 Y71.3562 
G01 X11.5488 Y71.3937 
G01 X11.4951 Y71.4341 
G01 X11.4716 Y71.4453 
G01 X11.4496 Y71.4601 
G01 X11.3869 Y71.4860 
G01 X11.3266 Y71.5150 
G01 X11.3010 Y71.5215 
G01 X11.2768 Y71.5316 
G01 X11.2106 Y71.5447 
G01 X11.1455 Y71.5615 
G01 X11.1194 Y71.5629 
G01 X11.0935 Y71.5681 
G01 X11.0258 Y71.5681 
G01 X10.9587 Y71.5718 
G01 X10.9327 Y71.5681 
G01 X10.9064 Y71.5681 
G01 X10.8410 Y71.5550 
G01 X10.7736 Y71.5455 
G01 X10.7484 Y71.5366 
G01 X10.7231 Y71.5316 
G01 X10.6613 Y71.5060 
G01 X10.5972 Y71.4835 
G01 X10.5747 Y71.4701 
G01 X10.5503 Y71.4601 
G01 X10.4946 Y71.4228 
G01 X10.4363 Y71.3884 
G01 X10.4165 Y71.3706 
G01 X10.3949 Y71.3562 
G01 X10.3474 Y71.3086 
G01 X10.2971 Y71.2636 
G01 X10.2814 Y71.2427 
G01 X10.2627 Y71.2240 
G01 X10.2250 Y71.1676 
G01 X10.1848 Y71.1141 
G01 X10.1736 Y71.0906 
G01 X10.1588 Y71.0686 
G01 X10.1329 Y71.0059 
G01 X10.1039 Y70.9456 
G01 X10.0974 Y70.9200 
G01 X10.0873 Y70.8958 
G01 X10.0742 Y70.8296 
G01 X10.0574 Y70.7645 
G01 X10.0560 Y70.7384 
G01 X10.0508 Y70.7125 
G01 X10.0508 Y70.6448 
G01 X10.0471 Y70.5777 
G01 X10.0508 Y70.5517 
G01 X10.0508 Y64.1999 
G01 X8.4985 Y64.1999 
G01 X8.3014 Y64.1999 
G01 X8.1082 Y64.1615 
G01 X7.9263 Y64.0861 
G01 X7.7625 Y63.9767 
G01 X7.6232 Y63.8374 
G01 X7.5138 Y63.6736 
G01 X7.4384 Y63.4917 
G01 X7.4000 Y63.2985 
G01 X7.4000 Y48.5014 
G01 X7.4384 Y48.3082 
G01 X7.5138 Y48.1263 
G01 X7.6232 Y47.9625 
G01 X7.7625 Y47.8232 
G01 X7.9263 Y47.7138 
G01 X8.1082 Y47.6384 
G01 X8.3014 Y47.6000 
G01 X8.4985 Y47.6000 
G01 X8.4986 Y47.6000 
G01 X10.6470 Y47.6000 
G01 X10.7280 Y47.5190 
G01 X10.9858 Y47.5190 
G01 X10.9858 Y44.3809 
G01 X10.4280 Y44.3809 
G01 X9.6190 Y43.5719 
G01 X9.6190 Y42.4280 
G01 X10.4280 Y41.6190 
G01 X11.5719 Y41.6190 
G01 X12.3809 Y42.4280 
G01 X12.3809 Y43.5719 
G01 X11.6141 Y44.3386 
G01 X11.6141 Y47.5190 
G01 X11.8719 Y47.5190 
G01 X12.6629 Y48.3100 
G01 X16.7290 Y48.3100 
G01 X16.7290 Y48.0878 
G01 X16.7459 Y48.0471 
G01 X16.7771 Y48.0159 
G01 X16.8178 Y47.9990 
G01 X17.0400 Y47.9990 
G01 X17.0400 Y45.8900 
G01 X17.0784 Y45.6968 
G01 X17.1538 Y45.5149 
G01 X17.2632 Y45.3511 
G01 X17.4025 Y45.2118 
G01 X17.5663 Y45.1024 
G01 X17.7482 Y45.0270 
G01 X17.9414 Y44.9886 
G01 X18.1385 Y44.9886 
G01 X33.0508 Y44.9886 
G01 X33.0508 Y35.8503 
G01 X30.0319 Y35.8503 
G01 X30.0319 Y36.0409 
G01 X30.0150 Y36.0816 
G01 X29.9838 Y36.1128 
G01 X29.9431 Y36.1297 
G01 X28.6796 Y36.1297 
G01 X28.6389 Y36.1128 
G01 X28.6077 Y36.0816 
G01 X28.5908 Y36.0409 
G01 X28.5908 Y35.5228 
G01 X28.5741 Y35.5062 
G01 X28.4702 Y35.3508 
G01 X28.3987 Y35.1780 
G01 X28.3622 Y34.9947 
G01 X28.3622 Y34.8076 
G01 X28.3987 Y34.6243 
G01 X28.4702 Y34.4515 
G01 X28.5741 Y34.2961 
G01 X28.5908 Y34.2795 
G01 X28.5908 Y33.7614 
G01 X28.6077 Y33.7207 
G01 X28.6389 Y33.6895 
G01 X28.6796 Y33.6726 
G01 X29.9431 Y33.6726 
G01 X29.9838 Y33.6895 
G01 X30.0150 Y33.7207 
G01 X30.0319 Y33.7614 
G01 X30.0319 Y33.9520 
G01 X33.0508 Y33.9520 
G01 X33.0508 Y27.9491 
G01 X18.9491 Y27.9491 
G01 X18.9491 Y30.0935 
G01 X18.9126 Y30.2768 
G01 X18.8411 Y30.4496 
G01 X18.7372 Y30.6050 
G01 X18.6050 Y30.7372 
G01 X18.5109 Y30.8001 
G01 X18.5109 Y31.0221 
G01 X18.4940 Y31.0628 
G01 X18.4628 Y31.0940 
G01 X18.4221 Y31.1109 
G01 X16.7778 Y31.1109 
G01 X16.7371 Y31.0940 
G01 X16.7059 Y31.0628 
G01 X16.6890 Y31.0221 
G01 X16.6890 Y28.9778 
G01 X16.7059 Y28.9371 
G01 X16.7371 Y28.9059 
G01 X16.7778 Y28.8890 
G01 X17.0508 Y28.8890 
G01 X17.0508 Y27.9491 
G01 X6.9064 Y27.9491 
G01 X6.7231 Y27.9126 
G01 X6.5503 Y27.8411 
G01 X6.3949 Y27.7372 
G01 X6.2627 Y27.6050 
G01 X6.1588 Y27.4496 
G01 X6.0873 Y27.2768 
G01 X6.0508 Y27.0935 
G01 X6.0508 Y26.9064 
G01 X6.0508 Y15.9064 
G01 X6.0873 Y15.7231 
G01 X6.1588 Y15.5503 
G01 X6.2627 Y15.3949 
G01 X6.3949 Y15.2627 
G01 X6.5503 Y15.1588 
G01 X6.7231 Y15.0873 
G01 X6.9064 Y15.0508 
G01 X7.0935 Y15.0508 
G01 X16.6890 Y15.0508 
G01 X16.6890 Y14.9778 
G01 X16.7059 Y14.9371 
G01 X16.7371 Y14.9059 
G01 X16.7778 Y14.8890 
G01 X18.4221 Y14.8890 
G01 X18.4628 Y14.9059 
G01 X18.4940 Y14.9371 
G01 X18.5109 Y14.9778 
G01 X18.5109 Y15.7190 
G01 X18.5126 Y15.7231 
G01 X18.5491 Y15.9064 
G01 X18.5491 Y16.0935 
G01 X18.5126 Y16.2768 
G01 X18.5109 Y16.2809 
G01 X18.5109 Y17.0221 
G01 X18.4940 Y17.0628 
G01 X18.4628 Y17.0940 
G01 X18.4221 Y17.1109 
G01 X16.7778 Y17.1109 
G01 X16.7371 Y17.0940 
G01 X16.7059 Y17.0628 
G01 X16.6890 Y17.0221 
G01 X16.6890 Y16.9491 
G01 X7.9491 Y16.9491 
G01 X7.9491 Y26.0508 
G01 X18.0935 Y26.0508 
G01 X33.0508 Y26.0508 
G01 X33.0508 Y18.9491 
G01 X30.0319 Y18.9491 
G01 X30.0319 Y19.0409 
G01 X30.0150 Y19.0816 
G01 X29.9838 Y19.1128 
G01 X29.9431 Y19.1297 
G01 X28.6796 Y19.1297 
G01 X28.6389 Y19.1128 
G01 X28.6077 Y19.0816 
G01 X28.5908 Y19.0409 
G01 X28.5908 Y18.6217 
G01 X28.5741 Y18.6050 
G01 X28.4702 Y18.4496 
G01 X28.3987 Y18.2768 
G01 X28.3622 Y18.0935 
G01 X28.3622 Y17.9064 
G01 X28.3987 Y17.7231 
G01 X28.4702 Y17.5503 
G01 X28.5741 Y17.3949 
G01 X28.5908 Y17.3782 
G01 X28.5908 Y16.7614 
G01 X28.6077 Y16.7207 
G01 X28.6389 Y16.6895 
G01 X28.6796 Y16.6726 
G01 X29.9431 Y16.6726 
G01 X29.9838 Y16.6895 
G01 X30.0150 Y16.7207 
G01 X30.0319 Y16.7614 
G01 X30.0319 Y17.0508 
G01 X33.9064 Y17.0508 
G01 X40.0508 Y17.0508 
G01 X40.0508 Y10.9064 
G01 X40.0873 Y10.7231 
G01 X40.1588 Y10.5503 
G01 X40.2627 Y10.3949 
G01 X40.3949 Y10.2627 
G01 X40.5503 Y10.1588 
G01 X40.7231 Y10.0873 
G01 X40.9064 Y10.0508 
G01 X41.0935 Y10.0508 
G01 X41.2768 Y10.0873 
G01 X41.4496 Y10.1588 
G01 X41.6050 Y10.2627 
G01 X41.7233 Y10.3810 
G01 X51.3810 Y10.3810 
G01 X51.3810 Y7.9389 
G01 X51.4048 Y7.8194 
G01 X51.4514 Y7.7067 
G01 X51.5192 Y7.6054 
G01 X51.6054 Y7.5192 
G01 X51.7067 Y7.4514 
G01 X51.8194 Y7.4048 
G01 X51.9389 Y7.3810 
G01 X52.0610 Y7.3810 
G01 X52.0611 Y7.3810 
G01 X58.9389 Y7.3810 
G01 X59.0610 Y7.3810 
G01 X59.1805 Y7.4048 
G01 X59.2932 Y7.4514 
G01 X59.3945 Y7.5192 
G01 X59.4807 Y7.6054 
G01 X59.5485 Y7.7067 
G01 X59.5951 Y7.8194 
G01 X59.6189 Y7.9389 
G01 X59.6189 Y17.9389 
G01 X59.6189 Y18.0610 
G01 X59.5951 Y18.1805 
G01 X59.5485 Y18.2932 
G01 X59.4807 Y18.3945 
G01 X59.3945 Y18.4807 
G01 X59.2932 Y18.5485 
G01 X59.1805 Y18.5951 
G01 X59.0610 Y18.6189 
G01 X56.4673 Y18.6189 
G01 X56.4673 Y20.0890 
G01 X56.4721 Y20.0890 
G01 X56.5128 Y20.1059 
G01 X56.5440 Y20.1371 
G01 X56.5609 Y20.1778 
G01 X56.5609 Y21.6221 
G01 X56.5440 Y21.6628 
G01 X56.5128 Y21.6940 
G01 X56.4721 Y21.7109 
G01 X55.4278 Y21.7109 
G01 X55.3871 Y21.6940 
G01 X55.3559 Y21.6628 
G01 X55.3390 Y21.6221 
G01 X55.3390 Y20.1778 
G01 X55.3559 Y20.1371 
G01 X55.3871 Y20.1059 
G01 X55.4278 Y20.0890 
G01 X55.4326 Y20.0890 
G01 X55.4326 Y18.3398 
G01 X55.4014 Y18.2932 
G01 X55.3548 Y18.1805 
G01 X55.3310 Y18.0610 
G01 X55.3310 Y17.9389 
G01 X55.3548 Y17.8194 
G01 X55.4014 Y17.7067 
G01 X55.4692 Y17.6054 
G01 X55.5554 Y17.5192 
G01 X55.6567 Y17.4514 
G01 X55.7694 Y17.4048 
G01 X55.8889 Y17.3810 
G01 X58.3810 Y17.3810 
G01 X58.3810 Y8.6189 
G01 X52.6189 Y8.6189 
G01 X52.6189 Y11.0610 
G01 X52.5951 Y11.1805 
G01 X52.5485 Y11.2932 
G01 X52.4807 Y11.3945 
G01 X52.3945 Y11.4807 
G01 X52.2932 Y11.5485 
G01 X52.1805 Y11.5951 
G01 X52.0610 Y11.6189 
G01 X51.9389 Y11.6189 
G01 X41.9491 Y11.6189 
G01 X41.9491 Y19.0935 
G01 X41.9126 Y19.2768 
G01 X41.8411 Y19.4496 
G01 X41.8409 Y19.4499 
G01 X41.8409 Y19.5719 
G00 Z2.0000 
G00 X56.3809 Y10.4280 
G01 Z-0.2000 F600.00 
G01 X56.3809 Y11.5719 
G01 X55.5719 Y12.3809 
G01 X55.0189 Y12.3809 
G01 X55.0189 Y13.8890 
G01 X55.2221 Y13.8890 
G01 X55.2628 Y13.9059 
G01 X55.2940 Y13.9371 
G01 X55.3109 Y13.9778 
G01 X55.3109 Y16.0221 
G01 X55.2940 Y16.0628 
G01 X55.2628 Y16.0940 
G01 X55.2221 Y16.1109 
G01 X53.5778 Y16.1109 
G01 X53.5371 Y16.0940 
G01 X53.5059 Y16.0628 
G01 X53.4890 Y16.0221 
G01 X53.4890 Y13.9778 
G01 X53.5059 Y13.9371 
G01 X53.5371 Y13.9059 
G01 X53.5778 Y13.8890 
G01 X53.7810 Y13.8890 
G01 X53.7810 Y11.7339 
G01 X53.6190 Y11.5719 
G01 X53.6190 Y10.4280 
G01 X54.4280 Y9.6190 
G01 X55.5719 Y9.6190 
G01 X56.3809 Y10.4280 
G00 Z2.0000 
G00 X51.3809 Y37.4280 
G01 Z-0.2000 F600.00 
G01 X51.3809 Y38.5719 
G01 X50.5719 Y39.3809 
G01 X49.4280 Y39.3809 
G01 X48.6190 Y38.5719 
G01 X48.6190 Y37.4280 
G01 X49.0508 Y36.9963 
G01 X49.0508 Y33.9491 
G01 X45.5437 Y33.9491 
G01 X45.4396 Y34.0533 
G01 X45.2637 Y34.1811 
G01 X45.0701 Y34.2797 
G01 X44.8634 Y34.3469 
G01 X44.6487 Y34.3809 
G01 X44.4312 Y34.3809 
G01 X44.2165 Y34.3469 
G01 X44.0098 Y34.2797 
G01 X43.8162 Y34.1811 
G01 X43.6403 Y34.0533 
G01 X43.4866 Y33.8996 
G01 X43.3588 Y33.7237 
G01 X43.2602 Y33.5301 
G01 X43.1930 Y33.3234 
G01 X43.1590 Y33.1087 
G01 X43.1590 Y32.8912 
G01 X43.1930 Y32.6765 
G01 X43.2602 Y32.4698 
G01 X43.3588 Y32.2762 
G01 X43.4866 Y32.1003 
G01 X43.6403 Y31.9466 
G01 X43.8162 Y31.8188 
G01 X44.0098 Y31.7202 
G01 X44.2165 Y31.6530 
G01 X44.4312 Y31.6190 
G01 X44.6487 Y31.6190 
G01 X44.8634 Y31.6530 
G01 X45.0701 Y31.7202 
G01 X45.2637 Y31.8188 
G01 X45.4396 Y31.9466 
G01 X45.5437 Y32.0508 
G01 X49.9064 Y32.0508 
G01 X50.0935 Y32.0508 
G01 X51.9064 Y32.0508 
G01 X52.0935 Y32.0508 
G01 X52.2768 Y32.0873 
G01 X52.4496 Y32.1588 
G01 X52.6050 Y32.2627 
G01 X52.7372 Y32.3949 
G01 X52.8411 Y32.5503 
G01 X52.9126 Y32.7231 
G01 X52.9491 Y32.9064 
G01 X52.9491 Y33.0508 
G01 X56.2540 Y33.0508 
G01 X56.2540 Y30.8276 
G01 X56.2794 Y30.7001 
G01 X56.2794 Y29.7614 
G01 X56.2963 Y29.7207 
G01 X56.3275 Y29.6895 
G01 X56.3682 Y29.6726 
G01 X57.6317 Y29.6726 
G01 X57.6724 Y29.6895 
G01 X57.7036 Y29.7207 
G01 X57.7205 Y29.7614 
G01 X57.7205 Y30.7001 
G01 X57.7459 Y30.8276 
G01 X57.7459 Y33.4080 
G01 X57.8411 Y33.5503 
G01 X57.9126 Y33.7231 
G01 X57.9491 Y33.9064 
G01 X57.9491 Y34.0935 
G01 X57.9126 Y34.2768 
G01 X57.8411 Y34.4496 
G01 X57.7372 Y34.6050 
G01 X57.6050 Y34.7372 
G01 X57.4496 Y34.8411 
G01 X57.2768 Y34.9126 
G01 X57.0935 Y34.9491 
G01 X51.9064 Y34.9491 
G01 X51.7231 Y34.9126 
G01 X51.5503 Y34.8411 
G01 X51.3949 Y34.7372 
G01 X51.2627 Y34.6050 
G01 X51.1588 Y34.4496 
G01 X51.0873 Y34.2768 
G01 X51.0508 Y34.0935 
G01 X51.0508 Y33.9491 
G01 X50.9491 Y33.9491 
G01 X50.9491 Y36.9963 
G01 X51.3809 Y37.4280 
G00 Z2.0000 
G00 X36.5719 Y10.3809 
G01 Z-0.2000 F600.00 
G01 X35.4280 Y10.3809 
G01 X34.6661 Y9.6189 
G01 X29.8909 Y9.6189 
G01 X29.8909 Y9.8621 
G01 X29.8740 Y9.9028 
G01 X29.8428 Y9.9340 
G01 X29.8021 Y9.9509 
G01 X28.4378 Y9.9509 
G01 X28.3971 Y9.9340 
G01 X28.3659 Y9.9028 
G01 X28.3490 Y9.8621 
G01 X28.3490 Y8.1378 
G01 X28.3659 Y8.0971 
G01 X28.3971 Y8.0659 
G01 X28.4378 Y8.0490 
G01 X29.8021 Y8.0490 
G01 X29.8428 Y8.0659 
G01 X29.8740 Y8.0971 
G01 X29.8909 Y8.1378 
G01 X29.8909 Y8.3810 
G01 X34.6661 Y8.3810 
G01 X35.4280 Y7.6190 
G01 X36.5719 Y7.6190 
G01 X37.3338 Y8.3810 
G01 X48.3810 Y8.3810 
G01 X48.3810 Y6.0610 
G01 X48.3810 Y5.9389 
G01 X48.4048 Y5.8194 
G01 X48.4514 Y5.7067 
G01 X48.5192 Y5.6054 
G01 X48.6054 Y5.5192 
G01 X48.7067 Y5.4514 
G01 X48.8194 Y5.4048 
G01 X48.9389 Y5.3810 
G01 X63.2766 Y5.3810 
G01 X63.3949 Y5.2627 
G01 X63.5503 Y5.1588 
G01 X63.7231 Y5.0873 
G01 X63.9064 Y5.0508 
G01 X64.0935 Y5.0508 
G01 X64.2768 Y5.0873 
G01 X64.4496 Y5.1588 
G01 X64.6050 Y5.2627 
G01 X64.7372 Y5.3949 
G01 X64.8411 Y5.5503 
G01 X64.9126 Y5.7231 
G01 X64.9491 Y5.9064 
G01 X64.9491 Y24.9064 
G01 X64.9491 Y25.0935 
G01 X64.9126 Y25.2768 
G01 X64.8411 Y25.4496 
G01 X64.7372 Y25.6050 
G01 X64.6050 Y25.7372 
G01 X64.4496 Y25.8411 
G01 X64.2768 Y25.9126 
G01 X64.0935 Y25.9491 
G01 X61.1109 Y25.9491 
G01 X61.1109 Y26.2221 
G01 X61.0940 Y26.2628 
G01 X61.0628 Y26.2940 
G01 X61.0221 Y26.3109 
G01 X60.2810 Y26.3109 
G01 X60.2768 Y26.3126 
G01 X60.2605 Y26.3158 
G01 X60.2605 Y30.8076 
G01 X60.2605 Y33.0508 
G01 X62.0935 Y33.0508 
G01 X62.2768 Y33.0873 
G01 X62.4496 Y33.1588 
G01 X62.6050 Y33.2627 
G01 X62.7372 Y33.3949 
G01 X62.8411 Y33.5503 
G01 X62.9126 Y33.7231 
G01 X62.9491 Y33.9064 
G01 X62.9491 Y34.0935 
G01 X62.9491 Y53.6935 
G01 X62.9126 Y53.8768 
G01 X62.8411 Y54.0496 
G01 X62.7372 Y54.2050 
G01 X62.6050 Y54.3372 
G01 X62.4496 Y54.4411 
G01 X62.2768 Y54.5126 
G01 X62.0935 Y54.5491 
G01 X61.9064 Y54.5491 
G01 X60.2000 Y54.5491 
G01 X60.1999 Y54.5501 
G01 X60.1999 Y54.5885 
G01 X60.1881 Y54.6477 
G01 X60.1809 Y54.7076 
G01 X60.1690 Y54.7438 
G01 X60.1615 Y54.7817 
G01 X60.1383 Y54.8375 
G01 X60.1196 Y54.8948 
G01 X60.1007 Y54.9283 
G01 X60.0861 Y54.9636 
G01 X60.0528 Y55.0134 
G01 X60.0230 Y55.0664 
G01 X59.9979 Y55.0956 
G01 X59.9767 Y55.1274 
G01 X59.9340 Y55.1700 
G01 X59.8947 Y55.2159 
G01 X59.8645 Y55.2395 
G01 X59.8374 Y55.2667 
G01 X59.7872 Y55.3002 
G01 X59.7397 Y55.3375 
G01 X59.7053 Y55.3549 
G01 X59.6736 Y55.3761 
G01 X59.6179 Y55.3991 
G01 X59.5640 Y55.4265 
G01 X59.5271 Y55.4368 
G01 X59.4917 Y55.4515 
G01 X59.4323 Y55.4633 
G01 X59.3744 Y55.4795 
G01 X59.3361 Y55.4824 
G01 X59.2985 Y55.4899 
G01 X59.2382 Y55.4899 
G01 X59.1779 Y55.4945 
G01 X59.1398 Y55.4899 
G01 X59.1014 Y55.4899 
G01 X59.0422 Y55.4781 
G01 X58.9823 Y55.4709 
G01 X58.9461 Y55.4590 
G01 X58.9082 Y55.4515 
G01 X58.8524 Y55.4283 
G01 X58.7951 Y55.4096 
G01 X58.7616 Y55.3907 
G01 X58.7263 Y55.3761 
G01 X58.6765 Y55.3428 
G01 X58.6235 Y55.3130 
G01 X58.5943 Y55.2879 
G01 X58.5862 Y55.2824 
G01 X58.4985 Y55.2999 
G01 X58.3014 Y55.2999 
G01 X58.1082 Y55.2615 
G01 X57.9596 Y55.1999 
G01 X54.5209 Y55.1999 
G01 X54.5209 Y55.7121 
G01 X54.5040 Y55.7528 
G01 X54.4728 Y55.7840 
G01 X54.4321 Y55.8009 
G01 X51.5878 Y55.8009 
G01 X51.5471 Y55.7840 
G01 X51.5159 Y55.7528 
G01 X51.5147 Y55.7499 
G01 X47.0009 Y55.7499 
G01 X47.0009 Y55.8721 
G01 X46.9899 Y55.8985 
G01 X46.9899 Y59.6985 
G01 X46.9515 Y59.8917 
G01 X46.8761 Y60.0736 
G01 X46.7667 Y60.2374 
G01 X46.6274 Y60.3767 
G01 X46.4727 Y60.4799 
G01 X46.4717 Y60.4854 
G01 X46.4135 Y60.6257 
G01 X46.3291 Y60.7521 
G01 X46.2217 Y60.8595 
G01 X46.0953 Y60.9439 
G01 X45.9550 Y61.0021 
G01 X45.8060 Y61.0317 
G01 X45.6539 Y61.0317 
G01 X45.5049 Y61.0021 
G01 X45.3646 Y60.9439 
G01 X45.2382 Y60.8595 
G01 X45.1308 Y60.7521 
G01 X45.0464 Y60.6257 
G01 X44.9882 Y60.4854 
G01 X44.9586 Y60.3364 
G01 X44.9586 Y60.2428 
G01 X44.9532 Y60.2374 
G01 X44.8438 Y60.0736 
G01 X44.7684 Y59.8917 
G01 X44.7300 Y59.6985 
G01 X44.7300 Y59.5014 
G01 X44.7684 Y59.3082 
G01 X44.8438 Y59.1263 
G01 X44.9532 Y58.9625 
G01 X44.9586 Y58.9571 
G01 X44.9586 Y58.8635 
G01 X44.9882 Y58.7145 
G01 X44.9900 Y58.7102 
G01 X44.9900 Y55.8985 
G01 X44.9790 Y55.8721 
G01 X44.9790 Y53.6278 
G01 X44.9959 Y53.5871 
G01 X45.0271 Y53.5559 
G01 X45.0678 Y53.5390 
G01 X46.9121 Y53.5390 
G01 X46.9528 Y53.5559 
G01 X46.9840 Y53.5871 
G01 X47.0009 Y53.6278 
G01 X47.0009 Y53.7500 
G01 X51.4990 Y53.7500 
G01 X51.4990 Y53.2678 
G01 X51.5159 Y53.2271 
G01 X51.5471 Y53.1959 
G01 X51.5878 Y53.1790 
G01 X52.2222 Y53.1790 
G01 X52.2332 Y53.1625 
G01 X52.3725 Y53.0232 
G01 X52.5363 Y52.9138 
G01 X52.7182 Y52.8384 
G01 X52.9114 Y52.8000 
G01 X53.1085 Y52.8000 
G01 X53.6985 Y52.8000 
G01 X53.8917 Y52.8384 
G01 X54.0736 Y52.9138 
G01 X54.2374 Y53.0232 
G01 X54.3767 Y53.1625 
G01 X54.3877 Y53.1790 
G01 X54.4321 Y53.1790 
G01 X54.4728 Y53.1959 
G01 X54.4768 Y53.2000 
G01 X57.3790 Y53.2000 
G01 X57.3790 Y52.6178 
G01 X57.3959 Y52.5771 
G01 X57.4271 Y52.5459 
G01 X57.4678 Y52.5290 
G01 X59.9121 Y52.5290 
G01 X59.9528 Y52.5459 
G01 X59.9840 Y52.5771 
G01 X60.0009 Y52.6178 
G01 X60.0009 Y52.6508 
G01 X61.0508 Y52.6508 
G01 X61.0508 Y34.9491 
G01 X59.4049 Y34.9491 
G01 X59.2178 Y34.9491 
G01 X59.0345 Y34.9126 
G01 X58.8617 Y34.8411 
G01 X58.7063 Y34.7372 
G01 X58.5741 Y34.6050 
G01 X58.4702 Y34.4496 
G01 X58.3987 Y34.2768 
G01 X58.3622 Y34.0935 
G01 X58.3622 Y30.8076 
G01 X58.3622 Y25.3064 
G01 X58.3987 Y25.1231 
G01 X58.4702 Y24.9503 
G01 X58.5741 Y24.7949 
G01 X58.7063 Y24.6627 
G01 X58.8617 Y24.5588 
G01 X58.9043 Y24.5412 
G01 X58.9059 Y24.5371 
G01 X58.9371 Y24.5059 
G01 X58.9778 Y24.4890 
G01 X59.0304 Y24.4890 
G01 X59.0345 Y24.4873 
G01 X59.2178 Y24.4508 
G01 X59.2253 Y24.4508 
G01 X59.2627 Y24.3949 
G01 X59.3949 Y24.2627 
G01 X59.5503 Y24.1588 
G01 X59.7231 Y24.0873 
G01 X59.9064 Y24.0508 
G01 X60.0935 Y24.0508 
G01 X63.0508 Y24.0508 
G01 X63.0508 Y6.6189 
G01 X49.6189 Y6.6189 
G01 X49.6189 Y9.0610 
G01 X49.5951 Y9.1805 
G01 X49.5485 Y9.2932 
G01 X49.4807 Y9.3945 
G01 X49.3945 Y9.4807 
G01 X49.2932 Y9.5485 
G01 X49.1805 Y9.5951 
G01 X49.0610 Y9.6189 
G01 X48.9389 Y9.6189 
G01 X37.3338 Y9.6189 
G01 X36.5719 Y10.3809 
G00 Z2.0000 
G00 X24.1828 Y8.0490 
G01 Z-0.2000 F600.00 
G01 X26.0771 Y8.0490 
G01 X26.1178 Y8.0659 
G01 X26.1490 Y8.0971 
G01 X26.1659 Y8.1378 
G01 X26.1659 Y9.8621 
G01 X26.1490 Y9.9028 
G01 X26.1178 Y9.9340 
G01 X26.0791 Y9.9500 
G01 X26.0791 Y11.0508 
G01 X27.0935 Y11.0508 
G01 X27.2768 Y11.0873 
G01 X27.4496 Y11.1588 
G01 X27.6050 Y11.2627 
G01 X27.7372 Y11.3949 
G01 X27.8411 Y11.5503 
G01 X27.9126 Y11.7231 
G01 X27.9491 Y11.9064 
G01 X27.9491 Y12.0935 
G01 X27.9491 Y17.9947 
G01 X27.9126 Y18.1780 
G01 X27.8411 Y18.3508 
G01 X27.7372 Y18.5062 
G01 X27.7205 Y18.5229 
G01 X27.7205 Y19.0409 
G01 X27.7036 Y19.0816 
G01 X27.6724 Y19.1128 
G01 X27.6317 Y19.1297 
G01 X26.3682 Y19.1297 
G01 X26.3275 Y19.1128 
G01 X26.2963 Y19.0816 
G01 X26.2794 Y19.0409 
G01 X26.2794 Y18.5229 
G01 X26.2627 Y18.5062 
G01 X26.1588 Y18.3508 
G01 X26.0873 Y18.1780 
G01 X26.0508 Y17.9947 
G01 X26.0508 Y12.9491 
G01 X25.2235 Y12.9491 
G01 X25.0364 Y12.9491 
G01 X24.8531 Y12.9126 
G01 X24.6803 Y12.8411 
G01 X24.5249 Y12.7372 
G01 X24.3927 Y12.6050 
G01 X24.2888 Y12.4496 
G01 X24.2173 Y12.2768 
G01 X24.1808 Y12.0935 
G01 X24.1808 Y9.9500 
G01 X24.1785 Y9.9491 
G01 X21.0036 Y9.9491 
G01 X20.5719 Y10.3809 
G01 X19.4280 Y10.3809 
G01 X18.6190 Y9.5719 
G01 X18.6190 Y8.4280 
G01 X19.4280 Y7.6190 
G01 X20.5719 Y7.6190 
G01 X21.0036 Y8.0508 
G01 X24.1785 Y8.0508 
G01 X24.1828 Y8.0490 
G00 Z2.0000 
G00 X58.9109 Y35.9768 
G01 Z-0.2000 F600.00 
G01 X58.9109 Y38.2211 
G01 X58.8940 Y38.2618 
G01 X58.8628 Y38.2930 
G01 X58.8221 Y38.3099 
G01 X55.1778 Y38.3099 
G01 X55.1371 Y38.2930 
G01 X55.1059 Y38.2618 
G01 X55.0890 Y38.2211 
G01 X55.0890 Y35.9768 
G01 X55.1059 Y35.9361 
G01 X55.1371 Y35.9049 
G01 X55.1778 Y35.8880 
G01 X58.8221 Y35.8880 
G01 X58.8628 Y35.9049 
G01 X58.8940 Y35.9361 
G01 X58.9109 Y35.9768 
G00 Z2.0000 
G00 X25.4091 Y16.7614 
G01 Z-0.2000 F600.00 
G01 X25.4091 Y17.2794 
G01 X25.4258 Y17.2961 
G01 X25.5297 Y17.4515 
G01 X25.6012 Y17.6243 
G01 X25.6377 Y17.8076 
G01 X25.6377 Y17.9947 
G01 X25.6012 Y18.1780 
G01 X25.5297 Y18.3508 
G01 X25.4258 Y18.5062 
G01 X25.4091 Y18.5229 
G01 X25.4091 Y19.0409 
G01 X25.3922 Y19.0816 
G01 X25.3610 Y19.1128 
G01 X25.3203 Y19.1297 
G01 X24.0568 Y19.1297 
G01 X24.0161 Y19.1128 
G01 X23.9849 Y19.0816 
G01 X23.9680 Y19.0409 
G01 X23.9680 Y18.8503 
G01 X21.3491 Y18.8503 
G01 X21.3491 Y21.0935 
G01 X21.3126 Y21.2768 
G01 X21.3109 Y21.2809 
G01 X21.3109 Y22.0221 
G01 X21.2940 Y22.0628 
G01 X21.2628 Y22.0940 
G01 X21.2221 Y22.1109 
G01 X19.5778 Y22.1109 
G01 X19.5371 Y22.0940 
G01 X19.5059 Y22.0628 
G01 X19.4890 Y22.0221 
G01 X19.4890 Y21.2809 
G01 X19.4873 Y21.2768 
G01 X19.4508 Y21.0935 
G01 X19.4508 Y17.9947 
G01 X19.4508 Y17.8076 
G01 X19.4508 Y15.9064 
G01 X19.4873 Y15.7231 
G01 X19.4890 Y15.7190 
G01 X19.4890 Y14.9778 
G01 X19.5059 Y14.9371 
G01 X19.5371 Y14.9059 
G01 X19.5778 Y14.8890 
G01 X21.2221 Y14.8890 
G01 X21.2628 Y14.9059 
G01 X21.2940 Y14.9371 
G01 X21.3109 Y14.9778 
G01 X21.3109 Y15.7190 
G01 X21.3126 Y15.7231 
G01 X21.3491 Y15.9064 
G01 X21.3491 Y16.9520 
G01 X23.9680 Y16.9520 
G01 X23.9680 Y16.7614 
G01 X23.9849 Y16.7207 
G01 X24.0161 Y16.6895 
G01 X24.0568 Y16.6726 
G01 X25.3203 Y16.6726 
G01 X25.3610 Y16.6895 
G01 X25.3922 Y16.7207 
G01 X25.4091 Y16.7614 
G00 Z2.0000 
G00 X28.9109 Y22.9768 
G01 Z-0.2000 F600.00 
G01 X28.9109 Y25.2211 
G01 X28.8940 Y25.2618 
G01 X28.8628 Y25.2930 
G01 X28.8221 Y25.3099 
G01 X25.1778 Y25.3099 
G01 X25.1371 Y25.2930 
G01 X25.1059 Y25.2618 
G01 X25.0890 Y25.2211 
G01 X25.0890 Y22.9768 
G01 X25.1059 Y22.9361 
G01 X25.1371 Y22.9049 
G01 X25.1778 Y22.8880 
G01 X28.8221 Y22.8880 
G01 X28.8628 Y22.9049 
G01 X28.8940 Y22.9361 
G01 X28.9109 Y22.9768 
G00 Z2.0000 
G00 X11.5719 Y22.3809 
G01 Z-0.2000 F600.00 
G01 X10.4280 Y22.3809 
G01 X9.6190 Y21.5719 
G01 X9.6190 Y20.4280 
G01 X10.4280 Y19.6190 
G01 X11.5719 Y19.6190 
G01 X12.0037 Y20.0508 
G01 X16.6890 Y20.0508 
G01 X16.6890 Y19.9778 
G01 X16.7059 Y19.9371 
G01 X16.7371 Y19.9059 
G01 X16.7778 Y19.8890 
G01 X18.4221 Y19.8890 
G01 X18.4628 Y19.9059 
G01 X18.4940 Y19.9371 
G01 X18.5109 Y19.9778 
G01 X18.5109 Y20.7190 
G01 X18.5126 Y20.7231 
G01 X18.5491 Y20.9064 
G01 X18.5491 Y21.0935 
G01 X18.5126 Y21.2768 
G01 X18.5109 Y21.2809 
G01 X18.5109 Y22.0221 
G01 X18.4940 Y22.0628 
G01 X18.4628 Y22.0940 
G01 X18.4221 Y22.1109 
G01 X16.7778 Y22.1109 
G01 X16.7371 Y22.0940 
G01 X16.7059 Y22.0628 
G01 X16.6890 Y22.0221 
G01 X16.6890 Y21.9491 
G01 X12.0037 Y21.9491 
G01 X11.5719 Y22.3809 
G00 Z2.0000 
G00 X27.7205 Y33.7614 
G01 Z-0.2000 F600.00 
G01 X27.7205 Y34.2794 
G01 X27.7372 Y34.2961 
G01 X27.8411 Y34.4515 
G01 X27.9126 Y34.6243 
G01 X27.9491 Y34.8076 
G01 X27.9491 Y37.9064 
G01 X27.9491 Y38.0935 
G01 X27.9126 Y38.2768 
G01 X27.8411 Y38.4496 
G01 X27.7372 Y38.6050 
G01 X27.6050 Y38.7372 
G01 X27.4496 Y38.8411 
G01 X27.2768 Y38.9126 
G01 X27.0935 Y38.9491 
G01 X21.9491 Y38.9491 
G01 X21.9491 Y39.7968 
G01 X22.1143 Y39.7968 
G01 X22.1550 Y39.8137 
G01 X22.1862 Y39.8449 
G01 X22.2031 Y39.8856 
G01 X22.2031 Y42.1143 
G01 X22.1862 Y42.1550 
G01 X22.1550 Y42.1862 
G01 X22.1143 Y42.2031 
G01 X19.8856 Y42.2031 
G01 X19.8449 Y42.1862 
G01 X19.8137 Y42.1550 
G01 X19.7968 Y42.1143 
G01 X19.7968 Y39.8856 
G01 X19.8137 Y39.8449 
G01 X19.8449 Y39.8137 
G01 X19.8856 Y39.7968 
G01 X20.0508 Y39.7968 
G01 X20.0508 Y37.9064 
G01 X20.0873 Y37.7231 
G01 X20.1588 Y37.5503 
G01 X20.2627 Y37.3949 
G01 X20.3949 Y37.2627 
G01 X20.5503 Y37.1588 
G01 X20.7231 Y37.0873 
G01 X20.9064 Y37.0508 
G01 X21.0935 Y37.0508 
G01 X26.0508 Y37.0508 
G01 X26.0508 Y34.8076 
G01 X26.0873 Y34.6243 
G01 X26.1588 Y34.4515 
G01 X26.2627 Y34.2961 
G01 X26.2794 Y34.2794 
G01 X26.2794 Y33.7614 
G01 X26.2963 Y33.7207 
G01 X26.3275 Y33.6895 
G01 X26.3682 Y33.6726 
G01 X27.6317 Y33.6726 
G01 X27.6724 Y33.6895 
G01 X27.7036 Y33.7207 
G01 X27.7205 Y33.7614 
G00 Z2.0000 
G00 X28.9109 Y39.9768 
G01 Z-0.2000 F600.00 
G01 X28.9109 Y42.2211 
G01 X28.8940 Y42.2618 
G01 X28.8628 Y42.2930 
G01 X28.8221 Y42.3099 
G01 X25.1778 Y42.3099 
G01 X25.1371 Y42.2930 
G01 X25.1059 Y42.2618 
G01 X25.0890 Y42.2211 
G01 X25.0890 Y39.9768 
G01 X25.1059 Y39.9361 
G01 X25.1371 Y39.9049 
G01 X25.1778 Y39.8880 
G01 X28.8221 Y39.8880 
G01 X28.8628 Y39.9049 
G01 X28.8940 Y39.9361 
G01 X28.9109 Y39.9768 
G00 Z2.0000 
G00 X18.5109 Y33.9778 
G01 Z-0.2000 F600.00 
G01 X18.5109 Y34.7189 
G01 X18.5126 Y34.7231 
G01 X18.5491 Y34.9064 
G01 X18.5491 Y35.0935 
G01 X18.5126 Y35.2768 
G01 X18.5109 Y35.2810 
G01 X18.5109 Y36.0221 
G01 X18.4940 Y36.0628 
G01 X18.4628 Y36.0940 
G01 X18.4221 Y36.1109 
G01 X16.7778 Y36.1109 
G01 X16.7371 Y36.0940 
G01 X16.7059 Y36.0628 
G01 X16.6890 Y36.0221 
G01 X16.6890 Y35.9491 
G01 X11.0036 Y35.9491 
G01 X10.5719 Y36.3809 
G01 X9.4280 Y36.3809 
G01 X8.6190 Y35.5719 
G01 X8.6190 Y34.4280 
G01 X9.4280 Y33.6190 
G01 X10.5719 Y33.6190 
G01 X11.0036 Y34.0508 
G01 X16.6890 Y34.0508 
G01 X16.6890 Y33.9778 
G01 X16.7059 Y33.9371 
G01 X16.7371 Y33.9059 
G01 X16.7778 Y33.8890 
G01 X18.4221 Y33.8890 
G01 X18.4628 Y33.9059 
G01 X18.4940 Y33.9371 
G01 X18.5109 Y33.9778 
G00 Z2.0000 
G00 X21.3109 Y36.0221 
G01 Z-0.2000 F600.00 
G01 X21.2940 Y36.0628 
G01 X21.2628 Y36.0940 
G01 X21.2221 Y36.1109 
G01 X19.5778 Y36.1109 
G01 X19.5371 Y36.0940 
G01 X19.5059 Y36.0628 
G01 X19.4890 Y36.0221 
G01 X19.4890 Y35.2809 
G01 X19.4873 Y35.2768 
G01 X19.4508 Y35.0935 
G01 X19.4508 Y34.9947 
G01 X19.4508 Y34.8076 
G01 X19.4508 Y29.9064 
G01 X19.4873 Y29.7231 
G01 X19.4890 Y29.7190 
G01 X19.4890 Y28.9778 
G01 X19.5059 Y28.9371 
G01 X19.5371 Y28.9059 
G01 X19.5778 Y28.8890 
G01 X21.2221 Y28.8890 
G01 X21.2628 Y28.9059 
G01 X21.2940 Y28.9371 
G01 X21.3109 Y28.9778 
G01 X21.3109 Y29.7190 
G01 X21.3126 Y29.7231 
G01 X21.3491 Y29.9064 
G01 X21.3491 Y33.9520 
G01 X23.9680 Y33.9520 
G01 X23.9680 Y33.7614 
G01 X23.9849 Y33.7207 
G01 X24.0161 Y33.6895 
G01 X24.0568 Y33.6726 
G01 X25.3203 Y33.6726 
G01 X25.3610 Y33.6895 
G01 X25.3922 Y33.7207 
G01 X25.4091 Y33.7614 
G01 X25.4091 Y34.2794 
G01 X25.4258 Y34.2961 
G01 X25.5297 Y34.4515 
G01 X25.6012 Y34.6243 
G01 X25.6377 Y34.8076 
G01 X25.6377 Y34.9947 
G01 X25.6012 Y35.1780 
G01 X25.5297 Y35.3508 
G01 X25.4258 Y35.5062 
G01 X25.4091 Y35.5229 
G01 X25.4091 Y36.0409 
G01 X25.3922 Y36.0816 
G01 X25.3610 Y36.1128 
G01 X25.3203 Y36.1297 
G01 X24.0568 Y36.1297 
G01 X24.0161 Y36.1128 
G01 X23.9849 Y36.0816 
G01 X23.9680 Y36.0409 
G01 X23.9680 Y35.8503 
G01 X21.3109 Y35.8503 
G01 X21.3109 Y36.0221 
G00 Z2.0000 
G00 X13.2031 Y56.8856 
G01 Z-0.2000 F600.00 
G01 X13.2031 Y59.1143 
G01 X13.1862 Y59.1550 
G01 X13.1550 Y59.1862 
G01 X13.1143 Y59.2031 
G01 X11.9947 Y59.2031 
G01 X11.8052 Y59.2031 
G01 X10.8856 Y59.2031 
G01 X10.8449 Y59.1862 
G01 X10.8137 Y59.1550 
G01 X10.7968 Y59.1143 
G01 X10.7968 Y58.4851 
G01 X10.7849 Y58.4618 
G01 X10.7264 Y58.2817 
G01 X10.6968 Y58.0947 
G01 X10.6968 Y54.8496 
G01 X10.5190 Y54.6719 
G01 X10.5190 Y53.5280 
G01 X11.3280 Y52.7190 
G01 X12.4719 Y52.7190 
G01 X12.8529 Y53.1000 
G01 X15.9014 Y53.1000 
G01 X16.7290 Y53.1000 
G01 X16.7290 Y53.0878 
G01 X16.7459 Y53.0471 
G01 X16.7771 Y53.0159 
G01 X16.8178 Y52.9990 
G01 X17.0400 Y52.9990 
G01 X17.0400 Y52.7014 
G01 X17.0784 Y52.5082 
G01 X17.1538 Y52.3263 
