( This gcode generated by /home/mattvenn/.eagle/ulp/pcb-gcode.ulp )
( Copyright 2005 by John Johnson. See readme.txt for licensing terms. )

( This file generated from the board /home/mattvenn/eagle-circuit-designs/3w developer kit/3w developer v1.brd )
( This file generated 08/03/2012 17:33 )

G21

G90
G00 Z10.0000 
G00 X0 Y0
M03
G04 P3.000000
G00 Z2.0000 
G00 X-10.8709 Y41.9321 
G01 Z-0.2000 F600.00 
G01 X-10.8709 Y43.0678 
G01 X-10.0678 Y43.8709 
G01 X-8.9321 Y43.8709 
G01 X-8.1290 Y43.0678 
G01 X-8.1290 Y41.9321 
G01 X-8.9321 Y41.1290 
G01 X-10.0678 Y41.1290 
G01 X-10.8709 Y41.9321 
G00 Z2.0000 
G00 X-10.8709 Y31.9321 
G01 Z-0.2000 F600.00 
G01 X-10.8709 Y33.0678 
G01 X-10.0678 Y33.8709 
G01 X-8.9321 Y33.8709 
G01 X-8.1290 Y33.0678 
G01 X-8.1290 Y31.9321 
G01 X-8.9321 Y31.1290 
G01 X-10.0678 Y31.1290 
G01 X-10.8709 Y31.9321 
G00 Z2.0000 
G00 X-67.7109 Y14.5520 
G01 Z-0.2000 F600.00 
G01 X-67.7109 Y14.7679 
G01 X-67.6771 Y14.9810 
G01 X-67.6105 Y15.1862 
G01 X-67.5125 Y15.3785 
G01 X-67.3857 Y15.5531 
G01 X-67.2331 Y15.7057 
G01 X-67.0585 Y15.8325 
G01 X-66.8662 Y15.9305 
G01 X-66.6610 Y15.9971 
G01 X-66.4479 Y16.0309 
G01 X-66.2320 Y16.0309 
G01 X-66.0189 Y15.9971 
G01 X-65.8137 Y15.9305 
G01 X-65.6214 Y15.8325 
G01 X-65.4468 Y15.7057 
G01 X-65.2942 Y15.5531 
G01 X-65.1674 Y15.3785 
G01 X-65.0694 Y15.1862 
G01 X-65.0028 Y14.9810 
G01 X-64.9690 Y14.7679 
G01 X-64.9690 Y14.5520 
G01 X-65.0028 Y14.3389 
G01 X-65.0694 Y14.1337 
G01 X-65.1674 Y13.9414 
G01 X-65.2942 Y13.7668 
G01 X-65.4468 Y13.6142 
G01 X-65.6214 Y13.4874 
G01 X-65.8137 Y13.3894 
G01 X-66.0189 Y13.3228 
G01 X-66.2320 Y13.2890 
G01 X-66.4479 Y13.2890 
G01 X-66.6610 Y13.3228 
G01 X-66.8662 Y13.3894 
G01 X-67.0585 Y13.4874 
G01 X-67.2331 Y13.6142 
G01 X-67.3857 Y13.7668 
G01 X-67.5125 Y13.9414 
G01 X-67.6105 Y14.1337 
G01 X-67.6771 Y14.3389 
G01 X-67.7109 Y14.5520 
G00 Z2.0000 
G00 X-62.6309 Y14.0921 
G01 Z-0.2000 F600.00 
G01 X-62.6309 Y15.2278 
G01 X-61.8278 Y16.0309 
G01 X-60.6921 Y16.0309 
G01 X-59.8890 Y15.2278 
G01 X-59.8890 Y14.0921 
G01 X-60.6921 Y13.2890 
G01 X-61.8278 Y13.2890 
G01 X-62.6309 Y14.0921 
G00 Z2.0000 
G00 X-54.7109 Y14.2520 
G01 Z-0.2000 F600.00 
G01 X-54.7109 Y14.4679 
G01 X-54.6771 Y14.6810 
G01 X-54.6105 Y14.8862 
G01 X-54.5125 Y15.0785 
G01 X-54.3857 Y15.2531 
G01 X-54.2331 Y15.4057 
G01 X-54.0585 Y15.5325 
G01 X-53.8662 Y15.6305 
G01 X-53.6610 Y15.6971 
G01 X-53.4479 Y15.7309 
G01 X-53.2320 Y15.7309 
G01 X-53.0189 Y15.6971 
G01 X-52.8137 Y15.6305 
G01 X-52.6214 Y15.5325 
G01 X-52.4468 Y15.4057 
G01 X-52.2942 Y15.2531 
G01 X-52.1674 Y15.0785 
G01 X-52.0694 Y14.8862 
G01 X-52.0028 Y14.6810 
G01 X-51.9690 Y14.4679 
G01 X-51.9690 Y14.2520 
G01 X-52.0028 Y14.0389 
G01 X-52.0694 Y13.8337 
G01 X-52.1674 Y13.6414 
G01 X-52.2942 Y13.4668 
G01 X-52.4468 Y13.3142 
G01 X-52.6214 Y13.1874 
G01 X-52.8137 Y13.0894 
G01 X-53.0189 Y13.0228 
G01 X-53.2320 Y12.9890 
G01 X-53.4479 Y12.9890 
G01 X-53.6610 Y13.0228 
G01 X-53.8662 Y13.0894 
G01 X-54.0585 Y13.1874 
G01 X-54.2331 Y13.3142 
G01 X-54.3857 Y13.4668 
G01 X-54.5125 Y13.6414 
G01 X-54.6105 Y13.8337 
G01 X-54.6771 Y14.0389 
G01 X-54.7109 Y14.2520 
G00 Z2.0000 
G00 X-49.6309 Y13.7921 
G01 Z-0.2000 F600.00 
G01 X-49.6309 Y14.9278 
G01 X-48.8278 Y15.7309 
G01 X-47.6921 Y15.7309 
G01 X-46.8890 Y14.9278 
G01 X-46.8890 Y13.7921 
G01 X-47.6921 Y12.9890 
G01 X-48.8278 Y12.9890 
G01 X-49.6309 Y13.7921 
G00 Z2.0000 
G00 X-72.8709 Y54.9321 
G01 Z-0.2000 F600.00 
G01 X-72.8709 Y56.0678 
G01 X-72.0678 Y56.8709 
G01 X-70.9321 Y56.8709 
G01 X-70.1290 Y56.0678 
G01 X-70.1290 Y54.9321 
G01 X-70.9321 Y54.1290 
G01 X-72.0678 Y54.1290 
G01 X-72.8709 Y54.9321 
G00 Z2.0000 
G00 X-72.8709 Y38.9321 
G01 Z-0.2000 F600.00 
G01 X-72.8709 Y40.0678 
G01 X-72.0678 Y40.8709 
G01 X-70.9321 Y40.8709 
G01 X-70.1290 Y40.0678 
G01 X-70.1290 Y38.9321 
G01 X-70.9321 Y38.1290 
G01 X-72.0678 Y38.1290 
G01 X-72.8709 Y38.9321 
G00 Z2.0000 
G00 X-20.8709 Y7.9321 
G01 Z-0.2000 F600.00 
G01 X-20.8709 Y9.0678 
G01 X-20.0678 Y9.8709 
G01 X-18.9321 Y9.8709 
G01 X-18.1290 Y9.0678 
G01 X-18.1290 Y7.9321 
G01 X-18.9321 Y7.1290 
G01 X-20.0678 Y7.1290 
G01 X-20.8709 Y7.9321 
G00 Z2.0000 
G00 X-28.0709 Y7.9321 
G01 Z-0.2000 F600.00 
G01 X-28.0709 Y9.0678 
G01 X-27.2678 Y9.8709 
G01 X-26.1321 Y9.8709 
G01 X-25.3290 Y9.0678 
G01 X-25.3290 Y7.9321 
G01 X-26.1321 Y7.1290 
G01 X-27.2678 Y7.1290 
G01 X-28.0709 Y7.9321 
G00 Z2.0000 
G00 X-10.8709 Y7.9321 
G01 Z-0.2000 F600.00 
G01 X-10.8709 Y9.0678 
G01 X-10.0678 Y9.8709 
G01 X-8.9321 Y9.8709 
G01 X-8.1290 Y9.0678 
G01 X-8.1290 Y7.9321 
G01 X-8.9321 Y7.1290 
G01 X-10.0678 Y7.1290 
G01 X-10.8709 Y7.9321 
G00 Z2.0000 
G00 X-10.8709 Y36.7321 
G01 Z-0.2000 F600.00 
G01 X-10.8709 Y37.8678 
G01 X-10.0678 Y38.6709 
G01 X-8.9321 Y38.6709 
G01 X-8.1290 Y37.8678 
G01 X-8.1290 Y36.7321 
G01 X-8.9321 Y35.9290 
G01 X-10.0678 Y35.9290 
G01 X-10.8709 Y36.7321 
G00 Z2.0000 
G00 X-10.8709 Y25.9321 
G01 Z-0.2000 F600.00 
G01 X-10.8709 Y27.0678 
G01 X-10.0678 Y27.8709 
G01 X-8.9321 Y27.8709 
G01 X-8.1290 Y27.0678 
G01 X-8.1290 Y25.9321 
G01 X-8.9321 Y25.1290 
G01 X-10.0678 Y25.1290 
G01 X-10.8709 Y25.9321 
G00 Z2.0000 
G00 X-72.8709 Y22.9321 
G01 Z-0.2000 F600.00 
G01 X-72.8709 Y24.0678 
G01 X-72.0678 Y24.8709 
G01 X-70.9321 Y24.8709 
G01 X-70.1290 Y24.0678 
G01 X-70.1290 Y22.9321 
G01 X-70.9321 Y22.1290 
G01 X-72.0678 Y22.1290 
G01 X-72.8709 Y22.9321 
G00 Z2.0000 
G00 X-72.8709 Y6.9321 
G01 Z-0.2000 F600.00 
G01 X-72.8709 Y8.0678 
G01 X-72.0678 Y8.8709 
G01 X-70.9321 Y8.8709 
G01 X-70.1290 Y8.0678 
G01 X-70.1290 Y6.9321 
G01 X-70.9321 Y6.1290 
G01 X-72.0678 Y6.1290 
G01 X-72.8709 Y6.9321 
G00 Z2.0000 
G00 X-43.8709 Y16.8098 
G01 Z-0.2000 F600.00 
G01 X-43.8709 Y19.3901 
G01 X-43.8555 Y19.4272 
G01 X-43.8272 Y19.4555 
G01 X-43.7901 Y19.4709 
G01 X-41.2098 Y19.4709 
G01 X-41.1727 Y19.4555 
G01 X-41.1444 Y19.4272 
G01 X-41.1290 Y19.3901 
G01 X-41.1290 Y16.8098 
G01 X-41.1444 Y16.7727 
G01 X-41.1727 Y16.7444 
G01 X-41.2098 Y16.7290 
G01 X-41.7926 Y16.7290 
G01 X-41.7926 Y11.2709 
G01 X-41.0098 Y11.2709 
G01 X-40.9727 Y11.2555 
G01 X-40.9444 Y11.2272 
G01 X-40.9290 Y11.1901 
G01 X-40.9290 Y8.6098 
G01 X-40.9444 Y8.5727 
G01 X-40.9727 Y8.5444 
G01 X-41.0098 Y8.5290 
G01 X-43.5901 Y8.5290 
G01 X-43.6272 Y8.5444 
G01 X-43.6555 Y8.5727 
G01 X-43.6709 Y8.6098 
G01 X-43.6709 Y11.1901 
G01 X-43.6555 Y11.2272 
G01 X-43.6272 Y11.2555 
G01 X-43.5901 Y11.2709 
G01 X-42.8073 Y11.2709 
G01 X-42.8073 Y16.7290 
G01 X-43.7901 Y16.7290 
G01 X-43.8272 Y16.7444 
G01 X-43.8555 Y16.7727 
G01 X-43.8709 Y16.8098 
(File Footer)
G00 Z2.0000 
G00 Z10.0000 
M05
M02
