( This gcode generated by /home/mattvenn/.eagle/ulp/pcb-gcode.ulp )
( Copyright 2005 by John Johnson. See readme.txt for licensing terms. )

( This file generated from the board /home/mattvenn/eagle-circuit-designs/3w developer kit/3w developer dcdc test.brd )
( This file generated 12/03/2012 16:29 )

G21

G90
G00 Z10.0000 
G00 X0 Y0
M03
G04 P3.000000
G00 Z2.0000 
G00 X-13.2709 Y16.5321 
G01 Z-0.2000 F600.00 
G01 X-13.2709 Y17.6678 
G01 X-12.4678 Y18.4709 
G01 X-11.3321 Y18.4709 
G01 X-10.5290 Y17.6678 
G01 X-10.5290 Y16.5321 
G01 X-11.3321 Y15.7290 
G01 X-12.4678 Y15.7290 
G01 X-13.2709 Y16.5321 
G00 Z2.0000 
G00 X-12.6709 Y11.3321 
G01 Z-0.2000 F600.00 
G01 X-12.6709 Y12.4678 
G01 X-11.8678 Y13.2709 
G01 X-10.7321 Y13.2709 
G01 X-9.9290 Y12.4678 
G01 X-9.9290 Y11.3321 
G01 X-10.7321 Y10.5290 
G01 X-11.8678 Y10.5290 
G01 X-12.6709 Y11.3321 
G00 Z2.0000 
G00 X-66.4709 Y16.7321 
G01 Z-0.2000 F600.00 
G01 X-66.4709 Y17.8678 
G01 X-65.6678 Y18.6709 
G01 X-64.5321 Y18.6709 
G01 X-63.7290 Y17.8678 
G01 X-63.7290 Y16.7321 
G01 X-64.5321 Y15.9290 
G01 X-65.6678 Y15.9290 
G01 X-66.4709 Y16.7321 
G00 Z2.0000 
G00 X-37.3486 Y23.3354 
G01 Z-0.2000 F600.00 
G01 X-37.3486 Y21.8645 
G01 X-37.3779 Y21.7174 
G01 X-37.4352 Y21.5789 
G01 X-37.5186 Y21.4542 
G01 X-37.6246 Y21.3482 
G01 X-37.7493 Y21.2648 
G01 X-37.8878 Y21.2075 
G01 X-38.0349 Y21.1782 
G01 X-38.1850 Y21.1782 
G01 X-38.3321 Y21.2075 
G01 X-38.4706 Y21.2648 
G01 X-38.5953 Y21.3482 
G01 X-38.7013 Y21.4542 
G01 X-38.7847 Y21.5789 
G01 X-38.8420 Y21.7174 
G01 X-38.8713 Y21.8645 
G01 X-38.8713 Y23.3354 
G01 X-38.8420 Y23.4825 
G01 X-38.7847 Y23.6210 
G01 X-38.7013 Y23.7457 
G01 X-38.5953 Y23.8517 
G01 X-38.4706 Y23.9351 
G01 X-38.3321 Y23.9924 
G01 X-38.1850 Y24.0217 
G01 X-38.0349 Y24.0217 
G01 X-37.8878 Y23.9924 
G01 X-37.7493 Y23.9351 
G01 X-37.6246 Y23.8517 
G01 X-37.5186 Y23.7457 
G01 X-37.4352 Y23.6210 
G01 X-37.3779 Y23.4825 
G01 X-37.3486 Y23.3354 
G00 Z2.0000 
G00 X-39.8886 Y23.3354 
G01 Z-0.2000 F600.00 
G01 X-39.8886 Y21.8645 
G01 X-39.9179 Y21.7174 
G01 X-39.9752 Y21.5789 
G01 X-40.0586 Y21.4542 
G01 X-40.1646 Y21.3482 
G01 X-40.2893 Y21.2648 
G01 X-40.4278 Y21.2075 
G01 X-40.5749 Y21.1782 
G01 X-40.7250 Y21.1782 
G01 X-40.8721 Y21.2075 
G01 X-41.0106 Y21.2648 
G01 X-41.1353 Y21.3482 
G01 X-41.2413 Y21.4542 
G01 X-41.3247 Y21.5789 
G01 X-41.3820 Y21.7174 
G01 X-41.4113 Y21.8645 
G01 X-41.4113 Y23.3354 
G01 X-41.3820 Y23.4825 
G01 X-41.3247 Y23.6210 
G01 X-41.2413 Y23.7457 
G01 X-41.1353 Y23.8517 
G01 X-41.0106 Y23.9351 
G01 X-40.8721 Y23.9924 
G01 X-40.7250 Y24.0217 
G01 X-40.5749 Y24.0217 
G01 X-40.4278 Y23.9924 
G01 X-40.2893 Y23.9351 
G01 X-40.1646 Y23.8517 
G01 X-40.0586 Y23.7457 
G01 X-39.9752 Y23.6210 
G01 X-39.9179 Y23.4825 
G01 X-39.8886 Y23.3354 
G00 Z2.0000 
G00 X-42.4286 Y23.3354 
G01 Z-0.2000 F600.00 
G01 X-42.4286 Y21.8645 
G01 X-42.4579 Y21.7174 
G01 X-42.5152 Y21.5789 
G01 X-42.5986 Y21.4542 
G01 X-42.7046 Y21.3482 
G01 X-42.8293 Y21.2648 
G01 X-42.9678 Y21.2075 
G01 X-43.1149 Y21.1782 
G01 X-43.2650 Y21.1782 
G01 X-43.4121 Y21.2075 
G01 X-43.5506 Y21.2648 
G01 X-43.6753 Y21.3482 
G01 X-43.7813 Y21.4542 
G01 X-43.8647 Y21.5789 
G01 X-43.9220 Y21.7174 
G01 X-43.9513 Y21.8645 
G01 X-43.9513 Y23.3354 
G01 X-43.9220 Y23.4825 
G01 X-43.8647 Y23.6210 
G01 X-43.7813 Y23.7457 
G01 X-43.6753 Y23.8517 
G01 X-43.5506 Y23.9351 
G01 X-43.4121 Y23.9924 
G01 X-43.2650 Y24.0217 
G01 X-43.1149 Y24.0217 
G01 X-42.9678 Y23.9924 
G01 X-42.8293 Y23.9351 
G01 X-42.7046 Y23.8517 
G01 X-42.5986 Y23.7457 
G01 X-42.5152 Y23.6210 
G01 X-42.4579 Y23.4825 
G01 X-42.4286 Y23.3354 
G00 Z2.0000 
G00 X-44.9686 Y23.3354 
G01 Z-0.2000 F600.00 
G01 X-44.9686 Y21.8645 
G01 X-44.9979 Y21.7174 
G01 X-45.0552 Y21.5789 
G01 X-45.1386 Y21.4542 
G01 X-45.2446 Y21.3482 
G01 X-45.3693 Y21.2648 
G01 X-45.5078 Y21.2075 
G01 X-45.6549 Y21.1782 
G01 X-45.8050 Y21.1782 
G01 X-45.9521 Y21.2075 
G01 X-46.0906 Y21.2648 
G01 X-46.2153 Y21.3482 
G01 X-46.3213 Y21.4542 
G01 X-46.4047 Y21.5789 
G01 X-46.4620 Y21.7174 
G01 X-46.4913 Y21.8645 
G01 X-46.4913 Y23.3354 
G01 X-46.4620 Y23.4825 
G01 X-46.4047 Y23.6210 
G01 X-46.3213 Y23.7457 
G01 X-46.2153 Y23.8517 
G01 X-46.0906 Y23.9351 
G01 X-45.9521 Y23.9924 
G01 X-45.8050 Y24.0217 
G01 X-45.6549 Y24.0217 
G01 X-45.5078 Y23.9924 
G01 X-45.3693 Y23.9351 
G01 X-45.2446 Y23.8517 
G01 X-45.1386 Y23.7457 
G01 X-45.0552 Y23.6210 
G01 X-44.9979 Y23.4825 
G01 X-44.9686 Y23.3354 
G00 Z2.0000 
G00 X-47.5086 Y23.3354 
G01 Z-0.2000 F600.00 
G01 X-47.5086 Y21.8645 
G01 X-47.5379 Y21.7174 
G01 X-47.5952 Y21.5789 
G01 X-47.6786 Y21.4542 
G01 X-47.7846 Y21.3482 
G01 X-47.9093 Y21.2648 
G01 X-48.0478 Y21.2075 
G01 X-48.1949 Y21.1782 
G01 X-48.3450 Y21.1782 
G01 X-48.4921 Y21.2075 
G01 X-48.6306 Y21.2648 
G01 X-48.7553 Y21.3482 
G01 X-48.8613 Y21.4542 
G01 X-48.9447 Y21.5789 
G01 X-49.0020 Y21.7174 
G01 X-49.0313 Y21.8645 
G01 X-49.0313 Y23.3354 
G01 X-49.0020 Y23.4825 
G01 X-48.9447 Y23.6210 
G01 X-48.8613 Y23.7457 
G01 X-48.7553 Y23.8517 
G01 X-48.6306 Y23.9351 
G01 X-48.4921 Y23.9924 
G01 X-48.3450 Y24.0217 
G01 X-48.1949 Y24.0217 
G01 X-48.0478 Y23.9924 
G01 X-47.9093 Y23.9351 
G01 X-47.7846 Y23.8517 
G01 X-47.6786 Y23.7457 
G01 X-47.5952 Y23.6210 
G01 X-47.5379 Y23.4825 
G01 X-47.5086 Y23.3354 
G00 Z2.0000 
G00 X-50.0486 Y23.3354 
G01 Z-0.2000 F600.00 
G01 X-50.0486 Y21.8645 
G01 X-50.0779 Y21.7174 
G01 X-50.1352 Y21.5789 
G01 X-50.2186 Y21.4542 
G01 X-50.3246 Y21.3482 
G01 X-50.4493 Y21.2648 
G01 X-50.5878 Y21.2075 
G01 X-50.7349 Y21.1782 
G01 X-50.8850 Y21.1782 
G01 X-51.0321 Y21.2075 
G01 X-51.1706 Y21.2648 
G01 X-51.2953 Y21.3482 
G01 X-51.4013 Y21.4542 
G01 X-51.4847 Y21.5789 
G01 X-51.5420 Y21.7174 
G01 X-51.5713 Y21.8645 
G01 X-51.5713 Y23.3354 
G01 X-51.5420 Y23.4825 
G01 X-51.4847 Y23.6210 
G01 X-51.4013 Y23.7457 
G01 X-51.2953 Y23.8517 
G01 X-51.1706 Y23.9351 
G01 X-51.0321 Y23.9924 
G01 X-50.8850 Y24.0217 
G01 X-50.7349 Y24.0217 
G01 X-50.5878 Y23.9924 
G01 X-50.4493 Y23.9351 
G01 X-50.3246 Y23.8517 
G01 X-50.2186 Y23.7457 
G01 X-50.1352 Y23.6210 
G01 X-50.0779 Y23.4825 
G01 X-50.0486 Y23.3354 
G00 Z2.0000 
G00 X-52.5886 Y23.3354 
G01 Z-0.2000 F600.00 
G01 X-52.5886 Y21.8645 
G01 X-52.6179 Y21.7174 
G01 X-52.6752 Y21.5789 
G01 X-52.7586 Y21.4542 
G01 X-52.8646 Y21.3482 
G01 X-52.9893 Y21.2648 
G01 X-53.1278 Y21.2075 
G01 X-53.2749 Y21.1782 
G01 X-53.4250 Y21.1782 
G01 X-53.5721 Y21.2075 
G01 X-53.7106 Y21.2648 
G01 X-53.8353 Y21.3482 
G01 X-53.9413 Y21.4542 
G01 X-54.0247 Y21.5789 
G01 X-54.0820 Y21.7174 
G01 X-54.1113 Y21.8645 
G01 X-54.1113 Y23.3354 
G01 X-54.0820 Y23.4825 
G01 X-54.0247 Y23.6210 
G01 X-53.9413 Y23.7457 
G01 X-53.8353 Y23.8517 
G01 X-53.7106 Y23.9351 
G01 X-53.5721 Y23.9924 
G01 X-53.4250 Y24.0217 
G01 X-53.2749 Y24.0217 
G01 X-53.1278 Y23.9924 
G01 X-52.9893 Y23.9351 
G01 X-52.8646 Y23.8517 
G01 X-52.7586 Y23.7457 
G01 X-52.6752 Y23.6210 
G01 X-52.6179 Y23.4825 
G01 X-52.5886 Y23.3354 
G00 Z2.0000 
G00 X-55.1286 Y23.3354 
G01 Z-0.2000 F600.00 
G01 X-55.1286 Y21.8645 
G01 X-55.1579 Y21.7174 
G01 X-55.2152 Y21.5789 
G01 X-55.2986 Y21.4542 
G01 X-55.4046 Y21.3482 
G01 X-55.5293 Y21.2648 
G01 X-55.6678 Y21.2075 
G01 X-55.8149 Y21.1782 
G01 X-55.9650 Y21.1782 
G01 X-56.1121 Y21.2075 
G01 X-56.2506 Y21.2648 
G01 X-56.3753 Y21.3482 
G01 X-56.4813 Y21.4542 
G01 X-56.5647 Y21.5789 
G01 X-56.6220 Y21.7174 
G01 X-56.6513 Y21.8645 
G01 X-56.6513 Y23.3354 
G01 X-56.6220 Y23.4825 
G01 X-56.5647 Y23.6210 
G01 X-56.4813 Y23.7457 
G01 X-56.3753 Y23.8517 
G01 X-56.2506 Y23.9351 
G01 X-56.1121 Y23.9924 
G01 X-55.9650 Y24.0217 
G01 X-55.8149 Y24.0217 
G01 X-55.6678 Y23.9924 
G01 X-55.5293 Y23.9351 
G01 X-55.4046 Y23.8517 
G01 X-55.2986 Y23.7457 
G01 X-55.2152 Y23.6210 
G01 X-55.1579 Y23.4825 
G01 X-55.1286 Y23.3354 
G00 Z2.0000 
G00 X-65.9709 Y24.0321 
G01 Z-0.2000 F600.00 
G01 X-65.9709 Y25.1678 
G01 X-65.1678 Y25.9709 
G01 X-64.0321 Y25.9709 
G01 X-63.2290 Y25.1678 
G01 X-63.2290 Y24.0321 
G01 X-64.0321 Y23.2290 
G01 X-65.1678 Y23.2290 
G01 X-65.9709 Y24.0321 
G00 Z2.0000 
G00 X-13.2809 Y16.5280 
G01 Z-0.2000 F600.00 
G01 X-13.2809 Y17.6719 
G01 X-12.4719 Y18.4809 
G01 X-11.3280 Y18.4809 
G01 X-10.5190 Y17.6719 
G01 X-10.5190 Y16.5280 
G01 X-11.3280 Y15.7190 
G01 X-12.4719 Y15.7190 
G01 X-13.2809 Y16.5280 
G00 Z2.0000 
G00 X-12.6809 Y11.3280 
G01 Z-0.2000 F600.00 
G01 X-12.6809 Y12.4719 
G01 X-11.8719 Y13.2809 
G01 X-10.7280 Y13.2809 
G01 X-9.9190 Y12.4719 
G01 X-9.9190 Y11.3280 
G01 X-10.7280 Y10.5190 
G01 X-11.8719 Y10.5190 
G01 X-12.6809 Y11.3280 
G00 Z2.0000 
G00 X-66.4809 Y16.7280 
G01 Z-0.2000 F600.00 
G01 X-66.4809 Y17.8719 
G01 X-65.6719 Y18.6809 
G01 X-64.5280 Y18.6809 
G01 X-63.7190 Y17.8719 
G01 X-63.7190 Y16.7280 
G01 X-64.5280 Y15.9190 
G01 X-65.6719 Y15.9190 
G01 X-66.4809 Y16.7280 
G00 Z2.0000 
G00 X-37.3386 Y23.3364 
G01 Z-0.2000 F600.00 
G01 X-37.3386 Y21.8635 
G01 X-37.3682 Y21.7145 
G01 X-37.4264 Y21.5742 
G01 X-37.5108 Y21.4478 
G01 X-37.6182 Y21.3404 
G01 X-37.7446 Y21.2560 
G01 X-37.8849 Y21.1978 
G01 X-38.0339 Y21.1682 
G01 X-38.1860 Y21.1682 
G01 X-38.3350 Y21.1978 
G01 X-38.4753 Y21.2560 
G01 X-38.6017 Y21.3404 
G01 X-38.7091 Y21.4478 
G01 X-38.7935 Y21.5742 
G01 X-38.8517 Y21.7145 
G01 X-38.8813 Y21.8635 
G01 X-38.8813 Y23.3364 
G01 X-38.8517 Y23.4854 
G01 X-38.7935 Y23.6257 
G01 X-38.7091 Y23.7521 
G01 X-38.6017 Y23.8595 
G01 X-38.4753 Y23.9439 
G01 X-38.3350 Y24.0021 
G01 X-38.1860 Y24.0317 
G01 X-38.0339 Y24.0317 
G01 X-37.8849 Y24.0021 
G01 X-37.7446 Y23.9439 
G01 X-37.6182 Y23.8595 
G01 X-37.5108 Y23.7521 
G01 X-37.4264 Y23.6257 
G01 X-37.3682 Y23.4854 
G01 X-37.3386 Y23.3364 
G00 Z2.0000 
G00 X-39.8786 Y23.3364 
G01 Z-0.2000 F600.00 
G01 X-39.8786 Y21.8635 
G01 X-39.9082 Y21.7145 
G01 X-39.9664 Y21.5742 
G01 X-40.0508 Y21.4478 
G01 X-40.1582 Y21.3404 
G01 X-40.2846 Y21.2560 
G01 X-40.4249 Y21.1978 
G01 X-40.5739 Y21.1682 
G01 X-40.7260 Y21.1682 
G01 X-40.8750 Y21.1978 
G01 X-41.0153 Y21.2560 
G01 X-41.1417 Y21.3404 
G01 X-41.2491 Y21.4478 
G01 X-41.3335 Y21.5742 
G01 X-41.3917 Y21.7145 
G01 X-41.4213 Y21.8635 
G01 X-41.4213 Y23.3364 
G01 X-41.3917 Y23.4854 
G01 X-41.3335 Y23.6257 
G01 X-41.2491 Y23.7521 
G01 X-41.1417 Y23.8595 
G01 X-41.0153 Y23.9439 
G01 X-40.8750 Y24.0021 
G01 X-40.7260 Y24.0317 
G01 X-40.5739 Y24.0317 
G01 X-40.4249 Y24.0021 
G01 X-40.2846 Y23.9439 
G01 X-40.1582 Y23.8595 
G01 X-40.0508 Y23.7521 
G01 X-39.9664 Y23.6257 
G01 X-39.9082 Y23.4854 
G01 X-39.8786 Y23.3364 
G00 Z2.0000 
G00 X-42.4186 Y23.3364 
G01 Z-0.2000 F600.00 
G01 X-42.4186 Y21.8635 
G01 X-42.4482 Y21.7145 
G01 X-42.5064 Y21.5742 
G01 X-42.5908 Y21.4478 
G01 X-42.6982 Y21.3404 
G01 X-42.8246 Y21.2560 
G01 X-42.9649 Y21.1978 
G01 X-43.1139 Y21.1682 
G01 X-43.2660 Y21.1682 
G01 X-43.4150 Y21.1978 
G01 X-43.5553 Y21.2560 
G01 X-43.6817 Y21.3404 
G01 X-43.7891 Y21.4478 
G01 X-43.8735 Y21.5742 
G01 X-43.9317 Y21.7145 
G01 X-43.9613 Y21.8635 
G01 X-43.9613 Y23.3364 
G01 X-43.9317 Y23.4854 
G01 X-43.8735 Y23.6257 
G01 X-43.7891 Y23.7521 
G01 X-43.6817 Y23.8595 
G01 X-43.5553 Y23.9439 
G01 X-43.4150 Y24.0021 
G01 X-43.2660 Y24.0317 
G01 X-43.1139 Y24.0317 
G01 X-42.9649 Y24.0021 
G01 X-42.8246 Y23.9439 
G01 X-42.6982 Y23.8595 
G01 X-42.5908 Y23.7521 
G01 X-42.5064 Y23.6257 
G01 X-42.4482 Y23.4854 
G01 X-42.4186 Y23.3364 
G00 Z2.0000 
G00 X-44.9586 Y23.3364 
G01 Z-0.2000 F600.00 
G01 X-44.9586 Y21.8635 
G01 X-44.9882 Y21.7145 
G01 X-45.0464 Y21.5742 
G01 X-45.1308 Y21.4478 
G01 X-45.2382 Y21.3404 
G01 X-45.3646 Y21.2560 
G01 X-45.5049 Y21.1978 
G01 X-45.6539 Y21.1682 
G01 X-45.8060 Y21.1682 
G01 X-45.9550 Y21.1978 
G01 X-46.0953 Y21.2560 
G01 X-46.2217 Y21.3404 
G01 X-46.3291 Y21.4478 
G01 X-46.4135 Y21.5742 
G01 X-46.4717 Y21.7145 
G01 X-46.5013 Y21.8635 
G01 X-46.5013 Y23.3364 
G01 X-46.4717 Y23.4854 
G01 X-46.4135 Y23.6257 
G01 X-46.3291 Y23.7521 
G01 X-46.2217 Y23.8595 
G01 X-46.0953 Y23.9439 
G01 X-45.9550 Y24.0021 
G01 X-45.8060 Y24.0317 
G01 X-45.6539 Y24.0317 
G01 X-45.5049 Y24.0021 
G01 X-45.3646 Y23.9439 
G01 X-45.2382 Y23.8595 
G01 X-45.1308 Y23.7521 
G01 X-45.0464 Y23.6257 
G01 X-44.9882 Y23.4854 
G01 X-44.9586 Y23.3364 
G00 Z2.0000 
G00 X-47.4986 Y23.3364 
G01 Z-0.2000 F600.00 
G01 X-47.4986 Y21.8635 
G01 X-47.5282 Y21.7145 
G01 X-47.5864 Y21.5742 
G01 X-47.6708 Y21.4478 
G01 X-47.7782 Y21.3404 
G01 X-47.9046 Y21.2560 
G01 X-48.0449 Y21.1978 
G01 X-48.1939 Y21.1682 
G01 X-48.3460 Y21.1682 
G01 X-48.4950 Y21.1978 
G01 X-48.6353 Y21.2560 
G01 X-48.7617 Y21.3404 
G01 X-48.8691 Y21.4478 
G01 X-48.9535 Y21.5742 
G01 X-49.0117 Y21.7145 
G01 X-49.0413 Y21.8635 
G01 X-49.0413 Y23.3364 
G01 X-49.0117 Y23.4854 
G01 X-48.9535 Y23.6257 
G01 X-48.8691 Y23.7521 
G01 X-48.7617 Y23.8595 
G01 X-48.6353 Y23.9439 
G01 X-48.4950 Y24.0021 
G01 X-48.3460 Y24.0317 
G01 X-48.1939 Y24.0317 
G01 X-48.0449 Y24.0021 
G01 X-47.9046 Y23.9439 
G01 X-47.7782 Y23.8595 
G01 X-47.6708 Y23.7521 
G01 X-47.5864 Y23.6257 
G01 X-47.5282 Y23.4854 
G01 X-47.4986 Y23.3364 
G00 Z2.0000 
G00 X-50.0386 Y23.3364 
G01 Z-0.2000 F600.00 
G01 X-50.0386 Y21.8635 
G01 X-50.0682 Y21.7145 
G01 X-50.1264 Y21.5742 
G01 X-50.2108 Y21.4478 
G01 X-50.3182 Y21.3404 
G01 X-50.4446 Y21.2560 
G01 X-50.5849 Y21.1978 
G01 X-50.7339 Y21.1682 
G01 X-50.8860 Y21.1682 
G01 X-51.0350 Y21.1978 
G01 X-51.1753 Y21.2560 
G01 X-51.3017 Y21.3404 
G01 X-51.4091 Y21.4478 
G01 X-51.4935 Y21.5742 
G01 X-51.5517 Y21.7145 
G01 X-51.5813 Y21.8635 
G01 X-51.5813 Y23.3364 
G01 X-51.5517 Y23.4854 
G01 X-51.4935 Y23.6257 
G01 X-51.4091 Y23.7521 
G01 X-51.3017 Y23.8595 
G01 X-51.1753 Y23.9439 
G01 X-51.0350 Y24.0021 
G01 X-50.8860 Y24.0317 
G01 X-50.7339 Y24.0317 
G01 X-50.5849 Y24.0021 
G01 X-50.4446 Y23.9439 
G01 X-50.3182 Y23.8595 
G01 X-50.2108 Y23.7521 
G01 X-50.1264 Y23.6257 
G01 X-50.0682 Y23.4854 
G01 X-50.0386 Y23.3364 
G00 Z2.0000 
G00 X-52.5786 Y23.3364 
G01 Z-0.2000 F600.00 
G01 X-52.5786 Y21.8635 
G01 X-52.6082 Y21.7145 
G01 X-52.6664 Y21.5742 
G01 X-52.7508 Y21.4478 
G01 X-52.8582 Y21.3404 
G01 X-52.9846 Y21.2560 
G01 X-53.1249 Y21.1978 
G01 X-53.2739 Y21.1682 
G01 X-53.4260 Y21.1682 
G01 X-53.5750 Y21.1978 
G01 X-53.7153 Y21.2560 
G01 X-53.8417 Y21.3404 
G01 X-53.9491 Y21.4478 
G01 X-54.0335 Y21.5742 
G01 X-54.0917 Y21.7145 
G01 X-54.1213 Y21.8635 
G01 X-54.1213 Y23.3364 
G01 X-54.0917 Y23.4854 
G01 X-54.0335 Y23.6257 
G01 X-53.9491 Y23.7521 
G01 X-53.8417 Y23.8595 
G01 X-53.7153 Y23.9439 
G01 X-53.5750 Y24.0021 
G01 X-53.4260 Y24.0317 
G01 X-53.2739 Y24.0317 
G01 X-53.1249 Y24.0021 
G01 X-52.9846 Y23.9439 
G01 X-52.8582 Y23.8595 
G01 X-52.7508 Y23.7521 
G01 X-52.6664 Y23.6257 
G01 X-52.6082 Y23.4854 
G01 X-52.5786 Y23.3364 
G00 Z2.0000 
G00 X-55.1186 Y23.3364 
G01 Z-0.2000 F600.00 
G01 X-55.1186 Y21.8635 
G01 X-55.1482 Y21.7145 
G01 X-55.2064 Y21.5742 
G01 X-55.2908 Y21.4478 
G01 X-55.3982 Y21.3404 
G01 X-55.5246 Y21.2560 
G01 X-55.6649 Y21.1978 
G01 X-55.8139 Y21.1682 
G01 X-55.9660 Y21.1682 
G01 X-56.1150 Y21.1978 
G01 X-56.2553 Y21.2560 
G01 X-56.3817 Y21.3404 
G01 X-56.4891 Y21.4478 
G01 X-56.5735 Y21.5742 
G01 X-56.6317 Y21.7145 
G01 X-56.6613 Y21.8635 
G01 X-56.6613 Y23.3364 
G01 X-56.6317 Y23.4854 
G01 X-56.5735 Y23.6257 
G01 X-56.4891 Y23.7521 
G01 X-56.3817 Y23.8595 
G01 X-56.2553 Y23.9439 
G01 X-56.1150 Y24.0021 
G01 X-55.9660 Y24.0317 
G01 X-55.8139 Y24.0317 
G01 X-55.6649 Y24.0021 
G01 X-55.5246 Y23.9439 
G01 X-55.3982 Y23.8595 
G01 X-55.2908 Y23.7521 
G01 X-55.2064 Y23.6257 
G01 X-55.1482 Y23.4854 
G01 X-55.1186 Y23.3364 
G00 Z2.0000 
G00 X-65.9809 Y24.0280 
G01 Z-0.2000 F600.00 
G01 X-65.9809 Y25.1719 
G01 X-65.1719 Y25.9809 
G01 X-64.0280 Y25.9809 
G01 X-63.2190 Y25.1719 
G01 X-63.2190 Y24.0280 
G01 X-64.0280 Y23.2190 
G01 X-65.1719 Y23.2190 
G01 X-65.9809 Y24.0280 
(File Footer)
G00 Z2.0000 
G00 Z10.0000 
M05
M02
