( This gcode generated by /home/mattvenn/.eagle/ulp/pcb-gcode.ulp )
( Copyright 2005 by John Johnson. See readme.txt for licensing terms. )

( This file generated from the board /home/mattvenn/eagle-circuit-designs/3w developer kit/3w developer dcdc test.brd )
( This file generated 13/03/2012 09:53 )

( T01 0.600000 )
( T02 0.812800 )
( T03 1.016000 )
( T04 1.117600 )
G21

G90
M05
G00 X0.0000 Y0.0000 Z30.0000 
M06 T01  ; 0.6000 
G00 Z2.0000 
M03
G04 P3.000000
G82 X-12.0000 Y58.0000 Z-2.0000 F127.00 R2.0000 P0.100000
G82 X-21.0000 Y41.0000 
M05
G00 X0.0000 Y0.0000 Z30.0000 
M06 T02  ; 0.8128 
G00 Z2.0000 
M03
G04 P3.000000
G82 X-38.1100 Y59.6000 Z-2.0000 F127.00 R2.0000 P0.100000
G82 X-40.6500 Y59.6000 
G82 X-43.1900 Y59.6000 
G82 X-45.7300 Y59.6000 
G82 X-48.2700 Y59.6000 
G82 X-50.8100 Y59.6000 
G82 X-53.3500 Y59.6000 
G82 X-55.8900 Y59.6000 
M05
G00 X0.0000 Y0.0000 Z30.0000 
M06 T03  ; 1.0160 
G00 Z2.0000 
M03
G04 P3.000000
G82 X-39.4600 Y33.0000 Z-2.0000 F127.00 R2.0000 P0.100000
G82 X-40.4600 Y19.0000 
G82 X-44.5400 Y33.0000 
G82 X-45.5400 Y19.0000 
M05
G00 X0.0000 Y0.0000 Z30.0000 
M06 T04  ; 1.1176 
G00 Z2.0000 
M03
G04 P3.000000
G82 X-10.0000 Y35.0000 Z-2.0000 F127.00 R2.0000 P0.100000
G82 X-11.0000 Y21.0000 
G82 X-11.0000 Y43.0000 
G82 X-11.3000 Y48.9000 
G82 X-11.9000 Y54.1000 
G82 X-20.0000 Y9.0000 
G82 X-36.0000 Y9.0000 
G82 X-50.0000 Y38.0000 
G82 X-55.0000 Y11.0000 
G82 X-64.6000 Y61.6000 
(File Footer)
T01 
G00 Z10.0000 
M05
M02
