( This gcode generated by /home/mattvenn/.eagle/ulp/pcb-gcode.ulp )
( Copyright 2005 by John Johnson. See readme.txt for licensing terms. )

( This file generated from the board /home/mattvenn/eagle-circuit-designs/3w developer kit/3w developer v1.brd )
( This file generated 08/03/2012 17:33 )

( T01 0.600000 )
( T02 1.016000 )
( T03 1.117600 )
G21

G90
M05
G00 X0.0000 Y0.0000 Z30.0000 
M06 T01  ; 0.6000 
G00 Z2.0000 
M03
G04 P3.000000
G82 X0.0000 Y0.0000 Z-2.0000 F127.00 R2.0000 P0.100000
G82 X42.3000 Y9.9000 
G82 X42.5000 Y18.1000 
G82 X82.0000 Y0.0000 
M05
G00 X0.0000 Y0.0000 Z30.0000 
M06 T02  ; 1.0160 
G00 Z2.0000 
M03
G04 P3.000000
G82 X48.2600 Y14.3600 Z-2.0000 F127.00 R2.0000 P0.100000
G82 X53.3400 Y14.3600 
G82 X61.2600 Y14.6600 
G82 X66.3400 Y14.6600 
M05
G00 X0.0000 Y0.0000 Z30.0000 
M06 T03  ; 1.1176 
G00 Z2.0000 
M03
G04 P3.000000
G82 X9.5000 Y8.5000 Z-2.0000 F127.00 R2.0000 P0.100000
G82 X9.5000 Y26.5000 
G82 X9.5000 Y32.5000 
G82 X9.5000 Y37.3000 
G82 X9.5000 Y42.5000 
G82 X19.5000 Y8.5000 
G82 X26.7000 Y8.5000 
G82 X71.5000 Y7.5000 
G82 X71.5000 Y23.5000 
G82 X71.5000 Y39.5000 
G82 X71.5000 Y55.5000 
(File Footer)
T01 
G00 Z10.0000 
M05
M02
