( This gcode generated by /home/mattvenn/.eagle/ulp/pcb-gcode.ulp )
( Copyright 2005 by John Johnson. See readme.txt for licensing terms. )

( This file generated from the board /home/mattvenn/eagle-circuit-designs/3w developer kit/3w developer dcdc test.brd )
( This file generated 13/03/2012 09:53 )

G21

G90
G00 Z10.0000 
G00 X0 Y0
M03
G04 P3.000000
G00 Z2.0000 
G00 X-22.1931 Y39.8876 
G01 Z-0.2000 F600.00 
G01 X-22.1931 Y42.1123 
G01 X-22.1777 Y42.1494 
G01 X-22.1494 Y42.1777 
G01 X-22.1123 Y42.1931 
G01 X-19.8876 Y42.1931 
G01 X-19.8505 Y42.1777 
G01 X-19.8222 Y42.1494 
G01 X-19.8068 Y42.1123 
G01 X-19.8068 Y41.3041 
G01 X-6.3041 Y41.3041 
G01 X-6.3041 Y58.6958 
G01 X-10.8068 Y58.6958 
G01 X-10.8068 Y56.8876 
G01 X-10.8222 Y56.8505 
G01 X-10.8505 Y56.8222 
G01 X-10.8876 Y56.8068 
G01 X-13.1123 Y56.8068 
G01 X-13.1494 Y56.8222 
G01 X-13.1777 Y56.8505 
G01 X-13.1931 Y56.8876 
G01 X-13.1931 Y59.1123 
G01 X-13.1777 Y59.1494 
G01 X-13.1494 Y59.1777 
G01 X-13.1123 Y59.1931 
G01 X-12.2369 Y59.1931 
G01 X-12.1867 Y59.2433 
G01 X-12.1174 Y59.2834 
G01 X-12.0400 Y59.3041 
G01 X-11.9599 Y59.3041 
G01 X-5.9599 Y59.3041 
G01 X-5.8825 Y59.2834 
G01 X-5.8132 Y59.2433 
G01 X-5.7566 Y59.1867 
G01 X-5.7165 Y59.1174 
G01 X-5.6958 Y59.0400 
G01 X-5.6958 Y58.9599 
G01 X-5.6958 Y40.9599 
G01 X-5.7165 Y40.8825 
G01 X-5.7566 Y40.8132 
G01 X-5.8132 Y40.7566 
G01 X-5.8825 Y40.7165 
G01 X-5.9599 Y40.6958 
G01 X-6.0400 Y40.6958 
G01 X-19.8068 Y40.6958 
G01 X-19.8068 Y39.8876 
G01 X-19.8222 Y39.8505 
G01 X-19.8505 Y39.8222 
G01 X-19.8876 Y39.8068 
G01 X-22.1123 Y39.8068 
G01 X-22.1494 Y39.8222 
G01 X-22.1777 Y39.8505 
G01 X-22.1931 Y39.8876 
G00 Z2.0000 
G00 X-11.3709 Y34.4321 
G01 Z-0.2000 F600.00 
G01 X-11.3709 Y35.5678 
G01 X-10.5678 Y36.3709 
G01 X-9.4321 Y36.3709 
G01 X-8.6290 Y35.5678 
G01 X-8.6290 Y34.4321 
G01 X-9.4321 Y33.6290 
G01 X-10.5678 Y33.6290 
G01 X-11.3709 Y34.4321 
G00 Z2.0000 
G00 X-12.3709 Y42.4321 
G01 Z-0.2000 F600.00 
G01 X-12.3709 Y43.5678 
G01 X-11.5678 Y44.3709 
G01 X-10.4321 Y44.3709 
G01 X-9.6290 Y43.5678 
G01 X-9.6290 Y42.4321 
G01 X-10.4321 Y41.6290 
G01 X-11.5678 Y41.6290 
G01 X-12.3709 Y42.4321 
G00 Z2.0000 
G00 X-12.3709 Y20.4321 
G01 Z-0.2000 F600.00 
G01 X-12.3709 Y21.5678 
G01 X-11.5678 Y22.3709 
G01 X-10.4321 Y22.3709 
G01 X-9.6290 Y21.5678 
G01 X-9.6290 Y20.4321 
G01 X-10.4321 Y19.6290 
G01 X-11.5678 Y19.6290 
G01 X-12.3709 Y20.4321 
G00 Z2.0000 
G00 X-21.3709 Y8.4321 
G01 Z-0.2000 F600.00 
G01 X-21.3709 Y9.5678 
G01 X-20.5678 Y10.3709 
G01 X-19.4321 Y10.3709 
G01 X-18.6290 Y9.5678 
G01 X-18.6290 Y8.4321 
G01 X-19.4321 Y7.6290 
G01 X-20.5678 Y7.6290 
G01 X-21.3709 Y8.4321 
G00 Z2.0000 
G00 X-37.3709 Y8.4321 
G01 Z-0.2000 F600.00 
G01 X-37.3709 Y9.5678 
G01 X-36.5678 Y10.3709 
G01 X-35.4321 Y10.3709 
G01 X-34.6290 Y9.5678 
G01 X-34.6290 Y8.4321 
G01 X-35.4321 Y7.6290 
G01 X-36.5678 Y7.6290 
G01 X-37.3709 Y8.4321 
G00 Z2.0000 
G00 X-51.3709 Y37.4321 
G01 Z-0.2000 F600.00 
G01 X-51.3709 Y38.5678 
G01 X-50.5678 Y39.3709 
G01 X-49.4321 Y39.3709 
G01 X-48.6290 Y38.5678 
G01 X-48.6290 Y37.4321 
G01 X-49.4321 Y36.6290 
G01 X-50.5678 Y36.6290 
G01 X-51.3709 Y37.4321 
G00 Z2.0000 
G00 X-56.3709 Y10.4321 
G01 Z-0.2000 F600.00 
G01 X-56.3709 Y11.5678 
G01 X-55.5678 Y12.3709 
G01 X-54.4321 Y12.3709 
G01 X-53.6290 Y11.5678 
G01 X-53.6290 Y10.4321 
G01 X-54.4321 Y9.6290 
G01 X-55.5678 Y9.6290 
G01 X-56.3709 Y10.4321 
G00 Z2.0000 
G00 X-41.8309 Y18.4321 
G01 Z-0.2000 F600.00 
G01 X-41.8309 Y19.5678 
G01 X-41.0278 Y20.3709 
G01 X-39.8921 Y20.3709 
G01 X-39.0890 Y19.5678 
G01 X-39.0890 Y18.4321 
G01 X-39.8921 Y17.6290 
G01 X-41.0278 Y17.6290 
G01 X-41.8309 Y18.4321 
G00 Z2.0000 
G00 X-46.9109 Y18.8920 
G01 Z-0.2000 F600.00 
G01 X-46.9109 Y19.1079 
G01 X-46.8771 Y19.3210 
G01 X-46.8105 Y19.5262 
G01 X-46.7125 Y19.7185 
G01 X-46.5857 Y19.8931 
G01 X-46.4331 Y20.0457 
G01 X-46.2585 Y20.1725 
G01 X-46.0662 Y20.2705 
G01 X-45.8610 Y20.3371 
G01 X-45.6479 Y20.3709 
G01 X-45.4320 Y20.3709 
G01 X-45.2189 Y20.3371 
G01 X-45.0137 Y20.2705 
G01 X-44.8214 Y20.1725 
G01 X-44.6468 Y20.0457 
G01 X-44.4942 Y19.8931 
G01 X-44.3674 Y19.7185 
G01 X-44.2694 Y19.5262 
G01 X-44.2028 Y19.3210 
G01 X-44.1690 Y19.1079 
G01 X-44.1690 Y18.8920 
G01 X-44.2028 Y18.6789 
G01 X-44.2694 Y18.4737 
G01 X-44.3674 Y18.2814 
G01 X-44.4942 Y18.1068 
G01 X-44.6468 Y17.9542 
G01 X-44.8214 Y17.8274 
G01 X-45.0137 Y17.7294 
G01 X-45.2189 Y17.6628 
G01 X-45.4320 Y17.6290 
G01 X-45.6479 Y17.6290 
G01 X-45.8610 Y17.6628 
G01 X-46.0662 Y17.7294 
G01 X-46.2585 Y17.8274 
G01 X-46.4331 Y17.9542 
G01 X-46.5857 Y18.1068 
G01 X-46.7125 Y18.2814 
G01 X-46.8105 Y18.4737 
G01 X-46.8771 Y18.6789 
G01 X-46.9109 Y18.8920 
G00 Z2.0000 
G00 X-40.8309 Y32.4321 
G01 Z-0.2000 F600.00 
G01 X-40.8309 Y33.5678 
G01 X-40.0278 Y34.3709 
G01 X-38.8921 Y34.3709 
G01 X-38.0890 Y33.5678 
G01 X-38.0890 Y32.4321 
G01 X-38.8921 Y31.6290 
G01 X-40.0278 Y31.6290 
G01 X-40.8309 Y32.4321 
G00 Z2.0000 
G00 X-45.9109 Y32.8920 
G01 Z-0.2000 F600.00 
G01 X-45.9109 Y33.1079 
G01 X-45.8771 Y33.3210 
G01 X-45.8105 Y33.5262 
G01 X-45.7125 Y33.7185 
G01 X-45.5857 Y33.8931 
G01 X-45.4331 Y34.0457 
G01 X-45.2585 Y34.1725 
G01 X-45.0662 Y34.2705 
G01 X-44.8610 Y34.3371 
G01 X-44.6479 Y34.3709 
G01 X-44.4320 Y34.3709 
G01 X-44.2189 Y34.3371 
G01 X-44.0137 Y34.2705 
G01 X-43.8214 Y34.1725 
G01 X-43.6468 Y34.0457 
G01 X-43.4942 Y33.8931 
G01 X-43.3674 Y33.7185 
G01 X-43.2694 Y33.5262 
G01 X-43.2028 Y33.3210 
G01 X-43.1690 Y33.1079 
G01 X-43.1690 Y32.8920 
G01 X-43.2028 Y32.6789 
G01 X-43.2694 Y32.4737 
G01 X-43.3674 Y32.2814 
G01 X-43.4942 Y32.1068 
G01 X-43.6468 Y31.9542 
G01 X-43.8214 Y31.8274 
G01 X-44.0137 Y31.7294 
G01 X-44.2189 Y31.6628 
G01 X-44.4320 Y31.6290 
G01 X-44.6479 Y31.6290 
G01 X-44.8610 Y31.6628 
G01 X-45.0662 Y31.7294 
G01 X-45.2585 Y31.8274 
G01 X-45.4331 Y31.9542 
G01 X-45.5857 Y32.1068 
G01 X-45.7125 Y32.2814 
G01 X-45.8105 Y32.4737 
G01 X-45.8771 Y32.6789 
G01 X-45.9109 Y32.8920 
G00 Z2.0000 
G00 X-65.9709 Y61.0321 
G01 Z-0.2000 F600.00 
G01 X-65.9709 Y62.1678 
G01 X-65.1678 Y62.9709 
G01 X-64.0321 Y62.9709 
G01 X-63.2290 Y62.1678 
G01 X-63.2290 Y61.0321 
G01 X-64.0321 Y60.2290 
G01 X-65.1678 Y60.2290 
G01 X-65.9709 Y61.0321 
G00 Z2.0000 
G00 X-55.1286 Y60.3354 
G01 Z-0.2000 F600.00 
G01 X-55.1286 Y58.8645 
G01 X-55.1579 Y58.7174 
G01 X-55.2152 Y58.5789 
G01 X-55.2986 Y58.4542 
G01 X-55.4046 Y58.3482 
G01 X-55.5293 Y58.2648 
G01 X-55.6678 Y58.2075 
G01 X-55.8149 Y58.1782 
G01 X-55.9650 Y58.1782 
G01 X-56.1121 Y58.2075 
G01 X-56.2506 Y58.2648 
G01 X-56.3753 Y58.3482 
G01 X-56.4813 Y58.4542 
G01 X-56.5647 Y58.5789 
G01 X-56.6220 Y58.7174 
G01 X-56.6513 Y58.8645 
G01 X-56.6513 Y60.3354 
G01 X-56.6220 Y60.4825 
G01 X-56.5647 Y60.6210 
G01 X-56.4813 Y60.7457 
G01 X-56.3753 Y60.8517 
G01 X-56.2506 Y60.9351 
G01 X-56.1121 Y60.9924 
G01 X-55.9650 Y61.0217 
G01 X-55.8149 Y61.0217 
G01 X-55.6678 Y60.9924 
G01 X-55.5293 Y60.9351 
G01 X-55.4046 Y60.8517 
G01 X-55.2986 Y60.7457 
G01 X-55.2152 Y60.6210 
G01 X-55.1579 Y60.4825 
G01 X-55.1286 Y60.3354 
G00 Z2.0000 
G00 X-52.5886 Y60.3354 
G01 Z-0.2000 F600.00 
G01 X-52.5886 Y58.8645 
G01 X-52.6179 Y58.7174 
G01 X-52.6752 Y58.5789 
G01 X-52.7586 Y58.4542 
G01 X-52.8646 Y58.3482 
G01 X-52.9893 Y58.2648 
G01 X-53.1278 Y58.2075 
G01 X-53.2749 Y58.1782 
G01 X-53.4250 Y58.1782 
G01 X-53.5721 Y58.2075 
G01 X-53.7106 Y58.2648 
G01 X-53.8353 Y58.3482 
G01 X-53.9413 Y58.4542 
G01 X-54.0247 Y58.5789 
G01 X-54.0820 Y58.7174 
G01 X-54.1113 Y58.8645 
G01 X-54.1113 Y60.3354 
G01 X-54.0820 Y60.4825 
G01 X-54.0247 Y60.6210 
G01 X-53.9413 Y60.7457 
G01 X-53.8353 Y60.8517 
G01 X-53.7106 Y60.9351 
G01 X-53.5721 Y60.9924 
G01 X-53.4250 Y61.0217 
G01 X-53.2749 Y61.0217 
G01 X-53.1278 Y60.9924 
G01 X-52.9893 Y60.9351 
G01 X-52.8646 Y60.8517 
G01 X-52.7586 Y60.7457 
G01 X-52.6752 Y60.6210 
G01 X-52.6179 Y60.4825 
G01 X-52.5886 Y60.3354 
G00 Z2.0000 
G00 X-50.0486 Y60.3354 
G01 Z-0.2000 F600.00 
G01 X-50.0486 Y58.8645 
G01 X-50.0779 Y58.7174 
G01 X-50.1352 Y58.5789 
G01 X-50.2186 Y58.4542 
G01 X-50.3246 Y58.3482 
G01 X-50.4493 Y58.2648 
G01 X-50.5878 Y58.2075 
G01 X-50.7349 Y58.1782 
G01 X-50.8850 Y58.1782 
G01 X-51.0321 Y58.2075 
G01 X-51.1706 Y58.2648 
G01 X-51.2953 Y58.3482 
G01 X-51.4013 Y58.4542 
G01 X-51.4847 Y58.5789 
G01 X-51.5420 Y58.7174 
G01 X-51.5713 Y58.8645 
G01 X-51.5713 Y60.3354 
G01 X-51.5420 Y60.4825 
G01 X-51.4847 Y60.6210 
G01 X-51.4013 Y60.7457 
G01 X-51.2953 Y60.8517 
G01 X-51.1706 Y60.9351 
G01 X-51.0321 Y60.9924 
G01 X-50.8850 Y61.0217 
G01 X-50.7349 Y61.0217 
G01 X-50.5878 Y60.9924 
G01 X-50.4493 Y60.9351 
G01 X-50.3246 Y60.8517 
G01 X-50.2186 Y60.7457 
G01 X-50.1352 Y60.6210 
G01 X-50.0779 Y60.4825 
G01 X-50.0486 Y60.3354 
G00 Z2.0000 
G00 X-47.5086 Y60.3354 
G01 Z-0.2000 F600.00 
G01 X-47.5086 Y58.8645 
G01 X-47.5379 Y58.7174 
G01 X-47.5952 Y58.5789 
G01 X-47.6786 Y58.4542 
G01 X-47.7846 Y58.3482 
G01 X-47.9093 Y58.2648 
G01 X-48.0478 Y58.2075 
G01 X-48.1949 Y58.1782 
G01 X-48.3450 Y58.1782 
G01 X-48.4921 Y58.2075 
G01 X-48.6306 Y58.2648 
G01 X-48.7553 Y58.3482 
G01 X-48.8613 Y58.4542 
G01 X-48.9447 Y58.5789 
G01 X-49.0020 Y58.7174 
G01 X-49.0313 Y58.8645 
G01 X-49.0313 Y60.3354 
G01 X-49.0020 Y60.4825 
G01 X-48.9447 Y60.6210 
G01 X-48.8613 Y60.7457 
G01 X-48.7553 Y60.8517 
G01 X-48.6306 Y60.9351 
G01 X-48.4921 Y60.9924 
G01 X-48.3450 Y61.0217 
G01 X-48.1949 Y61.0217 
G01 X-48.0478 Y60.9924 
G01 X-47.9093 Y60.9351 
G01 X-47.7846 Y60.8517 
G01 X-47.6786 Y60.7457 
G01 X-47.5952 Y60.6210 
G01 X-47.5379 Y60.4825 
G01 X-47.5086 Y60.3354 
G00 Z2.0000 
G00 X-44.9686 Y60.3354 
G01 Z-0.2000 F600.00 
G01 X-44.9686 Y58.8645 
G01 X-44.9979 Y58.7174 
G01 X-45.0552 Y58.5789 
G01 X-45.1386 Y58.4542 
G01 X-45.2446 Y58.3482 
G01 X-45.3693 Y58.2648 
G01 X-45.5078 Y58.2075 
G01 X-45.6549 Y58.1782 
G01 X-45.8050 Y58.1782 
G01 X-45.9521 Y58.2075 
G01 X-46.0906 Y58.2648 
G01 X-46.2153 Y58.3482 
G01 X-46.3213 Y58.4542 
G01 X-46.4047 Y58.5789 
G01 X-46.4620 Y58.7174 
G01 X-46.4913 Y58.8645 
G01 X-46.4913 Y60.3354 
G01 X-46.4620 Y60.4825 
G01 X-46.4047 Y60.6210 
G01 X-46.3213 Y60.7457 
G01 X-46.2153 Y60.8517 
G01 X-46.0906 Y60.9351 
G01 X-45.9521 Y60.9924 
G01 X-45.8050 Y61.0217 
G01 X-45.6549 Y61.0217 
G01 X-45.5078 Y60.9924 
G01 X-45.3693 Y60.9351 
G01 X-45.2446 Y60.8517 
G01 X-45.1386 Y60.7457 
G01 X-45.0552 Y60.6210 
G01 X-44.9979 Y60.4825 
G01 X-44.9686 Y60.3354 
G00 Z2.0000 
G00 X-42.4286 Y60.3354 
G01 Z-0.2000 F600.00 
G01 X-42.4286 Y58.8645 
G01 X-42.4579 Y58.7174 
G01 X-42.5152 Y58.5789 
G01 X-42.5986 Y58.4542 
G01 X-42.7046 Y58.3482 
G01 X-42.8293 Y58.2648 
G01 X-42.9678 Y58.2075 
G01 X-43.1149 Y58.1782 
G01 X-43.2650 Y58.1782 
G01 X-43.4121 Y58.2075 
G01 X-43.5506 Y58.2648 
G01 X-43.6753 Y58.3482 
G01 X-43.7813 Y58.4542 
G01 X-43.8647 Y58.5789 
G01 X-43.9220 Y58.7174 
G01 X-43.9513 Y58.8645 
G01 X-43.9513 Y60.3354 
G01 X-43.9220 Y60.4825 
G01 X-43.8647 Y60.6210 
G01 X-43.7813 Y60.7457 
G01 X-43.6753 Y60.8517 
G01 X-43.5506 Y60.9351 
G01 X-43.4121 Y60.9924 
G01 X-43.2650 Y61.0217 
G01 X-43.1149 Y61.0217 
G01 X-42.9678 Y60.9924 
G01 X-42.8293 Y60.9351 
G01 X-42.7046 Y60.8517 
G01 X-42.5986 Y60.7457 
G01 X-42.5152 Y60.6210 
G01 X-42.4579 Y60.4825 
G01 X-42.4286 Y60.3354 
G00 Z2.0000 
G00 X-39.8886 Y60.3354 
G01 Z-0.2000 F600.00 
G01 X-39.8886 Y58.8645 
G01 X-39.9179 Y58.7174 
G01 X-39.9752 Y58.5789 
G01 X-40.0586 Y58.4542 
G01 X-40.1646 Y58.3482 
G01 X-40.2893 Y58.2648 
G01 X-40.4278 Y58.2075 
G01 X-40.5749 Y58.1782 
G01 X-40.7250 Y58.1782 
G01 X-40.8721 Y58.2075 
G01 X-41.0106 Y58.2648 
G01 X-41.1353 Y58.3482 
G01 X-41.2413 Y58.4542 
G01 X-41.3247 Y58.5789 
G01 X-41.3820 Y58.7174 
G01 X-41.4113 Y58.8645 
G01 X-41.4113 Y60.3354 
G01 X-41.3820 Y60.4825 
G01 X-41.3247 Y60.6210 
G01 X-41.2413 Y60.7457 
G01 X-41.1353 Y60.8517 
G01 X-41.0106 Y60.9351 
G01 X-40.8721 Y60.9924 
G01 X-40.7250 Y61.0217 
G01 X-40.5749 Y61.0217 
G01 X-40.4278 Y60.9924 
G01 X-40.2893 Y60.9351 
G01 X-40.1646 Y60.8517 
G01 X-40.0586 Y60.7457 
G01 X-39.9752 Y60.6210 
G01 X-39.9179 Y60.4825 
G01 X-39.8886 Y60.3354 
G00 Z2.0000 
G00 X-37.3486 Y60.3354 
G01 Z-0.2000 F600.00 
G01 X-37.3486 Y58.8645 
G01 X-37.3779 Y58.7174 
G01 X-37.4352 Y58.5789 
G01 X-37.5186 Y58.4542 
G01 X-37.6246 Y58.3482 
G01 X-37.7493 Y58.2648 
G01 X-37.8878 Y58.2075 
G01 X-38.0349 Y58.1782 
G01 X-38.1850 Y58.1782 
G01 X-38.3321 Y58.2075 
G01 X-38.4706 Y58.2648 
G01 X-38.5953 Y58.3482 
G01 X-38.7013 Y58.4542 
G01 X-38.7847 Y58.5789 
G01 X-38.8420 Y58.7174 
G01 X-38.8713 Y58.8645 
G01 X-38.8713 Y60.3354 
G01 X-38.8420 Y60.4825 
G01 X-38.7847 Y60.6210 
G01 X-38.7013 Y60.7457 
G01 X-38.5953 Y60.8517 
G01 X-38.4706 Y60.9351 
G01 X-38.3321 Y60.9924 
G01 X-38.1850 Y61.0217 
G01 X-38.0349 Y61.0217 
G01 X-37.8878 Y60.9924 
G01 X-37.7493 Y60.9351 
G01 X-37.6246 Y60.8517 
G01 X-37.5186 Y60.7457 
G01 X-37.4352 Y60.6210 
G01 X-37.3779 Y60.4825 
G01 X-37.3486 Y60.3354 
G00 Z2.0000 
G00 X-12.6709 Y48.3321 
G01 Z-0.2000 F600.00 
G01 X-12.6709 Y49.4678 
G01 X-11.8678 Y50.2709 
G01 X-10.7321 Y50.2709 
G01 X-9.9290 Y49.4678 
G01 X-9.9290 Y48.3321 
G01 X-10.7321 Y47.5290 
G01 X-11.8678 Y47.5290 
G01 X-12.6709 Y48.3321 
G00 Z2.0000 
G00 X-13.2709 Y53.5321 
G01 Z-0.2000 F600.00 
G01 X-13.2709 Y54.6678 
G01 X-12.4678 Y55.4709 
G01 X-11.3321 Y55.4709 
G01 X-10.5290 Y54.6678 
G01 X-10.5290 Y53.5321 
G01 X-11.3321 Y52.7290 
G01 X-12.4678 Y52.7290 
G01 X-13.2709 Y53.5321 
G00 Z2.0000 
G00 X-22.2031 Y39.8856 
G01 Z-0.2000 F600.00 
G01 X-22.2031 Y42.1143 
G01 X-22.1862 Y42.1550 
G01 X-22.1550 Y42.1862 
G01 X-22.1143 Y42.2031 
G01 X-19.8856 Y42.2031 
G01 X-19.8449 Y42.1862 
G01 X-19.8137 Y42.1550 
G01 X-19.7968 Y42.1143 
G01 X-19.7968 Y41.3141 
G01 X-6.3141 Y41.3141 
G01 X-6.3141 Y58.6858 
G01 X-10.7968 Y58.6858 
G01 X-10.7968 Y56.8856 
G01 X-10.8137 Y56.8449 
G01 X-10.8449 Y56.8137 
G01 X-10.8856 Y56.7968 
G01 X-13.1143 Y56.7968 
G01 X-13.1550 Y56.8137 
G01 X-13.1862 Y56.8449 
G01 X-13.2031 Y56.8856 
G01 X-13.2031 Y59.1143 
G01 X-13.1862 Y59.1550 
G01 X-13.1550 Y59.1862 
G01 X-13.1143 Y59.2031 
G01 X-12.2411 Y59.2031 
G01 X-12.1929 Y59.2513 
G01 X-12.1212 Y59.2927 
G01 X-12.0414 Y59.3141 
G01 X-11.9585 Y59.3141 
G01 X-5.9585 Y59.3141 
G01 X-5.8787 Y59.2927 
G01 X-5.8070 Y59.2513 
G01 X-5.7486 Y59.1929 
G01 X-5.7072 Y59.1212 
G01 X-5.6858 Y59.0414 
G01 X-5.6858 Y58.9585 
G01 X-5.6858 Y40.9585 
G01 X-5.7072 Y40.8787 
G01 X-5.7486 Y40.8070 
G01 X-5.8070 Y40.7486 
G01 X-5.8787 Y40.7072 
G01 X-5.9585 Y40.6858 
G01 X-6.0414 Y40.6858 
G01 X-19.7968 Y40.6858 
G01 X-19.7968 Y39.8856 
G01 X-19.8137 Y39.8449 
G01 X-19.8449 Y39.8137 
G01 X-19.8856 Y39.7968 
G01 X-22.1143 Y39.7968 
G01 X-22.1550 Y39.8137 
G01 X-22.1862 Y39.8449 
G01 X-22.2031 Y39.8856 
G00 Z2.0000 
G00 X-11.3809 Y34.4280 
G01 Z-0.2000 F600.00 
G01 X-11.3809 Y35.5719 
G01 X-10.5719 Y36.3809 
G01 X-9.4280 Y36.3809 
G01 X-8.6190 Y35.5719 
G01 X-8.6190 Y34.4280 
G01 X-9.4280 Y33.6190 
G01 X-10.5719 Y33.6190 
G01 X-11.3809 Y34.4280 
G00 Z2.0000 
G00 X-12.3809 Y42.4280 
G01 Z-0.2000 F600.00 
G01 X-12.3809 Y43.5719 
G01 X-11.5719 Y44.3809 
G01 X-10.4280 Y44.3809 
G01 X-9.6190 Y43.5719 
G01 X-9.6190 Y42.4280 
G01 X-10.4280 Y41.6190 
G01 X-11.5719 Y41.6190 
G01 X-12.3809 Y42.4280 
G00 Z2.0000 
G00 X-12.3809 Y20.4280 
G01 Z-0.2000 F600.00 
G01 X-12.3809 Y21.5719 
G01 X-11.5719 Y22.3809 
G01 X-10.4280 Y22.3809 
G01 X-9.6190 Y21.5719 
G01 X-9.6190 Y20.4280 
G01 X-10.4280 Y19.6190 
G01 X-11.5719 Y19.6190 
G01 X-12.3809 Y20.4280 
G00 Z2.0000 
G00 X-21.3809 Y8.4280 
G01 Z-0.2000 F600.00 
G01 X-21.3809 Y9.5719 
G01 X-20.5719 Y10.3809 
G01 X-19.4280 Y10.3809 
G01 X-18.6190 Y9.5719 
G01 X-18.6190 Y8.4280 
G01 X-19.4280 Y7.6190 
G01 X-20.5719 Y7.6190 
G01 X-21.3809 Y8.4280 
G00 Z2.0000 
G00 X-37.3809 Y8.4280 
G01 Z-0.2000 F600.00 
G01 X-37.3809 Y9.5719 
G01 X-36.5719 Y10.3809 
G01 X-35.4280 Y10.3809 
G01 X-34.6190 Y9.5719 
G01 X-34.6190 Y8.4280 
G01 X-35.4280 Y7.6190 
G01 X-36.5719 Y7.6190 
G01 X-37.3809 Y8.4280 
G00 Z2.0000 
G00 X-51.3809 Y37.4280 
G01 Z-0.2000 F600.00 
G01 X-51.3809 Y38.5719 
G01 X-50.5719 Y39.3809 
G01 X-49.4280 Y39.3809 
G01 X-48.6190 Y38.5719 
G01 X-48.6190 Y37.4280 
G01 X-49.4280 Y36.6190 
G01 X-50.5719 Y36.6190 
G01 X-51.3809 Y37.4280 
G00 Z2.0000 
G00 X-56.3809 Y10.4280 
G01 Z-0.2000 F600.00 
G01 X-56.3809 Y11.5719 
G01 X-55.5719 Y12.3809 
G01 X-54.4280 Y12.3809 
G01 X-53.6190 Y11.5719 
G01 X-53.6190 Y10.4280 
G01 X-54.4280 Y9.6190 
G01 X-55.5719 Y9.6190 
G01 X-56.3809 Y10.4280 
G00 Z2.0000 
G00 X-41.8409 Y18.4280 
G01 Z-0.2000 F600.00 
G01 X-41.8409 Y19.5719 
G01 X-41.0319 Y20.3809 
G01 X-39.8880 Y20.3809 
G01 X-39.0790 Y19.5719 
G01 X-39.0790 Y18.4280 
G01 X-39.8880 Y17.6190 
G01 X-41.0319 Y17.6190 
G01 X-41.8409 Y18.4280 
G00 Z2.0000 
G00 X-46.9209 Y18.8912 
G01 Z-0.2000 F600.00 
G01 X-46.9209 Y19.1087 
G01 X-46.8869 Y19.3234 
G01 X-46.8197 Y19.5301 
G01 X-46.7211 Y19.7237 
G01 X-46.5933 Y19.8996 
G01 X-46.4396 Y20.0533 
G01 X-46.2637 Y20.1811 
G01 X-46.0701 Y20.2797 
G01 X-45.8634 Y20.3469 
G01 X-45.6487 Y20.3809 
G01 X-45.4312 Y20.3809 
G01 X-45.2165 Y20.3469 
G01 X-45.0098 Y20.2797 
G01 X-44.8162 Y20.1811 
G01 X-44.6403 Y20.0533 
G01 X-44.4866 Y19.8996 
G01 X-44.3588 Y19.7237 
G01 X-44.2602 Y19.5301 
G01 X-44.1930 Y19.3234 
G01 X-44.1590 Y19.1087 
G01 X-44.1590 Y18.8912 
G01 X-44.1930 Y18.6765 
G01 X-44.2602 Y18.4698 
G01 X-44.3588 Y18.2762 
G01 X-44.4866 Y18.1003 
G01 X-44.6403 Y17.9466 
G01 X-44.8162 Y17.8188 
G01 X-45.0098 Y17.7202 
G01 X-45.2165 Y17.6530 
G01 X-45.4312 Y17.6190 
G01 X-45.6487 Y17.6190 
G01 X-45.8634 Y17.6530 
G01 X-46.0701 Y17.7202 
G01 X-46.2637 Y17.8188 
G01 X-46.4396 Y17.9466 
G01 X-46.5933 Y18.1003 
G01 X-46.7211 Y18.2762 
G01 X-46.8197 Y18.4698 
G01 X-46.8869 Y18.6765 
G01 X-46.9209 Y18.8912 
G00 Z2.0000 
G00 X-40.8409 Y32.4280 
G01 Z-0.2000 F600.00 
G01 X-40.8409 Y33.5719 
G01 X-40.0319 Y34.3809 
G01 X-38.8880 Y34.3809 
G01 X-38.0790 Y33.5719 
G01 X-38.0790 Y32.4280 
G01 X-38.8880 Y31.6190 
G01 X-40.0319 Y31.6190 
G01 X-40.8409 Y32.4280 
G00 Z2.0000 
G00 X-45.9209 Y32.8912 
G01 Z-0.2000 F600.00 
G01 X-45.9209 Y33.1087 
G01 X-45.8869 Y33.3234 
G01 X-45.8197 Y33.5301 
G01 X-45.7211 Y33.7237 
G01 X-45.5933 Y33.8996 
G01 X-45.4396 Y34.0533 
G01 X-45.2637 Y34.1811 
G01 X-45.0701 Y34.2797 
G01 X-44.8634 Y34.3469 
G01 X-44.6487 Y34.3809 
G01 X-44.4312 Y34.3809 
G01 X-44.2165 Y34.3469 
G01 X-44.0098 Y34.2797 
G01 X-43.8162 Y34.1811 
G01 X-43.6403 Y34.0533 
G01 X-43.4866 Y33.8996 
G01 X-43.3588 Y33.7237 
G01 X-43.2602 Y33.5301 
G01 X-43.1930 Y33.3234 
G01 X-43.1590 Y33.1087 
G01 X-43.1590 Y32.8912 
G01 X-43.1930 Y32.6765 
G01 X-43.2602 Y32.4698 
G01 X-43.3588 Y32.2762 
G01 X-43.4866 Y32.1003 
G01 X-43.6403 Y31.9466 
G01 X-43.8162 Y31.8188 
G01 X-44.0098 Y31.7202 
G01 X-44.2165 Y31.6530 
G01 X-44.4312 Y31.6190 
G01 X-44.6487 Y31.6190 
G01 X-44.8634 Y31.6530 
G01 X-45.0701 Y31.7202 
G01 X-45.2637 Y31.8188 
G01 X-45.4396 Y31.9466 
G01 X-45.5933 Y32.1003 
G01 X-45.7211 Y32.2762 
G01 X-45.8197 Y32.4698 
G01 X-45.8869 Y32.6765 
G01 X-45.9209 Y32.8912 
G00 Z2.0000 
G00 X-65.9809 Y61.0280 
G01 Z-0.2000 F600.00 
G01 X-65.9809 Y62.1719 
G01 X-65.1719 Y62.9809 
G01 X-64.0280 Y62.9809 
G01 X-63.2190 Y62.1719 
G01 X-63.2190 Y61.0280 
G01 X-64.0280 Y60.2190 
G01 X-65.1719 Y60.2190 
G01 X-65.9809 Y61.0280 
G00 Z2.0000 
G00 X-55.1186 Y60.3364 
G01 Z-0.2000 F600.00 
G01 X-55.1186 Y58.8635 
G01 X-55.1482 Y58.7145 
G01 X-55.2064 Y58.5742 
G01 X-55.2908 Y58.4478 
G01 X-55.3982 Y58.3404 
G01 X-55.5246 Y58.2560 
G01 X-55.6649 Y58.1978 
G01 X-55.8139 Y58.1682 
G01 X-55.9660 Y58.1682 
G01 X-56.1150 Y58.1978 
G01 X-56.2553 Y58.2560 
G01 X-56.3817 Y58.3404 
G01 X-56.4891 Y58.4478 
G01 X-56.5735 Y58.5742 
G01 X-56.6317 Y58.7145 
G01 X-56.6613 Y58.8635 
G01 X-56.6613 Y60.3364 
G01 X-56.6317 Y60.4854 
G01 X-56.5735 Y60.6257 
G01 X-56.4891 Y60.7521 
G01 X-56.3817 Y60.8595 
G01 X-56.2553 Y60.9439 
G01 X-56.1150 Y61.0021 
G01 X-55.9660 Y61.0317 
G01 X-55.8139 Y61.0317 
G01 X-55.6649 Y61.0021 
G01 X-55.5246 Y60.9439 
G01 X-55.3982 Y60.8595 
G01 X-55.2908 Y60.7521 
G01 X-55.2064 Y60.6257 
G01 X-55.1482 Y60.4854 
G01 X-55.1186 Y60.3364 
G00 Z2.0000 
G00 X-52.5786 Y60.3364 
G01 Z-0.2000 F600.00 
G01 X-52.5786 Y58.8635 
G01 X-52.6082 Y58.7145 
G01 X-52.6664 Y58.5742 
G01 X-52.7508 Y58.4478 
G01 X-52.8582 Y58.3404 
G01 X-52.9846 Y58.2560 
G01 X-53.1249 Y58.1978 
G01 X-53.2739 Y58.1682 
G01 X-53.4260 Y58.1682 
G01 X-53.5750 Y58.1978 
G01 X-53.7153 Y58.2560 
G01 X-53.8417 Y58.3404 
G01 X-53.9491 Y58.4478 
G01 X-54.0335 Y58.5742 
G01 X-54.0917 Y58.7145 
G01 X-54.1213 Y58.8635 
G01 X-54.1213 Y60.3364 
G01 X-54.0917 Y60.4854 
G01 X-54.0335 Y60.6257 
G01 X-53.9491 Y60.7521 
G01 X-53.8417 Y60.8595 
G01 X-53.7153 Y60.9439 
G01 X-53.5750 Y61.0021 
G01 X-53.4260 Y61.0317 
G01 X-53.2739 Y61.0317 
G01 X-53.1249 Y61.0021 
G01 X-52.9846 Y60.9439 
G01 X-52.8582 Y60.8595 
G01 X-52.7508 Y60.7521 
G01 X-52.6664 Y60.6257 
G01 X-52.6082 Y60.4854 
G01 X-52.5786 Y60.3364 
G00 Z2.0000 
G00 X-50.0386 Y60.3364 
G01 Z-0.2000 F600.00 
G01 X-50.0386 Y58.8635 
G01 X-50.0682 Y58.7145 
G01 X-50.1264 Y58.5742 
G01 X-50.2108 Y58.4478 
G01 X-50.3182 Y58.3404 
G01 X-50.4446 Y58.2560 
G01 X-50.5849 Y58.1978 
G01 X-50.7339 Y58.1682 
G01 X-50.8860 Y58.1682 
G01 X-51.0350 Y58.1978 
G01 X-51.1753 Y58.2560 
G01 X-51.3017 Y58.3404 
G01 X-51.4091 Y58.4478 
G01 X-51.4935 Y58.5742 
G01 X-51.5517 Y58.7145 
G01 X-51.5813 Y58.8635 
G01 X-51.5813 Y60.3364 
G01 X-51.5517 Y60.4854 
G01 X-51.4935 Y60.6257 
G01 X-51.4091 Y60.7521 
G01 X-51.3017 Y60.8595 
G01 X-51.1753 Y60.9439 
G01 X-51.0350 Y61.0021 
G01 X-50.8860 Y61.0317 
G01 X-50.7339 Y61.0317 
G01 X-50.5849 Y61.0021 
G01 X-50.4446 Y60.9439 
G01 X-50.3182 Y60.8595 
G01 X-50.2108 Y60.7521 
G01 X-50.1264 Y60.6257 
G01 X-50.0682 Y60.4854 
G01 X-50.0386 Y60.3364 
G00 Z2.0000 
G00 X-47.4986 Y60.3364 
G01 Z-0.2000 F600.00 
G01 X-47.4986 Y58.8635 
G01 X-47.5282 Y58.7145 
G01 X-47.5864 Y58.5742 
G01 X-47.6708 Y58.4478 
G01 X-47.7782 Y58.3404 
G01 X-47.9046 Y58.2560 
G01 X-48.0449 Y58.1978 
G01 X-48.1939 Y58.1682 
G01 X-48.3460 Y58.1682 
G01 X-48.4950 Y58.1978 
G01 X-48.6353 Y58.2560 
G01 X-48.7617 Y58.3404 
G01 X-48.8691 Y58.4478 
G01 X-48.9535 Y58.5742 
G01 X-49.0117 Y58.7145 
G01 X-49.0413 Y58.8635 
G01 X-49.0413 Y60.3364 
G01 X-49.0117 Y60.4854 
G01 X-48.9535 Y60.6257 
G01 X-48.8691 Y60.7521 
G01 X-48.7617 Y60.8595 
G01 X-48.6353 Y60.9439 
G01 X-48.4950 Y61.0021 
G01 X-48.3460 Y61.0317 
G01 X-48.1939 Y61.0317 
G01 X-48.0449 Y61.0021 
G01 X-47.9046 Y60.9439 
G01 X-47.7782 Y60.8595 
G01 X-47.6708 Y60.7521 
G01 X-47.5864 Y60.6257 
G01 X-47.5282 Y60.4854 
G01 X-47.4986 Y60.3364 
G00 Z2.0000 
G00 X-44.9586 Y60.3364 
G01 Z-0.2000 F600.00 
G01 X-44.9586 Y58.8635 
G01 X-44.9882 Y58.7145 
G01 X-45.0464 Y58.5742 
G01 X-45.1308 Y58.4478 
G01 X-45.2382 Y58.3404 
G01 X-45.3646 Y58.2560 
G01 X-45.5049 Y58.1978 
G01 X-45.6539 Y58.1682 
G01 X-45.8060 Y58.1682 
G01 X-45.9550 Y58.1978 
G01 X-46.0953 Y58.2560 
G01 X-46.2217 Y58.3404 
G01 X-46.3291 Y58.4478 
G01 X-46.4135 Y58.5742 
G01 X-46.4717 Y58.7145 
G01 X-46.5013 Y58.8635 
G01 X-46.5013 Y60.3364 
G01 X-46.4717 Y60.4854 
G01 X-46.4135 Y60.6257 
G01 X-46.3291 Y60.7521 
G01 X-46.2217 Y60.8595 
G01 X-46.0953 Y60.9439 
G01 X-45.9550 Y61.0021 
G01 X-45.8060 Y61.0317 
G01 X-45.6539 Y61.0317 
G01 X-45.5049 Y61.0021 
G01 X-45.3646 Y60.9439 
G01 X-45.2382 Y60.8595 
G01 X-45.1308 Y60.7521 
G01 X-45.0464 Y60.6257 
G01 X-44.9882 Y60.4854 
G01 X-44.9586 Y60.3364 
G00 Z2.0000 
G00 X-42.4186 Y60.3364 
G01 Z-0.2000 F600.00 
G01 X-42.4186 Y58.8635 
G01 X-42.4482 Y58.7145 
G01 X-42.5064 Y58.5742 
G01 X-42.5908 Y58.4478 
G01 X-42.6982 Y58.3404 
G01 X-42.8246 Y58.2560 
G01 X-42.9649 Y58.1978 
G01 X-43.1139 Y58.1682 
G01 X-43.2660 Y58.1682 
G01 X-43.4150 Y58.1978 
G01 X-43.5553 Y58.2560 
G01 X-43.6817 Y58.3404 
G01 X-43.7891 Y58.4478 
G01 X-43.8735 Y58.5742 
G01 X-43.9317 Y58.7145 
G01 X-43.9613 Y58.8635 
G01 X-43.9613 Y60.3364 
G01 X-43.9317 Y60.4854 
G01 X-43.8735 Y60.6257 
G01 X-43.7891 Y60.7521 
G01 X-43.6817 Y60.8595 
G01 X-43.5553 Y60.9439 
G01 X-43.4150 Y61.0021 
G01 X-43.2660 Y61.0317 
G01 X-43.1139 Y61.0317 
G01 X-42.9649 Y61.0021 
G01 X-42.8246 Y60.9439 
G01 X-42.6982 Y60.8595 
G01 X-42.5908 Y60.7521 
G01 X-42.5064 Y60.6257 
G01 X-42.4482 Y60.4854 
G01 X-42.4186 Y60.3364 
G00 Z2.0000 
G00 X-39.8786 Y60.3364 
G01 Z-0.2000 F600.00 
G01 X-39.8786 Y58.8635 
G01 X-39.9082 Y58.7145 
G01 X-39.9664 Y58.5742 
G01 X-40.0508 Y58.4478 
G01 X-40.1582 Y58.3404 
G01 X-40.2846 Y58.2560 
G01 X-40.4249 Y58.1978 
G01 X-40.5739 Y58.1682 
G01 X-40.7260 Y58.1682 
G01 X-40.8750 Y58.1978 
G01 X-41.0153 Y58.2560 
G01 X-41.1417 Y58.3404 
G01 X-41.2491 Y58.4478 
G01 X-41.3335 Y58.5742 
G01 X-41.3917 Y58.7145 
G01 X-41.4213 Y58.8635 
G01 X-41.4213 Y60.3364 
G01 X-41.3917 Y60.4854 
G01 X-41.3335 Y60.6257 
G01 X-41.2491 Y60.7521 
G01 X-41.1417 Y60.8595 
G01 X-41.0153 Y60.9439 
G01 X-40.8750 Y61.0021 
G01 X-40.7260 Y61.0317 
G01 X-40.5739 Y61.0317 
G01 X-40.4249 Y61.0021 
G01 X-40.2846 Y60.9439 
G01 X-40.1582 Y60.8595 
G01 X-40.0508 Y60.7521 
G01 X-39.9664 Y60.6257 
G01 X-39.9082 Y60.4854 
G01 X-39.8786 Y60.3364 
G00 Z2.0000 
G00 X-37.3386 Y60.3364 
G01 Z-0.2000 F600.00 
G01 X-37.3386 Y58.8635 
G01 X-37.3682 Y58.7145 
G01 X-37.4264 Y58.5742 
G01 X-37.5108 Y58.4478 
G01 X-37.6182 Y58.3404 
G01 X-37.7446 Y58.2560 
G01 X-37.8849 Y58.1978 
G01 X-38.0339 Y58.1682 
G01 X-38.1860 Y58.1682 
G01 X-38.3350 Y58.1978 
G01 X-38.4753 Y58.2560 
G01 X-38.6017 Y58.3404 
G01 X-38.7091 Y58.4478 
G01 X-38.7935 Y58.5742 
G01 X-38.8517 Y58.7145 
G01 X-38.8813 Y58.8635 
G01 X-38.8813 Y60.3364 
G01 X-38.8517 Y60.4854 
G01 X-38.7935 Y60.6257 
G01 X-38.7091 Y60.7521 
G01 X-38.6017 Y60.8595 
G01 X-38.4753 Y60.9439 
G01 X-38.3350 Y61.0021 
G01 X-38.1860 Y61.0317 
G01 X-38.0339 Y61.0317 
G01 X-37.8849 Y61.0021 
G01 X-37.7446 Y60.9439 
G01 X-37.6182 Y60.8595 
G01 X-37.5108 Y60.7521 
G01 X-37.4264 Y60.6257 
G01 X-37.3682 Y60.4854 
G01 X-37.3386 Y60.3364 
G00 Z2.0000 
G00 X-12.6809 Y48.3280 
G01 Z-0.2000 F600.00 
G01 X-12.6809 Y49.4719 
G01 X-11.8719 Y50.2809 
G01 X-10.7280 Y50.2809 
G01 X-9.9190 Y49.4719 
G01 X-9.9190 Y48.3280 
G01 X-10.7280 Y47.5190 
G01 X-11.8719 Y47.5190 
G01 X-12.6809 Y48.3280 
G00 Z2.0000 
G00 X-13.2809 Y53.5280 
G01 Z-0.2000 F600.00 
G01 X-13.2809 Y54.6719 
G01 X-12.4719 Y55.4809 
G01 X-11.3280 Y55.4809 
G01 X-10.5190 Y54.6719 
G01 X-10.5190 Y53.5280 
G01 X-11.3280 Y52.7190 
G01 X-12.4719 Y52.7190 
G01 X-13.2809 Y53.5280 
(File Footer)
G00 Z2.0000 
G00 Z10.0000 
M05
M02
