( This gcode generated by /home/mattvenn/.eagle/ulp/pcb-gcode.ulp )
( Copyright 2005 by John Johnson. See readme.txt for licensing terms. )

( This file generated from the board /home/mattvenn/eagle-circuit-designs/3w developer kit/3w developer dcdc test.brd )
( This file generated 12/03/2012 15:02 )

G21

G90
G00 Z10.0000 
G00 X0 Y0
M03
G04 P3.000000
G00 Z2.0000 
G00 X55.1286 Y23.3354 
G01 Z-0.2000 F600.00 
G01 X55.1286 Y21.8645 
G01 X55.1579 Y21.7174 
G01 X55.2152 Y21.5789 
G01 X55.2986 Y21.4542 
G01 X55.4046 Y21.3482 
G01 X55.5293 Y21.2648 
G01 X55.6678 Y21.2075 
G01 X55.8149 Y21.1782 
G01 X55.9650 Y21.1782 
G01 X56.1121 Y21.2075 
G01 X56.2506 Y21.2648 
G01 X56.3753 Y21.3482 
G01 X56.4813 Y21.4542 
G01 X56.5647 Y21.5789 
G01 X56.6220 Y21.7174 
G01 X56.6513 Y21.8645 
G01 X56.6513 Y23.3354 
G01 X56.6220 Y23.4825 
G01 X56.5647 Y23.6210 
G01 X56.4813 Y23.7457 
G01 X56.3753 Y23.8517 
G01 X56.2506 Y23.9351 
G01 X56.1121 Y23.9924 
G01 X55.9650 Y24.0217 
G01 X55.8149 Y24.0217 
G01 X55.6678 Y23.9924 
G01 X55.5293 Y23.9351 
G01 X55.4046 Y23.8517 
G01 X55.2986 Y23.7457 
G01 X55.2152 Y23.6210 
G01 X55.1579 Y23.4825 
G01 X55.1286 Y23.3354 
G00 Z2.0000 
G00 X52.5886 Y23.3354 
G01 Z-0.2000 F600.00 
G01 X52.5886 Y21.8645 
G01 X52.6179 Y21.7174 
G01 X52.6752 Y21.5789 
G01 X52.7586 Y21.4542 
G01 X52.8646 Y21.3482 
G01 X52.9893 Y21.2648 
G01 X53.1278 Y21.2075 
G01 X53.2749 Y21.1782 
G01 X53.4250 Y21.1782 
G01 X53.5721 Y21.2075 
G01 X53.7106 Y21.2648 
G01 X53.8353 Y21.3482 
G01 X53.9413 Y21.4542 
G01 X54.0247 Y21.5789 
G01 X54.0820 Y21.7174 
G01 X54.1113 Y21.8645 
G01 X54.1113 Y23.3354 
G01 X54.0820 Y23.4825 
G01 X54.0247 Y23.6210 
G01 X53.9413 Y23.7457 
G01 X53.8353 Y23.8517 
G01 X53.7106 Y23.9351 
G01 X53.5721 Y23.9924 
G01 X53.4250 Y24.0217 
G01 X53.2749 Y24.0217 
G01 X53.1278 Y23.9924 
G01 X52.9893 Y23.9351 
G01 X52.8646 Y23.8517 
G01 X52.7586 Y23.7457 
G01 X52.6752 Y23.6210 
G01 X52.6179 Y23.4825 
G01 X52.5886 Y23.3354 
G00 Z2.0000 
G00 X50.0486 Y23.3354 
G01 Z-0.2000 F600.00 
G01 X50.0486 Y21.8645 
G01 X50.0779 Y21.7174 
G01 X50.1352 Y21.5789 
G01 X50.2186 Y21.4542 
G01 X50.3246 Y21.3482 
G01 X50.4493 Y21.2648 
G01 X50.5878 Y21.2075 
G01 X50.7349 Y21.1782 
G01 X50.8850 Y21.1782 
G01 X51.0321 Y21.2075 
G01 X51.1706 Y21.2648 
G01 X51.2953 Y21.3482 
G01 X51.4013 Y21.4542 
G01 X51.4847 Y21.5789 
G01 X51.5420 Y21.7174 
G01 X51.5713 Y21.8645 
G01 X51.5713 Y23.3354 
G01 X51.5420 Y23.4825 
G01 X51.4847 Y23.6210 
G01 X51.4013 Y23.7457 
G01 X51.2953 Y23.8517 
G01 X51.1706 Y23.9351 
G01 X51.0321 Y23.9924 
G01 X50.8850 Y24.0217 
G01 X50.7349 Y24.0217 
G01 X50.5878 Y23.9924 
G01 X50.4493 Y23.9351 
G01 X50.3246 Y23.8517 
G01 X50.2186 Y23.7457 
G01 X50.1352 Y23.6210 
G01 X50.0779 Y23.4825 
G01 X50.0486 Y23.3354 
G00 Z2.0000 
G00 X47.5086 Y21.8645 
G01 Z-0.2000 F600.00 
G01 X47.5379 Y21.7174 
G01 X47.5952 Y21.5789 
G01 X47.6786 Y21.4542 
G01 X47.7846 Y21.3482 
G01 X47.9093 Y21.2648 
G01 X48.0478 Y21.2075 
G01 X48.1949 Y21.1782 
G01 X48.3450 Y21.1782 
G01 X48.4921 Y21.2075 
G01 X48.6306 Y21.2648 
G01 X48.7553 Y21.3482 
G01 X48.8613 Y21.4542 
G01 X48.9447 Y21.5789 
G01 X49.0020 Y21.7174 
G01 X49.0313 Y21.8645 
G01 X49.0313 Y21.9613 
G01 X49.0389 Y21.9689 
G01 X49.1472 Y22.1310 
G01 X49.2219 Y22.3112 
G01 X49.2599 Y22.5024 
G01 X49.2599 Y29.6975 
G01 X49.2219 Y29.8887 
G01 X49.1472 Y30.0689 
G01 X49.0389 Y30.2310 
G01 X48.9010 Y30.3689 
G01 X48.7389 Y30.4772 
G01 X48.5587 Y30.5519 
G01 X48.3675 Y30.5899 
G01 X48.1724 Y30.5899 
G01 X12.5488 Y30.5899 
G01 X12.1678 Y30.9709 
G01 X11.0321 Y30.9709 
G01 X10.2290 Y30.1678 
G01 X10.2290 Y29.0321 
G01 X11.0321 Y28.2290 
G01 X12.1678 Y28.2290 
G01 X12.5488 Y28.6100 
G01 X47.2800 Y28.6100 
G01 X47.2800 Y22.5024 
G01 X47.3180 Y22.3112 
G01 X47.3927 Y22.1310 
G01 X47.5010 Y21.9689 
G01 X47.5086 Y21.9613 
G01 X47.5086 Y21.8645 
G00 Z2.0000 
G00 X42.4286 Y23.3354 
G01 Z-0.2000 F600.00 
G01 X42.4286 Y23.2386 
G01 X42.4210 Y23.2310 
G01 X42.3127 Y23.0689 
G01 X42.2380 Y22.8887 
G01 X42.2000 Y22.6975 
G01 X42.2000 Y14.6013 
G01 X41.1036 Y14.6013 
G01 X40.9124 Y14.5633 
G01 X40.7322 Y14.4886 
G01 X40.5701 Y14.3803 
G01 X40.5117 Y14.3219 
G01 X40.0634 Y14.3219 
G01 X40.0263 Y14.3065 
G01 X39.9980 Y14.2782 
G01 X39.9826 Y14.2411 
G01 X39.9826 Y12.9816 
G01 X39.9980 Y12.9445 
G01 X40.0263 Y12.9162 
G01 X40.0634 Y12.9008 
G01 X40.5117 Y12.9008 
G01 X40.5701 Y12.8424 
G01 X40.7322 Y12.7341 
G01 X40.9124 Y12.6594 
G01 X41.1036 Y12.6214 
G01 X43.0924 Y12.6214 
G01 X43.2875 Y12.6214 
G01 X43.4787 Y12.6594 
G01 X43.6589 Y12.7341 
G01 X43.8210 Y12.8424 
G01 X43.9589 Y12.9803 
G01 X44.0672 Y13.1424 
G01 X44.1419 Y13.3226 
G01 X44.1799 Y13.5138 
G01 X44.1799 Y22.6975 
G01 X44.1419 Y22.8887 
G01 X44.0672 Y23.0689 
G01 X43.9589 Y23.2310 
G01 X43.9513 Y23.2386 
G01 X43.9513 Y23.3354 
G01 X43.9220 Y23.4825 
G01 X43.8647 Y23.6210 
G01 X43.7813 Y23.7457 
G01 X43.6753 Y23.8517 
G01 X43.5506 Y23.9351 
G01 X43.4121 Y23.9924 
G01 X43.2650 Y24.0217 
G01 X43.1149 Y24.0217 
G01 X42.9678 Y23.9924 
G01 X42.8293 Y23.9351 
G01 X42.7046 Y23.8517 
G01 X42.5986 Y23.7457 
G01 X42.5152 Y23.6210 
G01 X42.4579 Y23.4825 
G01 X42.4286 Y23.3354 
G00 Z2.0000 
G00 X39.8886 Y23.3354 
G01 Z-0.2000 F600.00 
G01 X39.8886 Y21.8645 
G01 X39.9179 Y21.7174 
G01 X39.9752 Y21.5789 
G01 X40.0586 Y21.4542 
G01 X40.1646 Y21.3482 
G01 X40.2893 Y21.2648 
G01 X40.4278 Y21.2075 
G01 X40.5749 Y21.1782 
G01 X40.7250 Y21.1782 
G01 X40.8721 Y21.2075 
G01 X41.0106 Y21.2648 
G01 X41.1353 Y21.3482 
G01 X41.2413 Y21.4542 
G01 X41.3247 Y21.5789 
G01 X41.3820 Y21.7174 
G01 X41.4113 Y21.8645 
G01 X41.4113 Y23.3354 
G01 X41.3820 Y23.4825 
G01 X41.3247 Y23.6210 
G01 X41.2413 Y23.7457 
G01 X41.1353 Y23.8517 
G01 X41.0106 Y23.9351 
G01 X40.8721 Y23.9924 
G01 X40.7250 Y24.0217 
G01 X40.5749 Y24.0217 
G01 X40.4278 Y23.9924 
G01 X40.2893 Y23.9351 
G01 X40.1646 Y23.8517 
G01 X40.0586 Y23.7457 
G01 X39.9752 Y23.6210 
G01 X39.9179 Y23.4825 
G01 X39.8886 Y23.3354 
G00 Z2.0000 
G00 X46.2788 Y9.3990 
G01 Z-0.2000 F600.00 
G01 X48.5191 Y9.3990 
G01 X48.5562 Y9.4144 
G01 X48.5845 Y9.4427 
G01 X48.5999 Y9.4798 
G01 X48.5999 Y13.1201 
G01 X48.5845 Y13.1572 
G01 X48.5562 Y13.1855 
G01 X48.5191 Y13.2009 
G01 X46.2788 Y13.2009 
G01 X46.2417 Y13.1855 
G01 X46.2134 Y13.1572 
G01 X46.1980 Y13.1201 
G01 X46.1980 Y9.4798 
G01 X46.2134 Y9.4427 
G01 X46.2417 Y9.4144 
G01 X46.2788 Y9.3990 
G00 Z2.0000 
G00 X40.2112 Y7.1024 
G01 Z-0.2000 F600.00 
G01 X40.2492 Y6.9112 
G01 X40.3239 Y6.7310 
G01 X40.4322 Y6.5689 
G01 X40.5701 Y6.4310 
G01 X40.7322 Y6.3227 
G01 X40.9124 Y6.2480 
G01 X41.1036 Y6.2100 
G01 X41.2987 Y6.2100 
G01 X52.0975 Y6.2100 
G01 X52.2887 Y6.2480 
G01 X52.4689 Y6.3227 
G01 X52.6310 Y6.4310 
G01 X52.7689 Y6.5689 
G01 X52.8772 Y6.7310 
G01 X52.9519 Y6.9112 
G01 X52.9899 Y7.1024 
G01 X52.9899 Y7.2975 
G01 X52.9899 Y9.8890 
G01 X54.4301 Y9.8890 
G01 X54.4672 Y9.9044 
G01 X54.4955 Y9.9327 
G01 X54.5109 Y9.9698 
G01 X54.5109 Y10.2000 
G01 X55.7024 Y10.2000 
G01 X55.8975 Y10.2000 
G01 X56.0887 Y10.2380 
G01 X56.2689 Y10.3127 
G01 X56.4310 Y10.4210 
G01 X56.5689 Y10.5589 
G01 X56.6772 Y10.7210 
G01 X56.7193 Y10.8226 
G01 X57.3890 Y10.8319 
G01 X57.3890 Y10.6198 
G01 X57.4044 Y10.5827 
G01 X57.4327 Y10.5544 
G01 X57.4698 Y10.5390 
G01 X59.9101 Y10.5390 
G01 X59.9472 Y10.5544 
G01 X59.9755 Y10.5827 
G01 X59.9909 Y10.6198 
G01 X59.9909 Y13.0601 
G01 X59.9755 Y13.0972 
G01 X59.9472 Y13.1255 
G01 X59.9101 Y13.1409 
G01 X57.4698 Y13.1409 
G01 X57.4327 Y13.1255 
G01 X57.4044 Y13.0972 
G01 X57.3890 Y13.0601 
G01 X57.3890 Y12.8120 
G01 X55.7898 Y12.7899 
G01 X55.7024 Y12.7899 
G01 X55.6959 Y12.7886 
G01 X55.6887 Y12.7885 
G01 X55.5986 Y12.7692 
G01 X55.5112 Y12.7519 
G01 X55.5049 Y12.7492 
G01 X55.4980 Y12.7478 
G01 X55.4119 Y12.7107 
G01 X55.3310 Y12.6772 
G01 X55.3256 Y12.6736 
G01 X55.3189 Y12.6707 
G01 X55.2418 Y12.6176 
G01 X55.1689 Y12.5689 
G01 X55.1641 Y12.5641 
G01 X55.1583 Y12.5601 
G01 X55.0938 Y12.4938 
G01 X55.0310 Y12.4310 
G01 X55.0273 Y12.4254 
G01 X55.0223 Y12.4203 
G01 X54.9725 Y12.3433 
G01 X54.9227 Y12.2689 
G01 X54.9201 Y12.2624 
G01 X54.9163 Y12.2567 
G01 X54.8857 Y12.1799 
G01 X54.5109 Y12.1799 
G01 X54.5109 Y12.4101 
G01 X54.4955 Y12.4472 
G01 X54.4672 Y12.4755 
G01 X54.4301 Y12.4909 
G01 X51.5898 Y12.4909 
G01 X51.5527 Y12.4755 
G01 X51.5244 Y12.4472 
G01 X51.5090 Y12.4101 
G01 X51.5090 Y12.0525 
G01 X51.3689 Y11.9589 
G01 X51.2310 Y11.8210 
G01 X51.1227 Y11.6589 
G01 X51.0480 Y11.4787 
G01 X51.0100 Y11.2875 
G01 X51.0100 Y8.1899 
G01 X42.1911 Y8.1899 
G01 X42.1911 Y8.2780 
G01 X42.3389 Y8.2780 
G01 X42.3760 Y8.2934 
G01 X42.4043 Y8.3217 
G01 X42.4197 Y8.3588 
G01 X42.4197 Y9.6183 
G01 X42.4043 Y9.6554 
G01 X42.3760 Y9.6837 
G01 X42.3389 Y9.6991 
G01 X41.8906 Y9.6991 
G01 X41.8322 Y9.7575 
G01 X41.6701 Y9.8658 
G01 X41.4899 Y9.9405 
G01 X41.2987 Y9.9785 
G01 X41.1036 Y9.9785 
G01 X41.1035 Y9.9785 
G01 X19.0299 Y9.9785 
G01 X19.0299 Y11.0090 
G01 X19.2601 Y11.0090 
G01 X19.2972 Y11.0244 
G01 X19.3255 Y11.0527 
G01 X19.3409 Y11.0898 
G01 X19.3409 Y13.5301 
G01 X19.3255 Y13.5672 
G01 X19.2972 Y13.5955 
G01 X19.2601 Y13.6109 
G01 X16.8198 Y13.6109 
G01 X16.7827 Y13.5955 
G01 X16.7544 Y13.5672 
G01 X16.7390 Y13.5301 
G01 X16.7390 Y13.2999 
G01 X10.8975 Y13.2999 
G01 X10.7024 Y13.2999 
G01 X10.5112 Y13.2619 
G01 X10.3310 Y13.1872 
G01 X10.1689 Y13.0789 
G01 X10.0310 Y12.9410 
G01 X9.9227 Y12.7789 
G01 X9.8480 Y12.5987 
G01 X9.8463 Y12.5899 
G01 X9.3899 Y12.5899 
G01 X9.3899 Y25.2100 
G01 X36.6100 Y25.2100 
G01 X36.6100 Y22.5024 
G01 X36.6480 Y22.3112 
G01 X36.7227 Y22.1310 
G01 X36.8310 Y21.9689 
G01 X36.9689 Y21.8310 
G01 X37.1310 Y21.7227 
G01 X37.3112 Y21.6480 
G01 X37.4152 Y21.6273 
G01 X37.4352 Y21.5789 
G01 X37.5186 Y21.4542 
G01 X37.6246 Y21.3482 
G01 X37.7493 Y21.2648 
G01 X37.8878 Y21.2075 
G01 X38.0349 Y21.1782 
G01 X38.1850 Y21.1782 
G01 X38.3321 Y21.2075 
G01 X38.4706 Y21.2648 
G01 X38.5953 Y21.3482 
G01 X38.7013 Y21.4542 
G01 X38.7847 Y21.5789 
G01 X38.8420 Y21.7174 
G01 X38.8713 Y21.8645 
G01 X38.8713 Y21.9614 
G01 X38.8789 Y21.9689 
G01 X38.9872 Y22.1310 
G01 X39.0619 Y22.3112 
G01 X39.0999 Y22.5024 
G01 X39.0999 Y22.6975 
G01 X39.0619 Y22.8887 
G01 X38.9872 Y23.0689 
G01 X38.8789 Y23.2310 
G01 X38.8713 Y23.2385 
G01 X38.8713 Y23.3354 
G01 X38.8420 Y23.4825 
G01 X38.7847 Y23.6210 
G01 X38.7013 Y23.7457 
G01 X38.5953 Y23.8517 
G01 X38.5899 Y23.8553 
G01 X38.5899 Y26.2975 
G01 X38.5519 Y26.4887 
G01 X38.4772 Y26.6689 
G01 X38.3689 Y26.8310 
G01 X38.2310 Y26.9689 
G01 X38.0689 Y27.0772 
G01 X37.8887 Y27.1519 
G01 X37.6975 Y27.1899 
G01 X37.5024 Y27.1899 
G01 X8.3024 Y27.1899 
G01 X8.1112 Y27.1519 
G01 X7.9310 Y27.0772 
G01 X7.7689 Y26.9689 
G01 X7.6310 Y26.8310 
G01 X7.5227 Y26.6689 
G01 X7.4480 Y26.4887 
G01 X7.4100 Y26.2975 
G01 X7.4100 Y26.1024 
G01 X7.4100 Y26.1023 
G01 X7.4100 Y11.6975 
G01 X7.4100 Y11.5024 
G01 X7.4480 Y11.3112 
G01 X7.5227 Y11.1310 
G01 X7.6310 Y10.9689 
G01 X7.7689 Y10.8310 
G01 X7.9310 Y10.7227 
G01 X8.1112 Y10.6480 
G01 X8.3024 Y10.6100 
G01 X10.6511 Y10.6100 
G01 X10.7321 Y10.5290 
G01 X11.8678 Y10.5290 
G01 X12.6588 Y11.3200 
G01 X16.7390 Y11.3200 
G01 X16.7390 Y11.0898 
G01 X16.7544 Y11.0527 
G01 X16.7827 Y11.0244 
G01 X16.8198 Y11.0090 
G01 X17.0500 Y11.0090 
G01 X17.0500 Y8.8910 
G01 X17.0880 Y8.6998 
G01 X17.1627 Y8.5196 
G01 X17.2710 Y8.3575 
G01 X17.4089 Y8.2196 
G01 X17.5710 Y8.1113 
G01 X17.7512 Y8.0366 
G01 X17.9424 Y7.9986 
G01 X18.1375 Y7.9986 
G01 X40.2112 Y7.9986 
G01 X40.2112 Y7.1024 
G00 Z2.0000 
G00 X42.3389 Y10.5894 
G01 Z-0.2000 F600.00 
G01 X42.3760 Y10.6048 
G01 X42.4043 Y10.6331 
G01 X42.4197 Y10.6702 
G01 X42.4197 Y11.9297 
G01 X42.4043 Y11.9668 
G01 X42.3760 Y11.9951 
G01 X42.3389 Y12.0105 
G01 X41.8906 Y12.0105 
G01 X41.8322 Y12.0689 
G01 X41.6701 Y12.1772 
G01 X41.4899 Y12.2519 
G01 X41.2987 Y12.2899 
G01 X34.9349 Y12.2899 
G01 X34.9349 Y14.5290 
G01 X35.8901 Y14.5290 
G01 X35.9272 Y14.5444 
G01 X35.9555 Y14.5727 
G01 X35.9709 Y14.6098 
G01 X35.9709 Y16.3900 
G01 X40.2717 Y16.3900 
G01 X40.3513 Y16.3871 
G01 X40.3693 Y16.3900 
G01 X40.3875 Y16.3900 
G01 X40.4649 Y16.4054 
G01 X40.5439 Y16.4181 
G01 X40.5610 Y16.4245 
G01 X40.5787 Y16.4280 
G01 X40.6521 Y16.4585 
G01 X40.7266 Y16.4862 
G01 X40.7420 Y16.4957 
G01 X40.7589 Y16.5027 
G01 X40.8251 Y16.5470 
G01 X40.8284 Y16.5490 
G01 X41.8101 Y16.5490 
G01 X41.8472 Y16.5644 
G01 X41.8755 Y16.5927 
G01 X41.8909 Y16.6298 
G01 X41.8909 Y18.8701 
G01 X41.8755 Y18.9072 
G01 X41.8472 Y18.9355 
G01 X41.8101 Y18.9509 
G01 X39.9698 Y18.9509 
G01 X39.9327 Y18.9355 
G01 X39.9044 Y18.9072 
G01 X39.8890 Y18.8701 
G01 X39.8890 Y18.3699 
G01 X35.9709 Y18.3699 
G01 X35.9709 Y20.1501 
G01 X35.9555 Y20.1872 
G01 X35.9272 Y20.2155 
G01 X35.8901 Y20.2309 
G01 X31.9998 Y20.2309 
G01 X31.9627 Y20.2155 
G01 X31.9344 Y20.1872 
G01 X31.9190 Y20.1501 
G01 X31.9190 Y14.6098 
G01 X31.9344 Y14.5727 
G01 X31.9627 Y14.5444 
G01 X31.9998 Y14.5290 
G01 X32.9550 Y14.5290 
G01 X32.9550 Y11.2024 
G01 X32.9930 Y11.0112 
G01 X33.0677 Y10.8310 
G01 X33.1760 Y10.6689 
G01 X33.3139 Y10.5310 
G01 X33.4760 Y10.4227 
G01 X33.6562 Y10.3480 
G01 X33.8474 Y10.3100 
G01 X34.0425 Y10.3100 
G01 X41.2987 Y10.3100 
G01 X41.4899 Y10.3480 
G01 X41.6701 Y10.4227 
G01 X41.8322 Y10.5310 
G01 X41.8906 Y10.5894 
G01 X42.3389 Y10.5894 
G00 Z2.0000 
G00 X66.4709 Y16.7321 
G01 Z-0.2000 F600.00 
G01 X66.4709 Y17.8678 
G01 X65.6678 Y18.6709 
G01 X64.5321 Y18.6709 
G01 X64.1512 Y18.2899 
G01 X59.7845 Y18.2899 
G01 X59.7815 Y18.2919 
G01 X59.7343 Y18.3290 
G01 X59.7002 Y18.3462 
G01 X59.6689 Y18.3672 
G01 X59.6138 Y18.3900 
G01 X59.5604 Y18.4171 
G01 X59.5239 Y18.4273 
G01 X59.4887 Y18.4419 
G01 X59.4298 Y18.4536 
G01 X59.3726 Y18.4696 
G01 X59.3347 Y18.4725 
G01 X59.2975 Y18.4799 
G01 X59.2382 Y18.4799 
G01 X59.1781 Y18.4845 
G01 X59.1401 Y18.4799 
G01 X59.1024 Y18.4799 
G01 X59.0440 Y18.4683 
G01 X58.9845 Y18.4611 
G01 X58.9486 Y18.4493 
G01 X58.9112 Y18.4419 
G01 X58.8559 Y18.4189 
G01 X58.7992 Y18.4004 
G01 X58.7661 Y18.3817 
G01 X58.7310 Y18.3672 
G01 X58.6813 Y18.3339 
G01 X58.6293 Y18.3047 
G01 X58.6121 Y18.2899 
G01 X58.4975 Y18.2899 
G01 X58.3024 Y18.2899 
G01 X58.1112 Y18.2519 
G01 X57.9617 Y18.1899 
G01 X54.5109 Y18.1899 
G01 X54.5109 Y18.7101 
G01 X54.4955 Y18.7472 
G01 X54.4672 Y18.7755 
G01 X54.4301 Y18.7909 
G01 X51.5898 Y18.7909 
G01 X51.5527 Y18.7755 
G01 X51.5244 Y18.7472 
G01 X51.5214 Y18.7399 
G01 X46.9909 Y18.7399 
G01 X46.9909 Y18.8701 
G01 X46.9799 Y18.8965 
G01 X46.9799 Y22.6975 
G01 X46.9419 Y22.8887 
G01 X46.8672 Y23.0689 
G01 X46.7589 Y23.2310 
G01 X46.6210 Y23.3689 
G01 X46.4637 Y23.4740 
G01 X46.4620 Y23.4825 
G01 X46.4047 Y23.6210 
G01 X46.3213 Y23.7457 
G01 X46.2153 Y23.8517 
G01 X46.0906 Y23.9351 
G01 X45.9521 Y23.9924 
G01 X45.8050 Y24.0217 
G01 X45.6549 Y24.0217 
G01 X45.5078 Y23.9924 
G01 X45.3693 Y23.9351 
G01 X45.2446 Y23.8517 
G01 X45.1386 Y23.7457 
G01 X45.0552 Y23.6210 
G01 X44.9979 Y23.4825 
G01 X44.9686 Y23.3354 
G01 X44.9686 Y23.2386 
G01 X44.9610 Y23.2310 
G01 X44.8527 Y23.0689 
G01 X44.7780 Y22.8887 
G01 X44.7400 Y22.6975 
G01 X44.7400 Y22.5024 
G01 X44.7780 Y22.3112 
G01 X44.8527 Y22.1310 
G01 X44.9610 Y21.9689 
G01 X44.9686 Y21.9613 
G01 X44.9686 Y21.8645 
G01 X44.9979 Y21.7174 
G01 X45.0000 Y21.7124 
G01 X45.0000 Y18.8965 
G01 X44.9890 Y18.8701 
G01 X44.9890 Y16.6298 
G01 X45.0044 Y16.5927 
G01 X45.0327 Y16.5644 
G01 X45.0698 Y16.5490 
G01 X46.9101 Y16.5490 
G01 X46.9472 Y16.5644 
G01 X46.9755 Y16.5927 
G01 X46.9909 Y16.6298 
G01 X46.9909 Y16.7600 
G01 X51.5090 Y16.7600 
G01 X51.5090 Y16.2698 
G01 X51.5244 Y16.2327 
G01 X51.5527 Y16.2044 
G01 X51.5898 Y16.1890 
G01 X52.2276 Y16.1890 
G01 X52.2410 Y16.1689 
G01 X52.3789 Y16.0310 
G01 X52.5410 Y15.9227 
G01 X52.7212 Y15.8480 
G01 X52.9124 Y15.8100 
G01 X53.1075 Y15.8100 
G01 X53.6975 Y15.8100 
G01 X53.8887 Y15.8480 
G01 X54.0689 Y15.9227 
G01 X54.2310 Y16.0310 
G01 X54.3689 Y16.1689 
G01 X54.3823 Y16.1890 
G01 X54.4301 Y16.1890 
G01 X54.4672 Y16.2044 
G01 X54.4727 Y16.2100 
G01 X57.3890 Y16.2100 
G01 X57.3890 Y15.6198 
G01 X57.4044 Y15.5827 
G01 X57.4327 Y15.5544 
G01 X57.4698 Y15.5390 
G01 X59.9101 Y15.5390 
G01 X59.9472 Y15.5544 
G01 X59.9755 Y15.5827 
G01 X59.9909 Y15.6198 
G01 X59.9909 Y16.0018 
G01 X60.0772 Y16.1310 
G01 X60.1514 Y16.3100 
G01 X64.1512 Y16.3100 
G01 X64.5321 Y15.9290 
G01 X65.6678 Y15.9290 
G01 X66.4709 Y16.7321 
G00 Z2.0000 
G00 X26.0209 Y14.6098 
G01 Z-0.2000 F600.00 
G01 X26.0209 Y20.1501 
G01 X26.0055 Y20.1872 
G01 X25.9772 Y20.2155 
G01 X25.9401 Y20.2309 
G01 X22.0498 Y20.2309 
G01 X22.0127 Y20.2155 
G01 X21.9844 Y20.1872 
G01 X21.9690 Y20.1501 
G01 X21.9690 Y16.7899 
G01 X19.3409 Y16.7899 
G01 X19.3409 Y18.5301 
G01 X19.3255 Y18.5672 
G01 X19.2972 Y18.5955 
G01 X19.2601 Y18.6109 
G01 X16.8198 Y18.6109 
G01 X16.7827 Y18.5955 
G01 X16.7544 Y18.5672 
G01 X16.7390 Y18.5301 
G01 X16.7390 Y18.0899 
G01 X12.8487 Y18.0899 
G01 X12.4678 Y18.4709 
G01 X11.3321 Y18.4709 
G01 X10.5290 Y17.6678 
G01 X10.5290 Y16.5321 
G01 X11.3321 Y15.7290 
G01 X12.4678 Y15.7290 
G01 X12.8487 Y16.1100 
G01 X16.7390 Y16.1100 
G01 X16.7390 Y16.0898 
G01 X16.7544 Y16.0527 
G01 X16.7827 Y16.0244 
G01 X16.8198 Y16.0090 
G01 X17.0500 Y16.0090 
G01 X17.0500 Y15.7024 
G01 X17.0880 Y15.5112 
G01 X17.1627 Y15.3310 
G01 X17.2710 Y15.1689 
G01 X17.4089 Y15.0310 
G01 X17.5710 Y14.9227 
G01 X17.7512 Y14.8480 
G01 X17.9424 Y14.8100 
G01 X18.1375 Y14.8100 
G01 X21.9690 Y14.8100 
G01 X21.9690 Y14.6098 
G01 X21.9844 Y14.5727 
G01 X22.0127 Y14.5444 
G01 X22.0498 Y14.5290 
G01 X25.9401 Y14.5290 
G01 X25.9772 Y14.5444 
G01 X26.0055 Y14.5727 
G01 X26.0209 Y14.6098 
G00 Z2.0000 
G00 X55.1186 Y23.3364 
G01 Z-0.2000 F600.00 
G01 X55.1186 Y21.8635 
G01 X55.1482 Y21.7145 
G01 X55.2064 Y21.5742 
G01 X55.2908 Y21.4478 
G01 X55.3982 Y21.3404 
G01 X55.5246 Y21.2560 
G01 X55.6649 Y21.1978 
G01 X55.8139 Y21.1682 
G01 X55.9660 Y21.1682 
G01 X56.1150 Y21.1978 
G01 X56.2553 Y21.2560 
G01 X56.3817 Y21.3404 
G01 X56.4891 Y21.4478 
G01 X56.5735 Y21.5742 
G01 X56.6317 Y21.7145 
G01 X56.6613 Y21.8635 
G01 X56.6613 Y23.3364 
G01 X56.6317 Y23.4854 
G01 X56.5735 Y23.6257 
G01 X56.4891 Y23.7521 
G01 X56.3817 Y23.8595 
G01 X56.2553 Y23.9439 
G01 X56.1150 Y24.0021 
G01 X55.9660 Y24.0317 
G01 X55.8139 Y24.0317 
G01 X55.6649 Y24.0021 
G01 X55.5246 Y23.9439 
G01 X55.3982 Y23.8595 
G01 X55.2908 Y23.7521 
G01 X55.2064 Y23.6257 
G01 X55.1482 Y23.4854 
G01 X55.1186 Y23.3364 
G00 Z2.0000 
G00 X52.5786 Y23.3364 
G01 Z-0.2000 F600.00 
G01 X52.5786 Y21.8635 
G01 X52.6082 Y21.7145 
G01 X52.6664 Y21.5742 
G01 X52.7508 Y21.4478 
G01 X52.8582 Y21.3404 
G01 X52.9846 Y21.2560 
G01 X53.1249 Y21.1978 
G01 X53.2739 Y21.1682 
G01 X53.4260 Y21.1682 
G01 X53.5750 Y21.1978 
G01 X53.7153 Y21.2560 
G01 X53.8417 Y21.3404 
G01 X53.9491 Y21.4478 
G01 X54.0335 Y21.5742 
G01 X54.0917 Y21.7145 
G01 X54.1213 Y21.8635 
G01 X54.1213 Y23.3364 
G01 X54.0917 Y23.4854 
G01 X54.0335 Y23.6257 
G01 X53.9491 Y23.7521 
G01 X53.8417 Y23.8595 
G01 X53.7153 Y23.9439 
G01 X53.5750 Y24.0021 
G01 X53.4260 Y24.0317 
G01 X53.2739 Y24.0317 
G01 X53.1249 Y24.0021 
G01 X52.9846 Y23.9439 
G01 X52.8582 Y23.8595 
G01 X52.7508 Y23.7521 
G01 X52.6664 Y23.6257 
G01 X52.6082 Y23.4854 
G01 X52.5786 Y23.3364 
G00 Z2.0000 
G00 X50.0386 Y23.3364 
G01 Z-0.2000 F600.00 
G01 X50.0386 Y21.8635 
G01 X50.0682 Y21.7145 
G01 X50.1264 Y21.5742 
G01 X50.2108 Y21.4478 
G01 X50.3182 Y21.3404 
G01 X50.4446 Y21.2560 
G01 X50.5849 Y21.1978 
G01 X50.7339 Y21.1682 
G01 X50.8860 Y21.1682 
G01 X51.0350 Y21.1978 
G01 X51.1753 Y21.2560 
G01 X51.3017 Y21.3404 
G01 X51.4091 Y21.4478 
G01 X51.4935 Y21.5742 
G01 X51.5517 Y21.7145 
G01 X51.5813 Y21.8635 
G01 X51.5813 Y23.3364 
G01 X51.5517 Y23.4854 
G01 X51.4935 Y23.6257 
G01 X51.4091 Y23.7521 
G01 X51.3017 Y23.8595 
G01 X51.1753 Y23.9439 
G01 X51.0350 Y24.0021 
G01 X50.8860 Y24.0317 
G01 X50.7339 Y24.0317 
G01 X50.5849 Y24.0021 
G01 X50.4446 Y23.9439 
G01 X50.3182 Y23.8595 
G01 X50.2108 Y23.7521 
G01 X50.1264 Y23.6257 
G01 X50.0682 Y23.4854 
G01 X50.0386 Y23.3364 
G00 Z2.0000 
G00 X47.4986 Y21.8635 
G01 Z-0.2000 F600.00 
G01 X47.5282 Y21.7145 
G01 X47.5864 Y21.5742 
G01 X47.6708 Y21.4478 
G01 X47.7782 Y21.3404 
G01 X47.9046 Y21.2560 
G01 X48.0449 Y21.1978 
G01 X48.1939 Y21.1682 
G01 X48.3460 Y21.1682 
G01 X48.4950 Y21.1978 
G01 X48.6353 Y21.2560 
G01 X48.7617 Y21.3404 
G01 X48.8691 Y21.4478 
G01 X48.9535 Y21.5742 
G01 X49.0117 Y21.7145 
G01 X49.0413 Y21.8635 
G01 X49.0413 Y21.9571 
G01 X49.0467 Y21.9625 
G01 X49.1561 Y22.1263 
G01 X49.2315 Y22.3082 
G01 X49.2699 Y22.5014 
G01 X49.2699 Y29.6985 
G01 X49.2315 Y29.8917 
G01 X49.1561 Y30.0736 
G01 X49.0467 Y30.2374 
G01 X48.9074 Y30.3767 
G01 X48.7436 Y30.4861 
G01 X48.5617 Y30.5615 
G01 X48.3685 Y30.5999 
G01 X48.1714 Y30.5999 
G01 X12.5529 Y30.5999 
G01 X12.1719 Y30.9809 
G01 X11.0280 Y30.9809 
G01 X10.2190 Y30.1719 
G01 X10.2190 Y29.0280 
G01 X11.0280 Y28.2190 
G01 X12.1719 Y28.2190 
G01 X12.5529 Y28.6000 
G01 X47.2700 Y28.6000 
G01 X47.2700 Y22.5014 
G01 X47.3084 Y22.3082 
G01 X47.3838 Y22.1263 
G01 X47.4932 Y21.9625 
G01 X47.4986 Y21.9571 
G01 X47.4986 Y21.8635 
G00 Z2.0000 
G00 X42.4186 Y23.3364 
G01 Z-0.2000 F600.00 
G01 X42.4186 Y23.2428 
G01 X42.4132 Y23.2374 
G01 X42.3038 Y23.0736 
G01 X42.2284 Y22.8917 
G01 X42.1900 Y22.6985 
G01 X42.1900 Y14.6113 
G01 X41.1026 Y14.6113 
G01 X40.9094 Y14.5729 
G01 X40.7275 Y14.4975 
G01 X40.5637 Y14.3881 
G01 X40.5075 Y14.3319 
G01 X40.0614 Y14.3319 
G01 X40.0207 Y14.3150 
G01 X39.9895 Y14.2838 
G01 X39.9726 Y14.2431 
G01 X39.9726 Y12.9796 
G01 X39.9895 Y12.9389 
G01 X40.0207 Y12.9077 
G01 X40.0614 Y12.8908 
G01 X40.5075 Y12.8908 
G01 X40.5637 Y12.8346 
G01 X40.7275 Y12.7252 
G01 X40.9094 Y12.6498 
G01 X41.1026 Y12.6114 
G01 X43.0914 Y12.6114 
G01 X43.2885 Y12.6114 
G01 X43.4817 Y12.6498 
G01 X43.6636 Y12.7252 
G01 X43.8274 Y12.8346 
G01 X43.9667 Y12.9739 
G01 X44.0761 Y13.1377 
G01 X44.1515 Y13.3196 
G01 X44.1899 Y13.5128 
G01 X44.1899 Y22.6985 
G01 X44.1515 Y22.8917 
G01 X44.0761 Y23.0736 
G01 X43.9667 Y23.2374 
G01 X43.9613 Y23.2428 
G01 X43.9613 Y23.3364 
G01 X43.9317 Y23.4854 
G01 X43.8735 Y23.6257 
G01 X43.7891 Y23.7521 
G01 X43.6817 Y23.8595 
G01 X43.5553 Y23.9439 
G01 X43.4150 Y24.0021 
G01 X43.2660 Y24.0317 
G01 X43.1139 Y24.0317 
G01 X42.9649 Y24.0021 
G01 X42.8246 Y23.9439 
G01 X42.6982 Y23.8595 
G01 X42.5908 Y23.7521 
G01 X42.5064 Y23.6257 
G01 X42.4482 Y23.4854 
G01 X42.4186 Y23.3364 
G00 Z2.0000 
G00 X39.8786 Y23.3364 
G01 Z-0.2000 F600.00 
G01 X39.8786 Y21.8635 
G01 X39.9082 Y21.7145 
G01 X39.9664 Y21.5742 
G01 X40.0508 Y21.4478 
G01 X40.1582 Y21.3404 
G01 X40.2846 Y21.2560 
G01 X40.4249 Y21.1978 
G01 X40.5739 Y21.1682 
G01 X40.7260 Y21.1682 
G01 X40.8750 Y21.1978 
G01 X41.0153 Y21.2560 
G01 X41.1417 Y21.3404 
G01 X41.2491 Y21.4478 
G01 X41.3335 Y21.5742 
G01 X41.3917 Y21.7145 
G01 X41.4213 Y21.8635 
G01 X41.4213 Y23.3364 
G01 X41.3917 Y23.4854 
G01 X41.3335 Y23.6257 
G01 X41.2491 Y23.7521 
G01 X41.1417 Y23.8595 
G01 X41.0153 Y23.9439 
G01 X40.8750 Y24.0021 
G01 X40.7260 Y24.0317 
G01 X40.5739 Y24.0317 
G01 X40.4249 Y24.0021 
G01 X40.2846 Y23.9439 
G01 X40.1582 Y23.8595 
G01 X40.0508 Y23.7521 
G01 X39.9664 Y23.6257 
G01 X39.9082 Y23.4854 
G01 X39.8786 Y23.3364 
G00 Z2.0000 
G00 X46.2768 Y9.3890 
G01 Z-0.2000 F600.00 
G01 X48.5211 Y9.3890 
G01 X48.5618 Y9.4059 
G01 X48.5930 Y9.4371 
G01 X48.6099 Y9.4778 
G01 X48.6099 Y13.1221 
G01 X48.5930 Y13.1628 
G01 X48.5618 Y13.1940 
G01 X48.5211 Y13.2109 
G01 X46.2768 Y13.2109 
G01 X46.2361 Y13.1940 
G01 X46.2049 Y13.1628 
G01 X46.1880 Y13.1221 
G01 X46.1880 Y9.4778 
G01 X46.2049 Y9.4371 
G01 X46.2361 Y9.4059 
G01 X46.2768 Y9.3890 
G00 Z2.0000 
G00 X40.2012 Y7.1014 
G01 Z-0.2000 F600.00 
G01 X40.2396 Y6.9082 
G01 X40.3150 Y6.7263 
G01 X40.4244 Y6.5625 
G01 X40.5637 Y6.4232 
G01 X40.7275 Y6.3138 
G01 X40.9094 Y6.2384 
G01 X41.1026 Y6.2000 
G01 X41.2997 Y6.2000 
G01 X52.0985 Y6.2000 
G01 X52.2917 Y6.2384 
G01 X52.4736 Y6.3138 
G01 X52.6374 Y6.4232 
G01 X52.7767 Y6.5625 
G01 X52.8861 Y6.7263 
G01 X52.9615 Y6.9082 
G01 X52.9999 Y7.1014 
G01 X52.9999 Y7.2985 
G01 X52.9999 Y9.8790 
G01 X54.4321 Y9.8790 
G01 X54.4728 Y9.8959 
G01 X54.5040 Y9.9271 
G01 X54.5209 Y9.9678 
G01 X54.5209 Y10.1900 
G01 X55.7014 Y10.1900 
G01 X55.8985 Y10.1900 
G01 X56.0917 Y10.2284 
G01 X56.2736 Y10.3038 
G01 X56.4374 Y10.4132 
G01 X56.5767 Y10.5525 
G01 X56.6861 Y10.7163 
G01 X56.7260 Y10.8127 
G01 X57.3790 Y10.8218 
G01 X57.3790 Y10.6178 
G01 X57.3959 Y10.5771 
G01 X57.4271 Y10.5459 
G01 X57.4678 Y10.5290 
G01 X59.9121 Y10.5290 
G01 X59.9528 Y10.5459 
G01 X59.9840 Y10.5771 
G01 X60.0009 Y10.6178 
G01 X60.0009 Y13.0621 
G01 X59.9840 Y13.1028 
G01 X59.9528 Y13.1340 
G01 X59.9121 Y13.1509 
G01 X57.4678 Y13.1509 
G01 X57.4271 Y13.1340 
G01 X57.3959 Y13.1028 
G01 X57.3790 Y13.0621 
G01 X57.3790 Y12.8218 
G01 X55.7958 Y12.7999 
G01 X55.7014 Y12.7999 
G01 X55.6944 Y12.7985 
G01 X55.6876 Y12.7984 
G01 X55.6027 Y12.7802 
G01 X55.5082 Y12.7615 
G01 X55.5014 Y12.7586 
G01 X55.4950 Y12.7573 
G01 X55.4132 Y12.7221 
G01 X55.3263 Y12.6861 
G01 X55.3206 Y12.6823 
G01 X55.3141 Y12.6795 
G01 X55.2380 Y12.6271 
G01 X55.1625 Y12.5767 
G01 X55.1576 Y12.5718 
G01 X55.1518 Y12.5678 
G01 X55.0884 Y12.5025 
G01 X55.0232 Y12.4374 
G01 X55.0193 Y12.4315 
G01 X55.0145 Y12.4266 
G01 X54.9647 Y12.3497 
G01 X54.9138 Y12.2736 
G01 X54.9112 Y12.2673 
G01 X54.9073 Y12.2613 
G01 X54.8789 Y12.1899 
G01 X54.5209 Y12.1899 
G01 X54.5209 Y12.4121 
G01 X54.5040 Y12.4528 
G01 X54.4728 Y12.4840 
G01 X54.4321 Y12.5009 
G01 X51.5878 Y12.5009 
G01 X51.5471 Y12.4840 
G01 X51.5159 Y12.4528 
G01 X51.4990 Y12.4121 
G01 X51.4990 Y12.0579 
G01 X51.3625 Y11.9667 
G01 X51.2232 Y11.8274 
G01 X51.1138 Y11.6636 
G01 X51.0384 Y11.4817 
G01 X51.0000 Y11.2885 
G01 X51.0000 Y8.1999 
G01 X42.2011 Y8.1999 
G01 X42.2011 Y8.2680 
G01 X42.3409 Y8.2680 
G01 X42.3816 Y8.2849 
G01 X42.4128 Y8.3161 
G01 X42.4297 Y8.3568 
G01 X42.4297 Y9.6203 
G01 X42.4128 Y9.6610 
G01 X42.3816 Y9.6922 
G01 X42.3409 Y9.7091 
G01 X41.8948 Y9.7091 
G01 X41.8386 Y9.7653 
G01 X41.6748 Y9.8747 
G01 X41.4929 Y9.9501 
G01 X41.2997 Y9.9885 
G01 X41.1026 Y9.9885 
G01 X41.1025 Y9.9885 
G01 X19.0399 Y9.9885 
G01 X19.0399 Y10.9990 
G01 X19.2621 Y10.9990 
G01 X19.3028 Y11.0159 
G01 X19.3340 Y11.0471 
G01 X19.3509 Y11.0878 
G01 X19.3509 Y13.5321 
G01 X19.3340 Y13.5728 
G01 X19.3028 Y13.6040 
G01 X19.2621 Y13.6209 
G01 X16.8178 Y13.6209 
G01 X16.7771 Y13.6040 
G01 X16.7459 Y13.5728 
G01 X16.7290 Y13.5321 
G01 X16.7290 Y13.3099 
G01 X10.8985 Y13.3099 
G01 X10.7014 Y13.3099 
G01 X10.5082 Y13.2715 
G01 X10.3263 Y13.1961 
G01 X10.1625 Y13.0867 
G01 X10.0232 Y12.9474 
G01 X9.9138 Y12.7836 
G01 X9.8384 Y12.6017 
G01 X9.8381 Y12.5999 
G01 X9.3999 Y12.5999 
G01 X9.3999 Y25.2000 
G01 X36.6000 Y25.2000 
G01 X36.6000 Y22.5014 
G01 X36.6384 Y22.3082 
G01 X36.7138 Y22.1263 
G01 X36.8232 Y21.9625 
G01 X36.9625 Y21.8232 
G01 X37.1263 Y21.7138 
G01 X37.3082 Y21.6384 
G01 X37.4080 Y21.6186 
G01 X37.4264 Y21.5742 
G01 X37.5108 Y21.4478 
G01 X37.6182 Y21.3404 
G01 X37.7446 Y21.2560 
G01 X37.8849 Y21.1978 
G01 X38.0339 Y21.1682 
G01 X38.1860 Y21.1682 
G01 X38.3350 Y21.1978 
G01 X38.4753 Y21.2560 
G01 X38.6017 Y21.3404 
G01 X38.7091 Y21.4478 
G01 X38.7935 Y21.5742 
G01 X38.8517 Y21.7145 
G01 X38.8813 Y21.8635 
G01 X38.8813 Y21.9572 
G01 X38.8867 Y21.9625 
G01 X38.9961 Y22.1263 
G01 X39.0715 Y22.3082 
G01 X39.1099 Y22.5014 
G01 X39.1099 Y22.6985 
G01 X39.0715 Y22.8917 
G01 X38.9961 Y23.0736 
G01 X38.8867 Y23.2374 
G01 X38.8813 Y23.2427 
G01 X38.8813 Y23.3364 
G01 X38.8517 Y23.4854 
G01 X38.7935 Y23.6257 
G01 X38.7091 Y23.7521 
G01 X38.6017 Y23.8595 
G01 X38.5999 Y23.8606 
G01 X38.5999 Y26.2985 
G01 X38.5615 Y26.4917 
G01 X38.4861 Y26.6736 
G01 X38.3767 Y26.8374 
G01 X38.2374 Y26.9767 
G01 X38.0736 Y27.0861 
G01 X37.8917 Y27.1615 
G01 X37.6985 Y27.1999 
G01 X37.5014 Y27.1999 
G01 X8.3014 Y27.1999 
G01 X8.1082 Y27.1615 
G01 X7.9263 Y27.0861 
G01 X7.7625 Y26.9767 
G01 X7.6232 Y26.8374 
G01 X7.5138 Y26.6736 
G01 X7.4384 Y26.4917 
G01 X7.4000 Y26.2985 
G01 X7.4000 Y26.1014 
G01 X7.4000 Y26.1013 
G01 X7.4000 Y11.6985 
G01 X7.4000 Y11.5014 
G01 X7.4384 Y11.3082 
G01 X7.5138 Y11.1263 
G01 X7.6232 Y10.9625 
G01 X7.7625 Y10.8232 
G01 X7.9263 Y10.7138 
G01 X8.1082 Y10.6384 
G01 X8.3014 Y10.6000 
G01 X10.6470 Y10.6000 
G01 X10.7280 Y10.5190 
G01 X11.8719 Y10.5190 
G01 X12.6629 Y11.3100 
G01 X16.7290 Y11.3100 
G01 X16.7290 Y11.0878 
G01 X16.7459 Y11.0471 
G01 X16.7771 Y11.0159 
G01 X16.8178 Y10.9990 
G01 X17.0400 Y10.9990 
G01 X17.0400 Y8.8900 
G01 X17.0784 Y8.6968 
G01 X17.1538 Y8.5149 
G01 X17.2632 Y8.3511 
G01 X17.4025 Y8.2118 
G01 X17.5663 Y8.1024 
G01 X17.7482 Y8.0270 
G01 X17.9414 Y7.9886 
G01 X18.1385 Y7.9886 
G01 X40.2012 Y7.9886 
G01 X40.2012 Y7.1014 
G00 Z2.0000 
G00 X42.3409 Y10.5794 
G01 Z-0.2000 F600.00 
G01 X42.3816 Y10.5963 
G01 X42.4128 Y10.6275 
G01 X42.4297 Y10.6682 
G01 X42.4297 Y11.9317 
G01 X42.4128 Y11.9724 
G01 X42.3816 Y12.0036 
G01 X42.3409 Y12.0205 
G01 X41.8948 Y12.0205 
G01 X41.8386 Y12.0767 
G01 X41.6748 Y12.1861 
G01 X41.4929 Y12.2615 
G01 X41.2997 Y12.2999 
G01 X34.9449 Y12.2999 
G01 X34.9449 Y14.5190 
G01 X35.8921 Y14.5190 
G01 X35.9328 Y14.5359 
G01 X35.9640 Y14.5671 
G01 X35.9809 Y14.6078 
G01 X35.9809 Y16.3800 
G01 X40.2726 Y16.3800 
G01 X40.3520 Y16.3771 
G01 X40.3700 Y16.3800 
G01 X40.3885 Y16.3800 
G01 X40.4673 Y16.3957 
G01 X40.5464 Y16.4084 
G01 X40.5636 Y16.4148 
G01 X40.5817 Y16.4184 
G01 X40.6557 Y16.4491 
G01 X40.7310 Y16.4771 
G01 X40.7467 Y16.4869 
G01 X40.7636 Y16.4938 
G01 X40.8299 Y16.5382 
G01 X40.8314 Y16.5390 
G01 X41.8121 Y16.5390 
G01 X41.8528 Y16.5559 
G01 X41.8840 Y16.5871 
G01 X41.9009 Y16.6278 
G01 X41.9009 Y18.8721 
G01 X41.8840 Y18.9128 
G01 X41.8528 Y18.9440 
G01 X41.8121 Y18.9609 
G01 X39.9678 Y18.9609 
G01 X39.9271 Y18.9440 
G01 X39.8959 Y18.9128 
G01 X39.8790 Y18.8721 
G01 X39.8790 Y18.3799 
G01 X35.9809 Y18.3799 
G01 X35.9809 Y20.1521 
G01 X35.9640 Y20.1928 
G01 X35.9328 Y20.2240 
G01 X35.8921 Y20.2409 
G01 X31.9978 Y20.2409 
G01 X31.9571 Y20.2240 
G01 X31.9259 Y20.1928 
G01 X31.9090 Y20.1521 
G01 X31.9090 Y14.6078 
G01 X31.9259 Y14.5671 
G01 X31.9571 Y14.5359 
G01 X31.9978 Y14.5190 
G01 X32.9450 Y14.5190 
G01 X32.9450 Y11.2014 
G01 X32.9834 Y11.0082 
G01 X33.0588 Y10.8263 
G01 X33.1682 Y10.6625 
G01 X33.3075 Y10.5232 
G01 X33.4713 Y10.4138 
G01 X33.6532 Y10.3384 
G01 X33.8464 Y10.3000 
G01 X34.0435 Y10.3000 
G01 X41.2997 Y10.3000 
G01 X41.4929 Y10.3384 
G01 X41.6748 Y10.4138 
G01 X41.8386 Y10.5232 
G01 X41.8948 Y10.5794 
G01 X42.3409 Y10.5794 
G00 Z2.0000 
G00 X66.4809 Y16.7280 
G01 Z-0.2000 F600.00 
G01 X66.4809 Y17.8719 
G01 X65.6719 Y18.6809 
G01 X64.5280 Y18.6809 
G01 X64.1471 Y18.2999 
G01 X59.7876 Y18.2999 
G01 X59.7872 Y18.3002 
G01 X59.7397 Y18.3375 
G01 X59.7053 Y18.3549 
G01 X59.6736 Y18.3761 
G01 X59.6179 Y18.3991 
G01 X59.5640 Y18.4265 
G01 X59.5271 Y18.4368 
G01 X59.4917 Y18.4515 
G01 X59.4323 Y18.4633 
G01 X59.3744 Y18.4795 
G01 X59.3361 Y18.4824 
G01 X59.2985 Y18.4899 
G01 X59.2382 Y18.4899 
G01 X59.1779 Y18.4945 
G01 X59.1398 Y18.4899 
G01 X59.1014 Y18.4899 
G01 X59.0422 Y18.4781 
G01 X58.9823 Y18.4709 
G01 X58.9461 Y18.4590 
G01 X58.9082 Y18.4515 
G01 X58.8524 Y18.4283 
G01 X58.7951 Y18.4096 
G01 X58.7616 Y18.3907 
G01 X58.7263 Y18.3761 
G01 X58.6765 Y18.3428 
G01 X58.6235 Y18.3130 
G01 X58.6083 Y18.2999 
G01 X58.4985 Y18.2999 
G01 X58.3014 Y18.2999 
G01 X58.1082 Y18.2615 
G01 X57.9596 Y18.1999 
G01 X54.5209 Y18.1999 
G01 X54.5209 Y18.7121 
G01 X54.5040 Y18.7528 
G01 X54.4728 Y18.7840 
G01 X54.4321 Y18.8009 
G01 X51.5878 Y18.8009 
G01 X51.5471 Y18.7840 
G01 X51.5159 Y18.7528 
G01 X51.5147 Y18.7499 
G01 X47.0009 Y18.7499 
G01 X47.0009 Y18.8721 
G01 X46.9899 Y18.8985 
G01 X46.9899 Y22.6985 
G01 X46.9515 Y22.8917 
G01 X46.8761 Y23.0736 
G01 X46.7667 Y23.2374 
G01 X46.6274 Y23.3767 
G01 X46.4727 Y23.4799 
G01 X46.4717 Y23.4854 
G01 X46.4135 Y23.6257 
G01 X46.3291 Y23.7521 
G01 X46.2217 Y23.8595 
G01 X46.0953 Y23.9439 
G01 X45.9550 Y24.0021 
G01 X45.8060 Y24.0317 
G01 X45.6539 Y24.0317 
G01 X45.5049 Y24.0021 
G01 X45.3646 Y23.9439 
G01 X45.2382 Y23.8595 
G01 X45.1308 Y23.7521 
G01 X45.0464 Y23.6257 
G01 X44.9882 Y23.4854 
G01 X44.9586 Y23.3364 
G01 X44.9586 Y23.2428 
G01 X44.9532 Y23.2374 
G01 X44.8438 Y23.0736 
G01 X44.7684 Y22.8917 
G01 X44.7300 Y22.6985 
G01 X44.7300 Y22.5014 
G01 X44.7684 Y22.3082 
G01 X44.8438 Y22.1263 
G01 X44.9532 Y21.9625 
G01 X44.9586 Y21.9571 
G01 X44.9586 Y21.8635 
G01 X44.9882 Y21.7145 
G01 X44.9900 Y21.7102 
G01 X44.9900 Y18.8985 
G01 X44.9790 Y18.8721 
G01 X44.9790 Y16.6278 
G01 X44.9959 Y16.5871 
G01 X45.0271 Y16.5559 
G01 X45.0678 Y16.5390 
G01 X46.9121 Y16.5390 
G01 X46.9528 Y16.5559 
G01 X46.9840 Y16.5871 
G01 X47.0009 Y16.6278 
G01 X47.0009 Y16.7500 
G01 X51.4990 Y16.7500 
G01 X51.4990 Y16.2678 
G01 X51.5159 Y16.2271 
G01 X51.5471 Y16.1959 
G01 X51.5878 Y16.1790 
G01 X52.2222 Y16.1790 
G01 X52.2332 Y16.1625 
G01 X52.3725 Y16.0232 
G01 X52.5363 Y15.9138 
G01 X52.7182 Y15.8384 
G01 X52.9114 Y15.8000 
G01 X53.1085 Y15.8000 
G01 X53.6985 Y15.8000 
G01 X53.8917 Y15.8384 
G01 X54.0736 Y15.9138 
G01 X54.2374 Y16.0232 
G01 X54.3767 Y16.1625 
G01 X54.3877 Y16.1790 
G01 X54.4321 Y16.1790 
G01 X54.4728 Y16.1959 
G01 X54.4768 Y16.2000 
G01 X57.3790 Y16.2000 
G01 X57.3790 Y15.6178 
G01 X57.3959 Y15.5771 
G01 X57.4271 Y15.5459 
G01 X57.4678 Y15.5290 
G01 X59.9121 Y15.5290 
G01 X59.9528 Y15.5459 
G01 X59.9840 Y15.5771 
G01 X60.0009 Y15.6178 
G01 X60.0009 Y15.9987 
G01 X60.0861 Y16.1263 
G01 X60.1581 Y16.3000 
G01 X64.1471 Y16.3000 
G01 X64.5280 Y15.9190 
G01 X65.6719 Y15.9190 
G01 X66.4809 Y16.7280 
G00 Z2.0000 
G00 X26.0309 Y14.6078 
G01 Z-0.2000 F600.00 
G01 X26.0309 Y20.1521 
G01 X26.0140 Y20.1928 
G01 X25.9828 Y20.2240 
G01 X25.9421 Y20.2409 
G01 X22.0478 Y20.2409 
G01 X22.0071 Y20.2240 
G01 X21.9759 Y20.1928 
G01 X21.9590 Y20.1521 
G01 X21.9590 Y16.7999 
G01 X19.3509 Y16.7999 
G01 X19.3509 Y18.5321 
G01 X19.3340 Y18.5728 
G01 X19.3028 Y18.6040 
G01 X19.2621 Y18.6209 
G01 X16.8178 Y18.6209 
G01 X16.7771 Y18.6040 
G01 X16.7459 Y18.5728 
G01 X16.7290 Y18.5321 
G01 X16.7290 Y18.0999 
G01 X12.8528 Y18.0999 
G01 X12.4719 Y18.4809 
G01 X11.3280 Y18.4809 
G01 X10.5190 Y17.6719 
G01 X10.5190 Y16.5280 
G01 X11.3280 Y15.7190 
G01 X12.4719 Y15.7190 
G01 X12.8528 Y16.1000 
G01 X16.7290 Y16.1000 
G01 X16.7290 Y16.0878 
G01 X16.7459 Y16.0471 
G01 X16.7771 Y16.0159 
G01 X16.8178 Y15.9990 
G01 X17.0400 Y15.9990 
G01 X17.0400 Y15.7014 
G01 X17.0784 Y15.5082 
G01 X17.1538 Y15.3263 
G01 X17.2632 Y15.1625 
G01 X17.4025 Y15.0232 
G01 X17.5663 Y14.9138 
G01 X17.7482 Y14.8384 
G01 X17.9414 Y14.8000 
G01 X18.1385 Y14.8000 
G01 X21.9590 Y14.8000 
G01 X21.9590 Y14.6078 
G01 X21.9759 Y14.5671 
G01 X22.0071 Y14.5359 
G01 X22.0478 Y14.5190 
G01 X25.9421 Y14.5190 
G01 X25.9828 Y14.5359 
G01 X26.0140 Y14.5671 
G01 X26.0309 Y14.6078 
(File Footer)
G00 Z2.0000 
G00 Z10.0000 
M05
M02
