( This gcode generated by /home/mattvenn/.eagle/ulp/pcb-gcode.ulp )
( Copyright 2005 by John Johnson. See readme.txt for licensing terms. )

( This file generated from the board /home/mattvenn/eagle-circuit-designs/3w developer kit/3w developer v1.brd )
( This file generated 08/03/2012 17:33 )

G21

G90
G00 Z10.0000 
G00 X0 Y0
M03
G04 P3.000000
G00 Z2.0000 
G00 X48.3609 Y22.1598 
G01 Z-0.2000 F600.00 
G01 X48.3609 Y23.1001 
G01 X48.3455 Y23.1372 
G01 X48.3172 Y23.1655 
G01 X48.2801 Y23.1809 
G01 X47.6398 Y23.1809 
G01 X47.6027 Y23.1655 
G01 X47.5744 Y23.1372 
G01 X47.5590 Y23.1001 
G01 X47.5590 Y22.9341 
G01 X41.6041 Y22.9341 
G01 X41.6041 Y30.7708 
G01 X41.6882 Y30.8269 
G01 X41.7730 Y30.9117 
G01 X41.8396 Y31.0115 
G01 X41.8855 Y31.1223 
G01 X41.9089 Y31.2399 
G01 X41.9089 Y31.3600 
G01 X41.8855 Y31.4776 
G01 X41.8396 Y31.5884 
G01 X41.7730 Y31.6882 
G01 X41.6882 Y31.7730 
G01 X41.5884 Y31.8396 
G01 X41.4776 Y31.8855 
G01 X41.3600 Y31.9089 
G01 X38.1089 Y31.9089 
G01 X38.1089 Y46.8910 
G01 X51.8910 Y46.8910 
G01 X51.8910 Y45.5600 
G01 X51.8910 Y45.4399 
G01 X51.9144 Y45.3223 
G01 X51.9603 Y45.2115 
G01 X52.0269 Y45.1117 
G01 X52.1117 Y45.0269 
G01 X52.2115 Y44.9603 
G01 X52.3223 Y44.9144 
G01 X52.4399 Y44.8910 
G01 X54.5090 Y44.8910 
G01 X54.5090 Y44.5198 
G01 X54.5244 Y44.4827 
G01 X54.5527 Y44.4544 
G01 X54.5898 Y44.4390 
G01 X56.6301 Y44.4390 
G01 X56.6672 Y44.4544 
G01 X56.6955 Y44.4827 
G01 X56.7109 Y44.5198 
G01 X56.7109 Y44.7310 
G01 X57.8910 Y44.7310 
G01 X57.8910 Y41.3209 
G01 X53.8820 Y41.3209 
G01 X53.6689 Y41.2871 
G01 X53.4637 Y41.2205 
G01 X53.3271 Y41.1509 
G01 X53.0698 Y41.1509 
G01 X53.0327 Y41.1355 
G01 X53.0044 Y41.1072 
G01 X52.9890 Y41.0701 
G01 X52.9890 Y40.8879 
G01 X52.9442 Y40.8431 
G01 X52.8174 Y40.6685 
G01 X52.7194 Y40.4762 
G01 X52.6528 Y40.2710 
G01 X52.6190 Y40.0579 
G01 X52.6190 Y39.8420 
G01 X52.6528 Y39.6289 
G01 X52.7194 Y39.4237 
G01 X52.8174 Y39.2314 
G01 X52.9442 Y39.0568 
G01 X52.9890 Y39.0120 
G01 X52.9890 Y38.8298 
G01 X53.0044 Y38.7927 
G01 X53.0327 Y38.7644 
G01 X53.0698 Y38.7490 
G01 X53.3271 Y38.7490 
G01 X53.4637 Y38.6794 
G01 X53.6689 Y38.6128 
G01 X53.8820 Y38.5790 
G01 X57.8390 Y38.5790 
G01 X57.8390 Y35.3909 
G01 X57.7898 Y35.3909 
G01 X57.7527 Y35.3755 
G01 X57.7244 Y35.3472 
G01 X57.7090 Y35.3101 
G01 X57.7090 Y32.8698 
G01 X57.7244 Y32.8327 
G01 X57.7527 Y32.8044 
G01 X57.7898 Y32.7890 
G01 X58.7774 Y32.7890 
G01 X58.8889 Y32.7528 
G01 X59.1020 Y32.7190 
G01 X65.1979 Y32.7190 
G01 X65.4110 Y32.7528 
G01 X65.5225 Y32.7890 
G01 X66.5101 Y32.7890 
G01 X66.5472 Y32.8044 
G01 X66.5755 Y32.8327 
G01 X66.5909 Y32.8698 
G01 X66.5909 Y33.8910 
G01 X73.5910 Y33.8910 
G01 X73.5910 Y19.1089 
G01 X63.4399 Y19.1089 
G01 X63.3223 Y19.0855 
G01 X63.2115 Y19.0396 
G01 X63.1117 Y18.9730 
G01 X63.0269 Y18.8882 
G01 X62.9603 Y18.7884 
G01 X62.9144 Y18.6776 
G01 X62.8910 Y18.5600 
G01 X62.8910 Y18.4399 
G01 X62.8910 Y6.1089 
G01 X35.3959 Y6.1089 
G01 X35.3959 Y6.3601 
G01 X35.3805 Y6.3972 
G01 X35.3522 Y6.4255 
G01 X35.3151 Y6.4409 
G01 X33.4248 Y6.4409 
G01 X33.3877 Y6.4255 
G01 X33.3594 Y6.3972 
G01 X33.3440 Y6.3601 
G01 X33.3440 Y4.6398 
G01 X33.3594 Y4.6027 
G01 X33.3877 Y4.5744 
G01 X33.4248 Y4.5590 
G01 X35.3151 Y4.5590 
G01 X35.3522 Y4.5744 
G01 X35.3805 Y4.6027 
G01 X35.3959 Y4.6398 
G01 X35.3959 Y4.8910 
G01 X63.4399 Y4.8910 
G01 X63.5600 Y4.8910 
G01 X63.6776 Y4.9144 
G01 X63.7884 Y4.9603 
G01 X63.8882 Y5.0269 
G01 X63.9730 Y5.1117 
G01 X64.0396 Y5.2115 
G01 X64.0855 Y5.3223 
G01 X64.1089 Y5.4399 
G01 X64.1089 Y17.8910 
G01 X74.1399 Y17.8910 
G01 X74.2600 Y17.8910 
G01 X74.3776 Y17.9144 
G01 X74.4884 Y17.9603 
G01 X74.5882 Y18.0269 
G01 X74.6730 Y18.1117 
G01 X74.7396 Y18.2115 
G01 X74.7855 Y18.3223 
G01 X74.8089 Y18.4399 
G01 X74.8089 Y34.4399 
G01 X74.8089 Y34.5600 
G01 X74.7855 Y34.6776 
G01 X74.7396 Y34.7884 
G01 X74.6730 Y34.8882 
G01 X74.5882 Y34.9730 
G01 X74.4884 Y35.0396 
G01 X74.3776 Y35.0855 
G01 X74.2600 Y35.1089 
G01 X66.5909 Y35.1089 
G01 X66.5909 Y35.3101 
G01 X66.5755 Y35.3472 
G01 X66.5472 Y35.3755 
G01 X66.5101 Y35.3909 
G01 X65.5225 Y35.3909 
G01 X65.4110 Y35.4271 
G01 X65.1979 Y35.4609 
G01 X60.5809 Y35.4609 
G01 X60.5809 Y38.5790 
G01 X64.0091 Y38.5790 
G01 X64.2222 Y38.6128 
G01 X64.4274 Y38.6794 
G01 X64.6197 Y38.7774 
G01 X64.7943 Y38.9042 
G01 X64.9469 Y39.0568 
G01 X65.0737 Y39.2314 
G01 X65.1717 Y39.4237 
G01 X65.2383 Y39.6289 
G01 X65.2721 Y39.8420 
G01 X65.2721 Y40.0579 
G01 X65.2383 Y40.2710 
G01 X65.1717 Y40.4762 
G01 X65.0737 Y40.6685 
G01 X64.9469 Y40.8431 
G01 X64.8403 Y40.9497 
G01 X64.8403 Y42.9780 
G01 X65.0389 Y42.9780 
G01 X65.0760 Y42.9934 
G01 X65.1043 Y43.0217 
G01 X65.1197 Y43.0588 
G01 X65.1197 Y44.3183 
G01 X65.1043 Y44.3554 
G01 X65.0760 Y44.3837 
G01 X65.0389 Y44.3991 
G01 X64.5187 Y44.3991 
G01 X64.4998 Y44.4180 
G01 X64.3460 Y44.5208 
G01 X64.1751 Y44.5916 
G01 X63.9937 Y44.6277 
G01 X63.8086 Y44.6277 
G01 X63.6272 Y44.5916 
G01 X63.4563 Y44.5208 
G01 X63.3025 Y44.4180 
G01 X63.2836 Y44.3991 
G01 X62.7634 Y44.3991 
G01 X62.7263 Y44.3837 
G01 X62.6980 Y44.3554 
G01 X62.6826 Y44.3183 
G01 X62.6826 Y43.0588 
G01 X62.6980 Y43.0217 
G01 X62.7263 Y42.9934 
G01 X62.7634 Y42.9780 
G01 X62.9620 Y42.9780 
G01 X62.9620 Y41.3209 
G01 X59.1089 Y41.3209 
G01 X59.1089 Y45.4000 
G01 X59.0855 Y45.5176 
G01 X59.0396 Y45.6284 
G01 X58.9730 Y45.7282 
G01 X58.8882 Y45.8130 
G01 X58.7884 Y45.8796 
G01 X58.6776 Y45.9255 
G01 X58.5600 Y45.9489 
G01 X58.4399 Y45.9489 
G01 X56.7109 Y45.9489 
G01 X56.7109 Y46.1601 
G01 X56.6955 Y46.1972 
G01 X56.6672 Y46.2255 
G01 X56.6301 Y46.2409 
G01 X54.5898 Y46.2409 
G01 X54.5527 Y46.2255 
G01 X54.5244 Y46.1972 
G01 X54.5090 Y46.1601 
G01 X54.5090 Y46.1089 
G01 X53.1089 Y46.1089 
G01 X53.1089 Y47.4398 
G01 X53.1089 Y47.4399 
G01 X53.1089 Y47.5600 
G01 X53.0855 Y47.6776 
G01 X53.0396 Y47.7884 
G01 X52.9730 Y47.8882 
G01 X52.8882 Y47.9730 
G01 X52.7884 Y48.0396 
G01 X52.6776 Y48.0855 
G01 X52.5600 Y48.1089 
G01 X37.4399 Y48.1089 
G01 X37.3223 Y48.0855 
G01 X37.2115 Y48.0396 
G01 X37.1117 Y47.9730 
G01 X37.0269 Y47.8882 
G01 X36.9603 Y47.7884 
G01 X36.9144 Y47.6776 
G01 X36.8910 Y47.5600 
G01 X36.8910 Y47.4399 
G01 X36.8910 Y31.2399 
G01 X36.9144 Y31.1223 
G01 X36.9603 Y31.0115 
G01 X37.0269 Y30.9117 
G01 X37.1117 Y30.8269 
G01 X37.2115 Y30.7603 
G01 X37.3223 Y30.7144 
G01 X37.4399 Y30.6910 
G01 X37.5600 Y30.6910 
G01 X40.9958 Y30.6910 
G01 X40.9958 Y22.5899 
G01 X41.0165 Y22.5125 
G01 X41.0566 Y22.4432 
G01 X41.1132 Y22.3866 
G01 X41.1825 Y22.3465 
G01 X41.2599 Y22.3258 
G01 X41.3400 Y22.3258 
G01 X47.5590 Y22.3258 
G01 X47.5590 Y22.1598 
G01 X47.5744 Y22.1227 
G01 X47.6027 Y22.0944 
G01 X47.6398 Y22.0790 
G01 X48.2801 Y22.0790 
G01 X48.3172 Y22.0944 
G01 X48.3455 Y22.1227 
G01 X48.3609 Y22.1598 
G00 Z2.0000 
G00 X49.3109 Y22.1598 
G01 Z-0.2000 F600.00 
G01 X49.3109 Y23.1001 
G01 X49.2955 Y23.1372 
G01 X49.2672 Y23.1655 
G01 X49.2301 Y23.1809 
G01 X48.5898 Y23.1809 
G01 X48.5527 Y23.1655 
G01 X48.5244 Y23.1372 
G01 X48.5090 Y23.1001 
G01 X48.5090 Y22.1598 
G01 X48.5244 Y22.1227 
G01 X48.5527 Y22.0944 
G01 X48.5898 Y22.0790 
G01 X48.5958 Y22.0790 
G01 X48.5958 Y21.8041 
G01 X42.9102 Y21.8041 
G01 X42.9059 Y21.8115 
G01 X42.8115 Y21.9059 
G01 X42.6958 Y21.9727 
G01 X42.5668 Y22.0073 
G01 X42.4331 Y22.0073 
G01 X40.6089 Y22.0073 
G01 X40.6089 Y29.6399 
G01 X40.6089 Y29.7600 
G01 X40.5855 Y29.8776 
G01 X40.5396 Y29.9884 
G01 X40.4730 Y30.0882 
G01 X40.3882 Y30.1730 
G01 X40.2884 Y30.2396 
G01 X40.1776 Y30.2855 
G01 X40.0600 Y30.3089 
G01 X36.5089 Y30.3089 
G01 X36.5089 Y47.6399 
G01 X36.5089 Y47.7600 
G01 X36.4855 Y47.8776 
G01 X36.4396 Y47.9884 
G01 X36.3730 Y48.0882 
G01 X36.2882 Y48.1730 
G01 X36.1884 Y48.2396 
G01 X36.0776 Y48.2855 
G01 X35.9600 Y48.3089 
G01 X28.1089 Y48.3089 
G01 X28.1089 Y51.8910 
G01 X30.5389 Y51.8910 
G01 X30.6590 Y51.8910 
G01 X30.7766 Y51.9144 
G01 X30.8874 Y51.9603 
G01 X30.9872 Y52.0269 
G01 X31.0720 Y52.1117 
G01 X31.1386 Y52.2115 
G01 X31.1709 Y52.2895 
G01 X31.7366 Y52.2895 
G01 X31.7737 Y52.3049 
G01 X31.8020 Y52.3332 
G01 X31.8174 Y52.3703 
G01 X31.8174 Y52.3910 
G01 X36.5590 Y52.3910 
G01 X36.5590 Y51.6998 
G01 X36.5744 Y51.6627 
G01 X36.6027 Y51.6344 
G01 X36.6398 Y51.6190 
G01 X38.3601 Y51.6190 
G01 X38.3972 Y51.6344 
G01 X38.4255 Y51.6627 
G01 X38.4409 Y51.6998 
G01 X38.4409 Y51.7710 
G01 X41.4399 Y51.7710 
G01 X41.5600 Y51.7710 
G01 X41.6776 Y51.7944 
G01 X41.7884 Y51.8403 
G01 X41.8882 Y51.9069 
G01 X41.9730 Y51.9917 
G01 X42.0396 Y52.0915 
G01 X42.0855 Y52.2023 
G01 X42.1089 Y52.3199 
G01 X42.1089 Y56.8910 
G01 X43.4990 Y56.8910 
G01 X43.4990 Y56.4298 
G01 X43.5144 Y56.3927 
G01 X43.5427 Y56.3644 
G01 X43.5798 Y56.3490 
G01 X46.4201 Y56.3490 
G01 X46.4572 Y56.3644 
G01 X46.4855 Y56.3927 
G01 X46.5009 Y56.4298 
G01 X46.5009 Y57.0410 
G01 X52.3910 Y57.0410 
G01 X52.3910 Y56.8009 
G01 X52.0798 Y56.8009 
G01 X52.0427 Y56.7855 
G01 X52.0144 Y56.7572 
G01 X51.9990 Y56.7201 
G01 X51.9990 Y55.0798 
G01 X52.0144 Y55.0427 
G01 X52.0427 Y55.0144 
G01 X52.0798 Y54.9990 
G01 X53.9201 Y54.9990 
G01 X53.9572 Y55.0144 
G01 X53.9855 Y55.0427 
G01 X54.0009 Y55.0798 
G01 X54.0009 Y56.7201 
G01 X53.9855 Y56.7572 
G01 X53.9572 Y56.7855 
G01 X53.9201 Y56.8009 
G01 X53.6089 Y56.8009 
G01 X53.6089 Y57.7100 
G01 X53.5855 Y57.8276 
G01 X53.5396 Y57.9384 
G01 X53.4730 Y58.0382 
G01 X53.3882 Y58.1230 
G01 X53.2884 Y58.1896 
G01 X53.1776 Y58.2355 
G01 X53.0600 Y58.2589 
G01 X52.9399 Y58.2589 
G01 X46.5009 Y58.2589 
G01 X46.5009 Y58.8701 
G01 X46.4855 Y58.9072 
G01 X46.4572 Y58.9355 
G01 X46.4201 Y58.9509 
G01 X43.5798 Y58.9509 
G01 X43.5427 Y58.9355 
G01 X43.5144 Y58.9072 
G01 X43.4990 Y58.8701 
G01 X43.4990 Y58.1089 
G01 X41.5600 Y58.1089 
G01 X41.4399 Y58.1089 
G01 X41.3223 Y58.0855 
G01 X41.2115 Y58.0396 
G01 X41.1117 Y57.9730 
G01 X41.0269 Y57.8882 
G01 X40.9603 Y57.7884 
G01 X40.9144 Y57.6776 
G01 X40.8910 Y57.5600 
G01 X40.8910 Y52.9889 
G01 X38.4409 Y52.9889 
G01 X38.4409 Y53.0601 
G01 X38.4255 Y53.0972 
G01 X38.3972 Y53.1255 
G01 X38.3601 Y53.1409 
G01 X38.0928 Y53.1409 
G01 X38.0855 Y53.1776 
G01 X38.0396 Y53.2884 
G01 X37.9730 Y53.3882 
G01 X37.8882 Y53.4730 
G01 X37.7884 Y53.5396 
G01 X37.6776 Y53.5855 
G01 X37.5600 Y53.6089 
G01 X37.4399 Y53.6089 
G01 X31.8174 Y53.6089 
G01 X31.8174 Y53.6296 
G01 X31.8020 Y53.6667 
G01 X31.7737 Y53.6950 
G01 X31.7366 Y53.7104 
G01 X29.4613 Y53.7104 
G01 X29.4242 Y53.6950 
G01 X29.3959 Y53.6667 
G01 X29.3805 Y53.6296 
G01 X29.3805 Y53.1089 
G01 X27.4399 Y53.1089 
G01 X27.3223 Y53.0855 
G01 X27.2115 Y53.0396 
G01 X27.1117 Y52.9730 
G01 X27.0269 Y52.8882 
G01 X26.9603 Y52.7884 
G01 X26.9144 Y52.6776 
G01 X26.8910 Y52.5600 
G01 X26.8910 Y52.4399 
G01 X26.8910 Y47.6399 
G01 X26.9144 Y47.5223 
G01 X26.9603 Y47.4115 
G01 X27.0269 Y47.3117 
G01 X27.1117 Y47.2269 
G01 X27.2115 Y47.1603 
G01 X27.3223 Y47.1144 
G01 X27.4399 Y47.0910 
G01 X27.5600 Y47.0910 
G01 X35.2910 Y47.0910 
G01 X35.2910 Y29.6399 
G01 X35.3144 Y29.5223 
G01 X35.3603 Y29.4115 
G01 X35.4269 Y29.3117 
G01 X35.5117 Y29.2269 
G01 X35.6115 Y29.1603 
G01 X35.7223 Y29.1144 
G01 X35.8399 Y29.0910 
G01 X35.9600 Y29.0910 
G01 X39.3910 Y29.0910 
G01 X39.3910 Y21.4399 
G01 X39.4144 Y21.3223 
G01 X39.4603 Y21.2115 
G01 X39.5269 Y21.1117 
G01 X39.6117 Y21.0269 
G01 X39.7115 Y20.9603 
G01 X39.8223 Y20.9144 
G01 X39.9399 Y20.8910 
G01 X40.0600 Y20.8910 
G01 X40.1776 Y20.9144 
G01 X40.2884 Y20.9603 
G01 X40.3367 Y20.9926 
G01 X41.9926 Y20.9926 
G01 X41.9926 Y19.4709 
G01 X41.2098 Y19.4709 
G01 X41.1727 Y19.4555 
G01 X41.1444 Y19.4272 
G01 X41.1290 Y19.3901 
G01 X41.1290 Y16.8098 
G01 X41.1444 Y16.7727 
G01 X41.1727 Y16.7444 
G01 X41.2098 Y16.7290 
G01 X43.7901 Y16.7290 
G01 X43.8272 Y16.7444 
G01 X43.8555 Y16.7727 
G01 X43.8709 Y16.8098 
G01 X43.8709 Y19.3901 
G01 X43.8555 Y19.4272 
G01 X43.8272 Y19.4555 
G01 X43.7901 Y19.4709 
G01 X43.0073 Y19.4709 
G01 X43.0073 Y21.1958 
G01 X48.9400 Y21.1958 
G01 X49.0174 Y21.2165 
G01 X49.0867 Y21.2566 
G01 X49.1433 Y21.3132 
G01 X49.1834 Y21.3825 
G01 X49.2041 Y21.4599 
G01 X49.2041 Y21.5400 
G01 X49.2041 Y22.0790 
G01 X49.2301 Y22.0790 
G01 X49.2672 Y22.0944 
G01 X49.2955 Y22.1227 
G01 X49.3109 Y22.1598 
G00 Z2.0000 
G00 X50.2609 Y22.1598 
G01 Z-0.2000 F600.00 
G01 X50.2609 Y23.1001 
G01 X50.2455 Y23.1372 
G01 X50.2172 Y23.1655 
G01 X50.1801 Y23.1809 
G01 X49.5398 Y23.1809 
G01 X49.5027 Y23.1655 
G01 X49.4744 Y23.1372 
G01 X49.4590 Y23.1001 
G01 X49.4590 Y22.1598 
G01 X49.4744 Y22.1227 
G01 X49.5027 Y22.0944 
G01 X49.5398 Y22.0790 
G01 X50.1801 Y22.0790 
G01 X50.2172 Y22.0944 
G01 X50.2455 Y22.1227 
G01 X50.2609 Y22.1598 
G00 Z2.0000 
G00 X49.3109 Y24.4598 
G01 Z-0.2000 F600.00 
G01 X49.3109 Y25.4001 
G01 X49.2955 Y25.4372 
G01 X49.2672 Y25.4655 
G01 X49.2301 Y25.4809 
G01 X48.5898 Y25.4809 
G01 X48.5527 Y25.4655 
G01 X48.5244 Y25.4372 
G01 X48.5090 Y25.4001 
G01 X48.5090 Y24.4598 
G01 X48.5244 Y24.4227 
G01 X48.5527 Y24.3944 
G01 X48.5898 Y24.3790 
G01 X49.2301 Y24.3790 
G01 X49.2672 Y24.3944 
G01 X49.2955 Y24.4227 
G01 X49.3109 Y24.4598 
G00 Z2.0000 
G00 X48.3609 Y24.4598 
G01 Z-0.2000 F600.00 
G01 X48.3609 Y25.4001 
G01 X48.3455 Y25.4372 
G01 X48.3172 Y25.4655 
G01 X48.2801 Y25.4809 
G01 X47.6398 Y25.4809 
G01 X47.6027 Y25.4655 
G01 X47.5744 Y25.4372 
G01 X47.5590 Y25.4001 
G01 X47.5590 Y25.3041 
G01 X43.1041 Y25.3041 
G01 X43.1041 Y32.8400 
G01 X43.0834 Y32.9174 
G01 X43.0433 Y32.9867 
G01 X42.9867 Y33.0433 
G01 X42.9174 Y33.0834 
G01 X42.8400 Y33.1041 
G01 X42.7599 Y33.1041 
G01 X39.3041 Y33.1041 
G01 X39.3041 Y44.6958 
G01 X50.6958 Y44.6958 
G01 X50.6958 Y34.1155 
G01 X48.6197 Y34.1155 
G01 X48.6197 Y34.4411 
G01 X48.6043 Y34.4782 
G01 X48.5760 Y34.5065 
G01 X48.5389 Y34.5219 
G01 X46.2634 Y34.5219 
G01 X46.2263 Y34.5065 
G01 X46.1980 Y34.4782 
G01 X46.1826 Y34.4411 
G01 X46.1826 Y33.1816 
G01 X46.1980 Y33.1445 
G01 X46.2263 Y33.1162 
G01 X46.2634 Y33.1008 
G01 X48.5389 Y33.1008 
G01 X48.5760 Y33.1162 
G01 X48.6043 Y33.1445 
G01 X48.6197 Y33.1816 
G01 X48.6197 Y33.5072 
G01 X50.9599 Y33.5072 
G01 X51.0400 Y33.5072 
G01 X51.1174 Y33.5279 
G01 X51.1867 Y33.5680 
G01 X51.2433 Y33.6246 
G01 X51.2834 Y33.6939 
G01 X51.3041 Y33.7713 
G01 X51.3041 Y44.9599 
G01 X51.3041 Y45.0400 
G01 X51.2834 Y45.1174 
G01 X51.2433 Y45.1867 
G01 X51.1867 Y45.2433 
G01 X51.1174 Y45.2834 
G01 X51.0400 Y45.3041 
G01 X38.9599 Y45.3041 
G01 X38.8825 Y45.2834 
G01 X38.8132 Y45.2433 
G01 X38.7566 Y45.1867 
G01 X38.7165 Y45.1174 
G01 X38.6958 Y45.0400 
G01 X38.6958 Y44.9599 
G01 X38.6958 Y44.9598 
G01 X38.6958 Y32.8400 
G01 X38.6958 Y32.7599 
G01 X38.7165 Y32.6825 
G01 X38.7566 Y32.6132 
G01 X38.8132 Y32.5566 
G01 X38.8825 Y32.5165 
G01 X38.9599 Y32.4958 
G01 X42.4958 Y32.4958 
G01 X42.4958 Y25.0400 
G01 X42.4958 Y24.9599 
G01 X42.5165 Y24.8825 
G01 X42.5566 Y24.8132 
G01 X42.6132 Y24.7566 
G01 X42.6825 Y24.7165 
G01 X42.7599 Y24.6958 
G01 X47.5590 Y24.6958 
G01 X47.5590 Y24.4598 
G01 X47.5744 Y24.4227 
G01 X47.6027 Y24.3944 
G01 X47.6398 Y24.3790 
G01 X48.2801 Y24.3790 
G01 X48.3172 Y24.3944 
G01 X48.3455 Y24.4227 
G01 X48.3609 Y24.4598 
G00 Z2.0000 
G00 X29.1601 Y35.7090 
G01 Z-0.2000 F600.00 
G01 X29.1972 Y35.7244 
G01 X29.2255 Y35.7527 
G01 X29.2409 Y35.7898 
G01 X29.2409 Y37.4301 
G01 X29.2255 Y37.4672 
G01 X29.1972 Y37.4955 
G01 X29.1601 Y37.5109 
G01 X28.6517 Y37.5109 
G01 X28.5287 Y37.5619 
G01 X28.3375 Y37.5999 
G01 X26.4899 Y37.5999 
G01 X26.4899 Y44.5100 
G01 X31.5100 Y44.5100 
G01 X31.5100 Y41.2309 
G01 X30.4498 Y41.2309 
G01 X30.4127 Y41.2155 
G01 X30.3844 Y41.1872 
G01 X30.3690 Y41.1501 
G01 X30.3690 Y35.6098 
G01 X30.3844 Y35.5727 
G01 X30.4127 Y35.5444 
G01 X30.4498 Y35.5290 
G01 X34.3401 Y35.5290 
G01 X34.3772 Y35.5444 
G01 X34.4055 Y35.5727 
G01 X34.4209 Y35.6098 
G01 X34.4209 Y41.1501 
G01 X34.4055 Y41.1872 
G01 X34.3772 Y41.2155 
G01 X34.3401 Y41.2309 
G01 X33.4899 Y41.2309 
G01 X33.4899 Y45.4024 
G01 X33.4899 Y45.5975 
G01 X33.4519 Y45.7887 
G01 X33.3772 Y45.9689 
G01 X33.2689 Y46.1310 
G01 X33.1310 Y46.2689 
G01 X32.9689 Y46.3772 
G01 X32.7887 Y46.4519 
G01 X32.5975 Y46.4899 
G01 X25.5975 Y46.4899 
G01 X25.4024 Y46.4899 
G01 X10.4899 Y46.4899 
G01 X10.4899 Y51.5100 
G01 X13.9990 Y51.5100 
G01 X13.9990 Y50.4798 
G01 X14.0144 Y50.4427 
G01 X14.0427 Y50.4144 
G01 X14.0798 Y50.3990 
G01 X15.9201 Y50.3990 
G01 X15.9572 Y50.4144 
G01 X15.9855 Y50.4427 
G01 X16.0009 Y50.4798 
G01 X16.0009 Y54.5201 
G01 X15.9855 Y54.5572 
G01 X15.9572 Y54.5855 
G01 X15.9201 Y54.6009 
G01 X14.0798 Y54.6009 
G01 X14.0427 Y54.5855 
G01 X14.0144 Y54.5572 
G01 X13.9990 Y54.5201 
G01 X13.9990 Y53.4899 
G01 X9.5975 Y53.4899 
G01 X9.4024 Y53.4899 
G01 X9.2112 Y53.4519 
G01 X9.0310 Y53.3772 
G01 X8.8689 Y53.2689 
G01 X8.7310 Y53.1310 
G01 X8.6227 Y52.9689 
G01 X8.5480 Y52.7887 
G01 X8.5100 Y52.5975 
G01 X8.5100 Y45.5975 
G01 X8.5100 Y45.4024 
G01 X8.5100 Y43.4488 
G01 X8.1290 Y43.0678 
G01 X8.1290 Y41.9321 
G01 X8.9321 Y41.1290 
G01 X10.0678 Y41.1290 
G01 X10.8709 Y41.9321 
G01 X10.8709 Y43.0678 
G01 X10.4899 Y43.4488 
G01 X10.4899 Y44.5100 
G01 X24.5100 Y44.5100 
G01 X24.5100 Y36.7075 
G01 X24.5100 Y36.5124 
G01 X24.5100 Y33.4899 
G01 X21.4899 Y33.4899 
G01 X21.4899 Y35.4987 
G01 X21.4519 Y35.6899 
G01 X21.3772 Y35.8701 
G01 X21.2689 Y36.0322 
G01 X21.2105 Y36.0905 
G01 X21.2105 Y36.5389 
G01 X21.1951 Y36.5760 
G01 X21.1668 Y36.6043 
G01 X21.1297 Y36.6197 
G01 X19.8702 Y36.6197 
G01 X19.8331 Y36.6043 
G01 X19.8048 Y36.5760 
G01 X19.7894 Y36.5389 
G01 X19.7894 Y36.0905 
G01 X19.7310 Y36.0322 
G01 X19.6227 Y35.8701 
G01 X19.5480 Y35.6899 
G01 X19.5100 Y35.4987 
G01 X19.5100 Y32.5975 
G01 X19.5100 Y32.4024 
G01 X19.5480 Y32.2112 
G01 X19.6227 Y32.0310 
G01 X19.7310 Y31.8689 
G01 X19.8689 Y31.7310 
G01 X20.0310 Y31.6227 
G01 X20.2112 Y31.5480 
G01 X20.4024 Y31.5100 
G01 X25.4024 Y31.5100 
G01 X25.5975 Y31.5100 
G01 X25.7887 Y31.5480 
G01 X25.9689 Y31.6227 
G01 X26.1310 Y31.7310 
G01 X26.2689 Y31.8689 
G01 X26.3772 Y32.0310 
G01 X26.4519 Y32.2112 
G01 X26.4899 Y32.4024 
G01 X26.4899 Y35.6200 
G01 X28.3375 Y35.6200 
G01 X28.5287 Y35.6580 
G01 X28.6517 Y35.7090 
G01 X29.1601 Y35.7090 
G00 Z2.0000 
G00 X59.6590 Y53.1201 
G01 Z-0.2000 F600.00 
G01 X59.6590 Y52.5001 
G01 X59.6510 Y52.4600 
G01 X59.6510 Y52.3399 
G01 X59.6590 Y52.2998 
G01 X59.6590 Y51.6798 
G01 X59.6744 Y51.6427 
G01 X59.7027 Y51.6144 
G01 X59.7398 Y51.5990 
G01 X59.8910 Y51.5990 
G01 X59.8910 Y48.7489 
G01 X56.7109 Y48.7489 
G01 X56.7109 Y48.9601 
G01 X56.6955 Y48.9972 
G01 X56.6672 Y49.0255 
G01 X56.6301 Y49.0409 
G01 X54.5898 Y49.0409 
G01 X54.5527 Y49.0255 
G01 X54.5244 Y48.9972 
G01 X54.5090 Y48.9601 
G01 X54.5090 Y47.3198 
G01 X54.5244 Y47.2827 
G01 X54.5527 Y47.2544 
G01 X54.5898 Y47.2390 
G01 X56.6301 Y47.2390 
G01 X56.6672 Y47.2544 
G01 X56.6955 Y47.2827 
G01 X56.7109 Y47.3198 
G01 X56.7109 Y47.5310 
G01 X60.4399 Y47.5310 
G01 X60.5600 Y47.5310 
G01 X63.8411 Y47.5310 
G01 X63.9612 Y47.5310 
G01 X64.0788 Y47.5544 
G01 X64.1896 Y47.6003 
G01 X64.1903 Y47.6008 
G01 X65.0389 Y47.6008 
G01 X65.0760 Y47.6162 
G01 X65.1043 Y47.6445 
G01 X65.1197 Y47.6816 
G01 X65.1197 Y48.9411 
G01 X65.1043 Y48.9782 
G01 X65.0760 Y49.0065 
G01 X65.0389 Y49.0219 
G01 X62.7634 Y49.0219 
G01 X62.7263 Y49.0065 
G01 X62.6980 Y48.9782 
G01 X62.6826 Y48.9411 
G01 X62.6826 Y48.7489 
G01 X61.1089 Y48.7489 
G01 X61.1089 Y52.4600 
G01 X61.0855 Y52.5776 
G01 X61.0396 Y52.6884 
G01 X60.9730 Y52.7882 
G01 X60.8882 Y52.8730 
G01 X60.8609 Y52.8912 
G01 X60.8609 Y53.1201 
G01 X60.8455 Y53.1572 
G01 X60.8172 Y53.1855 
G01 X60.7801 Y53.2009 
G01 X59.7398 Y53.2009 
G01 X59.7027 Y53.1855 
G01 X59.6744 Y53.1572 
G01 X59.6590 Y53.1201 
G00 Z2.0000 
G00 X60.6090 Y55.3201 
G01 Z-0.2000 F600.00 
G01 X60.6090 Y54.7001 
G01 X60.6010 Y54.6600 
G01 X60.6010 Y54.4399 
G01 X60.6090 Y54.3998 
G01 X60.6090 Y53.8798 
G01 X60.6244 Y53.8427 
G01 X60.6527 Y53.8144 
G01 X60.6898 Y53.7990 
G01 X61.7301 Y53.7990 
G01 X61.7672 Y53.8144 
G01 X61.7955 Y53.8427 
G01 X61.8109 Y53.8798 
G01 X61.8109 Y53.8910 
G01 X63.5890 Y53.8910 
G01 X63.5890 Y53.4798 
G01 X63.6044 Y53.4427 
G01 X63.6327 Y53.4144 
G01 X63.6698 Y53.3990 
G01 X65.3101 Y53.3990 
G01 X65.3472 Y53.4144 
G01 X65.3755 Y53.4427 
G01 X65.3909 Y53.4798 
G01 X65.3909 Y55.5201 
G01 X65.3755 Y55.5572 
G01 X65.3472 Y55.5855 
G01 X65.3101 Y55.6009 
G01 X63.6698 Y55.6009 
G01 X63.6327 Y55.5855 
G01 X63.6044 Y55.5572 
G01 X63.5890 Y55.5201 
G01 X63.5890 Y55.1089 
G01 X61.8109 Y55.1089 
G01 X61.8109 Y55.3201 
G01 X61.7955 Y55.3572 
G01 X61.7672 Y55.3855 
G01 X61.7301 Y55.4009 
G01 X60.6898 Y55.4009 
G01 X60.6527 Y55.3855 
G01 X60.6244 Y55.3572 
G01 X60.6090 Y55.3201 
G00 Z2.0000 
G00 X68.1909 Y53.4798 
G01 Z-0.2000 F600.00 
G01 X68.1909 Y54.8910 
G01 X70.1701 Y54.8910 
G01 X70.9321 Y54.1290 
G01 X72.0678 Y54.1290 
G01 X72.8709 Y54.9321 
G01 X72.8709 Y56.0678 
G01 X72.0678 Y56.8709 
G01 X70.9321 Y56.8709 
G01 X70.1701 Y56.1089 
G01 X67.3500 Y56.1089 
G01 X67.2299 Y56.1089 
G01 X67.1123 Y56.0855 
G01 X67.0015 Y56.0396 
G01 X66.9017 Y55.9730 
G01 X66.8169 Y55.8882 
G01 X66.7503 Y55.7884 
G01 X66.7044 Y55.6776 
G01 X66.6892 Y55.6009 
G01 X66.4698 Y55.6009 
G01 X66.4327 Y55.5855 
G01 X66.4044 Y55.5572 
G01 X66.3890 Y55.5201 
G01 X66.3890 Y53.4798 
G01 X66.4044 Y53.4427 
G01 X66.4327 Y53.4144 
G01 X66.4698 Y53.3990 
G01 X68.1101 Y53.3990 
G01 X68.1472 Y53.4144 
G01 X68.1755 Y53.4427 
G01 X68.1909 Y53.4798 
G00 Z2.0000 
G00 X62.6309 Y14.0921 
G01 Z-0.2000 F600.00 
G01 X62.6309 Y15.2278 
G01 X62.3059 Y15.5528 
G01 X62.3057 Y15.5531 
G01 X62.1531 Y15.7057 
G01 X62.1528 Y15.7059 
G01 X61.8278 Y16.0309 
G01 X60.6921 Y16.0309 
G01 X53.4479 Y16.0309 
G01 X53.2320 Y16.0309 
G01 X53.0189 Y15.9971 
G01 X52.8137 Y15.9305 
G01 X52.6214 Y15.8325 
G01 X52.4468 Y15.7057 
G01 X52.2942 Y15.5531 
G01 X52.1674 Y15.3785 
G01 X52.0694 Y15.1862 
G01 X52.0028 Y14.9810 
G01 X51.9690 Y14.7679 
G01 X51.9690 Y14.4679 
G01 X51.9690 Y14.2520 
G01 X52.0028 Y14.0389 
G01 X52.0694 Y13.8337 
G01 X52.1674 Y13.6414 
G01 X52.2942 Y13.4668 
G01 X52.4468 Y13.3142 
G01 X52.6214 Y13.1874 
G01 X52.8137 Y13.0894 
G01 X53.0189 Y13.0228 
G01 X53.2320 Y12.9890 
G01 X53.4479 Y12.9890 
G01 X53.6610 Y13.0228 
G01 X53.8662 Y13.0894 
G01 X54.0585 Y13.1874 
G01 X54.1984 Y13.2890 
G01 X60.6921 Y13.2890 
G01 X61.8278 Y13.2890 
G01 X62.1528 Y13.6140 
G01 X62.1531 Y13.6142 
G01 X62.3057 Y13.7668 
G01 X62.3059 Y13.7671 
G01 X62.6309 Y14.0921 
G00 Z2.0000 
G00 X38.3601 Y57.3959 
G01 Z-0.2000 F600.00 
G01 X36.6398 Y57.3959 
G01 X36.6027 Y57.3805 
G01 X36.5744 Y57.3522 
G01 X36.5590 Y57.3151 
G01 X36.5590 Y55.9199 
G01 X31.8174 Y55.9199 
G01 X31.8174 Y55.9406 
G01 X31.8020 Y55.9777 
G01 X31.7737 Y56.0060 
G01 X31.7366 Y56.0214 
G01 X31.2079 Y56.0214 
G01 X31.2079 Y57.5600 
G01 X31.1845 Y57.6776 
G01 X31.1386 Y57.7884 
G01 X31.0720 Y57.8882 
G01 X30.9872 Y57.9730 
G01 X30.8874 Y58.0396 
G01 X30.7766 Y58.0855 
G01 X30.6590 Y58.1089 
G01 X30.5389 Y58.1089 
G01 X21.4399 Y58.1089 
G01 X21.3223 Y58.0855 
G01 X21.2115 Y58.0396 
G01 X21.1117 Y57.9730 
G01 X21.0269 Y57.8882 
G01 X20.9603 Y57.7884 
G01 X20.9144 Y57.6776 
G01 X20.8910 Y57.5600 
G01 X20.8910 Y57.4399 
G01 X20.8910 Y54.6009 
G01 X20.5798 Y54.6009 
G01 X20.5427 Y54.5855 
G01 X20.5144 Y54.5572 
G01 X20.4990 Y54.5201 
G01 X20.4990 Y50.4798 
G01 X20.5144 Y50.4427 
G01 X20.5427 Y50.4144 
G01 X20.5798 Y50.3990 
G01 X22.4201 Y50.3990 
G01 X22.4572 Y50.4144 
G01 X22.4855 Y50.4427 
G01 X22.5009 Y50.4798 
G01 X22.5009 Y54.5201 
G01 X22.4855 Y54.5572 
G01 X22.4572 Y54.5855 
G01 X22.4201 Y54.6009 
G01 X22.1089 Y54.6009 
G01 X22.1089 Y56.8910 
G01 X29.9900 Y56.8910 
G01 X29.9900 Y56.0214 
G01 X29.4613 Y56.0214 
G01 X29.4242 Y56.0060 
G01 X29.3959 Y55.9777 
G01 X29.3805 Y55.9406 
G01 X29.3805 Y54.6813 
G01 X29.3959 Y54.6442 
G01 X29.4242 Y54.6159 
G01 X29.4613 Y54.6005 
G01 X31.7366 Y54.6005 
G01 X31.7737 Y54.6159 
G01 X31.8020 Y54.6442 
G01 X31.8174 Y54.6813 
G01 X31.8174 Y54.7020 
G01 X37.4399 Y54.7020 
G01 X37.5600 Y54.7020 
G01 X37.6776 Y54.7254 
G01 X37.7884 Y54.7713 
G01 X37.8882 Y54.8379 
G01 X37.9730 Y54.9227 
G01 X38.0396 Y55.0225 
G01 X38.0855 Y55.1333 
G01 X38.1089 Y55.2509 
G01 X38.1089 Y55.3440 
G01 X38.3601 Y55.3440 
G01 X38.3972 Y55.3594 
G01 X38.4255 Y55.3877 
G01 X38.4409 Y55.4248 
G01 X38.4409 Y57.3151 
G01 X38.4255 Y57.3522 
G01 X38.3972 Y57.3805 
G01 X38.3601 Y57.3959 
G00 Z2.0000 
G00 X25.5211 Y54.9009 
G01 Z-0.2000 F600.00 
G01 X23.2808 Y54.9009 
G01 X23.2437 Y54.8855 
G01 X23.2154 Y54.8572 
G01 X23.2000 Y54.8201 
G01 X23.2000 Y51.1798 
G01 X23.2154 Y51.1427 
G01 X23.2437 Y51.1144 
G01 X23.2808 Y51.0990 
G01 X25.5211 Y51.0990 
G01 X25.5582 Y51.1144 
G01 X25.5865 Y51.1427 
G01 X25.6019 Y51.1798 
G01 X25.6019 Y54.8201 
G01 X25.5865 Y54.8572 
G01 X25.5582 Y54.8855 
G01 X25.5211 Y54.9009 
G00 Z2.0000 
G00 X62.7634 Y45.2894 
G01 Z-0.2000 F600.00 
G01 X63.4239 Y45.2894 
G01 X63.4563 Y45.2677 
G01 X63.6272 Y45.1969 
G01 X63.8086 Y45.1608 
G01 X66.5608 Y45.1608 
G01 X66.5608 Y40.4997 
G01 X66.4542 Y40.3931 
G01 X66.3274 Y40.2185 
G01 X66.2294 Y40.0262 
G01 X66.1628 Y39.8210 
G01 X66.1290 Y39.6079 
G01 X66.1290 Y39.3920 
G01 X66.1628 Y39.1789 
G01 X66.2294 Y38.9737 
G01 X66.3274 Y38.7814 
G01 X66.4542 Y38.6068 
G01 X66.6068 Y38.4542 
G01 X66.7814 Y38.3274 
G01 X66.9737 Y38.2294 
G01 X67.1789 Y38.1628 
G01 X67.3920 Y38.1290 
G01 X70.9321 Y38.1290 
G01 X72.0678 Y38.1290 
G01 X75.5290 Y38.1290 
G01 X75.5290 Y14.8709 
G01 X67.6945 Y14.8709 
G01 X67.6771 Y14.9810 
G01 X67.6105 Y15.1862 
G01 X67.5125 Y15.3785 
G01 X67.3857 Y15.5531 
G01 X67.2331 Y15.7057 
G01 X67.0585 Y15.8325 
G01 X66.8662 Y15.9305 
G01 X66.6610 Y15.9971 
G01 X66.4479 Y16.0309 
G01 X66.2320 Y16.0309 
G01 X66.0189 Y15.9971 
G01 X65.8137 Y15.9305 
G01 X65.6214 Y15.8325 
G01 X65.4468 Y15.7057 
G01 X65.2942 Y15.5531 
G01 X65.1674 Y15.3785 
G01 X65.0694 Y15.1862 
G01 X65.0028 Y14.9810 
G01 X64.9690 Y14.7679 
G01 X64.9690 Y14.5520 
G01 X64.9690 Y14.5519 
G01 X64.9690 Y13.3920 
G01 X65.0028 Y13.1789 
G01 X65.0694 Y12.9737 
G01 X65.1674 Y12.7814 
G01 X65.2942 Y12.6068 
G01 X65.4468 Y12.4542 
G01 X65.6214 Y12.3274 
G01 X65.8137 Y12.2294 
G01 X66.0189 Y12.1628 
G01 X66.2320 Y12.1290 
G01 X66.4479 Y12.1290 
G01 X77.0079 Y12.1290 
G01 X77.2210 Y12.1628 
G01 X77.4262 Y12.2294 
G01 X77.6185 Y12.3274 
G01 X77.7931 Y12.4542 
G01 X77.9457 Y12.6068 
G01 X78.0725 Y12.7814 
G01 X78.1705 Y12.9737 
G01 X78.2371 Y13.1789 
G01 X78.2709 Y13.3920 
G01 X78.2709 Y13.6079 
G01 X78.2709 Y39.6079 
G01 X78.2371 Y39.8210 
G01 X78.1705 Y40.0262 
G01 X78.0725 Y40.2185 
G01 X77.9457 Y40.3931 
G01 X77.7931 Y40.5457 
G01 X77.6185 Y40.6725 
G01 X77.4262 Y40.7705 
G01 X77.2210 Y40.8371 
G01 X77.0079 Y40.8709 
G01 X76.7920 Y40.8709 
G01 X72.0678 Y40.8709 
G01 X70.9321 Y40.8709 
G01 X68.4391 Y40.8709 
G01 X68.4391 Y46.0074 
G01 X68.4391 Y46.1925 
G01 X68.4030 Y46.3739 
G01 X68.3322 Y46.5448 
G01 X68.2294 Y46.6986 
G01 X68.0986 Y46.8294 
G01 X67.9448 Y46.9322 
G01 X67.7739 Y47.0030 
G01 X67.5925 Y47.0391 
G01 X63.8086 Y47.0391 
G01 X63.6272 Y47.0030 
G01 X63.4563 Y46.9322 
G01 X63.3025 Y46.8294 
G01 X63.1836 Y46.7105 
G01 X62.7634 Y46.7105 
G01 X62.7263 Y46.6951 
G01 X62.6980 Y46.6668 
G01 X62.6826 Y46.6297 
G01 X62.6826 Y45.3702 
G01 X62.6980 Y45.3331 
G01 X62.7263 Y45.3048 
G01 X62.7634 Y45.2894 
G00 Z2.0000 
G00 X68.9788 Y44.0990 
G01 Z-0.2000 F600.00 
G01 X71.2191 Y44.0990 
G01 X71.2562 Y44.1144 
G01 X71.2845 Y44.1427 
G01 X71.2999 Y44.1798 
G01 X71.2999 Y47.8201 
G01 X71.2845 Y47.8572 
G01 X71.2562 Y47.8855 
G01 X71.2191 Y47.9009 
G01 X68.9788 Y47.9009 
G01 X68.9417 Y47.8855 
G01 X68.9134 Y47.8572 
G01 X68.8980 Y47.8201 
G01 X68.8980 Y44.1798 
G01 X68.9134 Y44.1427 
G01 X68.9417 Y44.1144 
G01 X68.9788 Y44.0990 
G00 Z2.0000 
G00 X33.2105 Y16.5634 
G01 Z-0.2000 F600.00 
G01 X33.2105 Y18.8389 
G01 X33.1951 Y18.8760 
G01 X33.1668 Y18.9043 
G01 X33.1297 Y18.9197 
G01 X31.8702 Y18.9197 
G01 X31.8331 Y18.9043 
G01 X31.8048 Y18.8760 
G01 X31.7894 Y18.8389 
G01 X31.7894 Y16.5634 
G01 X31.8048 Y16.5263 
G01 X31.8331 Y16.4980 
G01 X31.8702 Y16.4826 
G01 X31.8910 Y16.4826 
G01 X31.8910 Y14.7089 
G01 X27.2399 Y14.7089 
G01 X27.1223 Y14.6855 
G01 X27.0115 Y14.6396 
G01 X26.9117 Y14.5730 
G01 X26.8269 Y14.4882 
G01 X26.7603 Y14.3884 
G01 X26.7144 Y14.2776 
G01 X26.6910 Y14.1600 
G01 X26.6910 Y14.0399 
G01 X26.6910 Y9.8709 
G01 X26.1321 Y9.8709 
G01 X25.3290 Y9.0678 
G01 X25.3290 Y7.9321 
G01 X26.1321 Y7.1290 
G01 X27.2678 Y7.1290 
G01 X28.0709 Y7.9321 
G01 X28.0709 Y9.0678 
G01 X27.9089 Y9.2297 
G01 X27.9089 Y13.4910 
G01 X31.8910 Y13.4910 
G01 X31.8910 Y10.5600 
G01 X31.8910 Y10.4399 
G01 X31.9144 Y10.3223 
G01 X31.9603 Y10.2115 
G01 X32.0269 Y10.1117 
G01 X32.1117 Y10.0269 
G01 X32.2115 Y9.9603 
G01 X32.3223 Y9.9144 
G01 X32.4399 Y9.8910 
G01 X33.3440 Y9.8910 
G01 X33.3440 Y9.6398 
G01 X33.3594 Y9.6027 
G01 X33.3877 Y9.5744 
G01 X33.4248 Y9.5590 
G01 X35.3151 Y9.5590 
G01 X35.3522 Y9.5744 
G01 X35.3805 Y9.6027 
G01 X35.3959 Y9.6398 
G01 X35.3959 Y11.3601 
G01 X35.3805 Y11.3972 
G01 X35.3522 Y11.4255 
G01 X35.3151 Y11.4409 
G01 X33.4248 Y11.4409 
G01 X33.3877 Y11.4255 
G01 X33.3594 Y11.3972 
G01 X33.3440 Y11.3601 
G01 X33.3440 Y11.1089 
G01 X33.1089 Y11.1089 
G01 X33.1089 Y14.0399 
G01 X33.1089 Y16.4826 
G01 X33.1297 Y16.4826 
G01 X33.1668 Y16.4980 
G01 X33.1951 Y16.5263 
G01 X33.2105 Y16.5634 
G00 Z2.0000 
G00 X34.4009 Y22.7788 
G01 Z-0.2000 F600.00 
G01 X34.4009 Y25.0191 
G01 X34.3855 Y25.0562 
G01 X34.3572 Y25.0845 
G01 X34.3201 Y25.0999 
G01 X30.6798 Y25.0999 
G01 X30.6427 Y25.0845 
G01 X30.6144 Y25.0562 
G01 X30.5990 Y25.0191 
G01 X30.5990 Y22.7788 
G01 X30.6144 Y22.7417 
G01 X30.6427 Y22.7134 
G01 X30.6798 Y22.6980 
G01 X34.3201 Y22.6980 
G01 X34.3572 Y22.7134 
G01 X34.3855 Y22.7417 
G01 X34.4009 Y22.7788 
G00 Z2.0000 
G00 X27.3009 Y15.9798 
G01 Z-0.2000 F600.00 
G01 X27.3009 Y16.3910 
G01 X30.2399 Y16.3910 
G01 X30.3600 Y16.3910 
G01 X30.4776 Y16.4144 
G01 X30.5884 Y16.4603 
G01 X30.6218 Y16.4826 
G01 X30.8183 Y16.4826 
G01 X30.8554 Y16.4980 
G01 X30.8837 Y16.5263 
G01 X30.8991 Y16.5634 
G01 X30.8991 Y16.8906 
G01 X30.9089 Y16.9399 
G01 X30.9089 Y18.4399 
G01 X30.9089 Y18.5600 
G01 X30.8991 Y18.6093 
G01 X30.8991 Y18.8389 
G01 X30.8837 Y18.8760 
G01 X30.8554 Y18.9043 
G01 X30.8183 Y18.9197 
G01 X30.7415 Y18.9197 
G01 X30.6882 Y18.9730 
G01 X30.5884 Y19.0396 
G01 X30.4776 Y19.0855 
G01 X30.3600 Y19.1089 
G01 X30.2486 Y19.1089 
G01 X30.1285 Y19.1089 
G01 X30.0109 Y19.0855 
G01 X29.9001 Y19.0396 
G01 X29.8003 Y18.9730 
G01 X29.7470 Y18.9197 
G01 X29.5588 Y18.9197 
G01 X29.5217 Y18.9043 
G01 X29.4934 Y18.8760 
G01 X29.4780 Y18.8389 
G01 X29.4780 Y17.6089 
G01 X27.3009 Y17.6089 
G01 X27.3009 Y18.0201 
G01 X27.2855 Y18.0572 
G01 X27.2572 Y18.0855 
G01 X27.2201 Y18.1009 
G01 X27.0089 Y18.1009 
G01 X27.0089 Y18.8990 
G01 X27.2201 Y18.8990 
G01 X27.2572 Y18.9144 
G01 X27.2855 Y18.9427 
G01 X27.3009 Y18.9798 
G01 X27.3009 Y21.0201 
G01 X27.2855 Y21.0572 
G01 X27.2572 Y21.0855 
G01 X27.2201 Y21.1009 
G01 X25.5798 Y21.1009 
G01 X25.5427 Y21.0855 
G01 X25.5144 Y21.0572 
G01 X25.4990 Y21.0201 
G01 X25.4990 Y18.9798 
G01 X25.5144 Y18.9427 
G01 X25.5427 Y18.9144 
G01 X25.5798 Y18.8990 
G01 X25.7910 Y18.8990 
G01 X25.7910 Y18.1009 
G01 X25.5798 Y18.1009 
G01 X25.5427 Y18.0855 
G01 X25.5144 Y18.0572 
G01 X25.4990 Y18.0201 
G01 X25.4990 Y15.9798 
G01 X25.5144 Y15.9427 
G01 X25.5427 Y15.9144 
G01 X25.5798 Y15.8990 
G01 X27.2201 Y15.8990 
G01 X27.2572 Y15.9144 
G01 X27.2855 Y15.9427 
G01 X27.3009 Y15.9798 
G00 Z2.0000 
G00 X10.0678 Y9.8709 
G01 Z-0.2000 F600.00 
G01 X8.9321 Y9.8709 
G01 X8.1290 Y9.0678 
G01 X8.1290 Y7.9321 
G01 X8.9321 Y7.1290 
G01 X10.0678 Y7.1290 
G01 X10.8297 Y7.8910 
G01 X14.5600 Y7.8910 
G01 X14.6776 Y7.9144 
G01 X14.7884 Y7.9603 
G01 X14.8882 Y8.0269 
G01 X14.9730 Y8.1117 
G01 X15.0396 Y8.2115 
G01 X15.0855 Y8.3223 
G01 X15.1089 Y8.4399 
G01 X15.1089 Y8.5600 
G01 X15.1089 Y8.5601 
G01 X15.1089 Y10.8910 
G01 X20.4399 Y10.8910 
G01 X20.5600 Y10.8910 
G01 X20.6776 Y10.9144 
G01 X20.7884 Y10.9603 
G01 X20.8882 Y11.0269 
G01 X20.9730 Y11.1117 
G01 X21.0396 Y11.2115 
G01 X21.0855 Y11.3223 
G01 X21.1089 Y11.4399 
G01 X21.1089 Y16.8910 
G01 X22.6990 Y16.8910 
G01 X22.6990 Y15.9798 
G01 X22.7144 Y15.9427 
G01 X22.7427 Y15.9144 
G01 X22.7798 Y15.8990 
G01 X23.4998 Y15.8990 
G01 X23.5399 Y15.8910 
G01 X23.6600 Y15.8910 
G01 X24.5600 Y15.8910 
G01 X24.6776 Y15.9144 
G01 X24.7884 Y15.9603 
G01 X24.8882 Y16.0269 
G01 X24.9730 Y16.1117 
G01 X25.0396 Y16.2115 
G01 X25.0855 Y16.3223 
G01 X25.1089 Y16.4399 
G01 X25.1089 Y16.5600 
G01 X25.1089 Y17.5600 
G01 X25.0855 Y17.6776 
G01 X25.0396 Y17.7884 
G01 X24.9730 Y17.8882 
G01 X24.8882 Y17.9730 
G01 X24.7884 Y18.0396 
G01 X24.6776 Y18.0855 
G01 X24.5600 Y18.1089 
G01 X24.4399 Y18.1089 
G01 X20.4399 Y18.1089 
G01 X20.3223 Y18.0855 
G01 X20.2115 Y18.0396 
G01 X20.1117 Y17.9730 
G01 X20.0269 Y17.8882 
G01 X19.9603 Y17.7884 
G01 X19.9144 Y17.6776 
G01 X19.8910 Y17.5600 
G01 X19.8910 Y17.4399 
G01 X19.8910 Y12.1089 
G01 X14.4399 Y12.1089 
G01 X14.3223 Y12.0855 
G01 X14.2115 Y12.0396 
G01 X14.1117 Y11.9730 
G01 X14.0269 Y11.8882 
G01 X13.9603 Y11.7884 
G01 X13.9144 Y11.6776 
G01 X13.8910 Y11.5600 
G01 X13.8910 Y11.4399 
G01 X13.8910 Y9.1089 
G01 X10.8297 Y9.1089 
G01 X10.0678 Y9.8709 
G00 Z2.0000 
G00 X48.5389 Y30.7894 
G01 Z-0.2000 F600.00 
G01 X48.5760 Y30.8048 
G01 X48.6043 Y30.8331 
G01 X48.6197 Y30.8702 
G01 X48.6197 Y32.1297 
G01 X48.6043 Y32.1668 
G01 X48.5760 Y32.1951 
G01 X48.5389 Y32.2105 
G01 X48.0906 Y32.2105 
G01 X48.0322 Y32.2689 
G01 X47.8701 Y32.3772 
G01 X47.6899 Y32.4519 
G01 X47.4987 Y32.4899 
G01 X45.8931 Y32.4899 
G01 X45.8931 Y38.4739 
G01 X45.8764 Y38.5790 
G01 X48.9979 Y38.5790 
G01 X49.2110 Y38.6128 
G01 X49.4162 Y38.6794 
G01 X49.5528 Y38.7490 
G01 X49.8101 Y38.7490 
G01 X49.8472 Y38.7644 
G01 X49.8755 Y38.7927 
G01 X49.8909 Y38.8298 
G01 X49.8909 Y39.0120 
G01 X49.9357 Y39.0568 
G01 X50.0625 Y39.2314 
G01 X50.1605 Y39.4237 
G01 X50.2271 Y39.6289 
G01 X50.2609 Y39.8420 
G01 X50.2609 Y40.0579 
G01 X50.2271 Y40.2710 
G01 X50.1605 Y40.4762 
G01 X50.0625 Y40.6685 
G01 X49.9357 Y40.8431 
G01 X49.8909 Y40.8879 
G01 X49.8909 Y41.0701 
G01 X49.8755 Y41.1072 
G01 X49.8472 Y41.1355 
G01 X49.8101 Y41.1509 
G01 X49.5528 Y41.1509 
G01 X49.4162 Y41.2205 
G01 X49.2110 Y41.2871 
G01 X48.9979 Y41.3209 
G01 X42.4529 Y41.3209 
G01 X42.2370 Y41.3209 
G01 X42.0239 Y41.2871 
G01 X41.8507 Y41.2309 
G01 X40.3998 Y41.2309 
G01 X40.3627 Y41.2155 
G01 X40.3344 Y41.1872 
G01 X40.3190 Y41.1501 
G01 X40.3190 Y35.6098 
G01 X40.3344 Y35.5727 
G01 X40.3627 Y35.5444 
G01 X40.3998 Y35.5290 
G01 X43.5068 Y35.5290 
G01 X43.5068 Y31.4060 
G01 X43.5362 Y31.2205 
G01 X43.5942 Y31.0419 
G01 X43.6795 Y30.8746 
G01 X43.7899 Y30.7226 
G01 X43.9226 Y30.5899 
G01 X44.0746 Y30.4795 
G01 X44.2419 Y30.3942 
G01 X44.4205 Y30.3362 
G01 X44.6060 Y30.3068 
G01 X44.7939 Y30.3068 
G01 X44.9794 Y30.3362 
G01 X45.1580 Y30.3942 
G01 X45.3253 Y30.4795 
G01 X45.3673 Y30.5100 
G01 X47.4987 Y30.5100 
G01 X47.6899 Y30.5480 
G01 X47.8701 Y30.6227 
G01 X48.0322 Y30.7310 
G01 X48.0906 Y30.7894 
G01 X48.5389 Y30.7894 
G00 Z2.0000 
G00 X46.2634 Y28.4780 
G01 Z-0.2000 F600.00 
G01 X46.6262 Y28.4780 
G01 X46.6322 Y28.4689 
G01 X46.7701 Y28.3310 
G01 X46.9322 Y28.2227 
G01 X47.1124 Y28.1480 
G01 X47.3036 Y28.1100 
G01 X48.8094 Y28.1100 
G01 X48.8068 Y28.0939 
G01 X48.8068 Y27.9060 
G01 X48.8362 Y27.7205 
G01 X48.8942 Y27.5419 
G01 X48.9795 Y27.3746 
G01 X49.0899 Y27.2226 
G01 X49.2226 Y27.0899 
G01 X49.3746 Y26.9795 
G01 X49.5419 Y26.8942 
G01 X49.7205 Y26.8362 
G01 X49.9060 Y26.8068 
G01 X57.7090 Y26.8068 
G01 X57.7090 Y26.5698 
G01 X57.7244 Y26.5327 
G01 X57.7527 Y26.5044 
G01 X57.7898 Y26.4890 
G01 X58.7774 Y26.4890 
G01 X58.8889 Y26.4528 
G01 X59.1020 Y26.4190 
G01 X59.1290 Y26.4190 
G01 X59.1290 Y20.0709 
G01 X51.8041 Y20.0709 
G01 X51.8041 Y24.8898 
G01 X51.8041 Y24.8899 
G01 X51.8041 Y24.9700 
G01 X51.7834 Y25.0474 
G01 X51.7433 Y25.1167 
G01 X51.6867 Y25.1733 
G01 X51.6174 Y25.2134 
G01 X51.5400 Y25.2341 
G01 X50.2609 Y25.2341 
G01 X50.2609 Y25.4001 
G01 X50.2455 Y25.4372 
G01 X50.2172 Y25.4655 
G01 X50.1801 Y25.4809 
G01 X49.5398 Y25.4809 
G01 X49.5027 Y25.4655 
G01 X49.4744 Y25.4372 
G01 X49.4590 Y25.4001 
G01 X49.4590 Y24.4598 
G01 X49.4744 Y24.4227 
G01 X49.5027 Y24.3944 
G01 X49.5398 Y24.3790 
G01 X50.1801 Y24.3790 
G01 X50.2172 Y24.3944 
G01 X50.2455 Y24.4227 
G01 X50.2609 Y24.4598 
G01 X50.2609 Y24.6258 
G01 X51.1958 Y24.6258 
G01 X51.1958 Y20.0709 
G01 X47.3920 Y20.0709 
G01 X47.1789 Y20.0371 
G01 X46.9737 Y19.9705 
G01 X46.7814 Y19.8725 
G01 X46.6068 Y19.7457 
G01 X46.4542 Y19.5931 
G01 X46.3274 Y19.4185 
G01 X46.2294 Y19.2262 
G01 X46.1628 Y19.0210 
G01 X46.1290 Y18.8079 
G01 X46.1290 Y18.5920 
G01 X46.1290 Y15.7309 
G01 X38.8709 Y15.7309 
G01 X38.8709 Y27.2079 
G01 X38.8371 Y27.4210 
G01 X38.7705 Y27.6262 
G01 X38.6725 Y27.8185 
G01 X38.5457 Y27.9931 
G01 X38.3931 Y28.1457 
G01 X38.2185 Y28.2725 
G01 X38.0262 Y28.3705 
G01 X37.8210 Y28.4371 
G01 X37.6079 Y28.4709 
G01 X37.3920 Y28.4709 
G01 X30.4899 Y28.4709 
G01 X30.4899 Y33.9075 
G01 X30.4519 Y34.0987 
G01 X30.3772 Y34.2789 
G01 X30.2689 Y34.4410 
G01 X30.1310 Y34.5789 
G01 X29.9689 Y34.6872 
G01 X29.7887 Y34.7619 
G01 X29.5975 Y34.7999 
G01 X29.4024 Y34.7999 
G01 X28.1424 Y34.7999 
G01 X27.9512 Y34.7619 
G01 X27.8282 Y34.7109 
G01 X27.3198 Y34.7109 
G01 X27.2827 Y34.6955 
G01 X27.2544 Y34.6672 
G01 X27.2390 Y34.6301 
G01 X27.2390 Y32.9898 
G01 X27.2544 Y32.9527 
G01 X27.2827 Y32.9244 
G01 X27.3198 Y32.9090 
G01 X27.8282 Y32.9090 
G01 X27.9512 Y32.8580 
G01 X28.1424 Y32.8200 
G01 X28.5100 Y32.8200 
G01 X28.5100 Y28.4709 
G01 X26.3920 Y28.4709 
G01 X26.1789 Y28.4371 
G01 X25.9737 Y28.3705 
G01 X25.7814 Y28.2725 
G01 X25.6068 Y28.1457 
G01 X25.4542 Y27.9931 
G01 X25.3274 Y27.8185 
G01 X25.2294 Y27.6262 
G01 X25.1628 Y27.4210 
G01 X25.1290 Y27.2079 
G01 X25.1290 Y26.9920 
G01 X25.1290 Y26.9919 
G01 X25.1290 Y24.8709 
G01 X23.3920 Y24.8709 
G01 X22.3089 Y24.8709 
G01 X22.3089 Y25.7990 
G01 X22.6201 Y25.7990 
G01 X22.6572 Y25.8144 
G01 X22.6855 Y25.8427 
G01 X22.7009 Y25.8798 
G01 X22.7009 Y27.9201 
G01 X22.6855 Y27.9572 
G01 X22.6572 Y27.9855 
G01 X22.6201 Y28.0009 
G01 X20.9798 Y28.0009 
G01 X20.9427 Y27.9855 
G01 X20.9144 Y27.9572 
G01 X20.8990 Y27.9201 
G01 X20.8990 Y25.8798 
G01 X20.9144 Y25.8427 
G01 X20.9427 Y25.8144 
G01 X20.9798 Y25.7990 
G01 X21.0910 Y25.7990 
G01 X21.0910 Y24.8709 
G01 X19.6079 Y24.8709 
G01 X19.3920 Y24.8709 
G01 X19.1789 Y24.8371 
G01 X18.9737 Y24.7705 
G01 X18.7814 Y24.6725 
G01 X18.6068 Y24.5457 
G01 X18.4542 Y24.3931 
G01 X18.4381 Y24.3709 
G01 X6.8709 Y24.3709 
G01 X6.8709 Y31.1290 
G01 X8.8910 Y31.1290 
G01 X8.8910 Y29.4399 
G01 X8.9144 Y29.3223 
G01 X8.9603 Y29.2115 
G01 X9.0269 Y29.1117 
G01 X9.1117 Y29.0269 
G01 X9.2115 Y28.9603 
G01 X9.3223 Y28.9144 
G01 X9.4399 Y28.8910 
G01 X9.5600 Y28.8910 
G01 X9.6776 Y28.9144 
G01 X9.7884 Y28.9603 
G01 X9.8882 Y29.0269 
G01 X9.9730 Y29.1117 
G01 X10.0396 Y29.2115 
G01 X10.0855 Y29.3223 
G01 X10.1089 Y29.4399 
G01 X10.1089 Y31.1701 
G01 X10.3927 Y31.4540 
G01 X10.3931 Y31.4542 
G01 X10.4488 Y31.5100 
G01 X14.5975 Y31.5100 
G01 X14.7887 Y31.5480 
G01 X14.9689 Y31.6227 
G01 X15.0830 Y31.6990 
G01 X16.1201 Y31.6990 
G01 X16.1572 Y31.7144 
G01 X16.1855 Y31.7427 
G01 X16.2009 Y31.7798 
G01 X16.2009 Y33.6201 
G01 X16.1855 Y33.6572 
G01 X16.1572 Y33.6855 
G01 X16.1201 Y33.7009 
G01 X12.8798 Y33.7009 
G01 X12.8427 Y33.6855 
G01 X12.8144 Y33.6572 
G01 X12.7990 Y33.6201 
G01 X12.7990 Y33.4899 
G01 X10.4488 Y33.4899 
G01 X10.3931 Y33.5457 
G01 X10.3927 Y33.5459 
G01 X10.0678 Y33.8709 
G01 X8.9321 Y33.8709 
G01 X6.8709 Y33.8709 
G01 X6.8709 Y55.1290 
G01 X18.6079 Y55.1290 
G01 X18.8210 Y55.1628 
G01 X19.0262 Y55.2294 
G01 X19.2185 Y55.3274 
G01 X19.3931 Y55.4542 
G01 X19.5457 Y55.6068 
G01 X19.6725 Y55.7814 
G01 X19.7705 Y55.9737 
G01 X19.8371 Y56.1789 
G01 X19.8709 Y56.3920 
G01 X19.8709 Y56.6079 
G01 X19.8371 Y56.8210 
G01 X19.7705 Y57.0262 
G01 X19.6725 Y57.2185 
G01 X19.5457 Y57.3931 
G01 X19.3931 Y57.5457 
G01 X19.2185 Y57.6725 
G01 X19.1089 Y57.7283 
G01 X19.1089 Y59.8910 
G01 X56.8910 Y59.8910 
G01 X56.8910 Y54.6601 
G01 X56.8910 Y54.6600 
G01 X56.8910 Y53.1089 
G01 X54.0009 Y53.1089 
G01 X54.0009 Y53.9201 
G01 X53.9855 Y53.9572 
G01 X53.9572 Y53.9855 
G01 X53.9201 Y54.0009 
G01 X52.0798 Y54.0009 
G01 X52.0427 Y53.9855 
G01 X52.0144 Y53.9572 
G01 X51.9990 Y53.9201 
G01 X51.9990 Y53.7089 
G01 X45.5600 Y53.7089 
G01 X45.4399 Y53.7089 
G01 X45.3223 Y53.6855 
G01 X45.2115 Y53.6396 
G01 X45.1117 Y53.5730 
G01 X45.0269 Y53.4882 
G01 X44.9603 Y53.3884 
G01 X44.9144 Y53.2776 
G01 X44.8910 Y53.1600 
G01 X44.8910 Y52.8707 
G01 X44.6789 Y52.8371 
G01 X44.4737 Y52.7705 
G01 X44.2814 Y52.6725 
G01 X44.2517 Y52.6509 
G01 X43.5798 Y52.6509 
G01 X43.5427 Y52.6355 
G01 X43.5144 Y52.6072 
G01 X43.4990 Y52.5701 
G01 X43.4990 Y51.2979 
G01 X31.8174 Y51.2979 
G01 X31.8174 Y51.3186 
G01 X31.8020 Y51.3557 
G01 X31.7737 Y51.3840 
G01 X31.7366 Y51.3994 
G01 X29.4613 Y51.3994 
G01 X29.4242 Y51.3840 
G01 X29.3959 Y51.3557 
G01 X29.3805 Y51.3186 
G01 X29.3805 Y50.0593 
G01 X29.3959 Y50.0222 
G01 X29.4242 Y49.9939 
G01 X29.4613 Y49.9785 
G01 X31.7366 Y49.9785 
G01 X31.7737 Y49.9939 
G01 X31.8020 Y50.0222 
G01 X31.8174 Y50.0593 
G01 X31.8174 Y50.0800 
G01 X43.5272 Y50.0800 
G01 X43.5427 Y50.0644 
G01 X43.5798 Y50.0490 
G01 X44.5674 Y50.0490 
G01 X44.6789 Y50.0128 
G01 X44.8920 Y49.9790 
G01 X45.1079 Y49.9790 
G01 X45.3210 Y50.0128 
G01 X45.4325 Y50.0490 
G01 X46.4201 Y50.0490 
G01 X46.4572 Y50.0644 
G01 X46.4855 Y50.0927 
G01 X46.5009 Y50.1298 
G01 X46.5009 Y52.4910 
G01 X51.9990 Y52.4910 
G01 X51.9990 Y52.2798 
G01 X52.0144 Y52.2427 
G01 X52.0427 Y52.2144 
G01 X52.0798 Y52.1990 
G01 X52.4687 Y52.1990 
G01 X52.5269 Y52.1117 
G01 X52.6117 Y52.0269 
G01 X52.7115 Y51.9603 
G01 X52.8223 Y51.9144 
G01 X52.9399 Y51.8910 
G01 X53.0600 Y51.8910 
G01 X57.5600 Y51.8910 
G01 X57.6776 Y51.9144 
G01 X57.7884 Y51.9603 
G01 X57.8882 Y52.0269 
G01 X57.9730 Y52.1117 
G01 X58.0396 Y52.2115 
G01 X58.0855 Y52.3223 
G01 X58.1089 Y52.4399 
G01 X58.1089 Y52.5600 
G01 X58.1089 Y53.9910 
G01 X58.7090 Y53.9910 
G01 X58.7090 Y53.8798 
G01 X58.7244 Y53.8427 
G01 X58.7527 Y53.8144 
G01 X58.7898 Y53.7990 
G01 X59.8301 Y53.7990 
G01 X59.8672 Y53.8144 
G01 X59.8955 Y53.8427 
G01 X59.9109 Y53.8798 
G01 X59.9109 Y54.4997 
G01 X59.9189 Y54.5399 
G01 X59.9189 Y54.6600 
G01 X59.9109 Y54.7002 
G01 X59.9109 Y55.3201 
G01 X59.8955 Y55.3572 
G01 X59.8672 Y55.3855 
G01 X59.8301 Y55.4009 
G01 X58.7898 Y55.4009 
G01 X58.7527 Y55.3855 
G01 X58.7244 Y55.3572 
G01 X58.7090 Y55.3201 
G01 X58.7090 Y55.2089 
G01 X58.1089 Y55.2089 
G01 X58.1089 Y60.5600 
G01 X58.0855 Y60.6776 
G01 X58.0396 Y60.7884 
G01 X57.9730 Y60.8882 
G01 X57.8882 Y60.9730 
G01 X57.7884 Y61.0396 
G01 X57.6776 Y61.0855 
G01 X57.5600 Y61.1089 
G01 X57.4399 Y61.1089 
G01 X18.4399 Y61.1089 
G01 X18.3223 Y61.0855 
G01 X18.2115 Y61.0396 
G01 X18.1117 Y60.9730 
G01 X18.0269 Y60.8882 
G01 X17.9603 Y60.7884 
G01 X17.9144 Y60.6776 
G01 X17.8910 Y60.5600 
G01 X17.8910 Y60.4399 
G01 X17.8910 Y57.8709 
G01 X5.6079 Y57.8709 
G01 X5.3920 Y57.8709 
G01 X5.1789 Y57.8371 
G01 X4.9737 Y57.7705 
G01 X4.7814 Y57.6725 
G01 X4.6068 Y57.5457 
G01 X4.4542 Y57.3931 
G01 X4.3274 Y57.2185 
G01 X4.2294 Y57.0262 
G01 X4.1628 Y56.8210 
G01 X4.1290 Y56.6079 
G01 X4.1290 Y32.6079 
G01 X4.1290 Y32.3920 
G01 X4.1290 Y22.8920 
G01 X4.1628 Y22.6789 
G01 X4.2294 Y22.4737 
G01 X4.3274 Y22.2814 
G01 X4.4542 Y22.1068 
G01 X4.6068 Y21.9542 
G01 X4.7814 Y21.8274 
G01 X4.9737 Y21.7294 
G01 X5.1789 Y21.6628 
G01 X5.3920 Y21.6290 
G01 X5.6079 Y21.6290 
G01 X19.3920 Y21.6290 
G01 X19.6079 Y21.6290 
G01 X19.8210 Y21.6628 
G01 X20.0262 Y21.7294 
G01 X20.2185 Y21.8274 
G01 X20.3931 Y21.9542 
G01 X20.5457 Y22.1068 
G01 X20.5618 Y22.1290 
G01 X21.5920 Y22.1290 
G01 X22.8910 Y22.1290 
G01 X22.8910 Y21.1009 
G01 X22.7798 Y21.1009 
G01 X22.7427 Y21.0855 
G01 X22.7144 Y21.0572 
G01 X22.6990 Y21.0201 
G01 X22.6990 Y18.9798 
G01 X22.7144 Y18.9427 
G01 X22.7427 Y18.9144 
G01 X22.7798 Y18.8990 
G01 X24.4201 Y18.8990 
G01 X24.4572 Y18.9144 
G01 X24.4855 Y18.9427 
G01 X24.5009 Y18.9798 
G01 X24.5009 Y21.0201 
G01 X24.4855 Y21.0572 
G01 X24.4572 Y21.0855 
G01 X24.4201 Y21.1009 
G01 X24.1089 Y21.1009 
G01 X24.1089 Y22.1290 
G01 X26.6079 Y22.1290 
G01 X26.8210 Y22.1628 
G01 X27.0262 Y22.2294 
G01 X27.2185 Y22.3274 
G01 X27.3931 Y22.4542 
G01 X27.5457 Y22.6068 
G01 X27.6725 Y22.7814 
G01 X27.7705 Y22.9737 
G01 X27.8371 Y23.1789 
G01 X27.8709 Y23.3920 
G01 X27.8709 Y23.6079 
G01 X27.8709 Y25.7290 
G01 X29.3920 Y25.7290 
G01 X36.1290 Y25.7290 
G01 X36.1290 Y15.7309 
G01 X35.4203 Y15.7309 
G01 X35.4203 Y16.4826 
G01 X35.4411 Y16.4826 
G01 X35.4782 Y16.4980 
G01 X35.5065 Y16.5263 
G01 X35.5219 Y16.5634 
G01 X35.5219 Y18.8389 
G01 X35.5065 Y18.8760 
G01 X35.4782 Y18.9043 
G01 X35.4411 Y18.9197 
G01 X34.1816 Y18.9197 
G01 X34.1445 Y18.9043 
G01 X34.1162 Y18.8760 
G01 X34.1008 Y18.8389 
G01 X34.1008 Y16.5634 
G01 X34.1162 Y16.5263 
G01 X34.1445 Y16.4980 
G01 X34.1816 Y16.4826 
G01 X34.2024 Y16.4826 
G01 X34.2024 Y15.5883 
G01 X34.0928 Y15.5325 
G01 X33.9182 Y15.4057 
G01 X33.7656 Y15.2531 
G01 X33.6388 Y15.0785 
G01 X33.5408 Y14.8862 
G01 X33.4742 Y14.6810 
G01 X33.4404 Y14.4679 
G01 X33.4404 Y14.2520 
G01 X33.4742 Y14.0389 
G01 X33.5408 Y13.8337 
G01 X33.6388 Y13.6414 
G01 X33.7656 Y13.4668 
G01 X33.9182 Y13.3142 
G01 X34.0928 Y13.1874 
G01 X34.2851 Y13.0894 
G01 X34.4903 Y13.0228 
G01 X34.7034 Y12.9890 
G01 X37.3920 Y12.9890 
G01 X37.6079 Y12.9890 
G01 X47.3920 Y12.9890 
G01 X47.6079 Y12.9890 
G01 X47.6921 Y12.9890 
G01 X48.8278 Y12.9890 
G01 X49.1527 Y13.3140 
G01 X49.1531 Y13.3142 
G01 X49.3057 Y13.4668 
G01 X49.3059 Y13.4672 
G01 X49.6309 Y13.7921 
G01 X49.6309 Y14.9278 
G01 X49.3059 Y15.2527 
G01 X49.3057 Y15.2531 
G01 X49.1531 Y15.4057 
G01 X49.1527 Y15.4059 
G01 X48.8709 Y15.6878 
G01 X48.8709 Y17.3290 
G01 X60.3920 Y17.3290 
G01 X60.6079 Y17.3290 
G01 X60.8210 Y17.3628 
G01 X61.0262 Y17.4294 
G01 X61.2185 Y17.5274 
G01 X61.3931 Y17.6542 
G01 X61.5457 Y17.8068 
G01 X61.6725 Y17.9814 
G01 X61.7705 Y18.1737 
G01 X61.8371 Y18.3789 
G01 X61.8709 Y18.5920 
G01 X61.8709 Y26.4190 
G01 X64.9820 Y26.4190 
G01 X70.1290 Y26.4190 
G01 X70.1290 Y23.3920 
G01 X70.1290 Y22.9321 
G01 X70.4539 Y22.6073 
G01 X70.4542 Y22.6068 
G01 X70.6068 Y22.4542 
G01 X70.6073 Y22.4539 
G01 X70.9321 Y22.1290 
G01 X71.3920 Y22.1290 
G01 X71.6079 Y22.1290 
G01 X72.0678 Y22.1290 
G01 X72.3926 Y22.4539 
G01 X72.3931 Y22.4542 
G01 X72.5457 Y22.6068 
G01 X72.5460 Y22.6073 
G01 X72.8709 Y22.9321 
G01 X72.8709 Y23.3920 
G01 X72.8709 Y27.8979 
G01 X72.8371 Y28.1110 
G01 X72.7705 Y28.3162 
G01 X72.6725 Y28.5085 
G01 X72.5457 Y28.6831 
G01 X72.3931 Y28.8357 
G01 X72.2185 Y28.9625 
G01 X72.0262 Y29.0605 
G01 X71.8210 Y29.1271 
G01 X71.6079 Y29.1609 
G01 X71.3920 Y29.1609 
G01 X64.9820 Y29.1609 
G01 X60.6079 Y29.1609 
G01 X60.3920 Y29.1609 
G01 X59.4980 Y29.1609 
G01 X59.4894 Y29.1637 
G01 X59.3039 Y29.1931 
G01 X50.9899 Y29.1931 
G01 X50.9899 Y29.1975 
G01 X50.9519 Y29.3887 
G01 X50.8772 Y29.5689 
G01 X50.7689 Y29.7310 
G01 X50.6310 Y29.8689 
G01 X50.4689 Y29.9772 
G01 X50.2887 Y30.0519 
G01 X50.0975 Y30.0899 
G01 X47.3036 Y30.0899 
G01 X47.1124 Y30.0519 
G01 X46.9322 Y29.9772 
G01 X46.8153 Y29.8991 
G01 X46.2634 Y29.8991 
G01 X46.2263 Y29.8837 
G01 X46.1980 Y29.8554 
G01 X46.1826 Y29.8183 
G01 X46.1826 Y28.5588 
G01 X46.1980 Y28.5217 
G01 X46.2263 Y28.4934 
G01 X46.2634 Y28.4780 
G00 Z2.0000 
G00 X52.4788 Y29.5990 
G01 Z-0.2000 F600.00 
G01 X54.7191 Y29.5990 
G01 X54.7562 Y29.6144 
G01 X54.7845 Y29.6427 
G01 X54.7999 Y29.6798 
G01 X54.7999 Y33.3201 
G01 X54.7845 Y33.3572 
G01 X54.7562 Y33.3855 
G01 X54.7191 Y33.4009 
G01 X52.4788 Y33.4009 
G01 X52.4417 Y33.3855 
G01 X52.4134 Y33.3572 
G01 X52.3980 Y33.3201 
G01 X52.3980 Y29.6798 
G01 X52.4134 Y29.6427 
G01 X52.4417 Y29.6144 
G01 X52.4788 Y29.5990 
G00 Z2.0000 
G00 X23.5219 Y34.2634 
G01 Z-0.2000 F600.00 
G01 X23.5219 Y34.7118 
G01 X23.5803 Y34.7701 
G01 X23.6886 Y34.9322 
G01 X23.7633 Y35.1124 
G01 X23.8013 Y35.3036 
G01 X23.8013 Y38.3975 
G01 X23.7633 Y38.5887 
G01 X23.6886 Y38.7689 
G01 X23.5803 Y38.9310 
G01 X23.4424 Y39.0689 
G01 X23.2803 Y39.1772 
G01 X23.1001 Y39.2519 
G01 X22.9089 Y39.2899 
G01 X22.7138 Y39.2899 
G01 X16.1466 Y39.2899 
G01 X16.1201 Y39.3009 
G01 X12.8798 Y39.3009 
G01 X12.8533 Y39.2899 
G01 X9.4024 Y39.2899 
G01 X9.2112 Y39.2519 
G01 X9.0310 Y39.1772 
G01 X8.8689 Y39.0689 
G01 X8.7310 Y38.9310 
G01 X8.6227 Y38.7689 
G01 X8.5480 Y38.5887 
G01 X8.5100 Y38.3975 
G01 X8.5100 Y38.2488 
G01 X8.1290 Y37.8678 
G01 X8.1290 Y36.7321 
G01 X8.9321 Y35.9290 
G01 X10.0678 Y35.9290 
G01 X10.8709 Y36.7321 
G01 X10.8709 Y37.3100 
G01 X12.8533 Y37.3100 
G01 X12.8798 Y37.2990 
G01 X16.1201 Y37.2990 
G01 X16.1466 Y37.3100 
G01 X21.8214 Y37.3100 
G01 X21.8214 Y35.3036 
G01 X21.8594 Y35.1124 
G01 X21.9341 Y34.9322 
G01 X22.0424 Y34.7701 
G01 X22.1008 Y34.7118 
G01 X22.1008 Y34.2634 
G01 X22.1162 Y34.2263 
G01 X22.1445 Y34.1980 
G01 X22.1816 Y34.1826 
G01 X23.4411 Y34.1826 
G01 X23.4782 Y34.1980 
G01 X23.5065 Y34.2263 
G01 X23.5219 Y34.2634 
G00 Z2.0000 
G00 X22.4009 Y40.4788 
G01 Z-0.2000 F600.00 
G01 X22.4009 Y42.7191 
G01 X22.3855 Y42.7562 
G01 X22.3572 Y42.7845 
G01 X22.3201 Y42.7999 
G01 X18.6798 Y42.7999 
G01 X18.6427 Y42.7845 
G01 X18.6144 Y42.7562 
G01 X18.5990 Y42.7191 
G01 X18.5990 Y40.4788 
G01 X18.6144 Y40.4417 
G01 X18.6427 Y40.4134 
G01 X18.6798 Y40.3980 
G01 X22.3201 Y40.3980 
G01 X22.3572 Y40.4134 
G01 X22.3855 Y40.4417 
G01 X22.4009 Y40.4788 
G00 Z2.0000 
G00 X14.0009 Y25.8798 
G01 Z-0.2000 F600.00 
G01 X14.0009 Y27.9201 
G01 X13.9855 Y27.9572 
G01 X13.9572 Y27.9855 
G01 X13.9201 Y28.0009 
G01 X12.2798 Y28.0009 
G01 X12.2427 Y27.9855 
G01 X12.2144 Y27.9572 
G01 X12.1990 Y27.9201 
G01 X12.1990 Y27.5089 
G01 X10.4297 Y27.5089 
G01 X10.0678 Y27.8709 
G01 X8.9321 Y27.8709 
G01 X8.1290 Y27.0678 
G01 X8.1290 Y25.9321 
G01 X8.9321 Y25.1290 
G01 X10.0678 Y25.1290 
G01 X10.8709 Y25.9321 
G01 X10.8709 Y26.2910 
G01 X12.1990 Y26.2910 
G01 X12.1990 Y25.8798 
G01 X12.2144 Y25.8427 
G01 X12.2427 Y25.8144 
G01 X12.2798 Y25.7990 
G01 X13.9201 Y25.7990 
G01 X13.9572 Y25.8144 
G01 X13.9855 Y25.8427 
G01 X14.0009 Y25.8798 
G00 Z2.0000 
G00 X16.8009 Y25.8798 
G01 Z-0.2000 F600.00 
G01 X16.8009 Y26.2910 
G01 X18.0990 Y26.2910 
G01 X18.0990 Y25.8798 
G01 X18.1144 Y25.8427 
G01 X18.1427 Y25.8144 
G01 X18.1798 Y25.7990 
G01 X19.8201 Y25.7990 
G01 X19.8572 Y25.8144 
G01 X19.8855 Y25.8427 
G01 X19.9009 Y25.8798 
G01 X19.9009 Y27.9201 
G01 X19.8855 Y27.9572 
G01 X19.8572 Y27.9855 
G01 X19.8201 Y28.0009 
G01 X18.7975 Y28.0009 
G01 X18.7975 Y34.1826 
G01 X18.8183 Y34.1826 
G01 X18.8554 Y34.1980 
G01 X18.8837 Y34.2263 
G01 X18.8991 Y34.2634 
G01 X18.8991 Y36.5389 
G01 X18.8837 Y36.5760 
G01 X18.8554 Y36.6043 
G01 X18.8183 Y36.6197 
G01 X17.5588 Y36.6197 
G01 X17.5217 Y36.6043 
G01 X17.4934 Y36.5760 
G01 X17.4780 Y36.5389 
G01 X17.4780 Y34.2634 
G01 X17.4934 Y34.2263 
G01 X17.5217 Y34.1980 
G01 X17.5588 Y34.1826 
G01 X17.5796 Y34.1826 
G01 X17.5796 Y27.5089 
G01 X16.8009 Y27.5089 
G01 X16.8009 Y27.9201 
G01 X16.7855 Y27.9572 
G01 X16.7572 Y27.9855 
G01 X16.7201 Y28.0009 
G01 X15.0798 Y28.0009 
G01 X15.0427 Y27.9855 
G01 X15.0144 Y27.9572 
G01 X14.9990 Y27.9201 
G01 X14.9990 Y25.8798 
G01 X15.0144 Y25.8427 
G01 X15.0427 Y25.8144 
G01 X15.0798 Y25.7990 
G01 X16.7201 Y25.7990 
G01 X16.7572 Y25.8144 
G01 X16.7855 Y25.8427 
G01 X16.8009 Y25.8798 
G00 Z2.0000 
G00 X43.6709 Y8.6098 
G01 Z-0.2000 F600.00 
G01 X43.6709 Y11.1901 
G01 X43.6555 Y11.2272 
G01 X43.6272 Y11.2555 
G01 X43.5901 Y11.2709 
G01 X41.0098 Y11.2709 
G01 X40.9727 Y11.2555 
G01 X40.9444 Y11.2272 
G01 X40.9290 Y11.1901 
G01 X40.9290 Y10.4073 
G01 X36.9668 Y10.4073 
G01 X36.8331 Y10.4073 
G01 X36.7041 Y10.3727 
G01 X36.5884 Y10.3059 
G01 X36.4940 Y10.2115 
G01 X36.4272 Y10.0958 
G01 X36.3926 Y9.9668 
G01 X36.3926 Y8.4073 
G01 X31.1089 Y8.4073 
G01 X31.1089 Y9.5861 
G01 X31.1255 Y9.6027 
G01 X31.1409 Y9.6398 
G01 X31.1409 Y11.3601 
G01 X31.1255 Y11.3972 
G01 X31.0972 Y11.4255 
G01 X31.0601 Y11.4409 
G01 X29.6998 Y11.4409 
G01 X29.6627 Y11.4255 
G01 X29.6344 Y11.3972 
G01 X29.6190 Y11.3601 
G01 X29.6190 Y9.6398 
G01 X29.6344 Y9.6027 
G01 X29.6627 Y9.5744 
G01 X29.6998 Y9.5590 
G01 X29.8910 Y9.5590 
G01 X29.8910 Y8.2399 
G01 X29.8910 Y6.4409 
G01 X29.6998 Y6.4409 
G01 X29.6627 Y6.4255 
G01 X29.6344 Y6.3972 
G01 X29.6190 Y6.3601 
G01 X29.6190 Y6.1089 
G01 X23.9889 Y6.1089 
G01 X23.9889 Y8.4399 
G01 X23.9889 Y8.5600 
G01 X23.9655 Y8.6776 
G01 X23.9196 Y8.7884 
G01 X23.8530 Y8.8882 
G01 X23.7682 Y8.9730 
G01 X23.6684 Y9.0396 
G01 X23.5576 Y9.0855 
G01 X23.4400 Y9.1089 
G01 X20.8297 Y9.1089 
G01 X20.0678 Y9.8709 
G01 X18.9321 Y9.8709 
G01 X18.1290 Y9.0678 
G01 X18.1290 Y7.9321 
G01 X18.9321 Y7.1290 
G01 X20.0678 Y7.1290 
G01 X20.8297 Y7.8910 
G01 X22.7710 Y7.8910 
G01 X22.7710 Y5.4399 
G01 X22.7944 Y5.3223 
G01 X22.8403 Y5.2115 
G01 X22.8910 Y5.1356 
G01 X22.8910 Y3.4399 
G01 X22.9144 Y3.3223 
G01 X22.9603 Y3.2115 
G01 X23.0269 Y3.1117 
G01 X23.1117 Y3.0269 
G01 X23.2115 Y2.9603 
G01 X23.3223 Y2.9144 
G01 X23.4399 Y2.8910 
G01 X23.5600 Y2.8910 
G01 X66.0600 Y2.8910 
G01 X66.1776 Y2.9144 
G01 X66.2884 Y2.9603 
G01 X66.3882 Y3.0269 
G01 X66.4730 Y3.1117 
G01 X66.5396 Y3.2115 
G01 X66.5855 Y3.3223 
G01 X66.6089 Y3.4399 
G01 X66.6089 Y3.5600 
G01 X66.6089 Y6.8910 
G01 X70.1701 Y6.8910 
G01 X70.9321 Y6.1290 
G01 X72.0678 Y6.1290 
G01 X72.8709 Y6.9321 
G01 X72.8709 Y8.0678 
G01 X72.0678 Y8.8709 
G01 X70.9321 Y8.8709 
G01 X70.1701 Y8.1089 
G01 X66.0600 Y8.1089 
G01 X65.9399 Y8.1089 
G01 X65.8223 Y8.0855 
G01 X65.7115 Y8.0396 
G01 X65.6117 Y7.9730 
G01 X65.5269 Y7.8882 
G01 X65.4603 Y7.7884 
G01 X65.4144 Y7.6776 
G01 X65.3910 Y7.5600 
G01 X65.3910 Y4.1089 
G01 X24.1089 Y4.1089 
G01 X24.1089 Y4.8910 
G01 X29.6190 Y4.8910 
G01 X29.6190 Y4.6398 
G01 X29.6344 Y4.6027 
G01 X29.6627 Y4.5744 
G01 X29.6998 Y4.5590 
G01 X31.0601 Y4.5590 
G01 X31.0972 Y4.5744 
G01 X31.1255 Y4.6027 
G01 X31.1409 Y4.6398 
G01 X31.1409 Y6.3601 
G01 X31.1255 Y6.3972 
G01 X31.1089 Y6.4137 
G01 X31.1089 Y7.3926 
G01 X36.9668 Y7.3926 
G01 X37.0958 Y7.4272 
G01 X37.2115 Y7.4940 
G01 X37.3059 Y7.5884 
G01 X37.3727 Y7.7041 
G01 X37.4073 Y7.8331 
G01 X37.4073 Y7.9668 
G01 X37.4073 Y9.3926 
G01 X40.9290 Y9.3926 
G01 X40.9290 Y8.6098 
G01 X40.9444 Y8.5727 
G01 X40.9727 Y8.5444 
G01 X41.0098 Y8.5290 
G01 X43.5901 Y8.5290 
G01 X43.6272 Y8.5444 
G01 X43.6555 Y8.5727 
G01 X43.6709 Y8.6098 
(File Footer)
G00 Z2.0000 
G00 Z10.0000 
M05
M02
