( This gcode generated by /home/mattvenn/.eagle/ulp/pcb-gcode.ulp )
( Copyright 2005 by John Johnson. See readme.txt for licensing terms. )

( This file generated from the board /home/mattvenn/eagle-circuit-designs/3w developer kit/3w developer dcdc test.brd )
( This file generated 12/03/2012 15:02 )

( T01 0.812800 )
( T02 1.117600 )
G21

G90
M05
G00 X0.0000 Y0.0000 Z30.0000 
M06 T01  ; 0.8128 
G00 Z2.0000 
M03
G04 P3.000000
G82 X38.1100 Y22.6000 Z-2.0000 F127.00 R2.0000 P0.100000
G82 X40.6500 Y22.6000 
G82 X43.1900 Y22.6000 
G82 X45.7300 Y22.6000 
G82 X48.2700 Y22.6000 
G82 X50.8100 Y22.6000 
G82 X53.3500 Y22.6000 
G82 X55.8900 Y22.6000 
M05
G00 X0.0000 Y0.0000 Z30.0000 
M06 T02  ; 1.1176 
G00 Z2.0000 
M03
G04 P3.000000
G82 X11.3000 Y11.9000 Z-2.0000 F127.00 R2.0000 P0.100000
G82 X11.6000 Y29.6000 
G82 X11.9000 Y17.1000 
G82 X65.1000 Y17.3000 
(File Footer)
T01 
G00 Z10.0000 
M05
M02
