( This gcode generated by /home/mattvenn/.eagle/ulp/pcb-gcode.ulp )
( Copyright 2005 by John Johnson. See readme.txt for licensing terms. )

( This file generated from the board /home/mattvenn/eagle-circuit-designs/3w developer kit/3w developer dcdc test.brd )
( This file generated 12/03/2012 16:29 )

G21

G90
G00 Z10.0000 
G00 X0 Y0
M03
G04 P3.000000
G00 Z2.0000 
G00 X21.1398 Y29.1040 
G01 Z-0.2000 F600.00 
G01 X22.8601 Y29.1040 
G01 X22.8972 Y29.1194 
G01 X22.9255 Y29.1477 
G01 X22.9409 Y29.1848 
G01 X22.9409 Y31.0751 
G01 X22.9255 Y31.1122 
G01 X22.8972 Y31.1405 
G01 X22.8601 Y31.1559 
G01 X21.1398 Y31.1559 
G01 X21.1027 Y31.1405 
G01 X21.0744 Y31.1122 
G01 X21.0590 Y31.0751 
G01 X21.0590 Y31.0691 
G01 X17.7391 Y31.0691 
G01 X17.7391 Y33.7115 
G01 X17.7030 Y33.8929 
G01 X17.6322 Y34.0638 
G01 X17.5294 Y34.2176 
G01 X17.3986 Y34.3484 
G01 X17.2448 Y34.4512 
G01 X17.0739 Y34.5220 
G01 X16.8925 Y34.5581 
G01 X16.7074 Y34.5581 
G01 X16.5260 Y34.5220 
G01 X16.3551 Y34.4512 
G01 X16.3083 Y34.4199 
G01 X15.8788 Y34.4199 
G01 X15.8417 Y34.4045 
G01 X15.8134 Y34.3762 
G01 X15.7980 Y34.3391 
G01 X15.7980 Y32.8988 
G01 X15.8134 Y32.8617 
G01 X15.8417 Y32.8334 
G01 X15.8608 Y32.8255 
G01 X15.8608 Y30.4009 
G01 X14.7798 Y30.4009 
G01 X14.7427 Y30.3855 
G01 X14.7144 Y30.3572 
G01 X14.6990 Y30.3201 
G01 X14.6990 Y28.4798 
G01 X14.7144 Y28.4427 
G01 X14.7427 Y28.4144 
G01 X14.7798 Y28.3990 
G01 X18.8201 Y28.3990 
G01 X18.8572 Y28.4144 
G01 X18.8855 Y28.4427 
G01 X18.9009 Y28.4798 
G01 X18.9009 Y29.1908 
G01 X21.0590 Y29.1908 
G01 X21.0590 Y29.1848 
G01 X21.0744 Y29.1477 
G01 X21.1027 Y29.1194 
G01 X21.1398 Y29.1040 
G00 Z2.0000 
G00 X55.1286 Y23.3354 
G01 Z-0.2000 F600.00 
G01 X55.1286 Y21.8645 
G01 X55.1579 Y21.7174 
G01 X55.2152 Y21.5789 
G01 X55.2986 Y21.4542 
G01 X55.4046 Y21.3482 
G01 X55.5293 Y21.2648 
G01 X55.6678 Y21.2075 
G01 X55.8149 Y21.1782 
G01 X55.9650 Y21.1782 
G01 X56.1121 Y21.2075 
G01 X56.2506 Y21.2648 
G01 X56.3753 Y21.3482 
G01 X56.4813 Y21.4542 
G01 X56.5647 Y21.5789 
G01 X56.6220 Y21.7174 
G01 X56.6513 Y21.8645 
G01 X56.6513 Y23.3354 
G01 X56.6220 Y23.4825 
G01 X56.5647 Y23.6210 
G01 X56.4813 Y23.7457 
G01 X56.3753 Y23.8517 
G01 X56.2506 Y23.9351 
G01 X56.1121 Y23.9924 
G01 X55.9650 Y24.0217 
G01 X55.8149 Y24.0217 
G01 X55.6678 Y23.9924 
G01 X55.5293 Y23.9351 
G01 X55.4046 Y23.8517 
G01 X55.2986 Y23.7457 
G01 X55.2152 Y23.6210 
G01 X55.1579 Y23.4825 
G01 X55.1286 Y23.3354 
G00 Z2.0000 
G00 X52.5886 Y23.3354 
G01 Z-0.2000 F600.00 
G01 X52.5886 Y21.8645 
G01 X52.6179 Y21.7174 
G01 X52.6752 Y21.5789 
G01 X52.7586 Y21.4542 
G01 X52.8646 Y21.3482 
G01 X52.9893 Y21.2648 
G01 X53.1278 Y21.2075 
G01 X53.2749 Y21.1782 
G01 X53.4250 Y21.1782 
G01 X53.5721 Y21.2075 
G01 X53.7106 Y21.2648 
G01 X53.8353 Y21.3482 
G01 X53.9413 Y21.4542 
G01 X54.0247 Y21.5789 
G01 X54.0820 Y21.7174 
G01 X54.1113 Y21.8645 
G01 X54.1113 Y23.3354 
G01 X54.0820 Y23.4825 
G01 X54.0247 Y23.6210 
G01 X53.9413 Y23.7457 
G01 X53.8353 Y23.8517 
G01 X53.7106 Y23.9351 
G01 X53.5721 Y23.9924 
G01 X53.4250 Y24.0217 
G01 X53.2749 Y24.0217 
G01 X53.1278 Y23.9924 
G01 X52.9893 Y23.9351 
G01 X52.8646 Y23.8517 
G01 X52.7586 Y23.7457 
G01 X52.6752 Y23.6210 
G01 X52.6179 Y23.4825 
G01 X52.5886 Y23.3354 
G00 Z2.0000 
G00 X50.0486 Y23.3354 
G01 Z-0.2000 F600.00 
G01 X50.0486 Y21.8645 
G01 X50.0779 Y21.7174 
G01 X50.1352 Y21.5789 
G01 X50.2186 Y21.4542 
G01 X50.3246 Y21.3482 
G01 X50.4493 Y21.2648 
G01 X50.5878 Y21.2075 
G01 X50.7349 Y21.1782 
G01 X50.8850 Y21.1782 
G01 X51.0321 Y21.2075 
G01 X51.1706 Y21.2648 
G01 X51.2953 Y21.3482 
G01 X51.4013 Y21.4542 
G01 X51.4847 Y21.5789 
G01 X51.5420 Y21.7174 
G01 X51.5713 Y21.8645 
G01 X51.5713 Y23.3354 
G01 X51.5420 Y23.4825 
G01 X51.4847 Y23.6210 
G01 X51.4013 Y23.7457 
G01 X51.2953 Y23.8517 
G01 X51.1706 Y23.9351 
G01 X51.0321 Y23.9924 
G01 X50.8850 Y24.0217 
G01 X50.7349 Y24.0217 
G01 X50.5878 Y23.9924 
G01 X50.4493 Y23.9351 
G01 X50.3246 Y23.8517 
G01 X50.2186 Y23.7457 
G01 X50.1352 Y23.6210 
G01 X50.0779 Y23.4825 
G01 X50.0486 Y23.3354 
G00 Z2.0000 
G00 X47.5086 Y21.8645 
G01 Z-0.2000 F600.00 
G01 X47.5379 Y21.7174 
G01 X47.5952 Y21.5789 
G01 X47.6786 Y21.4542 
G01 X47.7846 Y21.3482 
G01 X47.9093 Y21.2648 
G01 X48.0478 Y21.2075 
G01 X48.1949 Y21.1782 
G01 X48.3450 Y21.1782 
G01 X48.4921 Y21.2075 
G01 X48.6306 Y21.2648 
G01 X48.7553 Y21.3482 
G01 X48.8613 Y21.4542 
G01 X48.9447 Y21.5789 
G01 X49.0020 Y21.7174 
G01 X49.0313 Y21.8645 
G01 X49.0313 Y21.9614 
G01 X49.0389 Y21.9689 
G01 X49.1472 Y22.1310 
G01 X49.2219 Y22.3112 
G01 X49.2599 Y22.5024 
G01 X49.2599 Y26.9024 
G01 X49.2599 Y27.0608 
G01 X64.0608 Y27.0608 
G01 X64.0608 Y25.9709 
G01 X64.0321 Y25.9709 
G01 X63.2290 Y25.1678 
G01 X63.2290 Y24.0321 
G01 X64.0321 Y23.2290 
G01 X65.1678 Y23.2290 
G01 X65.9709 Y24.0321 
G01 X65.9709 Y25.1678 
G01 X65.9391 Y25.1996 
G01 X65.9391 Y27.9074 
G01 X65.9391 Y28.0925 
G01 X65.9030 Y28.2739 
G01 X65.8322 Y28.4448 
G01 X65.7294 Y28.5986 
G01 X65.5986 Y28.7294 
G01 X65.4448 Y28.8322 
G01 X65.2739 Y28.9030 
G01 X65.0925 Y28.9391 
G01 X48.5895 Y28.9391 
G01 X48.5587 Y28.9519 
G01 X48.3675 Y28.9899 
G01 X48.1724 Y28.9899 
G01 X47.9812 Y28.9519 
G01 X47.8010 Y28.8772 
G01 X47.6389 Y28.7689 
G01 X47.5010 Y28.6310 
G01 X47.3927 Y28.4689 
G01 X47.3180 Y28.2887 
G01 X47.2800 Y28.0975 
G01 X47.2800 Y27.9391 
G01 X44.3391 Y27.9391 
G01 X44.3391 Y31.4925 
G01 X44.3030 Y31.6739 
G01 X44.2322 Y31.8448 
G01 X44.1294 Y31.9986 
G01 X43.9986 Y32.1294 
G01 X43.8448 Y32.2322 
G01 X43.6739 Y32.3030 
G01 X43.4925 Y32.3391 
G01 X43.3074 Y32.3391 
G01 X33.5391 Y32.3391 
G01 X33.5391 Y33.6425 
G01 X33.5030 Y33.8239 
G01 X33.4322 Y33.9948 
G01 X33.3294 Y34.1486 
G01 X33.1986 Y34.2794 
G01 X33.0448 Y34.3822 
G01 X32.8739 Y34.4530 
G01 X32.6925 Y34.4891 
G01 X32.5074 Y34.4891 
G01 X29.3009 Y34.4891 
G01 X29.3009 Y34.7701 
G01 X29.2855 Y34.8072 
G01 X29.2572 Y34.8355 
G01 X29.2201 Y34.8509 
G01 X28.3963 Y34.8509 
G01 X28.2448 Y34.9522 
G01 X28.0739 Y35.0230 
G01 X27.8925 Y35.0591 
G01 X22.9391 Y35.0591 
G01 X22.9391 Y35.9074 
G01 X22.9391 Y36.0925 
G01 X22.9030 Y36.2739 
G01 X22.8322 Y36.4448 
G01 X22.7294 Y36.5986 
G01 X22.5986 Y36.7294 
G01 X22.4448 Y36.8322 
G01 X22.2739 Y36.9030 
G01 X22.0925 Y36.9391 
G01 X15.9009 Y36.9391 
G01 X15.9009 Y37.5728 
G01 X15.8682 Y37.7372 
G01 X15.8041 Y37.8921 
G01 X15.7109 Y38.0314 
G01 X15.5924 Y38.1499 
G01 X15.4531 Y38.2431 
G01 X15.2982 Y38.3072 
G01 X15.1338 Y38.3399 
G01 X14.4661 Y38.3399 
G01 X14.3017 Y38.3072 
G01 X14.1468 Y38.2431 
G01 X14.0075 Y38.1499 
G01 X13.8890 Y38.0314 
G01 X13.7958 Y37.8921 
G01 X13.7317 Y37.7372 
G01 X13.6990 Y37.5728 
G01 X13.6990 Y35.4051 
G01 X13.7317 Y35.2407 
G01 X13.7958 Y35.0858 
G01 X13.8890 Y34.9465 
G01 X14.0075 Y34.8280 
G01 X14.1468 Y34.7348 
G01 X14.2990 Y34.6718 
G01 X14.2990 Y32.9028 
G01 X14.3144 Y32.8657 
G01 X14.3427 Y32.8374 
G01 X14.3798 Y32.8220 
G01 X15.2201 Y32.8220 
G01 X15.2572 Y32.8374 
G01 X15.2855 Y32.8657 
G01 X15.3009 Y32.9028 
G01 X15.3009 Y34.6718 
G01 X15.4531 Y34.7348 
G01 X15.5924 Y34.8280 
G01 X15.7109 Y34.9465 
G01 X15.7874 Y35.0608 
G01 X21.0608 Y35.0608 
G01 X21.0608 Y34.8044 
G01 X21.0590 Y34.8001 
G01 X21.0590 Y33.4398 
G01 X21.0744 Y33.4027 
G01 X21.1027 Y33.3744 
G01 X21.1398 Y33.3590 
G01 X21.4485 Y33.3590 
G01 X21.5551 Y33.2877 
G01 X21.7260 Y33.2169 
G01 X21.9074 Y33.1808 
G01 X22.0925 Y33.1808 
G01 X26.2990 Y33.1808 
G01 X26.2990 Y32.3298 
G01 X26.3144 Y32.2927 
G01 X26.3427 Y32.2644 
G01 X26.3798 Y32.2490 
G01 X29.2201 Y32.2490 
G01 X29.2572 Y32.2644 
G01 X29.2855 Y32.2927 
G01 X29.3009 Y32.3298 
G01 X29.3009 Y32.6108 
G01 X31.6608 Y32.6108 
G01 X31.6608 Y32.2930 
G01 X31.6427 Y32.2855 
G01 X31.6144 Y32.2572 
G01 X31.5990 Y32.2201 
G01 X31.5990 Y30.5798 
G01 X31.6144 Y30.5427 
G01 X31.6427 Y30.5144 
G01 X31.6798 Y30.4990 
G01 X32.3210 Y30.4990 
G01 X32.3260 Y30.4969 
G01 X32.5074 Y30.4608 
G01 X42.4608 Y30.4608 
G01 X42.4608 Y27.0925 
G01 X42.4608 Y26.9074 
G01 X42.4969 Y26.7260 
G01 X42.4990 Y26.7210 
G01 X42.4990 Y26.0798 
G01 X42.5144 Y26.0427 
G01 X42.5427 Y26.0144 
G01 X42.5798 Y25.9990 
G01 X44.2201 Y25.9990 
G01 X44.2572 Y26.0144 
G01 X44.2855 Y26.0427 
G01 X44.2930 Y26.0608 
G01 X47.2800 Y26.0608 
G01 X47.2800 Y22.5024 
G01 X47.3180 Y22.3112 
G01 X47.3927 Y22.1310 
G01 X47.5010 Y21.9689 
G01 X47.5086 Y21.9614 
G01 X47.5086 Y21.8645 
G00 Z2.0000 
G00 X44.9686 Y23.3354 
G01 Z-0.2000 F600.00 
G01 X44.9686 Y23.2386 
G01 X44.9610 Y23.2310 
G01 X44.8527 Y23.0689 
G01 X44.7780 Y22.8887 
G01 X44.7400 Y22.6975 
G01 X44.7400 Y22.5024 
G01 X44.7780 Y22.3112 
G01 X44.8527 Y22.1310 
G01 X44.9610 Y21.9689 
G01 X44.9686 Y21.9613 
G01 X44.9686 Y21.8645 
G01 X44.9979 Y21.7174 
G01 X45.0000 Y21.7124 
G01 X45.0000 Y18.8965 
G01 X44.9890 Y18.8701 
G01 X44.9890 Y16.6298 
G01 X45.0044 Y16.5927 
G01 X45.0327 Y16.5644 
G01 X45.0698 Y16.5490 
G01 X46.9101 Y16.5490 
G01 X46.9472 Y16.5644 
G01 X46.9755 Y16.5927 
G01 X46.9909 Y16.6298 
G01 X46.9909 Y16.7600 
G01 X51.5090 Y16.7600 
G01 X51.5090 Y16.2698 
G01 X51.5244 Y16.2327 
G01 X51.5527 Y16.2044 
G01 X51.5898 Y16.1890 
G01 X52.2276 Y16.1890 
G01 X52.2410 Y16.1689 
G01 X52.3789 Y16.0310 
G01 X52.5410 Y15.9227 
G01 X52.7212 Y15.8480 
G01 X52.9124 Y15.8100 
G01 X53.1075 Y15.8100 
G01 X53.6975 Y15.8100 
G01 X53.8887 Y15.8480 
G01 X54.0689 Y15.9227 
G01 X54.2310 Y16.0310 
G01 X54.3689 Y16.1689 
G01 X54.3823 Y16.1890 
G01 X54.4301 Y16.1890 
G01 X54.4672 Y16.2044 
G01 X54.4727 Y16.2100 
G01 X57.3890 Y16.2100 
G01 X57.3890 Y15.6198 
G01 X57.4044 Y15.5827 
G01 X57.4327 Y15.5544 
G01 X57.4698 Y15.5390 
G01 X59.9101 Y15.5390 
G01 X59.9472 Y15.5544 
G01 X59.9755 Y15.5827 
G01 X59.9909 Y15.6198 
G01 X59.9909 Y16.0018 
G01 X60.0772 Y16.1310 
G01 X60.1514 Y16.3100 
G01 X64.1512 Y16.3100 
G01 X64.5321 Y15.9290 
G01 X65.6678 Y15.9290 
G01 X66.4709 Y16.7321 
G01 X66.4709 Y17.8678 
G01 X65.6678 Y18.6709 
G01 X64.5321 Y18.6709 
G01 X64.1512 Y18.2899 
G01 X59.7845 Y18.2899 
G01 X59.7815 Y18.2919 
G01 X59.7343 Y18.3290 
G01 X59.7002 Y18.3462 
G01 X59.6689 Y18.3672 
G01 X59.6138 Y18.3900 
G01 X59.5604 Y18.4171 
G01 X59.5239 Y18.4273 
G01 X59.4887 Y18.4419 
G01 X59.4298 Y18.4536 
G01 X59.3726 Y18.4696 
G01 X59.3347 Y18.4725 
G01 X59.2975 Y18.4799 
G01 X59.2382 Y18.4799 
G01 X59.1781 Y18.4845 
G01 X59.1401 Y18.4799 
G01 X59.1024 Y18.4799 
G01 X59.0440 Y18.4683 
G01 X58.9845 Y18.4611 
G01 X58.9486 Y18.4493 
G01 X58.9112 Y18.4419 
G01 X58.8559 Y18.4189 
G01 X58.7992 Y18.4004 
G01 X58.7661 Y18.3817 
G01 X58.7310 Y18.3672 
G01 X58.6813 Y18.3339 
G01 X58.6293 Y18.3047 
G01 X58.6121 Y18.2899 
G01 X58.4975 Y18.2899 
G01 X58.3024 Y18.2899 
G01 X58.1112 Y18.2519 
G01 X57.9617 Y18.1899 
G01 X54.5109 Y18.1899 
G01 X54.5109 Y18.7101 
G01 X54.4955 Y18.7472 
G01 X54.4672 Y18.7755 
G01 X54.4301 Y18.7909 
G01 X51.5898 Y18.7909 
G01 X51.5527 Y18.7755 
G01 X51.5244 Y18.7472 
G01 X51.5214 Y18.7399 
G01 X46.9909 Y18.7399 
G01 X46.9909 Y18.8701 
G01 X46.9799 Y18.8965 
G01 X46.9799 Y22.6975 
G01 X46.9419 Y22.8887 
G01 X46.8672 Y23.0689 
G01 X46.7589 Y23.2310 
G01 X46.6210 Y23.3689 
G01 X46.4637 Y23.4740 
G01 X46.4620 Y23.4825 
G01 X46.4047 Y23.6210 
G01 X46.3213 Y23.7457 
G01 X46.2153 Y23.8517 
G01 X46.0906 Y23.9351 
G01 X45.9521 Y23.9924 
G01 X45.8050 Y24.0217 
G01 X45.6549 Y24.0217 
G01 X45.5078 Y23.9924 
G01 X45.3693 Y23.9351 
G01 X45.2446 Y23.8517 
G01 X45.1386 Y23.7457 
G01 X45.0552 Y23.6210 
G01 X44.9979 Y23.4825 
G01 X44.9686 Y23.3354 
G00 Z2.0000 
G00 X39.8886 Y23.3354 
G01 Z-0.2000 F600.00 
G01 X39.8886 Y21.8645 
G01 X39.9179 Y21.7174 
G01 X39.9752 Y21.5789 
G01 X40.0586 Y21.4542 
G01 X40.1646 Y21.3482 
G01 X40.2893 Y21.2648 
G01 X40.4278 Y21.2075 
G01 X40.5749 Y21.1782 
G01 X40.7250 Y21.1782 
G01 X40.8721 Y21.2075 
G01 X41.0106 Y21.2648 
G01 X41.1353 Y21.3482 
G01 X41.2413 Y21.4542 
G01 X41.3247 Y21.5789 
G01 X41.3820 Y21.7174 
G01 X41.4113 Y21.8645 
G01 X41.4113 Y23.3354 
G01 X41.3820 Y23.4825 
G01 X41.3247 Y23.6210 
G01 X41.2413 Y23.7457 
G01 X41.1353 Y23.8517 
G01 X41.0106 Y23.9351 
G01 X40.8721 Y23.9924 
G01 X40.7250 Y24.0217 
G01 X40.5749 Y24.0217 
G01 X40.4278 Y23.9924 
G01 X40.2893 Y23.9351 
G01 X40.1646 Y23.8517 
G01 X40.0586 Y23.7457 
G01 X39.9752 Y23.6210 
G01 X39.9179 Y23.4825 
G01 X39.8886 Y23.3354 
G00 Z2.0000 
G00 X46.2788 Y9.3990 
G01 Z-0.2000 F600.00 
G01 X48.5191 Y9.3990 
G01 X48.5562 Y9.4144 
G01 X48.5845 Y9.4427 
G01 X48.5999 Y9.4798 
G01 X48.5999 Y13.1201 
G01 X48.5845 Y13.1572 
G01 X48.5562 Y13.1855 
G01 X48.5191 Y13.2009 
G01 X46.2788 Y13.2009 
G01 X46.2417 Y13.1855 
G01 X46.2134 Y13.1572 
G01 X46.1980 Y13.1201 
G01 X46.1980 Y9.4798 
G01 X46.2134 Y9.4427 
G01 X46.2417 Y9.4144 
G01 X46.2788 Y9.3990 
G00 Z2.0000 
G00 X40.0634 Y12.9008 
G01 Z-0.2000 F600.00 
G01 X40.5117 Y12.9008 
G01 X40.5701 Y12.8424 
G01 X40.7322 Y12.7341 
G01 X40.9124 Y12.6594 
G01 X41.1036 Y12.6214 
G01 X43.0924 Y12.6214 
G01 X43.2875 Y12.6214 
G01 X43.4787 Y12.6594 
G01 X43.6589 Y12.7341 
G01 X43.8210 Y12.8424 
G01 X43.9589 Y12.9803 
G01 X44.0672 Y13.1424 
G01 X44.1419 Y13.3226 
G01 X44.1799 Y13.5138 
G01 X44.1799 Y22.6975 
G01 X44.1419 Y22.8887 
G01 X44.0672 Y23.0689 
G01 X43.9589 Y23.2310 
G01 X43.9513 Y23.2386 
G01 X43.9513 Y23.3354 
G01 X43.9220 Y23.4825 
G01 X43.8647 Y23.6210 
G01 X43.7813 Y23.7457 
G01 X43.6753 Y23.8517 
G01 X43.5506 Y23.9351 
G01 X43.4121 Y23.9924 
G01 X43.2650 Y24.0217 
G01 X43.1149 Y24.0217 
G01 X42.9678 Y23.9924 
G01 X42.8293 Y23.9351 
G01 X42.7046 Y23.8517 
G01 X42.5986 Y23.7457 
G01 X42.5152 Y23.6210 
G01 X42.4579 Y23.4825 
G01 X42.4286 Y23.3354 
G01 X42.4286 Y23.2386 
G01 X42.4210 Y23.2310 
G01 X42.3127 Y23.0689 
G01 X42.2380 Y22.8887 
G01 X42.2000 Y22.6975 
G01 X42.2000 Y14.6013 
G01 X41.1036 Y14.6013 
G01 X40.9124 Y14.5633 
G01 X40.7322 Y14.4886 
G01 X40.5701 Y14.3803 
G01 X40.5117 Y14.3219 
G01 X40.0634 Y14.3219 
G01 X40.0263 Y14.3065 
G01 X39.9980 Y14.2782 
G01 X39.9826 Y14.2411 
G01 X39.9826 Y12.9816 
G01 X39.9980 Y12.9445 
G01 X40.0263 Y12.9162 
G01 X40.0634 Y12.9008 
G00 Z2.0000 
G00 X35.9709 Y14.6098 
G01 Z-0.2000 F600.00 
G01 X35.9709 Y16.3900 
G01 X40.2717 Y16.3900 
G01 X40.3513 Y16.3871 
G01 X40.3693 Y16.3900 
G01 X40.3875 Y16.3900 
G01 X40.4649 Y16.4054 
G01 X40.5439 Y16.4181 
G01 X40.5610 Y16.4245 
G01 X40.5787 Y16.4280 
G01 X40.6521 Y16.4585 
G01 X40.7266 Y16.4862 
G01 X40.7420 Y16.4957 
G01 X40.7589 Y16.5027 
G01 X40.8251 Y16.5470 
G01 X40.8284 Y16.5490 
G01 X41.8101 Y16.5490 
G01 X41.8472 Y16.5644 
G01 X41.8755 Y16.5927 
G01 X41.8909 Y16.6298 
G01 X41.8909 Y18.8701 
G01 X41.8755 Y18.9072 
G01 X41.8472 Y18.9355 
G01 X41.8101 Y18.9509 
G01 X39.9698 Y18.9509 
G01 X39.9327 Y18.9355 
G01 X39.9044 Y18.9072 
G01 X39.8890 Y18.8701 
G01 X39.8890 Y18.3699 
G01 X35.9709 Y18.3699 
G01 X35.9709 Y20.1501 
G01 X35.9555 Y20.1872 
G01 X35.9272 Y20.2155 
G01 X35.8901 Y20.2309 
G01 X31.9998 Y20.2309 
G01 X31.9627 Y20.2155 
G01 X31.9344 Y20.1872 
G01 X31.9190 Y20.1501 
G01 X31.9190 Y14.6098 
G01 X31.9344 Y14.5727 
G01 X31.9627 Y14.5444 
G01 X31.9998 Y14.5290 
G01 X32.9550 Y14.5290 
G01 X32.9550 Y11.2024 
G01 X32.9930 Y11.0112 
G01 X33.0677 Y10.8310 
G01 X33.1760 Y10.6689 
G01 X33.3139 Y10.5310 
G01 X33.4760 Y10.4227 
G01 X33.6562 Y10.3480 
G01 X33.8474 Y10.3100 
G01 X34.0425 Y10.3100 
G01 X41.2987 Y10.3100 
G01 X41.4899 Y10.3480 
G01 X41.6701 Y10.4227 
G01 X41.8322 Y10.5310 
G01 X41.8906 Y10.5894 
G01 X42.3389 Y10.5894 
G01 X42.3760 Y10.6048 
G01 X42.4043 Y10.6331 
G01 X42.4197 Y10.6702 
G01 X42.4197 Y11.9297 
G01 X42.4043 Y11.9668 
G01 X42.3760 Y11.9951 
G01 X42.3389 Y12.0105 
G01 X41.8906 Y12.0105 
G01 X41.8322 Y12.0689 
G01 X41.6701 Y12.1772 
G01 X41.4899 Y12.2519 
G01 X41.2987 Y12.2899 
G01 X34.9349 Y12.2899 
G01 X34.9349 Y14.5290 
G01 X35.8901 Y14.5290 
G01 X35.9272 Y14.5444 
G01 X35.9555 Y14.5727 
G01 X35.9709 Y14.6098 
G00 Z2.0000 
G00 X26.0209 Y14.6098 
G01 Z-0.2000 F600.00 
G01 X26.0209 Y20.1501 
G01 X26.0055 Y20.1872 
G01 X25.9772 Y20.2155 
G01 X25.9401 Y20.2309 
G01 X22.0498 Y20.2309 
G01 X22.0127 Y20.2155 
G01 X21.9844 Y20.1872 
G01 X21.9690 Y20.1501 
G01 X21.9690 Y16.7899 
G01 X19.3409 Y16.7899 
G01 X19.3409 Y18.5301 
G01 X19.3255 Y18.5672 
G01 X19.2972 Y18.5955 
G01 X19.2601 Y18.6109 
G01 X16.9391 Y18.6109 
G01 X16.9391 Y21.8990 
G01 X18.8201 Y21.8990 
G01 X18.8572 Y21.9144 
G01 X18.8855 Y21.9427 
G01 X18.9009 Y21.9798 
G01 X18.9009 Y23.8201 
G01 X18.8855 Y23.8572 
G01 X18.8572 Y23.8855 
G01 X18.8201 Y23.9009 
G01 X14.7798 Y23.9009 
G01 X14.7427 Y23.8855 
G01 X14.7144 Y23.8572 
G01 X14.6990 Y23.8201 
G01 X14.6990 Y21.9798 
G01 X14.7144 Y21.9427 
G01 X14.7427 Y21.9144 
G01 X14.7798 Y21.8990 
G01 X15.0608 Y21.8990 
G01 X15.0608 Y18.0899 
G01 X12.8487 Y18.0899 
G01 X12.4678 Y18.4709 
G01 X11.3321 Y18.4709 
G01 X10.5290 Y17.6678 
G01 X10.5290 Y16.5321 
G01 X11.3321 Y15.7290 
G01 X12.4678 Y15.7290 
G01 X12.8487 Y16.1100 
G01 X15.9024 Y16.1100 
G01 X16.7390 Y16.1100 
G01 X16.7390 Y16.0898 
G01 X16.7544 Y16.0527 
G01 X16.7827 Y16.0244 
G01 X16.8198 Y16.0090 
G01 X17.0500 Y16.0090 
G01 X17.0500 Y15.7024 
G01 X17.0880 Y15.5112 
G01 X17.1627 Y15.3310 
G01 X17.2710 Y15.1689 
G01 X17.4089 Y15.0310 
G01 X17.5710 Y14.9227 
G01 X17.7512 Y14.8480 
G01 X17.9424 Y14.8100 
G01 X18.1375 Y14.8100 
G01 X21.9690 Y14.8100 
G01 X21.9690 Y14.6098 
G01 X21.9844 Y14.5727 
G01 X22.0127 Y14.5444 
G01 X22.0498 Y14.5290 
G01 X25.9401 Y14.5290 
G01 X25.9772 Y14.5444 
G01 X26.0055 Y14.5727 
G01 X26.0209 Y14.6098 
G00 Z2.0000 
G00 X41.5009 Y26.0798 
G01 Z-0.2000 F600.00 
G01 X41.5009 Y26.7210 
G01 X41.5030 Y26.7260 
G01 X41.5391 Y26.9074 
G01 X41.5391 Y27.0925 
G01 X41.5030 Y27.2739 
G01 X41.5009 Y27.2789 
G01 X41.5009 Y27.9201 
G01 X41.4855 Y27.9572 
G01 X41.4572 Y27.9855 
G01 X41.4201 Y28.0009 
G01 X39.7798 Y28.0009 
G01 X39.7427 Y27.9855 
G01 X39.7144 Y27.9572 
G01 X39.7069 Y27.9391 
G01 X37.5074 Y27.9391 
G01 X37.3260 Y27.9030 
G01 X37.1551 Y27.8322 
G01 X37.0013 Y27.7294 
G01 X36.8705 Y27.5986 
G01 X36.7677 Y27.4448 
G01 X36.6969 Y27.2739 
G01 X36.6802 Y27.1899 
G01 X33.9391 Y27.1899 
G01 X33.9391 Y28.6925 
G01 X33.9030 Y28.8739 
G01 X33.8322 Y29.0448 
G01 X33.7294 Y29.1986 
G01 X33.6009 Y29.3271 
G01 X33.6009 Y29.4201 
G01 X33.5855 Y29.4572 
G01 X33.5572 Y29.4855 
G01 X33.5201 Y29.5009 
G01 X33.2790 Y29.5009 
G01 X33.2739 Y29.5030 
G01 X33.0925 Y29.5391 
G01 X32.9074 Y29.5391 
G01 X32.5074 Y29.5391 
G01 X32.3260 Y29.5030 
G01 X32.3210 Y29.5009 
G01 X31.6798 Y29.5009 
G01 X31.6427 Y29.4855 
G01 X31.6144 Y29.4572 
G01 X31.5990 Y29.4201 
G01 X31.5990 Y27.7798 
G01 X31.6144 Y27.7427 
G01 X31.6427 Y27.7144 
G01 X31.6798 Y27.6990 
G01 X32.0608 Y27.6990 
G01 X32.0608 Y27.1899 
G01 X29.3009 Y27.1899 
G01 X29.3009 Y28.4701 
G01 X29.2855 Y28.5072 
G01 X29.2572 Y28.5355 
G01 X29.2201 Y28.5509 
G01 X26.3798 Y28.5509 
G01 X26.3427 Y28.5355 
G01 X26.3144 Y28.5072 
G01 X26.2990 Y28.4701 
G01 X26.2990 Y27.1899 
G01 X11.9391 Y27.1899 
G01 X11.9391 Y32.6798 
G01 X13.3935 Y32.6798 
G01 X13.5749 Y32.7159 
G01 X13.7458 Y32.7867 
G01 X13.8996 Y32.8895 
G01 X14.0304 Y33.0203 
G01 X14.1332 Y33.1741 
G01 X14.2040 Y33.3450 
G01 X14.2401 Y33.5264 
G01 X14.2401 Y33.7115 
G01 X14.2040 Y33.8929 
G01 X14.1332 Y34.0638 
G01 X14.0304 Y34.2176 
G01 X13.8996 Y34.3484 
G01 X13.7458 Y34.4512 
G01 X13.5749 Y34.5220 
G01 X13.3935 Y34.5581 
G01 X11.0925 Y34.5581 
G01 X10.9074 Y34.5581 
G01 X10.7260 Y34.5220 
G01 X10.5551 Y34.4512 
G01 X10.4013 Y34.3484 
G01 X10.2705 Y34.2176 
G01 X10.1677 Y34.0638 
G01 X10.0969 Y33.8929 
G01 X10.0608 Y33.7115 
G01 X10.0608 Y27.1899 
G01 X8.4975 Y27.1899 
G01 X8.3024 Y27.1899 
G01 X8.1112 Y27.1519 
G01 X7.9310 Y27.0772 
G01 X7.7689 Y26.9689 
G01 X7.6310 Y26.8310 
G01 X7.5227 Y26.6689 
G01 X7.4480 Y26.4887 
G01 X7.4100 Y26.2975 
G01 X7.4100 Y11.6975 
G01 X7.4100 Y11.5024 
G01 X7.4480 Y11.3112 
G01 X7.5227 Y11.1310 
G01 X7.6310 Y10.9689 
G01 X7.7689 Y10.8310 
G01 X7.9310 Y10.7227 
G01 X8.1112 Y10.6480 
G01 X8.3024 Y10.6100 
G01 X10.6512 Y10.6100 
G01 X10.7321 Y10.5290 
G01 X11.8678 Y10.5290 
G01 X12.6588 Y11.3200 
G01 X16.7390 Y11.3200 
G01 X16.7390 Y11.0898 
G01 X16.7544 Y11.0527 
G01 X16.7827 Y11.0244 
G01 X16.8198 Y11.0090 
G01 X17.0500 Y11.0090 
G01 X17.0500 Y8.8910 
G01 X17.0880 Y8.6998 
G01 X17.1627 Y8.5196 
G01 X17.2710 Y8.3575 
G01 X17.4089 Y8.2196 
G01 X17.5710 Y8.1113 
G01 X17.7512 Y8.0366 
G01 X17.9424 Y7.9986 
G01 X18.1375 Y7.9986 
G01 X40.2112 Y7.9986 
G01 X40.2112 Y7.1024 
G01 X40.2492 Y6.9112 
G01 X40.3239 Y6.7310 
G01 X40.4322 Y6.5689 
G01 X40.5701 Y6.4310 
G01 X40.7322 Y6.3227 
G01 X40.9124 Y6.2480 
G01 X41.1036 Y6.2100 
G01 X41.2987 Y6.2100 
G01 X52.0975 Y6.2100 
G01 X52.2887 Y6.2480 
G01 X52.4689 Y6.3227 
G01 X52.6310 Y6.4310 
G01 X52.7689 Y6.5689 
G01 X52.8772 Y6.7310 
G01 X52.9519 Y6.9112 
G01 X52.9899 Y7.1024 
G01 X52.9899 Y7.2975 
G01 X52.9899 Y9.8890 
G01 X54.4301 Y9.8890 
G01 X54.4672 Y9.9044 
G01 X54.4955 Y9.9327 
G01 X54.5109 Y9.9698 
G01 X54.5109 Y10.2000 
G01 X55.7024 Y10.2000 
G01 X55.8975 Y10.2000 
G01 X56.0887 Y10.2380 
G01 X56.2689 Y10.3127 
G01 X56.4310 Y10.4210 
G01 X56.5689 Y10.5589 
G01 X56.6772 Y10.7210 
G01 X56.7193 Y10.8226 
G01 X57.3890 Y10.8319 
G01 X57.3890 Y10.6198 
G01 X57.4044 Y10.5827 
G01 X57.4327 Y10.5544 
G01 X57.4698 Y10.5390 
G01 X59.9101 Y10.5390 
G01 X59.9472 Y10.5544 
G01 X59.9755 Y10.5827 
G01 X59.9909 Y10.6198 
G01 X59.9909 Y13.0601 
G01 X59.9755 Y13.0972 
G01 X59.9472 Y13.1255 
G01 X59.9101 Y13.1409 
G01 X57.4698 Y13.1409 
G01 X57.4327 Y13.1255 
G01 X57.4044 Y13.0972 
G01 X57.3890 Y13.0601 
G01 X57.3890 Y12.8120 
G01 X55.7898 Y12.7899 
G01 X55.7024 Y12.7899 
G01 X55.6959 Y12.7886 
G01 X55.6887 Y12.7885 
G01 X55.5986 Y12.7692 
G01 X55.5112 Y12.7519 
G01 X55.5049 Y12.7492 
G01 X55.4980 Y12.7478 
G01 X55.4119 Y12.7107 
G01 X55.3310 Y12.6772 
G01 X55.3256 Y12.6735 
G01 X55.3189 Y12.6707 
G01 X55.2418 Y12.6176 
G01 X55.1689 Y12.5689 
G01 X55.1641 Y12.5641 
G01 X55.1583 Y12.5601 
G01 X55.0939 Y12.4938 
G01 X55.0310 Y12.4310 
G01 X55.0273 Y12.4254 
G01 X55.0223 Y12.4203 
G01 X54.9725 Y12.3433 
G01 X54.9227 Y12.2689 
G01 X54.9201 Y12.2624 
G01 X54.9163 Y12.2567 
G01 X54.8857 Y12.1799 
G01 X54.5109 Y12.1799 
G01 X54.5109 Y12.4101 
G01 X54.4955 Y12.4472 
G01 X54.4672 Y12.4755 
G01 X54.4301 Y12.4909 
G01 X51.5898 Y12.4909 
G01 X51.5527 Y12.4755 
G01 X51.5244 Y12.4472 
G01 X51.5090 Y12.4101 
G01 X51.5090 Y12.0525 
G01 X51.3689 Y11.9589 
G01 X51.2310 Y11.8210 
G01 X51.1227 Y11.6589 
G01 X51.0480 Y11.4787 
G01 X51.0100 Y11.2875 
G01 X51.0100 Y8.1899 
G01 X42.1911 Y8.1899 
G01 X42.1911 Y8.2780 
G01 X42.3389 Y8.2780 
G01 X42.3760 Y8.2934 
G01 X42.4043 Y8.3217 
G01 X42.4197 Y8.3588 
G01 X42.4197 Y9.6183 
G01 X42.4043 Y9.6554 
G01 X42.3760 Y9.6837 
G01 X42.3389 Y9.6991 
G01 X41.8906 Y9.6991 
G01 X41.8322 Y9.7575 
G01 X41.6701 Y9.8658 
G01 X41.4899 Y9.9405 
G01 X41.2987 Y9.9785 
G01 X41.1036 Y9.9785 
G01 X41.1035 Y9.9785 
G01 X19.0299 Y9.9785 
G01 X19.0299 Y11.0090 
G01 X19.2601 Y11.0090 
G01 X19.2972 Y11.0244 
G01 X19.3255 Y11.0527 
G01 X19.3409 Y11.0898 
G01 X19.3409 Y13.5301 
G01 X19.3255 Y13.5672 
G01 X19.2972 Y13.5955 
G01 X19.2601 Y13.6109 
G01 X16.8198 Y13.6109 
G01 X16.7827 Y13.5955 
G01 X16.7544 Y13.5672 
G01 X16.7390 Y13.5301 
G01 X16.7390 Y13.2999 
G01 X10.8975 Y13.2999 
G01 X10.7024 Y13.2999 
G01 X10.5112 Y13.2619 
G01 X10.3310 Y13.1872 
G01 X10.1689 Y13.0789 
G01 X10.0310 Y12.9410 
G01 X9.9227 Y12.7789 
G01 X9.8480 Y12.5987 
G01 X9.8463 Y12.5899 
G01 X9.3899 Y12.5899 
G01 X9.3899 Y25.2100 
G01 X10.9024 Y25.2100 
G01 X27.9024 Y25.2100 
G01 X32.9024 Y25.2100 
G01 X36.6100 Y25.2100 
G01 X36.6100 Y22.6975 
G01 X36.6100 Y22.5024 
G01 X36.6480 Y22.3112 
G01 X36.7227 Y22.1310 
G01 X36.8310 Y21.9689 
G01 X36.9689 Y21.8310 
G01 X37.1310 Y21.7227 
G01 X37.3112 Y21.6480 
G01 X37.4152 Y21.6274 
G01 X37.4352 Y21.5789 
G01 X37.5186 Y21.4542 
G01 X37.6246 Y21.3482 
G01 X37.7493 Y21.2648 
G01 X37.8878 Y21.2075 
G01 X38.0349 Y21.1782 
G01 X38.1850 Y21.1782 
G01 X38.3321 Y21.2075 
G01 X38.4706 Y21.2648 
G01 X38.5953 Y21.3482 
G01 X38.7013 Y21.4542 
G01 X38.7847 Y21.5789 
G01 X38.8420 Y21.7174 
G01 X38.8713 Y21.8645 
G01 X38.8713 Y21.9613 
G01 X38.8789 Y21.9689 
G01 X38.9872 Y22.1310 
G01 X39.0619 Y22.3112 
G01 X39.0999 Y22.5024 
G01 X39.0999 Y22.6975 
G01 X39.0619 Y22.8887 
G01 X38.9872 Y23.0689 
G01 X38.8789 Y23.2310 
G01 X38.8713 Y23.2386 
G01 X38.8713 Y23.3354 
G01 X38.8420 Y23.4825 
G01 X38.7847 Y23.6210 
G01 X38.7013 Y23.7457 
G01 X38.5953 Y23.8517 
G01 X38.5899 Y23.8553 
G01 X38.5899 Y26.0608 
G01 X39.7069 Y26.0608 
G01 X39.7144 Y26.0427 
G01 X39.7427 Y26.0144 
G01 X39.7798 Y25.9990 
G01 X41.4201 Y25.9990 
G01 X41.4572 Y26.0144 
G01 X41.4855 Y26.0427 
G01 X41.5009 Y26.0798 
G00 Z2.0000 
G00 X21.1378 Y29.0940 
G01 Z-0.2000 F600.00 
G01 X22.8621 Y29.0940 
G01 X22.9028 Y29.1109 
G01 X22.9340 Y29.1421 
G01 X22.9509 Y29.1828 
G01 X22.9509 Y31.0771 
G01 X22.9340 Y31.1178 
G01 X22.9028 Y31.1490 
G01 X22.8621 Y31.1659 
G01 X21.1378 Y31.1659 
G01 X21.0971 Y31.1490 
G01 X21.0659 Y31.1178 
G01 X21.0499 Y31.0791 
G01 X17.7491 Y31.0791 
G01 X17.7491 Y33.7125 
G01 X17.7126 Y33.8958 
G01 X17.6411 Y34.0686 
G01 X17.5372 Y34.2240 
G01 X17.4050 Y34.3562 
G01 X17.2496 Y34.4601 
G01 X17.0768 Y34.5316 
G01 X16.8935 Y34.5681 
G01 X16.7064 Y34.5681 
G01 X16.5231 Y34.5316 
G01 X16.3503 Y34.4601 
G01 X16.3052 Y34.4299 
G01 X15.8768 Y34.4299 
G01 X15.8361 Y34.4130 
G01 X15.8049 Y34.3818 
G01 X15.7880 Y34.3411 
G01 X15.7880 Y32.8968 
G01 X15.8049 Y32.8561 
G01 X15.8361 Y32.8249 
G01 X15.8508 Y32.8188 
G01 X15.8508 Y30.4109 
G01 X14.7778 Y30.4109 
G01 X14.7371 Y30.3940 
G01 X14.7059 Y30.3628 
G01 X14.6890 Y30.3221 
G01 X14.6890 Y28.4778 
G01 X14.7059 Y28.4371 
G01 X14.7371 Y28.4059 
G01 X14.7778 Y28.3890 
G01 X18.8221 Y28.3890 
G01 X18.8628 Y28.4059 
G01 X18.8940 Y28.4371 
G01 X18.9109 Y28.4778 
G01 X18.9109 Y29.1808 
G01 X21.0499 Y29.1808 
G01 X21.0659 Y29.1421 
G01 X21.0971 Y29.1109 
G01 X21.1378 Y29.0940 
G00 Z2.0000 
G00 X55.1186 Y23.3364 
G01 Z-0.2000 F600.00 
G01 X55.1186 Y21.8635 
G01 X55.1482 Y21.7145 
G01 X55.2064 Y21.5742 
G01 X55.2908 Y21.4478 
G01 X55.3982 Y21.3404 
G01 X55.5246 Y21.2560 
G01 X55.6649 Y21.1978 
G01 X55.8139 Y21.1682 
G01 X55.9660 Y21.1682 
G01 X56.1150 Y21.1978 
G01 X56.2553 Y21.2560 
G01 X56.3817 Y21.3404 
G01 X56.4891 Y21.4478 
G01 X56.5735 Y21.5742 
G01 X56.6317 Y21.7145 
G01 X56.6613 Y21.8635 
G01 X56.6613 Y23.3364 
G01 X56.6317 Y23.4854 
G01 X56.5735 Y23.6257 
G01 X56.4891 Y23.7521 
G01 X56.3817 Y23.8595 
G01 X56.2553 Y23.9439 
G01 X56.1150 Y24.0021 
G01 X55.9660 Y24.0317 
G01 X55.8139 Y24.0317 
G01 X55.6649 Y24.0021 
G01 X55.5246 Y23.9439 
G01 X55.3982 Y23.8595 
G01 X55.2908 Y23.7521 
G01 X55.2064 Y23.6257 
G01 X55.1482 Y23.4854 
G01 X55.1186 Y23.3364 
G00 Z2.0000 
G00 X52.5786 Y23.3364 
G01 Z-0.2000 F600.00 
G01 X52.5786 Y21.8635 
G01 X52.6082 Y21.7145 
G01 X52.6664 Y21.5742 
G01 X52.7508 Y21.4478 
G01 X52.8582 Y21.3404 
G01 X52.9846 Y21.2560 
G01 X53.1249 Y21.1978 
G01 X53.2739 Y21.1682 
G01 X53.4260 Y21.1682 
G01 X53.5750 Y21.1978 
G01 X53.7153 Y21.2560 
G01 X53.8417 Y21.3404 
G01 X53.9491 Y21.4478 
G01 X54.0335 Y21.5742 
G01 X54.0917 Y21.7145 
G01 X54.1213 Y21.8635 
G01 X54.1213 Y23.3364 
G01 X54.0917 Y23.4854 
G01 X54.0335 Y23.6257 
G01 X53.9491 Y23.7521 
G01 X53.8417 Y23.8595 
G01 X53.7153 Y23.9439 
G01 X53.5750 Y24.0021 
G01 X53.4260 Y24.0317 
G01 X53.2739 Y24.0317 
G01 X53.1249 Y24.0021 
G01 X52.9846 Y23.9439 
G01 X52.8582 Y23.8595 
G01 X52.7508 Y23.7521 
G01 X52.6664 Y23.6257 
G01 X52.6082 Y23.4854 
G01 X52.5786 Y23.3364 
G00 Z2.0000 
G00 X50.0386 Y23.3364 
G01 Z-0.2000 F600.00 
G01 X50.0386 Y21.8635 
G01 X50.0682 Y21.7145 
G01 X50.1264 Y21.5742 
G01 X50.2108 Y21.4478 
G01 X50.3182 Y21.3404 
G01 X50.4446 Y21.2560 
G01 X50.5849 Y21.1978 
G01 X50.7339 Y21.1682 
G01 X50.8860 Y21.1682 
G01 X51.0350 Y21.1978 
G01 X51.1753 Y21.2560 
G01 X51.3017 Y21.3404 
G01 X51.4091 Y21.4478 
G01 X51.4935 Y21.5742 
G01 X51.5517 Y21.7145 
G01 X51.5813 Y21.8635 
G01 X51.5813 Y23.3364 
G01 X51.5517 Y23.4854 
G01 X51.4935 Y23.6257 
G01 X51.4091 Y23.7521 
G01 X51.3017 Y23.8595 
G01 X51.1753 Y23.9439 
G01 X51.0350 Y24.0021 
G01 X50.8860 Y24.0317 
G01 X50.7339 Y24.0317 
G01 X50.5849 Y24.0021 
G01 X50.4446 Y23.9439 
G01 X50.3182 Y23.8595 
G01 X50.2108 Y23.7521 
G01 X50.1264 Y23.6257 
G01 X50.0682 Y23.4854 
G01 X50.0386 Y23.3364 
G00 Z2.0000 
G00 X47.4986 Y21.8635 
G01 Z-0.2000 F600.00 
G01 X47.5282 Y21.7145 
G01 X47.5864 Y21.5742 
G01 X47.6708 Y21.4478 
G01 X47.7782 Y21.3404 
G01 X47.9046 Y21.2560 
G01 X48.0449 Y21.1978 
G01 X48.1939 Y21.1682 
G01 X48.3460 Y21.1682 
G01 X48.4950 Y21.1978 
G01 X48.6353 Y21.2560 
G01 X48.7617 Y21.3404 
G01 X48.8691 Y21.4478 
G01 X48.9535 Y21.5742 
G01 X49.0117 Y21.7145 
G01 X49.0413 Y21.8635 
G01 X49.0413 Y21.9572 
G01 X49.0467 Y21.9625 
G01 X49.1561 Y22.1263 
G01 X49.2315 Y22.3082 
G01 X49.2699 Y22.5014 
G01 X49.2699 Y26.9014 
G01 X49.2699 Y27.0508 
G01 X64.0508 Y27.0508 
G01 X64.0508 Y25.9809 
G01 X64.0280 Y25.9809 
G01 X63.2190 Y25.1719 
G01 X63.2190 Y24.0280 
G01 X64.0280 Y23.2190 
G01 X65.1719 Y23.2190 
G01 X65.9809 Y24.0280 
G01 X65.9809 Y25.1719 
G01 X65.9491 Y25.2037 
G01 X65.9491 Y27.9064 
G01 X65.9491 Y28.0935 
G01 X65.9126 Y28.2768 
G01 X65.8411 Y28.4496 
G01 X65.7372 Y28.6050 
G01 X65.6050 Y28.7372 
G01 X65.4496 Y28.8411 
G01 X65.2768 Y28.9126 
G01 X65.0935 Y28.9491 
G01 X48.5915 Y28.9491 
G01 X48.5617 Y28.9615 
G01 X48.3685 Y28.9999 
G01 X48.1714 Y28.9999 
G01 X47.9782 Y28.9615 
G01 X47.7963 Y28.8861 
G01 X47.6325 Y28.7767 
G01 X47.4932 Y28.6374 
G01 X47.3838 Y28.4736 
G01 X47.3084 Y28.2917 
G01 X47.2700 Y28.0985 
G01 X47.2700 Y27.9491 
G01 X44.3491 Y27.9491 
G01 X44.3491 Y31.4935 
G01 X44.3126 Y31.6768 
G01 X44.2411 Y31.8496 
G01 X44.1372 Y32.0050 
G01 X44.0050 Y32.1372 
G01 X43.8496 Y32.2411 
G01 X43.6768 Y32.3126 
G01 X43.4935 Y32.3491 
G01 X43.3064 Y32.3491 
G01 X33.5491 Y32.3491 
G01 X33.5491 Y33.6435 
G01 X33.5126 Y33.8268 
G01 X33.4411 Y33.9996 
G01 X33.3372 Y34.1550 
G01 X33.2050 Y34.2872 
G01 X33.0496 Y34.3911 
G01 X32.8768 Y34.4626 
G01 X32.6935 Y34.4991 
G01 X32.5064 Y34.4991 
G01 X29.3109 Y34.4991 
G01 X29.3109 Y34.7721 
G01 X29.2940 Y34.8128 
G01 X29.2628 Y34.8440 
G01 X29.2221 Y34.8609 
G01 X28.3994 Y34.8609 
G01 X28.2496 Y34.9611 
G01 X28.0768 Y35.0326 
G01 X27.8935 Y35.0691 
G01 X22.9491 Y35.0691 
G01 X22.9491 Y35.9064 
G01 X22.9491 Y36.0935 
G01 X22.9126 Y36.2768 
G01 X22.8411 Y36.4496 
G01 X22.7372 Y36.6050 
G01 X22.6050 Y36.7372 
G01 X22.4496 Y36.8411 
G01 X22.2768 Y36.9126 
G01 X22.0935 Y36.9491 
G01 X15.9109 Y36.9491 
G01 X15.9109 Y37.5738 
G01 X15.8778 Y37.7401 
G01 X15.8129 Y37.8968 
G01 X15.7187 Y38.0378 
G01 X15.5988 Y38.1577 
G01 X15.4578 Y38.2519 
G01 X15.3011 Y38.3168 
G01 X15.1348 Y38.3499 
G01 X14.4651 Y38.3499 
G01 X14.2988 Y38.3168 
G01 X14.1421 Y38.2519 
G01 X14.0011 Y38.1577 
G01 X13.8812 Y38.0378 
G01 X13.7870 Y37.8968 
G01 X13.7221 Y37.7401 
G01 X13.6890 Y37.5738 
G01 X13.6890 Y35.4041 
G01 X13.7221 Y35.2378 
G01 X13.7870 Y35.0811 
G01 X13.8812 Y34.9401 
G01 X14.0011 Y34.8202 
G01 X14.1421 Y34.7260 
G01 X14.2890 Y34.6652 
G01 X14.2890 Y32.9008 
G01 X14.3059 Y32.8601 
G01 X14.3371 Y32.8289 
G01 X14.3778 Y32.8120 
G01 X15.2221 Y32.8120 
G01 X15.2628 Y32.8289 
G01 X15.2940 Y32.8601 
G01 X15.3109 Y32.9008 
G01 X15.3109 Y34.6652 
G01 X15.4578 Y34.7260 
G01 X15.5988 Y34.8202 
G01 X15.7187 Y34.9401 
G01 X15.7926 Y35.0508 
G01 X21.0508 Y35.0508 
G01 X21.0508 Y34.8064 
G01 X21.0490 Y34.8021 
G01 X21.0490 Y33.4378 
G01 X21.0659 Y33.3971 
G01 X21.0971 Y33.3659 
G01 X21.1378 Y33.3490 
G01 X21.4454 Y33.3490 
G01 X21.5503 Y33.2788 
G01 X21.7231 Y33.2073 
G01 X21.9064 Y33.1708 
G01 X22.0935 Y33.1708 
G01 X26.2890 Y33.1708 
G01 X26.2890 Y32.3278 
G01 X26.3059 Y32.2871 
G01 X26.3371 Y32.2559 
G01 X26.3778 Y32.2390 
G01 X29.2221 Y32.2390 
G01 X29.2628 Y32.2559 
G01 X29.2940 Y32.2871 
G01 X29.3109 Y32.3278 
G01 X29.3109 Y32.6008 
G01 X31.6508 Y32.6008 
G01 X31.6508 Y32.2997 
G01 X31.6371 Y32.2940 
G01 X31.6059 Y32.2628 
G01 X31.5890 Y32.2221 
G01 X31.5890 Y30.5778 
G01 X31.6059 Y30.5371 
G01 X31.6371 Y30.5059 
G01 X31.6778 Y30.4890 
G01 X32.3191 Y30.4890 
G01 X32.3231 Y30.4873 
G01 X32.5064 Y30.4508 
G01 X42.4508 Y30.4508 
G01 X42.4508 Y27.0935 
G01 X42.4508 Y26.9064 
G01 X42.4873 Y26.7231 
G01 X42.4890 Y26.7190 
G01 X42.4890 Y26.0778 
G01 X42.5059 Y26.0371 
G01 X42.5371 Y26.0059 
G01 X42.5778 Y25.9890 
G01 X44.2221 Y25.9890 
G01 X44.2628 Y26.0059 
G01 X44.2940 Y26.0371 
G01 X44.2996 Y26.0508 
G01 X47.2700 Y26.0508 
G01 X47.2700 Y22.5014 
G01 X47.3084 Y22.3082 
G01 X47.3838 Y22.1263 
G01 X47.4932 Y21.9625 
G01 X47.4986 Y21.9572 
G01 X47.4986 Y21.8635 
G00 Z2.0000 
G00 X44.9586 Y23.3364 
G01 Z-0.2000 F600.00 
G01 X44.9586 Y23.2428 
G01 X44.9532 Y23.2374 
G01 X44.8438 Y23.0736 
G01 X44.7684 Y22.8917 
G01 X44.7300 Y22.6985 
G01 X44.7300 Y22.5014 
G01 X44.7684 Y22.3082 
G01 X44.8438 Y22.1263 
G01 X44.9532 Y21.9625 
G01 X44.9586 Y21.9571 
G01 X44.9586 Y21.8635 
G01 X44.9882 Y21.7145 
G01 X44.9900 Y21.7102 
G01 X44.9900 Y18.8985 
G01 X44.9790 Y18.8721 
G01 X44.9790 Y16.6278 
G01 X44.9959 Y16.5871 
G01 X45.0271 Y16.5559 
G01 X45.0678 Y16.5390 
G01 X46.9121 Y16.5390 
G01 X46.9528 Y16.5559 
G01 X46.9840 Y16.5871 
G01 X47.0009 Y16.6278 
G01 X47.0009 Y16.7500 
G01 X51.4990 Y16.7500 
G01 X51.4990 Y16.2678 
G01 X51.5159 Y16.2271 
G01 X51.5471 Y16.1959 
G01 X51.5878 Y16.1790 
G01 X52.2222 Y16.1790 
G01 X52.2332 Y16.1625 
G01 X52.3725 Y16.0232 
G01 X52.5363 Y15.9138 
G01 X52.7182 Y15.8384 
G01 X52.9114 Y15.8000 
G01 X53.1085 Y15.8000 
G01 X53.6985 Y15.8000 
G01 X53.8917 Y15.8384 
G01 X54.0736 Y15.9138 
G01 X54.2374 Y16.0232 
G01 X54.3767 Y16.1625 
G01 X54.3877 Y16.1790 
G01 X54.4321 Y16.1790 
G01 X54.4728 Y16.1959 
G01 X54.4768 Y16.2000 
G01 X57.3790 Y16.2000 
G01 X57.3790 Y15.6178 
G01 X57.3959 Y15.5771 
G01 X57.4271 Y15.5459 
G01 X57.4678 Y15.5290 
G01 X59.9121 Y15.5290 
G01 X59.9528 Y15.5459 
G01 X59.9840 Y15.5771 
G01 X60.0009 Y15.6178 
G01 X60.0009 Y15.9987 
G01 X60.0861 Y16.1263 
G01 X60.1581 Y16.3000 
G01 X64.1471 Y16.3000 
G01 X64.5280 Y15.9190 
G01 X65.6719 Y15.9190 
G01 X66.4809 Y16.7280 
G01 X66.4809 Y17.8719 
G01 X65.6719 Y18.6809 
G01 X64.5280 Y18.6809 
G01 X64.1471 Y18.2999 
G01 X59.7876 Y18.2999 
G01 X59.7872 Y18.3002 
G01 X59.7397 Y18.3375 
G01 X59.7053 Y18.3549 
G01 X59.6736 Y18.3761 
G01 X59.6179 Y18.3991 
G01 X59.5640 Y18.4265 
G01 X59.5272 Y18.4368 
G01 X59.4917 Y18.4515 
G01 X59.4323 Y18.4633 
G01 X59.3744 Y18.4795 
G01 X59.3361 Y18.4824 
G01 X59.2985 Y18.4899 
G01 X59.2382 Y18.4899 
G01 X59.1779 Y18.4945 
G01 X59.1398 Y18.4899 
G01 X59.1014 Y18.4899 
G01 X59.0422 Y18.4781 
G01 X58.9823 Y18.4709 
G01 X58.9461 Y18.4590 
G01 X58.9082 Y18.4515 
G01 X58.8523 Y18.4283 
G01 X58.7951 Y18.4096 
G01 X58.7616 Y18.3907 
G01 X58.7263 Y18.3761 
G01 X58.6765 Y18.3428 
G01 X58.6235 Y18.3130 
G01 X58.6083 Y18.2999 
G01 X58.4985 Y18.2999 
G01 X58.3014 Y18.2999 
G01 X58.1082 Y18.2615 
G01 X57.9596 Y18.1999 
G01 X54.5209 Y18.1999 
G01 X54.5209 Y18.7121 
G01 X54.5040 Y18.7528 
G01 X54.4728 Y18.7840 
G01 X54.4321 Y18.8009 
G01 X51.5878 Y18.8009 
G01 X51.5471 Y18.7840 
G01 X51.5159 Y18.7528 
G01 X51.5147 Y18.7499 
G01 X47.0009 Y18.7499 
G01 X47.0009 Y18.8721 
G01 X46.9899 Y18.8985 
G01 X46.9899 Y22.6985 
G01 X46.9515 Y22.8917 
G01 X46.8761 Y23.0736 
G01 X46.7667 Y23.2374 
G01 X46.6274 Y23.3767 
G01 X46.4727 Y23.4800 
G01 X46.4717 Y23.4854 
G01 X46.4135 Y23.6257 
G01 X46.3291 Y23.7521 
G01 X46.2217 Y23.8595 
G01 X46.0953 Y23.9439 
G01 X45.9550 Y24.0021 
G01 X45.8060 Y24.0317 
G01 X45.6539 Y24.0317 
G01 X45.5049 Y24.0021 
G01 X45.3646 Y23.9439 
G01 X45.2382 Y23.8595 
G01 X45.1308 Y23.7521 
G01 X45.0464 Y23.6257 
G01 X44.9882 Y23.4854 
G01 X44.9586 Y23.3364 
G00 Z2.0000 
G00 X39.8786 Y23.3364 
G01 Z-0.2000 F600.00 
G01 X39.8786 Y21.8635 
G01 X39.9082 Y21.7145 
G01 X39.9664 Y21.5742 
G01 X40.0508 Y21.4478 
G01 X40.1582 Y21.3404 
G01 X40.2846 Y21.2560 
G01 X40.4249 Y21.1978 
G01 X40.5739 Y21.1682 
G01 X40.7260 Y21.1682 
G01 X40.8750 Y21.1978 
G01 X41.0153 Y21.2560 
G01 X41.1417 Y21.3404 
G01 X41.2491 Y21.4478 
G01 X41.3335 Y21.5742 
G01 X41.3917 Y21.7145 
G01 X41.4213 Y21.8635 
G01 X41.4213 Y23.3364 
G01 X41.3917 Y23.4854 
G01 X41.3335 Y23.6257 
G01 X41.2491 Y23.7521 
G01 X41.1417 Y23.8595 
G01 X41.0153 Y23.9439 
G01 X40.8750 Y24.0021 
G01 X40.7260 Y24.0317 
G01 X40.5739 Y24.0317 
G01 X40.4249 Y24.0021 
G01 X40.2846 Y23.9439 
G01 X40.1582 Y23.8595 
G01 X40.0508 Y23.7521 
G01 X39.9664 Y23.6257 
G01 X39.9082 Y23.4854 
G01 X39.8786 Y23.3364 
G00 Z2.0000 
G00 X46.2768 Y9.3890 
G01 Z-0.2000 F600.00 
G01 X48.5211 Y9.3890 
G01 X48.5618 Y9.4059 
G01 X48.5930 Y9.4371 
G01 X48.6099 Y9.4778 
G01 X48.6099 Y13.1221 
G01 X48.5930 Y13.1628 
G01 X48.5618 Y13.1940 
G01 X48.5211 Y13.2109 
G01 X46.2768 Y13.2109 
G01 X46.2361 Y13.1940 
G01 X46.2049 Y13.1628 
G01 X46.1880 Y13.1221 
G01 X46.1880 Y9.4778 
G01 X46.2049 Y9.4371 
G01 X46.2361 Y9.4059 
G01 X46.2768 Y9.3890 
G00 Z2.0000 
G00 X40.0614 Y12.8908 
G01 Z-0.2000 F600.00 
G01 X40.5075 Y12.8908 
G01 X40.5637 Y12.8346 
G01 X40.7275 Y12.7252 
G01 X40.9094 Y12.6498 
G01 X41.1026 Y12.6114 
G01 X43.0914 Y12.6114 
G01 X43.2885 Y12.6114 
G01 X43.4817 Y12.6498 
G01 X43.6636 Y12.7252 
G01 X43.8274 Y12.8346 
G01 X43.9667 Y12.9739 
G01 X44.0761 Y13.1377 
G01 X44.1515 Y13.3196 
G01 X44.1899 Y13.5128 
G01 X44.1899 Y22.6985 
G01 X44.1515 Y22.8917 
G01 X44.0761 Y23.0736 
G01 X43.9667 Y23.2374 
G01 X43.9613 Y23.2428 
G01 X43.9613 Y23.3364 
G01 X43.9317 Y23.4854 
G01 X43.8735 Y23.6257 
G01 X43.7891 Y23.7521 
G01 X43.6817 Y23.8595 
G01 X43.5553 Y23.9439 
G01 X43.4150 Y24.0021 
G01 X43.2660 Y24.0317 
G01 X43.1139 Y24.0317 
G01 X42.9649 Y24.0021 
G01 X42.8246 Y23.9439 
G01 X42.6982 Y23.8595 
G01 X42.5908 Y23.7521 
G01 X42.5064 Y23.6257 
G01 X42.4482 Y23.4854 
G01 X42.4186 Y23.3364 
G01 X42.4186 Y23.2428 
G01 X42.4132 Y23.2374 
G01 X42.3038 Y23.0736 
G01 X42.2284 Y22.8917 
G01 X42.1900 Y22.6985 
G01 X42.1900 Y14.6113 
G01 X41.1026 Y14.6113 
G01 X40.9094 Y14.5729 
G01 X40.7275 Y14.4975 
G01 X40.5637 Y14.3881 
G01 X40.5075 Y14.3319 
G01 X40.0614 Y14.3319 
G01 X40.0207 Y14.3150 
G01 X39.9895 Y14.2838 
G01 X39.9726 Y14.2431 
G01 X39.9726 Y12.9796 
G01 X39.9895 Y12.9389 
G01 X40.0207 Y12.9077 
G01 X40.0614 Y12.8908 
G00 Z2.0000 
G00 X35.9809 Y14.6078 
G01 Z-0.2000 F600.00 
G01 X35.9809 Y16.3800 
G01 X40.2726 Y16.3800 
G01 X40.3520 Y16.3771 
G01 X40.3700 Y16.3800 
G01 X40.3885 Y16.3800 
G01 X40.4673 Y16.3957 
G01 X40.5464 Y16.4084 
G01 X40.5636 Y16.4148 
G01 X40.5817 Y16.4184 
G01 X40.6557 Y16.4491 
G01 X40.7310 Y16.4771 
G01 X40.7467 Y16.4869 
G01 X40.7636 Y16.4938 
G01 X40.8299 Y16.5382 
G01 X40.8314 Y16.5390 
G01 X41.8121 Y16.5390 
G01 X41.8528 Y16.5559 
G01 X41.8840 Y16.5871 
G01 X41.9009 Y16.6278 
G01 X41.9009 Y18.8721 
G01 X41.8840 Y18.9128 
G01 X41.8528 Y18.9440 
G01 X41.8121 Y18.9609 
G01 X39.9678 Y18.9609 
G01 X39.9271 Y18.9440 
G01 X39.8959 Y18.9128 
G01 X39.8790 Y18.8721 
G01 X39.8790 Y18.3799 
G01 X35.9809 Y18.3799 
G01 X35.9809 Y20.1521 
G01 X35.9640 Y20.1928 
G01 X35.9328 Y20.2240 
G01 X35.8921 Y20.2409 
G01 X31.9978 Y20.2409 
G01 X31.9571 Y20.2240 
G01 X31.9259 Y20.1928 
G01 X31.9090 Y20.1521 
G01 X31.9090 Y14.6078 
G01 X31.9259 Y14.5671 
G01 X31.9571 Y14.5359 
G01 X31.9978 Y14.5190 
G01 X32.9450 Y14.5190 
G01 X32.9450 Y11.2014 
G01 X32.9834 Y11.0082 
G01 X33.0588 Y10.8263 
G01 X33.1682 Y10.6625 
G01 X33.3075 Y10.5232 
G01 X33.4713 Y10.4138 
G01 X33.6532 Y10.3384 
G01 X33.8464 Y10.3000 
G01 X34.0435 Y10.3000 
G01 X41.2997 Y10.3000 
G01 X41.4929 Y10.3384 
G01 X41.6748 Y10.4138 
G01 X41.8386 Y10.5232 
G01 X41.8948 Y10.5794 
G01 X42.3409 Y10.5794 
G01 X42.3816 Y10.5963 
G01 X42.4128 Y10.6275 
G01 X42.4297 Y10.6682 
G01 X42.4297 Y11.9317 
G01 X42.4128 Y11.9724 
G01 X42.3816 Y12.0036 
G01 X42.3409 Y12.0205 
G01 X41.8948 Y12.0205 
G01 X41.8386 Y12.0767 
G01 X41.6748 Y12.1861 
G01 X41.4929 Y12.2615 
G01 X41.2997 Y12.2999 
G01 X34.9449 Y12.2999 
G01 X34.9449 Y14.5190 
G01 X35.8921 Y14.5190 
G01 X35.9328 Y14.5359 
G01 X35.9640 Y14.5671 
G01 X35.9809 Y14.6078 
G00 Z2.0000 
G00 X26.0309 Y14.6078 
G01 Z-0.2000 F600.00 
G01 X26.0309 Y20.1521 
G01 X26.0140 Y20.1928 
G01 X25.9828 Y20.2240 
G01 X25.9421 Y20.2409 
G01 X22.0478 Y20.2409 
G01 X22.0071 Y20.2240 
G01 X21.9759 Y20.1928 
G01 X21.9590 Y20.1521 
G01 X21.9590 Y16.7999 
G01 X19.3509 Y16.7999 
G01 X19.3509 Y18.5321 
G01 X19.3340 Y18.5728 
G01 X19.3028 Y18.6040 
G01 X19.2621 Y18.6209 
G01 X16.9491 Y18.6209 
G01 X16.9491 Y21.8890 
G01 X18.8221 Y21.8890 
G01 X18.8628 Y21.9059 
G01 X18.8940 Y21.9371 
G01 X18.9109 Y21.9778 
G01 X18.9109 Y23.8221 
G01 X18.8940 Y23.8628 
G01 X18.8628 Y23.8940 
G01 X18.8221 Y23.9109 
G01 X14.7778 Y23.9109 
G01 X14.7371 Y23.8940 
G01 X14.7059 Y23.8628 
G01 X14.6890 Y23.8221 
G01 X14.6890 Y21.9778 
G01 X14.7059 Y21.9371 
G01 X14.7371 Y21.9059 
G01 X14.7778 Y21.8890 
G01 X15.0508 Y21.8890 
G01 X15.0508 Y18.0999 
G01 X12.8528 Y18.0999 
G01 X12.4719 Y18.4809 
G01 X11.3280 Y18.4809 
G01 X10.5190 Y17.6719 
G01 X10.5190 Y16.5280 
G01 X11.3280 Y15.7190 
G01 X12.4719 Y15.7190 
G01 X12.8528 Y16.1000 
G01 X15.9014 Y16.1000 
G01 X16.7290 Y16.1000 
G01 X16.7290 Y16.0878 
G01 X16.7459 Y16.0471 
G01 X16.7771 Y16.0159 
G01 X16.8178 Y15.9990 
G01 X17.0400 Y15.9990 
G01 X17.0400 Y15.7014 
G01 X17.0784 Y15.5082 
G01 X17.1538 Y15.3263 
G01 X17.2632 Y15.1625 
G01 X17.4025 Y15.0232 
G01 X17.5663 Y14.9138 
G01 X17.7482 Y14.8384 
G01 X17.9414 Y14.8000 
G01 X18.1385 Y14.8000 
G01 X21.9590 Y14.8000 
G01 X21.9590 Y14.6078 
G01 X21.9759 Y14.5671 
G01 X22.0071 Y14.5359 
G01 X22.0478 Y14.5190 
G01 X25.9421 Y14.5190 
G01 X25.9828 Y14.5359 
G01 X26.0140 Y14.5671 
G01 X26.0309 Y14.6078 
G00 Z2.0000 
G00 X41.5109 Y26.0778 
G01 Z-0.2000 F600.00 
G01 X41.5109 Y26.7190 
G01 X41.5126 Y26.7231 
G01 X41.5491 Y26.9064 
G01 X41.5491 Y27.0935 
G01 X41.5126 Y27.2768 
G01 X41.5109 Y27.2809 
G01 X41.5109 Y27.9221 
G01 X41.4940 Y27.9628 
G01 X41.4628 Y27.9940 
G01 X41.4221 Y28.0109 
G01 X39.7778 Y28.0109 
G01 X39.7371 Y27.9940 
G01 X39.7059 Y27.9628 
G01 X39.7003 Y27.9491 
G01 X37.5064 Y27.9491 
G01 X37.3231 Y27.9126 
G01 X37.1503 Y27.8411 
G01 X36.9949 Y27.7372 
G01 X36.8627 Y27.6050 
G01 X36.7588 Y27.4496 
G01 X36.6873 Y27.2768 
G01 X36.6720 Y27.1999 
G01 X33.9491 Y27.1999 
G01 X33.9491 Y28.6935 
G01 X33.9126 Y28.8768 
G01 X33.8411 Y29.0496 
G01 X33.7372 Y29.2050 
G01 X33.6109 Y29.3313 
G01 X33.6109 Y29.4221 
G01 X33.5940 Y29.4628 
G01 X33.5628 Y29.4940 
G01 X33.5221 Y29.5109 
G01 X33.2809 Y29.5109 
G01 X33.2768 Y29.5126 
G01 X33.0935 Y29.5491 
G01 X32.9064 Y29.5491 
G01 X32.5064 Y29.5491 
G01 X32.3231 Y29.5126 
G01 X32.3190 Y29.5109 
G01 X31.6778 Y29.5109 
G01 X31.6371 Y29.4940 
G01 X31.6059 Y29.4628 
G01 X31.5890 Y29.4221 
G01 X31.5890 Y27.7778 
G01 X31.6059 Y27.7371 
G01 X31.6371 Y27.7059 
G01 X31.6778 Y27.6890 
G01 X32.0508 Y27.6890 
G01 X32.0508 Y27.1999 
G01 X29.3109 Y27.1999 
G01 X29.3109 Y28.4721 
G01 X29.2940 Y28.5128 
G01 X29.2628 Y28.5440 
G01 X29.2221 Y28.5609 
G01 X26.3778 Y28.5609 
G01 X26.3371 Y28.5440 
G01 X26.3059 Y28.5128 
G01 X26.2890 Y28.4721 
G01 X26.2890 Y27.1999 
G01 X11.9491 Y27.1999 
G01 X11.9491 Y32.6698 
G01 X13.3945 Y32.6698 
G01 X13.5778 Y32.7063 
G01 X13.7506 Y32.7778 
G01 X13.9060 Y32.8817 
G01 X14.0382 Y33.0139 
G01 X14.1421 Y33.1693 
G01 X14.2136 Y33.3421 
G01 X14.2501 Y33.5254 
G01 X14.2501 Y33.7125 
G01 X14.2136 Y33.8958 
G01 X14.1421 Y34.0686 
G01 X14.0382 Y34.2240 
G01 X13.9060 Y34.3562 
G01 X13.7506 Y34.4601 
G01 X13.5778 Y34.5316 
G01 X13.3945 Y34.5681 
G01 X11.0935 Y34.5681 
G01 X10.9064 Y34.5681 
G01 X10.7231 Y34.5316 
G01 X10.5503 Y34.4601 
G01 X10.3949 Y34.3562 
G01 X10.2627 Y34.2240 
G01 X10.1588 Y34.0686 
G01 X10.0873 Y33.8958 
G01 X10.0508 Y33.7125 
G01 X10.0508 Y27.1999 
G01 X8.4985 Y27.1999 
G01 X8.3014 Y27.1999 
G01 X8.1082 Y27.1615 
G01 X7.9263 Y27.0861 
G01 X7.7625 Y26.9767 
G01 X7.6232 Y26.8374 
G01 X7.5138 Y26.6736 
G01 X7.4384 Y26.4917 
G01 X7.4000 Y26.2985 
G01 X7.4000 Y11.6985 
G01 X7.4000 Y11.5014 
G01 X7.4384 Y11.3082 
G01 X7.5138 Y11.1263 
G01 X7.6232 Y10.9625 
G01 X7.7625 Y10.8232 
G01 X7.9263 Y10.7138 
G01 X8.1082 Y10.6384 
G01 X8.3014 Y10.6000 
G01 X10.6471 Y10.6000 
G01 X10.7280 Y10.5190 
G01 X11.8719 Y10.5190 
G01 X12.6629 Y11.3100 
G01 X16.7290 Y11.3100 
G01 X16.7290 Y11.0878 
G01 X16.7459 Y11.0471 
G01 X16.7771 Y11.0159 
G01 X16.8178 Y10.9990 
G01 X17.0400 Y10.9990 
G01 X17.0400 Y8.8900 
G01 X17.0784 Y8.6968 
G01 X17.1538 Y8.5149 
G01 X17.2632 Y8.3511 
G01 X17.4025 Y8.2118 
G01 X17.5663 Y8.1024 
G01 X17.7482 Y8.0270 
G01 X17.9414 Y7.9886 
G01 X18.1385 Y7.9886 
G01 X40.2012 Y7.9886 
G01 X40.2012 Y7.1014 
G01 X40.2396 Y6.9082 
G01 X40.3150 Y6.7263 
G01 X40.4244 Y6.5625 
G01 X40.5637 Y6.4232 
G01 X40.7275 Y6.3138 
G01 X40.9094 Y6.2384 
G01 X41.1026 Y6.2000 
G01 X41.2997 Y6.2000 
G01 X52.0985 Y6.2000 
G01 X52.2917 Y6.2384 
G01 X52.4736 Y6.3138 
G01 X52.6374 Y6.4232 
G01 X52.7767 Y6.5625 
G01 X52.8861 Y6.7263 
G01 X52.9615 Y6.9082 
G01 X52.9999 Y7.1014 
G01 X52.9999 Y7.2985 
G01 X52.9999 Y9.8790 
G01 X54.4321 Y9.8790 
G01 X54.4728 Y9.8959 
G01 X54.5040 Y9.9271 
G01 X54.5209 Y9.9678 
G01 X54.5209 Y10.1900 
G01 X55.7014 Y10.1900 
G01 X55.8985 Y10.1900 
G01 X56.0917 Y10.2284 
G01 X56.2736 Y10.3038 
G01 X56.4374 Y10.4132 
G01 X56.5767 Y10.5525 
G01 X56.6861 Y10.7163 
G01 X56.7260 Y10.8127 
G01 X57.3790 Y10.8218 
G01 X57.3790 Y10.6178 
G01 X57.3959 Y10.5771 
G01 X57.4271 Y10.5459 
G01 X57.4678 Y10.5290 
G01 X59.9121 Y10.5290 
G01 X59.9528 Y10.5459 
G01 X59.9840 Y10.5771 
G01 X60.0009 Y10.6178 
G01 X60.0009 Y13.0621 
G01 X59.9840 Y13.1028 
G01 X59.9528 Y13.1340 
G01 X59.9121 Y13.1509 
G01 X57.4678 Y13.1509 
G01 X57.4271 Y13.1340 
G01 X57.3959 Y13.1028 
G01 X57.3790 Y13.0621 
G01 X57.3790 Y12.8218 
G01 X55.7958 Y12.7999 
G01 X55.7014 Y12.7999 
G01 X55.6944 Y12.7985 
G01 X55.6876 Y12.7984 
G01 X55.6027 Y12.7802 
G01 X55.5082 Y12.7615 
G01 X55.5014 Y12.7586 
G01 X55.4950 Y12.7573 
G01 X55.4132 Y12.7221 
G01 X55.3263 Y12.6861 
G01 X55.3207 Y12.6823 
G01 X55.3141 Y12.6795 
G01 X55.2380 Y12.6270 
G01 X55.1625 Y12.5767 
G01 X55.1576 Y12.5717 
G01 X55.1518 Y12.5678 
G01 X55.0884 Y12.5025 
G01 X55.0232 Y12.4374 
G01 X55.0193 Y12.4315 
G01 X55.0145 Y12.4266 
G01 X54.9647 Y12.3497 
G01 X54.9138 Y12.2736 
G01 X54.9112 Y12.2673 
G01 X54.9073 Y12.2613 
G01 X54.8789 Y12.1899 
G01 X54.5209 Y12.1899 
G01 X54.5209 Y12.4121 
G01 X54.5040 Y12.4528 
G01 X54.4728 Y12.4840 
G01 X54.4321 Y12.5009 
G01 X51.5878 Y12.5009 
G01 X51.5471 Y12.4840 
G01 X51.5159 Y12.4528 
G01 X51.4990 Y12.4121 
G01 X51.4990 Y12.0578 
G01 X51.3625 Y11.9667 
G01 X51.2232 Y11.8274 
G01 X51.1138 Y11.6636 
G01 X51.0384 Y11.4817 
G01 X51.0000 Y11.2885 
G01 X51.0000 Y8.1999 
G01 X42.2011 Y8.1999 
G01 X42.2011 Y8.2680 
G01 X42.3409 Y8.2680 
G01 X42.3816 Y8.2849 
G01 X42.4128 Y8.3161 
G01 X42.4297 Y8.3568 
G01 X42.4297 Y9.6203 
G01 X42.4128 Y9.6610 
G01 X42.3816 Y9.6922 
G01 X42.3409 Y9.7091 
G01 X41.8948 Y9.7091 
G01 X41.8386 Y9.7653 
G01 X41.6748 Y9.8747 
G01 X41.4929 Y9.9501 
G01 X41.2997 Y9.9885 
G01 X41.1026 Y9.9885 
G01 X41.1025 Y9.9885 
G01 X19.0399 Y9.9885 
G01 X19.0399 Y10.9990 
G01 X19.2621 Y10.9990 
G01 X19.3028 Y11.0159 
G01 X19.3340 Y11.0471 
G01 X19.3509 Y11.0878 
G01 X19.3509 Y13.5321 
G01 X19.3340 Y13.5728 
G01 X19.3028 Y13.6040 
G01 X19.2621 Y13.6209 
G01 X16.8178 Y13.6209 
G01 X16.7771 Y13.6040 
G01 X16.7459 Y13.5728 
G01 X16.7290 Y13.5321 
G01 X16.7290 Y13.3099 
G01 X10.8985 Y13.3099 
G01 X10.7014 Y13.3099 
G01 X10.5082 Y13.2715 
G01 X10.3263 Y13.1961 
G01 X10.1625 Y13.0867 
G01 X10.0232 Y12.9474 
G01 X9.9138 Y12.7836 
G01 X9.8384 Y12.6017 
G01 X9.8381 Y12.5999 
G01 X9.3999 Y12.5999 
G01 X9.3999 Y25.2000 
G01 X10.9014 Y25.2000 
G01 X27.9014 Y25.2000 
G01 X32.9014 Y25.2000 
G01 X36.6000 Y25.2000 
G01 X36.6000 Y22.6985 
G01 X36.6000 Y22.5014 
G01 X36.6384 Y22.3082 
G01 X36.7138 Y22.1263 
G01 X36.8232 Y21.9625 
G01 X36.9625 Y21.8232 
G01 X37.1263 Y21.7138 
G01 X37.3082 Y21.6384 
G01 X37.4080 Y21.6186 
G01 X37.4264 Y21.5742 
G01 X37.5108 Y21.4478 
G01 X37.6182 Y21.3404 
G01 X37.7446 Y21.2560 
G01 X37.8849 Y21.1978 
G01 X38.0339 Y21.1682 
G01 X38.1860 Y21.1682 
G01 X38.3350 Y21.1978 
G01 X38.4753 Y21.2560 
G01 X38.6017 Y21.3404 
G01 X38.7091 Y21.4478 
G01 X38.7935 Y21.5742 
G01 X38.8517 Y21.7145 
G01 X38.8813 Y21.8635 
G01 X38.8813 Y21.9571 
G01 X38.8867 Y21.9625 
G01 X38.9961 Y22.1263 
G01 X39.0715 Y22.3082 
G01 X39.1099 Y22.5014 
G01 X39.1099 Y22.6985 
G01 X39.0715 Y22.8917 
G01 X38.9961 Y23.0736 
G01 X38.8867 Y23.2374 
G01 X38.8813 Y23.2428 
G01 X38.8813 Y23.3364 
G01 X38.8517 Y23.4854 
G01 X38.7935 Y23.6257 
G01 X38.7091 Y23.7521 
G01 X38.6017 Y23.8595 
G01 X38.5999 Y23.8607 
G01 X38.5999 Y26.0508 
G01 X39.7003 Y26.0508 
G01 X39.7059 Y26.0371 
G01 X39.7371 Y26.0059 
G01 X39.7778 Y25.9890 
G01 X41.4221 Y25.9890 
G01 X41.4628 Y26.0059 
G01 X41.4940 Y26.0371 
G01 X41.5109 Y26.0778 
(File Footer)
G00 Z2.0000 
G00 Z10.0000 
M05
M02
